P3
384 216
255
254 254 254 254 254 254 254 254 254 254 254 254 254 254 254
254 254 254 254 254 254 254 254 254 254 254 254 254 254 254
254 254 254 254 254 254 254 254 254 254 254 254 254 254 254
254 254 254 254 254 254 254 254 254 254 254 254 254 254 254
254 254 254 254 254 254 254 254 254 254 254 254 254 254 254
254 254 254 254 254 254 254 254 254 254 254 254 254 254 254
254 254 254 254 254 254 254 254 254 254 254 254 254 254 254
254 254 254 254 254 254 254 254 254 254 254 254 254 254 254
254 254 254 254 254 254 254 254 254 254 254 254 254 254 254
254 254 254 254 254 254 254 254 254 254 254 254 254 254 254
254 254 254 254 254 254 254 254 254 254 254 254 254 254 254
254 254 254 254 254 254 254 254 254 254 254 254 254 254 254
254 254 254 254 254 254 254 254 254 254 254 254 254 254 254
254 254 254 254 254 254 254 254 254 254 254 254 254 254 254
254 254 254 254 254 254 254 254 254 254 254 254 254 254 254
254 254 254 254 254 254 254 254 254 254 254 254 254 254 254
254 254 254 254 254 254 254 254 254 254 254 254 254 254 254
254 254 254 254 254 254 254 254 254 254 254 254 254 254 254
254 254 254 254 254 254 254 254 254 254 254 254 254 254 254
254 254 254 254 254 254 254 254 254 254 254 254 254 254 254
254 254 254 254 254 254 254 254 254 254 254 254 254 254 254
254 254 254 254 254 254 254 254 254 254 254 254 254 254 254
254 254 254 254 254 254 254 254 254 254 254 254 254 254 254
254 254 254 254 254 254 254 254 254 254 254 254 254 254 254
254 254 254 254 254 254 254 254 254 254 254 254 254 254 254
254 254 254 254 254 254 254 254 254 254 254 254 254 254 254
254 254 254 254 254 254 254 254 254 254 254 254 254 254 254
254 254 254 254 254 254 254 254 254 254 254 254 254 254 254
254 254 254 254 254 254 254 254 254 254 254 254 254 254 254
254 254 254 254 254 254 254 254 254 254 254 254 254 254 254
254 254 254 254 254 254 254 254 254 254 254 254 254 254 254
254 254 254 254 254 254 254 254 254 254 254 254 254 254 254
254 254 254 254 254 254 254 254 254 254 254 254 254 254 254
254 254 254 254 254 254 254 254 254 254 254 254 254 254 254
254 254 254 254 254 254 254 254 254 254 254 254 254 254 254
254 254 254 254 254 254 254 254 254 254 254 254 254 254 254
254 254 254 254 254 254 254 254 254 254 254 254 254 254 254
254 254 254 254 254 254 254 254 254 254 254 254 254 254 254
254 254 254 254 254 254 254 254 254 254 254 254 254 254 254
254 254 254 254 254 254 254 254 254 254 254 254 254 254 254
254 254 254 254 254 254 254 254 254 254 254 254 254 254 254
254 254 254 254 254 254 254 254 254 254 254 254 254 254 254
254 254 254 254 254 254 254 254 254 254 254 254 254 254 254
254 254 254 254 254 254 254 254 254 254 254 254 254 254 254
254 254 254 254 254 254 254 254 254 254 254 254 254 254 254
254 254 254 254 254 254 254 254 254 254 254 254 254 254 254
254 254 254 254 254 254 254 254 254 254 254 254 254 254 254
254 254 254 254 254 254 254 254 254 254 254 254 254 254 254
254 254 254 254 254 254 254 254 254 254 254 254 254 254 254
254 254 254 254 254 254 254 254 254 254 254 254 254 254 254
254 254 254 254 254 254 254 254 254 254 254 254 254 254 254
254 254 254 254 254 254 254 254 254 254 254 254 254 254 254
254 254 254 254 254 254 254 254 254 254 254 254 254 254 254
254 254 254 254 254 254 254 254 254 254 254 254 254 254 254
254 254 254 254 254 254 254 254 254 254 254 254 254 254 254
254 254 254 254 254 254 254 254 254 254 254 254 254 254 254
254 254 254 254 254 254 254 254 254 254 254 254 254 254 254
254 254 254 254 254 254 254 254 254 254 254 254 254 254 254
254 254 254 254 254 254 254 254 254 254 254 254 254 254 254
254 254 254 254 254 254 254 254 254 254 254 254 254 254 254
254 254 254 254 254 254 254 254 254 254 254 254 254 254 254
254 254 254 254 254 254 254 254 254 254 254 254 254 254 254
254 254 254 254 254 254 254 254 254 254 254 254 254 254 254
254 254 254 254 254 254 254 254 254 254 254 254 254 254 254
254 254 254 254 254 254 254 254 254 254 254 254 254 254 254
254 254 254 254 254 254 254 254 254 254 254 254 254 254 254
254 254 254 254 254 254 254 254 254 254 254 254 254 254 254
254 254 254 254 254 254 254 254 254 254 254 254 254 254 254
254 254 254 254 254 254 254 254 254 254 254 254 254 254 254
254 254 254 254 254 254 254 254 254 254 254 254 254 254 254
254 254 254 254 254 254 254 254 254 254 254 254 254 254 254
254 254 254 254 254 254 254 254 254 254 254 254 254 254 254
254 254 254 254 254 254 254 254 254 254 254 254 254 254 254
254 254 254 254 254 254 254 254 254 254 254 254 254 254 254
254 254 254 254 254 254 254 254 254 254 254 254 254 254 254
254 254 254 254 254 254 254 254 254 254 254 254 254 254 254
254 254 254 254 254 254 254 254 254 254 254 254 254 254 254
254 254 254 254 254 254 254 254 254 254 254 254 254 254 254
254 254 254 254 254 254 254 254 254 254 254 254 254 254 254
254 254 254 254 254 254 254 254 254 254 254 254 254 254 254
254 254 254 254 254 254 254 254 254 254 254 254 254 254 254
254 254 254 254 254 254 254 254 254 254 254 254 254 254 254
254 254 254 254 254 254 254 254 254 254 254 254 254 254 254
254 254 254 254 254 254 254 254 254 254 254 254 254 254 254
254 254 254 254 254 254 254 254 254 254 254 254 254 254 254
254 254 254 254 254 254 254 254 254 254 254 254 254 254 254
254 254 254 254 254 254 254 254 254 254 254 254 254 254 254
254 254 254 254 254 254 254 254 254 254 254 254 254 254 254
254 254 254 254 254 254 254 254 254 254 254 254 254 254 254
254 254 254 254 254 254 254 254 254 254 254 254 254 254 254
254 254 254 254 254 254 254 254 254 254 254 254 254 254 254
254 254 254 254 254 254 254 254 254 254 254 254 254 254 254
254 254 254 254 254 254 254 254 254 254 254 254 254 254 254
254 254 254 254 254 254 254 254 254 254 254 254 254 254 254
254 254 254 254 254 254 254 254 254 254 254 254 254 254 254
254 254 254 254 254 254 254 254 254 254 254 254 254 254 254
254 254 254 254 254 254 254 254 254 254 254 254 254 254 254
254 254 254 254 254 254 254 254 254 254 254 254 254 254 254
254 254 254 254 254 254 254 254 254 254 254 254 254 254 254
254 254 254 254 254 254 254 254 254 254 254 254 254 254 254
254 254 254 254 254 254 254 254 254 254 254 254 254 254 254
254 254 254 254 254 254 254 254 254 254 254 254 254 254 254
254 254 254 254 254 254 254 254 254 254 254 254 254 254 254
254 254 254 254 254 254 254 254 254 254 254 254 254 254 254
254 254 254 254 254 254 254 254 254 254 254 254 254 254 254
254 254 254 254 254 254 254 254 254 254 254 254 254 254 254
254 254 254 254 254 254 254 254 254 254 254 254 254 254 254
254 254 254 254 254 254 254 254 254 254 254 254 254 254 254
254 254 254 254 254 254 254 254 254 254 254 254 254 254 254
254 254 254 254 254 254 254 254 254 254 254 254 254 254 254
254 254 254 254 254 254 254 254 254 254 254 254 254 254 254
254 254 254 254 254 254 254 254 254 254 254 254 254 254 254
254 254 254 254 254 254 254 254 254 254 254 254 254 254 254
254 254 254 254 254 254 254 254 254 254 254 254 254 254 254
254 254 254 254 254 254 254 254 254 254 254 254 254 254 254
254 254 254 254 254 254 254 254 254 254 254 254 254 254 254
254 254 254 254 254 254 254 254 254 254 254 254 254 254 254
254 254 254 254 254 254 254 254 254 254 254 254 254 254 254
254 254 254 254 254 254 254 254 254 254 254 254 254 254 254
254 254 254 254 254 254 254 254 254 254 254 254 254 254 254
254 254 254 254 254 254 254 254 254 254 254 254 254 254 254
254 254 254 254 254 254 254 254 254 254 254 254 254 254 254
254 254 254 254 254 254 254 254 254 254 254 254 254 254 254
254 254 254 254 254 254 254 254 254 254 254 254 254 254 254
254 254 254 254 254 254 254 254 254 254 254 254 254 254 254
254 254 254 254 254 254 254 254 254 254 254 254 254 254 254
254 254 254 254 254 254 254 254 254 254 254 254 254 254 254
254 254 254 254 254 254 254 254 254 254 254 254 254 254 254
254 254 254 254 254 254 254 254 254 254 254 254 254 254 254
254 254 254 254 254 254 254 254 254 254 254 254 254 254 254
254 254 254 254 254 254 254 254 254 254 254 254 254 254 254
254 254 254 254 254 254 254 254 254 254 254 254 254 254 254
254 254 254 254 254 254 254 254 254 254 254 254 254 254 254
254 254 254 254 254 254 254 254 254 254 254 254 254 254 254
254 254 254 254 254 254 254 254 254 254 254 254 254 254 254
254 254 254 254 254 254 254 254 254 254 254 254 254 254 254
254 254 254 254 254 254 254 254 254 254 254 254 254 254 254
254 254 254 254 254 254 254 254 254 254 254 254 254 254 254
254 254 254 254 254 254 254 254 254 254 254 254 254 254 254
254 254 254 254 254 254 254 254 254 254 254 254 254 254 254
254 254 254 254 254 254 254 254 254 254 254 254 254 254 254
254 254 254 254 254 254 254 254 254 254 254 254 254 254 254
254 254 254 254 254 254 254 254 254 254 254 254 254 254 254
254 254 254 254 254 254 254 254 254 254 254 254 254 254 254
254 254 254 254 254 254 254 254 254 254 254 254 254 254 254
254 254 254 254 254 254 254 254 254 254 254 254 254 254 254
254 254 254 254 254 254 254 254 254 254 254 254 254 254 254
254 254 254 254 254 254 254 254 254 254 254 254 254 254 254
254 254 254 254 254 254 254 254 254 254 254 254 254 254 254
254 254 254 254 254 254 254 254 254 254 254 254 254 254 254
254 254 254 254 254 254 254 254 254 254 254 254 254 254 254
254 254 254 254 254 254 254 254 254 254 254 254 254 254 254
254 254 254 254 254 254 254 254 254 254 254 254 254 254 254
254 254 254 254 254 254 254 254 254 254 254 254 254 254 254
254 254 254 254 254 254 254 254 254 254 254 254 254 254 254
254 254 254 254 254 254 254 254 254 254 254 254 254 254 254
254 254 254 254 254 254 254 254 254 254 254 254 254 254 254
254 254 254 254 254 254 254 254 254 254 254 254 254 254 254
254 254 254 254 254 254 254 254 254 254 254 254 254 254 254
254 254 254 254 254 254 254 254 254 254 254 254 254 254 254
254 254 254 254 254 254 254 254 254 254 254 254 254 254 254
254 254 254 254 254 254 254 254 254 254 254 254 254 254 254
254 254 254 254 254 254 254 254 254 254 254 254 254 254 254
254 254 254 254 254 254 254 254 254 254 254 254 254 254 254
254 254 254 254 254 254 254 254 254 254 254 254 254 254 254
254 254 254 254 254 254 254 254 254 254 254 254 254 254 254
254 254 254 254 254 254 254 254 254 254 254 254 254 254 254
254 254 254 254 254 254 254 254 254 254 254 254 254 254 254
254 254 254 254 254 254 254 254 254 254 254 254 254 254 254
254 254 254 254 254 254 254 254 254 254 254 254 254 254 254
254 254 254 254 254 254 254 254 254 254 254 254 254 254 254
254 254 254 254 254 254 254 254 254 254 254 254 254 254 254
254 254 254 254 254 254 254 254 254 254 254 254 254 254 254
254 254 254 254 254 254 254 254 254 254 254 254 254 254 254
254 254 254 254 254 254 254 254 254 254 254 254 254 254 254
254 254 254 254 254 254 254 254 254 254 254 254 254 254 254
254 254 254 254 254 254 254 254 254 254 254 254 254 254 254
254 254 254 254 254 254 254 254 254 254 254 254 254 254 254
254 254 254 254 254 254 254 254 254 254 254 254 254 254 254
254 254 254 254 254 254 254 254 254 254 254 254 254 254 254
254 254 254 254 254 254 254 254 254 254 254 254 254 254 254
254 254 254 254 254 254 254 254 254 254 254 254 254 254 254
254 254 254 254 254 254 254 254 254 254 254 254 254 254 254
254 254 254 254 254 254 254 254 254 254 254 254 254 254 254
254 254 254 254 254 254 254 254 254 254 254 254 254 254 254
254 254 254 254 254 254 254 254 254 254 254 254 254 254 254
254 254 254 254 254 254 254 254 254 254 254 254 254 254 254
254 254 254 254 254 254 254 254 254 254 254 254 254 254 254
254 254 254 254 254 254 254 254 254 254 254 254 254 254 254
254 254 254 254 254 254 254 254 254 254 254 254 254 254 254
254 254 254 254 254 254 254 254 254 254 254 254 254 254 254
254 254 254 254 254 254 254 254 254 254 254 254 254 254 254
254 254 254 254 254 254 254 254 254 254 254 254 254 254 254
254 254 254 254 254 254 254 254 254 254 254 254 254 254 254
254 254 254 254 254 254 254 254 254 254 254 254 254 254 254
254 254 254 254 254 254 254 254 254 254 254 254 254 254 254
254 254 254 254 254 254 254 254 254 254 254 254 254 254 254
254 254 254 254 254 254 254 254 254 254 254 254 254 254 254
254 254 254 254 254 254 254 254 254 254 254 254 254 254 254
254 254 254 254 254 254 254 254 254 254 254 254 254 254 254
254 254 254 254 254 254 254 254 254 254 254 254 254 254 254
254 254 254 254 254 254 254 254 254 254 254 254 254 254 254
254 254 254 254 254 254 254 254 254 254 254 254 254 254 254
254 254 254 254 254 254 254 254 254 254 254 254 254 254 254
254 254 254 254 254 254 254 254 254 254 254 254 254 254 254
254 254 254 254 254 254 254 254 254 254 254 254 254 254 254
254 254 254 254 254 254 254 254 254 254 254 254 254 254 254
254 254 254 254 254 254 254 254 254 254 254 254 254 254 254
254 254 254 254 254 254 254 254 254 254 254 254 254 254 254
254 254 254 254 254 254 254 254 254 254 254 254 254 254 254
254 254 254 254 254 254 254 254 254 254 254 254 254 254 254
254 254 254 254 254 254 254 254 254 254 254 254 254 254 254
254 254 254 254 254 254 254 254 254 254 254 254 254 254 254
254 254 254 254 254 254 254 254 254 254 254 254 254 254 254
254 254 254 254 254 254 254 254 254 254 254 254 254 254 254
254 254 254 254 254 254 254 254 254 254 254 254 254 254 254
254 254 254 254 254 254 254 254 254 254 254 254 254 254 254
254 254 254 254 254 254 254 254 254 254 254 254 254 254 254
254 254 254 254 254 254 254 254 254 254 254 254 254 254 254
254 254 254 254 254 254 254 254 254 254 254 254 254 254 254
254 254 254 254 254 254 254 254 254 254 254 254 254 254 254
254 254 254 254 254 254 254 254 254 254 254 254 254 254 254
254 254 254 254 254 254 254 254 254 254 254 254 254 254 254
254 254 254 254 254 254 254 254 254 254 254 254 254 254 254
254 254 254 254 254 254 254 254 254 254 254 254 254 254 254
254 254 254 254 254 254 254 254 254 254 254 254 254 254 254
254 254 254 254 254 254 254 254 254 254 254 254 254 254 254
254 254 254 254 254 254 254 254 254 254 254 254 254 254 254
254 254 254 254 254 254 254 254 254 254 254 254 254 254 254
254 254 254 254 254 254 254 254 254 254 254 254 254 254 254
254 254 254 254 254 254 254 254 254 254 254 254 254 254 254
254 254 254 254 254 254 254 254 254 254 254 254 254 254 254
254 254 254 254 254 254 254 254 254 254 254 254 254 254 254
254 254 254 254 254 254 254 254 254 254 254 254 254 254 254
254 254 254 254 254 254 254 254 254 254 254 254 254 254 254
254 254 254 254 254 254 254 254 254 254 254 254 254 254 254
254 254 254 254 254 254 254 254 254 254 254 254 254 254 254
254 254 254 254 254 254 254 254 254 254 254 254 254 254 254
254 254 254 254 254 254 254 254 254 254 254 254 254 254 254
254 254 254 254 254 254 254 254 254 254 254 254 254 254 254
254 254 254 254 254 254 254 254 254 254 254 254 254 254 254
254 254 254 254 254 254 254 254 254 254 254 254 254 254 254
254 254 254 254 254 254 254 254 254 254 254 254 254 254 254
254 254 254 254 254 254 254 254 254 254 254 254 254 254 254
254 254 254 254 254 254 254 254 254 254 254 254 254 254 254
254 254 254 254 254 254 254 254 254 254 254 254 254 254 254
254 254 254 254 254 254 254 254 254 254 254 254 254 254 254
254 254 254 254 254 254 254 254 254 254 254 254 254 254 254
254 254 254 254 254 254 254 254 254 254 254 254 254 254 254
254 254 254 254 254 254 254 254 254 254 254 254 254 254 254
254 254 254 254 254 254 254 254 254 254 254 254 254 254 254
254 254 254 254 254 254 254 254 254 254 254 254 254 254 254
254 254 254 254 254 254 254 254 254 254 254 254 254 254 254
254 254 254 254 254 254 254 254 254 254 254 254 254 254 254
254 254 254 254 254 254 254 254 254 254 254 254 254 254 254
254 254 254 254 254 254 254 254 254 254 254 254 254 254 254
254 254 254 254 254 254 254 254 254 254 254 254 254 254 254
254 254 254 254 254 254 254 254 254 254 254 254 254 254 254
254 254 254 254 254 254 254 254 254 254 254 254 254 254 254
254 254 254 254 254 254 254 254 254 254 254 254 254 254 254
254 254 254 254 254 254 254 254 254 254 254 254 254 254 254
254 254 254 254 254 254 254 254 254 254 254 254 254 254 254
254 254 254 254 254 254 254 254 254 254 254 254 254 254 254
254 254 254 254 254 254 254 254 254 254 254 254 254 254 254
254 254 254 254 254 254 254 254 254 254 254 254 254 254 254
254 254 254 254 254 254 254 254 254 254 254 254 254 254 254
254 254 254 254 254 254 254 254 254 254 254 254 254 254 254
254 254 254 254 254 254 254 254 254 254 254 254 254 254 254
254 254 254 254 254 254 254 254 254 254 254 254 254 254 254
254 254 254 254 254 254 254 254 254 254 254 254 254 254 254
254 254 254 254 254 254 254 254 254 254 254 254 254 254 254
254 254 254 254 254 254 254 254 254 254 254 254 254 254 254
254 254 254 254 254 254 254 254 254 254 254 254 254 254 254
254 254 254 254 254 254 254 254 254 254 254 254 254 254 254
254 254 254 254 254 254 254 254 254 254 254 254 254 254 254
254 254 254 254 254 254 254 254 254 254 254 254 254 254 254
254 254 254 254 254 254 254 254 254 254 254 254 254 254 254
254 254 254 254 254 254 254 254 254 254 254 254 254 254 254
254 254 254 254 254 254 254 254 254 254 254 254 254 254 254
254 254 254 254 254 254 254 254 254 254 254 254 254 254 254
254 254 254 254 254 254 254 254 254 254 254 254 254 254 254
254 254 254 254 254 254 254 254 254 254 254 254 254 254 254
254 254 254 254 254 254 254 254 254 254 254 254 254 254 254
254 254 254 254 254 254 254 254 254 254 254 254 254 254 254
254 254 254 254 254 254 254 254 254 254 254 254 254 254 254
254 254 254 254 254 254 254 254 254 254 254 254 254 254 254
254 254 254 254 254 254 254 254 254 254 254 254 254 254 254
254 254 254 254 254 254 254 254 254 254 254 254 254 254 254
254 254 254 254 254 254 254 254 254 254 254 254 254 254 254
254 254 254 254 254 254 254 254 254 254 254 254 254 254 254
254 254 254 254 254 254 254 254 254 254 254 254 254 254 254
254 254 254 254 254 254 254 254 254 254 254 254 254 254 254
254 254 254 254 254 254 254 254 254 254 254 254 254 254 254
254 254 254 254 254 254 254 254 254 254 254 254 254 254 254
254 254 254 254 254 254 254 254 254 254 254 254 254 254 254
254 254 254 254 254 254 254 254 254 254 254 254 254 254 254
254 254 254 254 254 254 254 254 254 254 254 254 254 254 254
254 254 254 254 254 254 254 254 254 254 254 254 254 254 254
254 254 254 254 254 254 254 254 254 254 254 254 254 254 254
254 254 254 254 254 254 254 254 254 254 254 254 254 254 254
254 254 254 254 254 254 254 254 254 254 254 254 254 254 254
254 254 254 254 254 254 254 254 254 254 254 254 254 254 254
254 254 254 254 254 254 254 254 254 254 254 254 254 254 254
254 254 254 254 254 254 254 254 254 254 254 254 254 254 254
254 254 254 254 254 254 254 254 254 254 254 254 254 254 254
254 254 254 254 254 254 254 254 254 254 254 254 254 254 254
254 254 254 254 254 254 254 254 254 254 254 254 254 254 254
254 254 254 254 254 254 254 254 254 254 254 254 254 254 254
254 254 254 254 254 254 254 254 254 254 254 254 254 254 254
254 254 254 254 254 254 254 254 254 254 254 254 254 254 254
254 254 254 254 254 254 254 254 254 254 254 254 254 254 254
254 254 254 254 254 254 254 254 254 254 254 254 254 254 254
254 254 254 254 254 254 254 254 254 254 254 254 254 254 254
254 254 254 254 254 254 254 254 254 254 254 254 254 254 254
254 254 254 254 254 254 254 254 254 254 254 254 254 254 254
254 254 254 254 254 254 254 254 254 254 254 254 254 254 254
254 254 254 254 254 254 254 254 254 254 254 254 254 254 254
254 254 254 254 254 254 254 254 254 254 254 254 254 254 254
254 254 254 254 254 254 254 254 254 254 254 254 254 254 254
254 254 254 254 254 254 254 254 254 254 254 254 254 254 254
254 254 254 254 254 254 254 254 254 254 254 254 254 254 254
254 254 254 254 254 254 254 254 254 254 254 254 254 254 254
254 254 254 254 254 254 254 254 254 254 254 254 254 254 254
254 254 254 254 254 254 254 254 254 254 254 254 254 254 254
254 254 254 254 254 254 254 254 254 254 254 254 254 254 254
254 254 254 254 254 254 254 254 254 254 254 254 254 254 254
254 254 254 254 254 254 254 254 254 254 254 254 254 254 254
254 254 254 254 254 254 254 254 254 254 254 254 254 254 254
254 254 254 254 254 254 254 254 254 254 254 254 254 254 254
254 254 254 254 254 254 254 254 254 254 254 254 254 254 254
254 254 254 254 254 254 254 254 254 254 254 254 254 254 254
254 254 254 254 254 254 254 254 254 254 254 254 254 254 254
254 254 254 254 254 254 254 254 254 254 254 254 254 254 254
254 254 254 254 254 254 254 254 254 254 254 254 254 254 254
254 254 254 254 254 254 254 254 254 254 254 254 254 254 254
254 254 254 254 254 254 254 254 254 254 254 254 254 254 254
254 254 254 254 254 254 254 254 254 254 254 254 254 254 254
254 254 254 254 254 254 254 254 254 254 254 254 254 254 254
254 254 254 254 254 254 254 254 254 254 254 254 254 254 254
254 254 254 254 254 254 254 254 254 254 254 254 254 254 254
254 254 254 254 254 254 254 254 254 254 254 254 254 254 254
254 254 254 254 254 254 254 254 254 254 254 254 254 254 254
254 254 254 254 254 254 254 254 254 254 254 254 254 254 254
254 254 254 254 254 254 254 254 254 254 254 254 254 254 254
254 254 254 254 254 254 254 254 254 254 254 254 254 254 254
254 254 254 254 254 254 254 254 254 254 254 254 254 254 254
254 254 254 254 254 254 254 254 254 254 254 254 254 254 254
254 254 254 254 254 254 254 254 254 254 254 254 254 254 254
254 254 254 254 254 254 254 254 254 254 254 254 254 254 254
254 254 254 254 254 254 254 254 254 254 254 254 254 254 254
254 254 254 254 254 254 254 254 254 254 254 254 254 254 254
254 254 254 254 254 254 254 254 254 254 254 254 254 254 254
254 254 254 254 254 254 254 254 254 254 254 254 254 254 254
254 254 254 254 254 254 254 254 254 254 254 254 254 254 254
254 254 254 254 254 254 254 254 254 254 254 254 254 254 254
254 254 254 254 254 254 254 254 254 254 254 254 254 254 254
254 254 254 254 254 254 254 254 254 254 254 254 254 254 254
254 254 254 254 254 254 254 254 254 254 254 254 254 254 254
254 254 254 254 254 254 254 254 254 254 254 254 254 254 254
254 254 254 254 254 254 254 254 254 254 254 254 254 254 254
254 254 254 254 254 254 254 254 254 254 254 254 254 254 254
254 254 254 254 254 254 254 254 254 254 254 254 254 254 254
254 254 254 254 254 254 254 254 254 254 254 254 254 254 254
254 254 254 254 254 254 254 254 254 254 254 254 254 254 254
254 254 254 254 254 254 254 254 254 254 254 254 254 254 254
254 254 254 254 254 254 254 254 254 254 254 254 254 254 254
254 254 254 254 254 254 254 254 254 254 254 254 254 254 254
254 254 254 254 254 254 254 254 254 254 254 254 254 254 254
254 254 254 254 254 254 254 254 254 254 254 254 254 254 254
254 254 254 254 254 254 254 254 254 254 254 254 254 254 254
254 254 254 254 254 254 254 254 254 254 254 254 254 254 254
254 254 254 254 254 254 254 254 254 254 254 254 254 254 254
254 254 254 254 254 254 254 254 254 254 254 254 254 254 254
254 254 254 254 254 254 254 254 254 254 254 254 254 254 254
254 254 254 254 254 254 254 254 254 254 254 254 254 254 254
254 254 254 254 254 254 254 254 254 254 254 254 254 254 254
254 254 254 254 254 254 254 254 254 254 254 254 254 254 254
254 254 254 254 254 254 254 254 254 254 254 254 254 254 254
254 254 254 254 254 254 254 254 254 254 254 254 254 254 254
254 254 254 254 254 254 254 254 254 254 254 254 254 254 254
254 254 254 254 254 254 254 254 254 254 254 254 254 254 254
254 254 254 254 254 254 254 254 254 254 254 254 254 254 254
254 254 254 254 254 254 254 254 254 254 254 254 254 254 254
254 254 254 254 254 254 254 254 254 254 254 254 254 254 254
254 254 254 254 254 254 254 254 254 254 254 254 254 254 254
254 254 254 254 254 254 254 254 254 254 254 254 254 254 254
254 254 254 254 254 254 254 254 254 254 254 254 254 254 254
254 254 254 254 254 254 254 254 254 254 254 254 254 254 254
254 254 254 254 254 254 254 254 254 254 254 254 254 254 254
254 254 254 254 254 254 254 254 254 254 254 254 254 254 254
254 254 254 254 254 254 254 254 254 254 254 254 254 254 254
254 254 254 254 254 254 254 254 254 254 254 254 254 254 254
254 254 254 254 254 254 254 254 254 254 254 254 254 254 254
254 254 254 254 254 254 254 254 254 254 254 254 254 254 254
254 254 254 254 254 254 254 254 254 254 254 254 254 254 254
254 254 254 254 254 254 254 254 254 254 254 254 254 254 254
254 254 254 254 254 254 254 254 254 254 254 254 254 254 254
254 254 254 254 254 254 254 254 254 254 254 254 254 254 254
254 254 254 254 254 254 254 254 254 254 254 254 254 254 254
254 254 254 254 254 254 254 254 254 254 254 254 254 254 254
254 254 254 254 254 254 254 254 254 254 254 254 254 254 254
254 254 254 254 254 254 254 254 254 254 254 254 254 254 254
254 254 254 254 254 254 254 254 254 254 254 254 254 254 254
254 254 254 254 254 254 254 254 254 254 254 254 254 254 254
254 254 254 254 254 254 254 254 254 254 254 254 254 254 254
254 254 254 254 254 254 254 254 254 254 254 254 254 254 254
254 254 254 254 254 254 254 254 254 254 254 254 254 254 254
254 254 254 254 254 254 254 254 254 254 254 254 254 254 254
254 254 254 254 254 254 254 254 254 254 254 254 254 254 254
254 254 254 254 254 254 254 254 254 254 254 254 254 254 254
254 254 254 254 254 254 254 254 254 254 254 254 254 254 254
254 254 254 254 254 254 254 254 254 254 254 254 254 254 254
254 254 254 254 254 254 254 254 254 254 254 254 254 254 254
254 254 254 254 254 254 254 254 254 254 254 254 254 254 254
254 254 254 254 254 254 254 254 254 254 254 254 254 254 254
254 254 254 254 254 254 254 254 254 254 254 254 254 254 254
254 254 254 254 254 254 254 254 254 254 254 254 254 254 254
254 254 254 254 254 254 254 254 254 254 254 254 254 254 254
254 254 254 254 254 254 254 254 254 254 254 254 254 254 254
254 254 254 254 254 254 254 254 254 254 254 254 254 254 254
254 254 254 254 254 254 254 254 254 254 254 254 254 254 254
254 254 254 254 254 254 254 254 254 254 254 254 254 254 254
254 254 254 254 254 254 254 254 254 254 254 254 254 254 254
254 254 254 254 254 254 254 254 254 254 254 254 254 254 254
254 254 254 254 254 254 254 254 254 254 254 254 254 254 254
254 254 254 254 254 254 254 254 254 254 254 254 254 254 254
254 254 254 254 254 254 254 254 254 254 254 254 254 254 254
254 254 254 254 254 254 254 254 254 254 254 254 254 254 254
254 254 254 254 254 254 254 254 254 254 254 254 254 254 254
254 254 254 254 254 254 254 254 254 254 254 254 254 254 254
254 254 254 254 254 254 254 254 254 254 254 254 254 254 254
254 254 254 254 254 254 254 254 254 254 254 254 254 254 254
254 254 254 254 254 254 254 254 254 254 254 254 254 254 254
254 254 254 254 254 254 254 254 254 254 254 254 254 254 254
254 254 254 254 254 254 254 254 254 254 254 254 254 254 254
254 254 254 254 254 254 254 254 254 254 254 254 254 254 254
254 254 254 254 254 254 254 254 254 254 254 254 254 254 254
254 254 254 254 254 254 254 254 254 254 254 254 254 254 254
254 254 254 254 254 254 254 254 254 254 254 254 254 254 254
254 254 254 254 254 254 254 254 254 254 254 254 254 254 254
254 254 254 254 254 254 254 254 254 254 254 254 254 254 254
254 254 254 254 254 254 254 254 254 254 254 254 254 254 254
254 254 254 254 254 254 254 254 254 254 254 254 254 254 254
254 254 254 254 254 254 254 254 254 254 254 254 254 254 254
254 254 254 254 254 254 254 254 254 254 254 254 254 254 254
254 254 254 254 254 254 254 254 254 254 254 254 254 254 254
254 254 254 254 254 254 254 254 254 254 254 254 254 254 254
254 254 254 254 254 254 254 254 254 254 254 254 254 254 254
254 254 254 254 254 254 254 254 254 254 254 254 254 254 254
254 254 254 254 254 254 254 254 254 254 254 254 254 254 254
254 254 254 254 254 254 254 254 254 254 254 254 254 254 254
254 254 254 254 254 254 254 254 254 254 254 254 254 254 254
254 254 254 254 254 254 254 254 254 254 254 254 254 254 254
254 254 254 254 254 254 254 254 254 254 254 254 254 254 254
254 254 254 254 254 254 254 254 254 254 254 254 254 254 254
254 254 254 254 254 254 254 254 254 254 254 254 254 254 254
254 254 254 254 254 254 254 254 254 254 254 254 254 254 254
254 254 254 254 254 254 254 254 254 254 254 254 254 254 254
254 254 254 254 254 254 254 254 254 254 254 254 254 254 254
254 254 254 254 254 254 254 254 254 254 254 254 254 254 254
254 254 254 254 254 254 254 254 254 254 254 254 254 254 254
254 254 254 254 254 254 254 254 254 254 254 254 254 254 254
254 254 254 254 254 254 254 254 254 254 254 254 254 254 254
254 254 254 254 254 254 254 254 254 254 254 254 254 254 254
254 254 254 254 254 254 254 254 254 254 254 254 254 254 254
254 254 254 254 254 254 254 254 254 254 254 254 254 254 254
254 254 254 254 254 254 254 254 254 254 254 254 254 254 254
254 254 254 254 254 254 254 254 254 254 254 254 254 254 254
254 254 254 254 254 254 254 254 254 254 254 254 254 254 254
254 254 254 254 254 254 254 254 254 254 254 254 254 254 254
254 254 254 254 254 254 254 254 254 254 254 254 254 254 254
254 254 254 254 254 254 254 254 254 254 254 254 254 254 254
254 254 254 254 254 254 254 254 254 254 254 254 254 254 254
254 254 254 254 254 254 254 254 254 254 254 254 254 254 254
254 254 254 254 254 254 254 254 254 254 254 254 254 254 254
254 254 254 254 254 254 254 254 254 254 254 254 254 254 254
254 254 254 254 254 254 254 254 254 254 254 254 254 254 254
254 254 254 254 254 254 254 254 254 254 254 254 254 254 254
254 254 254 254 254 254 254 254 254 254 254 254 254 254 254
254 254 254 254 254 254 254 254 254 254 254 254 254 254 254
254 254 254 254 254 254 254 254 254 254 254 254 254 254 254
254 254 254 254 254 254 254 254 254 254 254 254 254 254 254
254 254 254 254 254 254 254 254 254 254 254 254 254 254 254
254 254 254 254 254 254 254 254 254 254 254 254 254 254 254
254 254 254 254 254 254 254 254 254 254 254 254 254 254 254
254 254 254 254 254 254 254 254 254 254 254 254 254 254 254
254 254 254 254 254 254 254 254 254 254 254 254 254 254 254
254 254 254 254 254 254 254 254 254 254 254 254 254 254 254
254 254 254 254 254 254 254 254 254 254 254 254 254 254 254
254 254 254 254 254 254 254 254 254 254 254 254 254 254 254
254 254 254 254 254 254 254 254 254 254 254 254 254 254 254
254 254 254 254 254 254 254 254 254 254 254 254 254 254 254
254 254 254 254 254 254 254 254 254 254 254 254 254 254 254
254 254 254 254 254 254 254 254 254 254 254 254 254 254 254
254 254 254 254 254 254 254 254 254 254 254 254 254 254 254
254 254 254 254 254 254 254 254 254 254 254 254 254 254 254
254 254 254 254 254 254 254 254 254 254 254 254 254 254 254
254 254 254 254 254 254 254 254 254 254 254 254 254 254 254
254 254 254 254 254 254 254 254 254 254 254 254 254 254 254
254 254 254 254 254 254 254 254 254 254 254 254 254 254 254
254 254 254 254 254 254 254 254 254 254 254 254 254 254 254
254 254 254 254 254 254 254 254 254 254 254 254 254 254 254
254 254 254 254 254 254 254 254 254 254 254 254 254 254 254
254 254 254 254 254 254 254 254 254 254 254 254 254 254 254
254 254 254 254 254 254 254 254 254 254 254 254 254 254 254
254 254 254 254 254 254 254 254 254 254 254 254 254 254 254
254 254 254 254 254 254 254 254 254 254 254 254 254 254 254
254 254 254 254 254 254 254 254 254 254 254 254 254 254 254
254 254 254 254 254 254 254 254 254 254 254 254 254 254 254
254 254 254 254 254 254 254 254 254 254 254 254 254 254 254
254 254 254 254 254 254 254 254 254 254 254 254 254 254 254
254 254 254 254 254 254 254 254 254 254 254 254 254 254 254
254 254 254 254 254 254 254 254 254 254 254 254 254 254 254
254 254 254 254 254 254 254 254 254 254 254 254 254 254 254
254 254 254 254 254 254 254 254 254 254 254 254 254 254 254
254 254 254 254 254 254 254 254 254 254 254 254 254 254 254
254 254 254 254 254 254 254 254 254 254 254 254 254 254 254
254 254 254 254 254 254 254 254 254 254 254 254 254 254 254
254 254 254 254 254 254 254 254 254 254 254 254 254 254 254
254 254 254 254 254 254 254 254 254 254 254 254 254 254 254
254 254 254 254 254 254 254 254 254 254 254 254 254 254 254
254 254 254 254 254 254 254 254 254 254 254 254 254 254 254
254 254 254 254 254 254 254 254 254 254 254 254 254 254 254
254 254 254 254 254 254 254 254 254 254 254 254 254 254 254
254 254 254 254 254 254 254 254 254 254 254 254 254 254 254
254 254 254 254 254 254 254 254 254 254 254 254 254 254 254
254 254 254 254 254 254 254 254 254 254 254 254 254 254 254
254 254 254 254 254 254 254 254 254 254 254 254 254 254 254
254 254 254 254 254 254 254 254 254 254 254 254 254 254 254
254 254 254 254 254 254 254 254 254 254 254 254 254 254 254
254 254 254 254 254 254 254 254 254 254 254 254 254 254 254
254 254 254 254 254 254 254 254 254 254 254 254 254 254 254
254 254 254 254 254 254 254 254 254 254 254 254 254 254 254
254 254 254 254 254 254 254 254 254 254 254 254 254 254 254
254 254 254 254 254 254 254 254 254 254 254 254 254 254 254
254 254 254 254 254 254 254 254 254 254 254 254 254 254 254
254 254 254 254 254 254 254 254 254 254 254 254 254 254 254
254 254 254 254 254 254 254 254 254 254 254 254 254 254 254
254 254 254 254 254 254 254 254 254 254 254 254 254 254 254
254 254 254 254 254 254 254 254 254 254 254 254 254 254 254
254 254 254 254 254 254 254 254 254 254 254 254 254 254 254
254 254 254 254 254 254 254 254 254 254 254 254 254 254 254
254 254 254 254 254 254 254 254 254 254 254 254 254 254 254
254 254 254 254 254 254 254 254 254 254 254 254 254 254 254
254 254 254 254 254 254 254 254 254 254 254 254 254 254 254
254 254 254 254 254 254 254 254 254 254 254 254 254 254 254
254 254 254 254 254 254 254 254 254 254 254 254 254 254 254
254 254 254 254 254 254 254 254 254 254 254 254 254 254 254
254 254 254 254 254 254 254 254 254 254 254 254 254 254 254
254 254 254 254 254 254 254 254 254 254 254 254 254 254 254
254 254 254 254 254 254 254 254 254 254 254 254 254 254 254
254 254 254 254 254 254 254 254 254 254 254 254 254 254 254
254 254 254 254 254 254 254 254 254 254 254 254 254 254 254
254 254 254 254 254 254 254 254 254 254 254 254 254 254 254
254 254 254 254 254 254 254 254 254 254 254 254 254 254 254
254 254 254 254 254 254 254 254 254 254 254 254 254 254 254
254 254 254 254 254 254 254 254 254 254 254 254 254 254 254
254 254 254 254 254 254 254 254 254 254 254 254 254 254 254
254 254 254 254 254 254 254 254 254 254 254 254 254 254 254
254 254 254 254 254 254 254 254 254 254 254 254 254 254 254
254 254 254 254 254 254 254 254 254 254 254 254 254 254 254
254 254 254 254 254 254 254 254 254 254 254 254 254 254 254
254 254 254 254 254 254 254 254 254 254 254 254 254 254 254
254 254 254 254 254 254 254 254 254 254 254 254 254 254 254
254 254 254 254 254 254 254 254 254 254 254 254 254 254 254
254 254 254 254 254 254 254 254 254 254 254 254 254 254 254
254 254 254 254 254 254 254 254 254 254 254 254 254 254 254
254 254 254 254 254 254 254 254 254 254 254 254 254 254 254
254 254 254 254 254 254 254 254 254 254 254 254 254 254 254
254 254 254 254 254 254 254 254 254 254 254 254 254 254 254
254 254 254 254 254 254 254 254 254 254 254 254 254 254 254
254 254 254 254 254 254 254 254 254 254 254 254 254 254 254
254 254 254 254 254 254 254 254 254 254 254 254 254 254 254
254 254 254 254 254 254 254 254 254 254 254 254 254 254 254
254 254 254 254 254 254 254 254 254 254 254 254 254 254 254
254 254 254 254 254 254 254 254 254 254 254 254 254 254 254
254 254 254 254 254 254 254 254 254 254 254 254 254 254 254
254 254 254 254 254 254 254 254 254 254 254 254 254 254 254
254 254 254 254 254 254 254 254 254 254 254 254 254 254 254
254 254 254 254 254 254 254 254 254 254 254 254 254 254 254
254 254 254 254 254 254 254 254 254 254 254 254 254 254 254
254 254 254 254 254 254 254 254 254 254 254 254 254 254 254
254 254 254 254 254 254 254 254 254 254 254 254 254 254 254
254 254 254 254 254 254 254 254 254 254 254 254 254 254 254
254 254 254 254 254 254 254 254 254 254 254 254 254 254 254
254 254 254 254 254 254 254 254 254 254 254 254 254 254 254
254 254 254 254 254 254 254 254 254 254 254 254 254 254 254
254 254 254 254 254 254 254 254 254 254 254 254 254 254 254
254 254 254 254 254 254 254 254 254 254 254 254 254 254 254
254 254 254 254 254 254 254 254 254 254 254 254 254 254 254
254 254 254 254 254 254 254 254 254 254 254 254 254 254 254
254 254 254 254 254 254 254 254 254 254 254 254 254 254 254
254 254 254 254 254 254 254 254 254 254 254 254 254 254 254
254 254 254 254 254 254 254 254 254 254 254 254 254 254 254
254 254 254 254 254 254 254 254 254 254 254 254 254 254 254
254 254 254 254 254 254 254 254 254 254 254 254 254 254 254
254 254 254 254 254 254 254 254 254 254 254 254 254 254 254
254 254 254 254 254 254 254 254 254 254 254 254 254 254 254
254 254 254 254 254 254 254 254 254 254 254 254 254 254 254
254 254 254 254 254 254 254 254 254 254 254 254 254 254 254
254 254 254 254 254 254 254 254 254 254 254 254 254 254 254
254 254 254 254 254 254 254 254 254 254 254 254 254 254 254
254 254 254 254 254 254 254 254 254 254 254 254 254 254 254
254 254 254 254 254 254 254 254 254 254 254 254 254 254 254
254 254 254 254 254 254 254 254 254 254 254 254 254 254 254
254 254 254 254 254 254 254 254 254 254 254 254 254 254 254
254 254 254 254 254 254 254 254 254 254 254 254 254 254 254
254 254 254 254 254 254 254 254 254 254 254 254 254 254 254
254 254 254 254 254 254 254 254 254 254 254 254 254 254 254
254 254 254 254 254 254 254 254 254 254 254 254 254 254 254
254 254 254 254 254 254 254 254 254 254 254 254 254 254 254
254 254 254 254 254 254 254 254 254 254 254 254 254 254 254
254 254 254 254 254 254 254 254 254 254 254 254 254 254 254
254 254 254 254 254 254 254 254 254 254 254 254 254 254 254
254 254 254 254 254 254 254 254 254 254 254 254 254 254 254
254 254 254 254 254 254 254 254 254 254 254 254 254 254 254
254 254 254 254 254 254 254 254 254 254 254 254 254 254 254
254 254 254 254 254 254 254 254 254 254 254 254 254 254 254
254 254 254 254 254 254 254 254 254 254 254 254 254 254 254
254 254 254 254 254 254 254 254 254 254 254 254 254 254 254
254 254 254 254 254 254 254 254 254 254 254 254 254 254 254
254 254 254 254 254 254 254 254 254 254 254 254 254 254 254
254 254 254 254 254 254 254 254 254 254 254 254 254 254 254
254 254 254 254 254 254 254 254 254 254 254 254 254 254 254
255 255 255 255 255 255 255 255 255 255 255 255 255 255 255
255 255 255 255 255 255 255 255 255 253 253 253 254 254 254
254 254 254 254 254 254 253 253 253 252 252 252 251 251 251
251 251 251 251 251 251 252 252 252 252 252 252 253 253 253
253 253 253 254 254 254 254 254 254 255 255 255 255 255 255
254 254 254 253 253 253 253 253 253 253 253 253 253 253 253
254 254 254 255 255 255 255 255 255 255 255 255 254 254 254
253 253 253 251 251 251 250 250 250 249 249 249 249 249 249
254 254 254 254 254 254 254 254 254 254 254 254 254 254 254
254 254 254 254 254 254 254 254 254 254 254 254 254 254 254
254 254 254 254 254 254 254 254 254 254 254 254 254 254 254
254 254 254 254 254 254 254 254 254 254 254 254 254 254 254
254 254 254 254 254 254 254 254 254 254 254 254 254 254 254
254 254 254 254 254 254 254 254 254 254 254 254 254 254 254
254 254 254 254 254 254 255 255 255 255 255 255 255 255 255
255 255 255 255 255 255 255 255 255 255 255 255 255 255 255
254 254 254 254 254 254 254 254 254 254 254 254 254 254 254
254 254 254 254 254 254 254 254 254 254 254 254 254 254 254
254 254 254 254 254 254 254 254 254 254 254 254 254 254 254
254 254 254 254 254 254 254 254 254 254 254 254 254 254 254
254 254 254 254 254 254 254 254 254 254 254 254 254 254 254
254 254 254 254 254 254 254 254 254 254 254 254 254 254 254
254 254 254 254 254 254 254 254 254 254 254 254 254 254 254
254 254 254 254 254 254 254 254 254 254 254 254 254 254 254
254 254 254 254 254 254 254 254 254 254 254 254 254 254 254
254 254 254 254 254 254 254 254 254 254 254 254 254 254 254
254 254 254 254 254 254 254 254 254 254 254 254 254 254 254
254 254 254 254 254 254 254 254 254 254 254 254 254 254 254
254 254 254 254 254 254 254 254 254 254 254 254 254 254 254
254 254 254 254 254 254 254 254 254 254 254 254 254 254 254
254 254 254 254 254 254 254 254 254 254 254 254 254 254 254
254 254 254 254 254 254 254 254 254 254 254 254 254 254 254
254 254 254 254 254 254 254 254 254 254 254 254 254 254 254
254 254 254 254 254 254 254 254 254 255 255 255 254 254 254
254 254 254 253 253 253 253 253 253 254 254 254 254 254 254
255 255 255 254 254 254 254 254 254 254 254 254 254 254 254
254 254 254 254 254 254 254 254 254 254 254 254 253 253 253
253 253 253 254 254 254 255 255 255 255 255 255 254 254 254
254 254 254 253 253 253 253 253 253 253 253 253 254 254 254
254 254 254 253 253 253 252 252 252 251 251 251 250 250 250
255 255 255 255 255 255 255 255 255 254 254 254 254 254 254
253 253 253 253 253 253 252 252 252 254 254 254 254 254 254
254 254 254 254 254 254 254 254 254 254 254 254 254 254 254
254 254 254 252 252 252 252 252 252 253 253 253 254 254 254
254 254 254 253 253 253 252 252 252 252 252 252 254 254 254
254 254 254 254 254 254 254 254 254 254 254 254 254 254 254
254 254 254 254 254 254 255 255 255 255 255 255 255 255 255
255 255 255 255 255 255 255 255 255 255 255 255 255 255 255
254 254 254 254 254 254 254 254 254 254 254 254 254 254 254
254 254 254 254 254 254 254 254 254 254 254 254 254 254 254
254 254 254 254 254 254 254 254 254 254 254 254 254 254 254
254 254 254 254 254 254 254 254 254 254 254 254 254 254 254
254 254 254 254 254 254 254 254 254 254 254 254 254 254 254
254 254 254 254 254 254 254 254 254 254 254 254 254 254 254
254 254 254 254 254 254 254 254 254 254 254 254 254 254 254
254 254 254 254 254 254 254 254 254 254 254 254 254 254 254
254 254 254 254 254 254 254 254 254 254 254 254 254 254 254
254 254 254 254 254 254 254 254 254 254 254 254 254 254 254
254 254 254 254 254 254 254 254 254 254 254 254 254 254 254
254 254 254 254 254 254 254 254 254 254 254 254 254 254 254
254 254 254 254 254 254 254 254 254 254 254 254 254 254 254
254 254 254 254 254 254 254 254 254 254 254 254 254 254 254
254 254 254 254 254 254 254 254 254 254 254 254 254 254 254
254 254 254 254 254 254 254 254 254 254 254 254 254 254 254
254 254 254 254 254 254 254 254 254 254 254 254 254 254 254
254 254 254 254 254 254 254 254 254 254 254 254 254 254 254
254 254 254 254 254 254 254 254 254 254 254 254 254 254 254
254 254 254 254 254 254 254 254 254 254 254 254 254 254 254
254 254 254 254 254 254 254 254 254 254 254 254 254 254 254
254 254 254 254 254 254 254 254 254 254 254 254 254 254 254
254 254 254 254 254 254 254 254 254 254 254 254 254 254 254
254 254 254 254 254 254 254 254 254 254 254 254 254 254 254
254 254 254 254 254 254 254 254 254 254 254 254 254 254 254
254 254 254 254 254 254 254 254 254 254 254 254 254 254 254
254 254 254 254 254 254 254 254 254 254 254 254 254 254 254
254 254 254 254 254 254 254 254 254 254 254 254 254 254 254
254 254 254 254 254 254 254 254 254 254 254 254 255 255 255
255 255 255 254 254 254 254 254 254 254 254 254 254 254 254
254 254 254 254 254 254 255 255 255 255 255 255 255 255 255
255 255 255 255 255 255 254 254 254 253 253 253 253 253 253
255 255 255 255 255 255 255 255 255 255 255 255 255 255 255
255 255 255 254 254 254 253 253 253 253 253 253 253 253 253
253 253 253 253 253 253 253 253 253 253 253 253 253 253 253
253 253 253 252 252 252 253 253 253 254 254 254 255 255 255
255 255 255 255 255 255 255 255 255 255 255 255 254 254 254
254 254 254 254 254 254 254 254 254 254 254 254 254 254 254
254 254 254 254 254 254 254 254 254 254 254 254 254 254 254
254 254 254 254 254 254 254 254 254 254 254 254 254 254 254
254 254 254 254 254 254 254 254 254 254 254 254 254 254 254
254 254 254 254 254 254 254 254 254 254 254 254 254 254 254
254 254 254 254 254 254 254 254 254 254 254 254 254 254 254
254 254 254 255 255 255 255 255 255 254 254 254 254 254 254
254 254 254 254 254 254 254 254 254 254 254 254 254 254 254
254 254 254 254 254 254 254 254 254 254 254 254 254 254 254
254 254 254 254 254 254 254 254 254 254 254 254 254 254 254
254 254 254 254 254 254 254 254 254 254 254 254 254 254 254
254 254 254 254 254 254 254 254 254 254 254 254 254 254 254
254 254 254 254 254 254 254 254 254 254 254 254 254 254 254
254 254 254 254 254 254 254 254 254 254 254 254 254 254 254
254 254 254 254 254 254 254 254 254 254 254 254 254 254 254
254 254 254 254 254 254 254 254 254 254 254 254 254 254 254
254 254 254 254 254 254 254 254 254 254 254 254 254 254 254
254 254 254 254 254 254 254 254 254 254 254 254 254 254 254
254 254 254 254 254 254 254 254 254 254 254 254 254 254 254
254 254 254 254 254 254 254 254 254 254 254 254 254 254 254
254 254 254 254 254 254 254 254 254 254 254 254 254 254 254
254 254 254 254 254 254 254 254 254 254 254 254 254 254 254
254 254 254 254 254 254 254 254 254 254 254 254 254 254 254
254 254 254 254 254 254 254 254 254 254 254 254 254 254 254
254 254 254 254 254 254 254 254 254 254 254 254 254 254 254
254 254 254 254 254 254 255 255 255 254 254 254 254 254 254
254 254 254 254 254 254 254 254 254 254 254 254 255 255 255
254 254 254 254 254 254 254 254 254 254 254 254 254 254 254
254 254 254 254 254 254 254 254 254 250 250 250 250 250 250
252 252 252 253 253 253 254 254 254 254 254 254 254 254 254
254 254 254 252 252 252 253 253 253 253 253 253 254 254 254
255 255 255 255 255 255 255 255 255 255 255 255 252 252 252
253 253 253 254 254 254 255 255 255 255 255 255 255 255 255
255 255 255 255 255 255 254 254 254 254 254 254 254 254 254
254 254 254 254 254 254 254 254 254 254 254 254 254 254 254
254 254 254 254 254 254 255 255 255 255 255 255 255 255 255
255 255 255 254 254 254 254 254 254 254 254 254 254 254 254
254 254 254 254 254 254 254 254 254 254 254 254 254 254 254
254 254 254 254 254 254 254 254 254 254 254 254 254 254 254
254 254 254 254 254 254 254 254 254 254 254 254 254 254 254
254 254 254 254 254 254 254 254 254 254 254 254 254 254 254
254 254 254 254 254 254 254 254 254 254 254 254 254 254 254
254 254 254 254 254 254 254 254 254 254 254 254 254 254 254
254 254 254 254 254 254 254 254 254 254 254 254 254 254 254
254 254 254 254 254 254 254 254 254 254 254 254 254 254 254
254 254 254 254 254 254 254 254 254 254 254 254 254 254 254
254 254 254 254 254 254 254 254 254 254 254 254 254 254 254
254 254 254 254 254 254 254 254 254 254 254 254 254 254 254
254 254 254 254 254 254 254 254 254 254 254 254 254 254 254
254 254 254 254 254 254 254 254 254 254 254 254 254 254 254
254 254 254 254 254 254 254 254 254 254 254 254 254 254 254
254 254 254 254 254 254 254 254 254 254 254 254 254 254 254
254 254 254 254 254 254 254 254 254 254 254 254 254 254 254
254 254 254 254 254 254 254 254 254 254 254 254 254 254 254
254 254 254 254 254 254 254 254 254 254 254 254 254 254 254
254 254 254 254 254 254 254 254 254 254 254 254 254 254 254
254 254 254 254 254 254 254 254 254 254 254 254 254 254 254
254 254 254 254 254 254 254 254 254 254 254 254 254 254 254
254 254 254 254 254 254 254 254 254 254 254 254 254 254 254
254 254 254 254 254 254 254 254 254 254 254 254 254 254 254
254 254 254 254 254 254 254 254 254 254 254 254 254 254 254
254 254 254 254 254 254 254 254 254 254 254 254 254 254 254
254 254 254 254 254 254 254 254 254 254 254 254 254 254 254
254 254 254 254 254 254 254 254 254 254 254 254 254 254 254
254 254 254 254 254 254 254 254 254 254 254 254 254 254 254
254 254 254 254 254 254 254 254 254 254 254 254 254 254 254
254 254 254 254 254 254 254 254 254 254 254 254 254 254 254
254 254 254 254 254 254 254 254 254 254 254 254 254 254 254
254 254 254 254 254 254 254 254 254 255 255 255 255 255 255
255 255 255 254 254 254 254 254 254 253 253 253 253 253 253
252 252 252 255 255 255 255 255 255 254 254 254 254 254 254
254 254 254 254 254 254 253 253 253 253 253 253 249 249 249
249 249 249 249 249 249 249 249 249 250 250 250 250 250 250
250 250 250 250 250 250 251 251 251 252 252 252 253 253 253
253 253 253 253 253 253 253 253 253 252 252 252 251 251 251
252 252 252 252 252 252 252 252 252 252 252 252 252 252 252
252 252 252 251 251 251 251 251 251 254 254 254 254 254 254
254 254 254 254 254 254 254 254 254 254 254 254 254 254 254
254 254 254 254 254 254 254 254 254 254 254 254 254 254 254
254 254 254 254 254 254 254 254 254 254 254 254 254 254 254
254 254 254 254 254 254 254 254 254 254 254 254 254 254 254
254 254 254 254 254 254 254 254 254 254 254 254 254 254 254
254 254 254 254 254 254 254 254 254 254 254 254 254 254 254
255 255 255 255 255 255 255 255 255 254 254 254 254 254 254
253 253 253 253 253 253 252 252 252 254 254 254 254 254 254
254 254 254 254 254 254 254 254 254 254 254 254 254 254 254
254 254 254 254 254 254 254 254 254 254 254 254 254 254 254
254 254 254 254 254 254 254 254 254 254 254 254 254 254 254
254 254 254 254 254 254 254 254 254 254 254 254 254 254 254
254 254 254 254 254 254 254 254 254 254 254 254 254 254 254
254 254 254 254 254 254 254 254 254 254 254 254 254 254 254
254 254 254 254 254 254 254 254 254 254 254 254 254 254 254
254 254 254 254 254 254 254 254 254 254 254 254 254 254 254
254 254 254 254 254 254 254 254 254 254 254 254 254 254 254
254 254 254 254 254 254 254 254 254 254 254 254 254 254 254
254 254 254 254 254 254 254 254 254 254 254 254 254 254 254
254 254 254 254 254 254 254 254 254 254 254 254 254 254 254
254 254 254 254 254 254 254 254 254 254 254 254 254 254 254
254 254 254 254 254 254 254 254 254 254 254 254 254 254 254
254 254 254 254 254 254 254 254 254 254 254 254 254 254 254
254 254 254 254 254 254 254 254 254 254 254 254 254 254 254
254 254 254 254 254 254 254 254 254 254 254 254 254 254 254
254 254 254 254 254 254 255 255 255 255 255 255 255 255 255
255 255 255 255 255 255 255 255 255 254 254 254 254 254 254
254 254 254 254 254 254 254 254 254 254 254 254 254 254 254
254 254 254 254 254 254 254 254 254 254 254 254 255 255 255
255 255 255 255 255 255 255 255 255 255 255 255 255 255 255
249 249 249 250 250 250 250 250 250 251 251 251 252 252 252
252 252 252 253 253 253 253 253 253 252 252 252 252 252 252
251 251 251 251 251 251 251 251 251 251 251 251 250 250 250
250 250 250 254 254 254 254 254 254 254 254 254 254 254 254
254 254 254 254 254 254 254 254 254 254 254 254 254 254 254
254 254 254 254 254 254 254 254 254 254 254 254 254 254 254
254 254 254 254 254 254 254 254 254 254 254 254 254 254 254
254 254 254 254 254 254 254 254 254 254 254 254 254 254 254
254 254 254 254 254 254 254 254 254 254 254 254 254 254 254
254 254 254 254 254 254 254 254 254 254 254 254 254 254 254
254 254 254 254 254 254 254 254 254 254 254 254 254 254 254
254 254 254 254 254 254 254 254 254 254 254 254 254 254 254
254 254 254 254 254 254 254 254 254 254 254 254 254 254 254
254 254 254 254 254 254 254 254 254 254 254 254 254 254 254
254 254 254 254 254 254 254 254 254 254 254 254 254 254 254
254 254 254 254 254 254 254 254 254 254 254 254 254 254 254
254 254 254 254 254 254 254 254 254 254 254 254 254 254 254
254 254 254 254 254 254 254 254 254 254 254 254 254 254 254
254 254 254 254 254 254 254 254 254 254 254 254 254 254 254
254 254 254 254 254 254 254 254 254 254 254 254 254 254 254
254 254 254 254 254 254 254 254 254 254 254 254 254 254 254
254 254 254 254 254 254 254 254 254 254 254 254 254 254 254
254 254 254 254 254 254 254 254 254 254 254 254 254 254 254
254 254 254 254 254 254 254 254 254 254 254 254 254 254 254
254 254 254 254 254 254 254 254 254 254 254 254 254 254 254
254 254 254 254 254 254 254 254 254 254 254 254 254 254 254
254 254 254 254 254 254 254 254 254 254 254 254 254 254 254
254 254 254 254 254 254 254 254 254 254 254 254 254 254 254
254 254 254 254 254 254 254 254 254 254 254 254 254 254 254
254 254 254 254 254 254 254 254 254 254 254 254 254 254 254
254 254 254 254 254 254 254 254 254 254 254 254 254 254 254
254 254 254 254 254 254 254 254 254 254 254 254 254 254 254
254 254 254 254 254 254 254 254 254 254 254 254 254 254 254
254 254 254 254 254 254 254 254 254 254 254 254 254 254 254
254 254 254 254 254 254 254 254 254 254 254 254 254 254 254
254 254 254 254 254 254 254 254 254 254 254 254 254 254 254
254 254 254 254 254 254 254 254 254 254 254 254 254 254 254
254 254 254 254 254 254 254 254 254 254 254 254 254 254 254
254 254 254 254 254 254 255 255 255 255 255 255 255 255 255
255 255 255 254 254 254 254 254 254 253 253 253 253 253 253
253 253 253 253 253 253 253 253 253 252 252 252 252 252 252
252 252 252 252 252 252 253 253 253 252 252 252 253 253 253
253 253 253 254 254 254 255 255 255 255 255 255 255 255 255
255 255 255 255 255 255 255 255 255 255 255 255 255 255 255
255 255 255 255 255 255 255 255 255 255 255 255 255 255 255
255 255 255 255 255 255 255 255 255 255 255 255 255 255 255
255 255 255 255 255 255 254 254 254 254 254 254 254 254 254
254 254 254 254 254 254 254 254 254 254 254 254 254 254 254
254 254 254 254 254 254 254 254 254 254 254 254 254 254 254
254 254 254 254 254 254 254 254 254 254 254 254 254 254 254
254 254 254 254 254 254 254 254 254 254 254 254 254 254 254
254 254 254 254 254 254 254 254 254 254 254 254 254 254 254
254 254 254 254 254 254 254 254 254 254 254 254 255 255 255
255 255 255 255 255 255 255 255 255 254 254 254 254 254 254
253 253 253 253 253 253 254 254 254 254 254 254 254 254 254
254 254 254 254 254 254 254 254 254 254 254 254 254 254 254
254 254 254 254 254 254 254 254 254 254 254 254 254 254 254
254 254 254 254 254 254 254 254 254 254 254 254 254 254 254
254 254 254 254 254 254 254 254 254 254 254 254 254 254 254
254 254 254 254 254 254 254 254 254 254 254 254 254 254 254
254 254 254 254 254 254 254 254 254 254 254 254 254 254 254
254 254 254 254 254 254 254 254 254 254 254 254 254 254 254
254 254 254 254 254 254 254 254 254 254 254 254 254 254 254
254 254 254 254 254 254 254 254 254 254 254 254 254 254 254
254 254 254 254 254 254 254 254 254 254 254 254 254 254 254
254 254 254 254 254 254 254 254 254 254 254 254 254 254 254
254 254 254 254 254 254 254 254 254 254 254 254 254 254 254
254 254 254 254 254 254 254 254 254 254 254 254 254 254 254
254 254 254 254 254 254 254 254 254 254 254 254 254 254 254
254 254 254 254 254 254 254 254 254 254 254 254 254 254 254
254 254 254 254 254 254 254 254 254 254 254 254 254 254 254
254 254 254 254 254 254 254 254 254 254 254 254 254 254 254
254 254 254 255 255 255 255 255 255 255 255 255 255 255 255
255 255 255 255 255 255 254 254 254 254 254 254 254 254 254
254 254 254 254 254 254 254 254 254 254 254 254 254 254 254
254 254 254 255 255 255 255 255 255 255 255 255 255 255 255
255 255 255 255 255 255 254 254 254 253 253 253 255 255 255
255 255 255 255 255 255 255 255 255 255 255 255 255 255 255
255 255 255 255 255 255 255 255 255 255 255 255 255 255 255
255 255 255 255 255 255 255 255 255 254 254 254 254 254 254
254 254 254 254 254 254 254 254 254 254 254 254 254 254 254
254 254 254 254 254 254 254 254 254 253 253 253 253 253 253
252 252 252 252 252 252 252 252 252 252 252 252 253 253 253
253 253 253 254 254 254 254 254 254 254 254 254 254 254 254
254 254 254 254 254 254 254 254 254 254 254 254 255 255 255
255 255 255 255 255 255 255 255 255 255 255 255 255 255 255
255 255 255 255 255 255 254 254 254 254 254 254 254 254 254
254 254 254 254 254 254 254 254 254 254 254 254 254 254 254
254 254 254 254 254 254 254 254 254 254 254 254 254 254 254
254 254 254 254 254 254 254 254 254 254 254 254 254 254 254
254 254 254 254 254 254 254 254 254 254 254 254 254 254 254
254 254 254 254 254 254 254 254 254 254 254 254 254 254 254
254 254 254 254 254 254 254 254 254 254 254 254 254 254 254
254 254 254 254 254 254 254 254 254 254 254 254 254 254 254
254 254 254 254 254 254 254 254 254 254 254 254 254 254 254
254 254 254 254 254 254 254 254 254 254 254 254 254 254 254
254 254 254 254 254 254 254 254 254 254 254 254 254 254 254
254 254 254 254 254 254 254 254 254 254 254 254 254 254 254
254 254 254 254 254 254 254 254 254 254 254 254 254 254 254
254 254 254 254 254 254 254 254 254 254 254 254 254 254 254
254 254 254 254 254 254 254 254 254 254 254 254 254 254 254
254 254 254 254 254 254 254 254 254 254 254 254 254 254 254
254 254 254 254 254 254 254 254 254 254 254 254 254 254 254
254 254 254 254 254 254 254 254 254 254 254 254 254 254 254
254 254 254 254 254 254 254 254 254 254 254 254 254 254 254
254 254 254 254 254 254 254 254 254 254 254 254 254 254 254
254 254 254 254 254 254 254 254 254 254 254 254 254 254 254
254 254 254 254 254 254 254 254 254 254 254 254 254 254 254
254 254 254 254 254 254 254 254 254 254 254 254 254 254 254
254 254 254 254 254 254 254 254 254 254 254 254 254 254 254
254 254 254 254 254 254 254 254 254 254 254 254 254 254 254
254 254 254 254 254 254 254 254 254 254 254 254 254 254 254
254 254 254 254 254 254 254 254 254 254 254 254 254 254 254
254 254 254 254 254 254 254 254 254 254 254 254 254 254 254
254 254 254 254 254 254 254 254 254 254 254 254 254 254 254
254 254 254 255 255 255 255 255 255 255 255 255 255 255 255
255 255 255 255 255 255 255 255 255 254 254 254 254 254 254
254 254 254 253 253 253 252 252 252 252 252 252 253 253 253
254 254 254 255 255 255 255 255 255 255 255 255 255 255 255
255 255 255 255 255 255 254 254 254 254 254 254 254 254 254
249 249 249 250 250 250 250 250 250 251 251 251 251 251 251
250 250 250 250 250 250 249 249 249 250 250 250 251 251 251
252 252 252 253 253 253 254 254 254 255 255 255 255 255 255
255 255 255 254 254 254 254 254 254 254 254 254 254 254 254
254 254 254 254 254 254 254 254 254 254 254 254 254 254 254
254 254 254 254 254 254 254 254 254 254 254 254 254 254 254
254 254 254 254 254 254 254 254 254 254 254 254 254 254 254
254 254 254 254 254 254 254 254 254 254 254 254 254 254 254
254 254 254 254 254 254 254 254 254 254 254 254 254 254 254
254 254 254 254 254 254 254 254 254 255 255 255 255 255 255
255 255 255 255 255 255 255 255 255 255 255 255 255 255 255
254 254 254 254 254 254 254 254 254 254 254 254 254 254 254
254 254 254 254 254 254 254 254 254 254 254 254 254 254 254
254 254 254 254 254 254 254 254 254 254 254 254 254 254 254
254 254 254 254 254 254 254 254 254 254 254 254 254 254 254
254 254 254 254 254 254 254 254 254 254 254 254 254 254 254
254 254 254 254 254 254 254 254 254 254 254 254 254 254 254
254 254 254 254 254 254 254 254 254 254 254 254 254 254 254
254 254 254 254 254 254 254 254 254 254 254 254 254 254 254
254 254 254 254 254 254 254 254 254 254 254 254 254 254 254
254 254 254 254 254 254 254 254 254 254 254 254 254 254 254
254 254 254 254 254 254 254 254 254 254 254 254 254 254 254
254 254 254 254 254 254 254 254 254 254 254 254 254 254 254
254 254 254 254 254 254 254 254 254 254 254 254 254 254 254
254 254 254 254 254 254 254 254 254 254 254 254 254 254 254
254 254 254 254 254 254 254 254 254 254 254 254 254 254 254
254 254 254 254 254 254 254 254 254 254 254 254 254 254 254
254 254 254 254 254 254 254 254 254 254 254 254 254 254 254
254 254 254 254 254 254 254 254 254 254 254 254 254 254 254
255 255 255 255 255 255 255 255 255 255 255 255 255 255 255
255 255 255 254 254 254 254 254 254 254 254 254 254 254 254
254 254 254 254 254 254 254 254 254 254 254 254 254 254 254
253 253 253 253 253 253 253 253 253 254 254 254 253 253 253
253 253 253 252 252 252 251 251 251 253 253 253 252 252 252
252 252 252 251 251 251 252 252 252 253 253 253 254 254 254
255 255 255 252 252 252 253 253 253 253 253 253 253 253 253
254 254 254 254 254 254 255 255 255 255 255 255 254 254 254
254 254 254 254 254 254 254 254 254 254 254 254 254 254 254
254 254 254 254 254 254 255 255 255 254 254 254 253 253 253
252 252 252 252 252 252 253 253 253 254 254 254 255 255 255
254 254 254 254 254 254 254 254 254 254 254 254 254 254 254
254 254 254 254 254 254 254 254 254 255 255 255 255 255 255
255 255 255 255 255 255 255 255 255 255 255 255 255 255 255
255 255 255 254 254 254 254 254 254 254 254 254 254 254 254
254 254 254 254 254 254 254 254 254 254 254 254 254 254 254
254 254 254 254 254 254 254 254 254 254 254 254 254 254 254
254 254 254 254 254 254 254 254 254 254 254 254 254 254 254
254 254 254 254 254 254 254 254 254 254 254 254 254 254 254
254 254 254 254 254 254 254 254 254 254 254 254 254 254 254
254 254 254 254 254 254 254 254 254 254 254 254 254 254 254
254 254 254 254 254 254 254 254 254 254 254 254 254 254 254
254 254 254 254 254 254 254 254 254 254 254 254 254 254 254
254 254 254 254 254 254 254 254 254 254 254 254 254 254 254
254 254 254 254 254 254 254 254 254 254 254 254 254 254 254
254 254 254 254 254 254 254 254 254 254 254 254 254 254 254
254 254 254 254 254 254 254 254 254 254 254 254 254 254 254
254 254 254 254 254 254 254 254 254 254 254 254 254 254 254
254 254 254 254 254 254 254 254 254 254 254 254 254 254 254
254 254 254 254 254 254 254 254 254 254 254 254 254 254 254
254 254 254 254 254 254 254 254 254 254 254 254 254 254 254
254 254 254 254 254 254 254 254 254 254 254 254 254 254 254
254 254 254 254 254 254 254 254 254 254 254 254 254 254 254
254 254 254 254 254 254 254 254 254 254 254 254 254 254 254
254 254 254 254 254 254 254 254 254 254 254 254 254 254 254
254 254 254 254 254 254 254 254 254 254 254 254 254 254 254
254 254 254 254 254 254 254 254 254 254 254 254 254 254 254
254 254 254 254 254 254 254 254 254 254 254 254 254 254 254
254 254 254 254 254 254 254 254 254 254 254 254 254 254 254
254 254 254 254 254 254 254 254 254 254 254 254 254 254 254
254 254 254 254 254 254 254 254 254 254 254 254 254 254 254
254 254 254 254 254 254 254 254 254 254 254 254 254 254 254
254 254 254 254 254 254 254 254 254 254 254 254 254 254 254
255 255 255 255 255 255 255 255 255 255 255 255 255 255 255
255 255 255 255 255 255 255 255 255 255 255 255 255 255 255
254 254 254 253 253 253 254 254 254 255 255 255 255 255 255
255 255 255 250 250 250 250 250 250 251 251 251 252 252 252
253 253 253 254 254 254 255 255 255 255 255 255 255 255 255
255 255 255 255 255 255 255 255 255 255 255 255 255 255 255
255 255 255 255 255 255 255 255 255 255 255 255 255 255 255
254 254 254 253 253 253 253 253 253 252 252 252 252 252 252
254 254 254 254 254 254 254 254 254 254 254 254 254 254 254
254 254 254 254 254 254 254 254 254 254 254 254 254 254 254
254 254 254 254 254 254 254 254 254 254 254 254 254 254 254
254 254 254 254 254 254 254 254 254 254 254 254 254 254 254
254 254 254 254 254 254 254 254 254 254 254 254 254 254 254
254 254 254 254 254 254 254 254 254 254 254 254 254 254 254
254 254 254 254 254 254 255 255 255 255 255 255 255 255 255
255 255 255 255 255 255 255 255 255 255 255 255 255 255 255
254 254 254 254 254 254 254 254 254 254 254 254 254 254 254
254 254 254 254 254 254 254 254 254 254 254 254 254 254 254
254 254 254 254 254 254 254 254 254 254 254 254 254 254 254
254 254 254 254 254 254 254 254 254 254 254 254 254 254 254
254 254 254 254 254 254 254 254 254 254 254 254 254 254 254
254 254 254 254 254 254 254 254 254 254 254 254 254 254 254
254 254 254 254 254 254 254 254 254 254 254 254 254 254 254
254 254 254 254 254 254 254 254 254 254 254 254 254 254 254
254 254 254 254 254 254 254 254 254 254 254 254 254 254 254
254 254 254 254 254 254 254 254 254 254 254 254 254 254 254
254 254 254 254 254 254 254 254 254 254 254 254 254 254 254
254 254 254 254 254 254 254 254 254 254 254 254 254 254 254
254 254 254 254 254 254 254 254 254 254 254 254 254 254 254
254 254 254 254 254 254 254 254 254 254 254 254 254 254 254
254 254 254 254 254 254 254 254 254 254 254 254 254 254 254
254 254 254 254 254 254 254 254 254 254 254 254 254 254 254
254 254 254 254 254 254 254 254 254 254 254 254 254 254 254
254 254 254 254 254 254 254 254 254 255 255 255 254 254 254
253 253 253 253 253 253 253 253 253 253 253 253 254 254 254
255 255 255 254 254 254 254 254 254 254 254 254 254 254 254
254 254 254 254 254 254 254 254 254 254 254 254 252 252 252
253 253 253 254 254 254 255 255 255 255 255 255 255 255 255
255 255 255 255 255 255 255 255 255 255 255 255 254 254 254
254 254 254 255 255 255 255 255 255 255 255 255 255 255 255
255 255 255 255 255 255 255 255 255 255 255 255 254 254 254
253 253 253 252 252 252 252 252 252 254 254 254 254 254 254
254 254 254 254 254 254 254 254 254 254 254 254 254 254 254
254 254 254 255 255 255 255 255 255 255 255 255 254 254 254
254 254 254 255 255 255 255 255 255 255 255 255 254 254 254
254 254 254 254 254 254 254 254 254 254 254 254 254 254 254
254 254 254 254 254 254 255 255 255 255 255 255 255 255 255
255 255 255 255 255 255 255 255 255 255 255 255 255 255 255
254 254 254 254 254 254 254 254 254 254 254 254 254 254 254
254 254 254 254 254 254 254 254 254 254 254 254 254 254 254
254 254 254 254 254 254 254 254 254 254 254 254 254 254 254
254 254 254 254 254 254 254 254 254 254 254 254 254 254 254
254 254 254 254 254 254 254 254 254 254 254 254 254 254 254
254 254 254 254 254 254 254 254 254 254 254 254 254 254 254
254 254 254 254 254 254 254 254 254 254 254 254 254 254 254
254 254 254 254 254 254 254 254 254 254 254 254 254 254 254
254 254 254 254 254 254 254 254 254 254 254 254 254 254 254
254 254 254 254 254 254 254 254 254 254 254 254 254 254 254
254 254 254 254 254 254 254 254 254 254 254 254 254 254 254
254 254 254 254 254 254 254 254 254 254 254 254 254 254 254
254 254 254 254 254 254 254 254 254 254 254 254 254 254 254
254 254 254 254 254 254 254 254 254 254 254 254 254 254 254
254 254 254 254 254 254 254 254 254 254 254 254 254 254 254
254 254 254 254 254 254 254 254 254 254 254 254 254 254 254
254 254 254 254 254 254 254 254 254 254 254 254 254 254 254
254 254 254 254 254 254 254 254 254 254 254 254 254 254 254
254 254 254 254 254 254 254 254 254 254 254 254 254 254 254
254 254 254 254 254 254 254 254 254 254 254 254 254 254 254
254 254 254 254 254 254 254 254 254 254 254 254 254 254 254
254 254 254 254 254 254 254 254 254 254 254 254 254 254 254
254 254 254 254 254 254 254 254 254 254 254 254 254 254 254
254 254 254 254 254 254 254 254 254 254 254 254 254 254 254
254 254 254 254 254 254 254 254 254 254 254 254 254 254 254
254 254 254 254 254 254 254 254 254 254 254 254 254 254 254
254 254 254 254 254 254 254 254 254 254 254 254 254 254 254
254 254 254 254 254 254 254 254 254 254 254 254 254 254 254
254 254 254 254 254 254 254 254 254 254 254 254 251 251 251
251 251 251 252 252 252 253 253 253 253 253 253 254 254 254
254 254 254 255 255 255 254 254 254 253 253 253 251 251 251
251 251 251 251 251 251 253 253 253 255 255 255 255 255 255
255 255 255 255 255 255 254 254 254 254 254 254 254 254 254
254 254 254 254 254 254 253 253 253 255 255 255 254 254 254
252 252 252 250 250 250 250 250 250 252 252 252 254 254 254
255 255 255 255 255 255 255 255 255 255 255 255 255 255 255
255 255 255 255 255 255 255 255 255 255 255 255 254 254 254
254 254 254 254 254 254 254 254 254 254 254 254 254 254 254
254 254 254 254 254 254 254 254 254 254 254 254 254 254 254
254 254 254 254 254 254 254 254 254 254 254 254 254 254 254
254 254 254 254 254 254 254 254 254 254 254 254 254 254 254
254 254 254 254 254 254 254 254 254 254 254 254 254 254 254
254 254 254 254 254 254 254 254 254 254 254 254 254 254 254
254 254 254 251 251 251 251 251 251 252 252 252 253 253 253
253 253 253 254 254 254 254 254 254 255 255 255 254 254 254
254 254 254 254 254 254 254 254 254 254 254 254 254 254 254
254 254 254 254 254 254 254 254 254 254 254 254 254 254 254
254 254 254 254 254 254 254 254 254 254 254 254 254 254 254
254 254 254 254 254 254 254 254 254 254 254 254 254 254 254
254 254 254 254 254 254 254 254 254 254 254 254 254 254 254
254 254 254 254 254 254 254 254 254 254 254 254 254 254 254
254 254 254 254 254 254 254 254 254 254 254 254 254 254 254
254 254 254 254 254 254 254 254 254 254 254 254 254 254 254
254 254 254 254 254 254 254 254 254 254 254 254 254 254 254
254 254 254 254 254 254 254 254 254 254 254 254 254 254 254
254 254 254 254 254 254 254 254 254 254 254 254 254 254 254
254 254 254 254 254 254 254 254 254 254 254 254 254 254 254
254 254 254 254 254 254 254 254 254 254 254 254 254 254 254
254 254 254 254 254 254 254 254 254 254 254 254 254 254 254
254 254 254 254 254 254 254 254 254 254 254 254 254 254 254
254 254 254 254 254 254 254 254 254 254 254 254 254 254 254
254 254 254 254 254 254 254 254 254 254 254 254 254 254 254
254 254 254 254 254 254 255 255 255 254 254 254 251 251 251
250 250 250 250 250 250 251 251 251 254 254 254 255 255 255
254 254 254 254 254 254 254 254 254 254 254 254 254 254 254
254 254 254 254 254 254 254 254 254 255 255 255 255 255 255
255 255 255 255 255 255 254 254 254 253 253 253 252 252 252
251 251 251 255 255 255 255 255 255 253 253 253 251 251 251
250 250 250 251 251 251 252 252 252 253 253 253 255 255 255
255 255 255 255 255 255 255 255 255 255 255 255 255 255 255
255 255 255 255 255 255 254 254 254 254 254 254 254 254 254
254 254 254 254 254 254 254 254 254 254 254 254 254 254 254
255 255 255 254 254 254 252 252 252 251 251 251 251 251 251
252 252 252 254 254 254 255 255 255 254 254 254 254 254 254
254 254 254 254 254 254 254 254 254 254 254 254 254 254 254
254 254 254 253 253 253 253 253 253 253 253 253 253 253 253
253 253 253 253 253 253 253 253 253 253 253 253 254 254 254
254 254 254 254 254 254 254 254 254 254 254 254 254 254 254
254 254 254 254 254 254 254 254 254 254 254 254 254 254 254
254 254 254 254 254 254 254 254 254 254 254 254 254 254 254
254 254 254 254 254 254 254 254 254 254 254 254 254 254 254
254 254 254 254 254 254 254 254 254 254 254 254 254 254 254
254 254 254 254 254 254 254 254 254 254 254 254 254 254 254
254 254 254 254 254 254 254 254 254 254 254 254 254 254 254
254 254 254 254 254 254 254 254 254 254 254 254 254 254 254
254 254 254 254 254 254 254 254 254 254 254 254 254 254 254
254 254 254 254 254 254 254 254 254 254 254 254 254 254 254
254 254 254 254 254 254 254 254 254 254 254 254 254 254 254
254 254 254 254 254 254 254 254 254 254 254 254 254 254 254
254 254 254 254 254 254 254 254 254 254 254 254 254 254 254
254 254 254 254 254 254 254 254 254 254 254 254 254 254 254
254 254 254 254 254 254 254 254 254 254 254 254 254 254 254
254 254 254 254 254 254 254 254 254 254 254 254 254 254 254
254 254 254 254 254 254 254 254 254 254 254 254 254 254 254
254 254 254 254 254 254 254 254 254 254 254 254 254 254 254
254 254 254 254 254 254 254 254 254 254 254 254 254 254 254
254 254 254 254 254 254 254 254 254 254 254 254 254 254 254
254 254 254 254 254 254 254 254 254 254 254 254 254 254 254
254 254 254 254 254 254 254 254 254 254 254 254 254 254 254
254 254 254 254 254 254 254 254 254 254 254 254 254 254 254
254 254 254 254 254 254 254 254 254 254 254 254 254 254 254
254 254 254 254 254 254 254 254 254 254 254 254 254 254 254
254 254 254 254 254 254 254 254 254 254 254 254 254 254 254
254 254 254 254 254 254 254 254 254 254 254 254 254 254 254
254 254 254 254 254 254 254 254 254 254 254 254 254 254 254
254 254 254 254 254 254 254 254 254 248 248 248 248 248 248
249 249 249 250 250 250 251 251 251 253 253 253 253 253 253
254 254 254 250 250 250 248 248 248 247 247 247 246 246 246
247 247 247 248 248 248 251 251 251 252 252 252 251 251 251
248 248 248 243 243 243 236 236 236 228 228 228 221 221 221
216 216 216 213 213 213 205 205 205 202 202 202 199 199 199
197 197 197 197 197 197 199 199 199 202 202 202 205 205 205
211 211 211 214 214 214 219 219 219 225 225 225 232 232 232
239 239 239 243 243 243 246 246 246 254 254 254 254 254 254
254 254 254 254 254 254 254 254 254 254 254 254 254 254 254
254 254 254 254 254 254 254 254 254 254 254 254 254 254 254
254 254 254 254 254 254 254 254 254 254 254 254 254 254 254
254 254 254 254 254 254 254 254 254 254 254 254 254 254 254
254 254 254 254 254 254 254 254 254 254 254 254 254 254 254
254 254 254 254 254 254 254 254 254 254 254 254 254 254 254
248 248 248 248 248 248 249 249 249 250 250 250 251 251 251
253 253 253 253 253 253 254 254 254 254 254 254 254 254 254
254 254 254 254 254 254 254 254 254 254 254 254 254 254 254
254 254 254 254 254 254 254 254 254 254 254 254 254 254 254
254 254 254 254 254 254 254 254 254 254 254 254 254 254 254
254 254 254 254 254 254 254 254 254 254 254 254 254 254 254
254 254 254 254 254 254 254 254 254 254 254 254 254 254 254
254 254 254 254 254 254 254 254 254 254 254 254 254 254 254
254 254 254 254 254 254 254 254 254 254 254 254 254 254 254
254 254 254 254 254 254 254 254 254 254 254 254 254 254 254
254 254 254 254 254 254 254 254 254 254 254 254 254 254 254
254 254 254 254 254 254 254 254 254 254 254 254 254 254 254
254 254 254 254 254 254 254 254 254 254 254 254 254 254 254
254 254 254 254 254 254 254 254 254 254 254 254 254 254 254
254 254 254 254 254 254 254 254 254 254 254 254 254 254 254
254 254 254 254 254 254 254 254 254 254 254 254 254 254 254
254 254 254 254 254 254 254 254 254 254 254 254 254 254 254
254 254 254 254 254 254 254 254 254 254 254 254 254 254 254
254 254 254 254 254 254 254 254 254 254 254 254 254 254 254
254 254 254 255 255 255 254 254 254 250 250 250 248 248 248
248 248 248 250 250 250 254 254 254 255 255 255 254 254 254
254 254 254 254 254 254 254 254 254 254 254 254 254 254 254
254 254 254 254 254 254 254 254 254 253 253 253 251 251 251
248 248 248 244 244 244 240 240 240 237 237 237 235 235 235
221 221 221 218 218 218 213 213 213 208 208 208 204 204 204
201 201 201 200 200 200 200 200 200 207 207 207 210 210 210
216 216 216 223 223 223 230 230 230 237 237 237 243 243 243
246 246 246 254 254 254 254 254 254 254 254 254 254 254 254
254 254 254 254 254 254 254 254 254 254 254 254 251 251 251
250 250 250 248 248 248 246 246 246 246 246 246 248 248 248
250 250 250 251 251 251 254 254 254 254 254 254 254 254 254
254 254 254 254 254 254 254 254 254 254 254 254 254 254 254
251 251 251 251 251 251 251 251 251 251 251 251 251 251 251
251 251 251 251 251 251 251 251 251 254 254 254 254 254 254
254 254 254 254 254 254 254 254 254 254 254 254 254 254 254
254 254 254 254 254 254 254 254 254 254 254 254 254 254 254
254 254 254 254 254 254 254 254 254 254 254 254 254 254 254
254 254 254 254 254 254 254 254 254 254 254 254 254 254 254
254 254 254 254 254 254 254 254 254 254 254 254 254 254 254
254 254 254 254 254 254 254 254 254 254 254 254 254 254 254
254 254 254 254 254 254 254 254 254 254 254 254 254 254 254
254 254 254 254 254 254 254 254 254 254 254 254 254 254 254
254 254 254 254 254 254 254 254 254 254 254 254 254 254 254
254 254 254 254 254 254 254 254 254 254 254 254 254 254 254
254 254 254 254 254 254 254 254 254 254 254 254 254 254 254
254 254 254 254 254 254 254 254 254 254 254 254 254 254 254
254 254 254 254 254 254 254 254 254 254 254 254 254 254 254
254 254 254 254 254 254 254 254 254 254 254 254 254 254 254
254 254 254 254 254 254 254 254 254 254 254 254 254 254 254
254 254 254 254 254 254 254 254 254 254 254 254 254 254 254
254 254 254 254 254 254 254 254 254 254 254 254 254 254 254
254 254 254 254 254 254 254 254 254 254 254 254 254 254 254
254 254 254 254 254 254 254 254 254 254 254 254 254 254 254
254 254 254 254 254 254 254 254 254 254 254 254 254 254 254
254 254 254 254 254 254 254 254 254 254 254 254 254 254 254
254 254 254 254 254 254 254 254 254 254 254 254 254 254 254
254 254 254 254 254 254 254 254 254 254 254 254 254 254 254
254 254 254 254 254 254 254 254 254 254 254 254 255 255 255
255 255 255 255 255 255 255 255 255 255 255 255 255 255 255
254 254 254 254 254 254 254 254 254 254 254 254 254 254 254
254 254 254 254 254 254 254 254 254 254 254 254 252 252 252
249 249 249 247 247 247 249 249 249 253 253 253 254 254 254
249 249 249 243 243 243 251 252 254 251 252 254 250 251 253
248 249 251 247 248 250 245 246 248 243 244 246 242 243 245
250 251 253 249 250 252 250 251 253 251 252 254 248 249 251
236 237 239 219 220 222 206 207 209 185 186 188 182 183 185
177 178 180 169 170 172 160 161 163 151 152 154 144 145 147
140 141 143 137 138 140 135 136 138 133 134 136 131 132 134
131 132 134 133 134 136 135 136 138 136 137 139 147 148 150
147 148 150 148 149 151 151 152 154 156 157 159 162 163 165
168 169 171 171 172 174 185 186 188 193 194 196 206 207 209
218 219 221 228 229 231 238 239 241 248 249 251 254 255 255
252 253 255 253 254 255 254 255 255 254 255 255 254 255 255
253 254 255 252 253 255 251 252 254 250 251 253 249 250 252
248 249 251 249 250 252 251 252 254 250 251 253 248 249 251
246 247 249 242 242 242 240 240 240 240 240 240 244 244 244
251 251 251 254 254 254 252 252 252 247 247 247 249 249 249
247 247 247 249 249 249 253 253 253 255 255 255 255 255 255
254 254 254 254 254 254 255 255 255 254 254 254 252 252 252
252 252 252 253 253 253 254 254 254 253 253 253 252 252 252
255 255 255 253 253 253 251 251 251 251 251 251 252 252 252
253 253 253 252 252 252 251 251 251 251 253 252 251 253 252
249 251 250 248 250 249 248 250 249 248 250 249 248 250 249
248 250 249 251 253 252 251 253 252 251 253 252 252 254 253
252 254 253 253 255 254 253 255 254 253 255 254 253 255 254
253 255 254 252 254 253 251 253 252 250 252 251 249 251 250
249 251 250 248 250 249 246 248 247 246 248 247 248 250 249
249 251 250 251 253 252 252 254 253 254 255 255 254 255 255
254 255 255 253 255 254 248 250 249 247 249 248 249 251 250
251 253 252 251 253 252 250 252 251 251 253 252 252 254 253
252 254 253 251 253 252 251 253 252 252 254 253 254 255 255
254 255 255 254 255 255 254 255 255 248 250 249 245 247 246
244 246 245 244 246 245 245 247 246 245 247 246 244 246 245
243 245 244 246 248 247 248 250 249 246 248 247 243 245 244
245 247 246 251 253 252 251 253 252 253 255 254 254 255 255
254 255 255 251 253 252 248 250 249 246 248 247 246 248 247
250 252 251 246 248 247 242 244 243 244 246 245 248 250 249
250 252 251 247 249 248 244 246 245 253 254 255 251 252 254
248 249 251 245 246 248 240 241 243 234 235 237 226 227 229
221 222 224 190 191 193 188 189 191 183 184 186 176 177 179
169 170 172 163 164 166 158 159 161 155 156 158 145 145 147
143 143 145 141 141 143 140 140 142 142 142 144 146 146 148
150 150 152 153 153 155 146 146 148 144 144 146 142 142 144
143 143 145 148 148 150 157 157 159 166 166 168 171 171 173
192 192 194 198 198 200 207 207 209 214 214 216 221 221 223
232 232 234 245 245 247 255 255 255 255 255 255 254 254 255
250 250 252 245 245 247 243 243 245 245 245 247 251 251 253
255 255 255 250 250 250 252 252 252 255 255 255 255 255 255
251 251 251 246 246 246 250 250 250 255 255 255 255 255 255
254 254 254 252 252 252 249 249 249 247 247 247 248 248 248
253 253 253 255 255 255 254 254 254 254 254 254 254 254 254
254 254 254 254 254 254 254 254 254 254 254 254 254 254 254
255 255 255 255 255 255 255 255 255 255 255 255 255 255 255
255 255 255 255 255 255 255 255 255 254 254 254 254 254 254
254 254 254 254 254 254 254 254 254 254 254 254 254 254 254
254 254 254 254 254 254 254 254 254 254 254 254 254 254 254
254 254 254 254 254 254 254 254 254 254 254 254 254 254 254
254 254 254 254 254 254 254 254 254 254 254 254 254 254 254
254 254 254 254 254 254 254 254 254 254 254 254 254 254 254
254 254 254 254 254 254 254 254 254 254 254 254 254 254 254
254 254 254 254 254 254 254 254 254 254 254 254 254 254 254
254 254 254 254 254 254 254 254 254 254 254 254 254 254 254
254 254 254 254 254 254 254 254 254 254 254 254 254 254 254
254 254 254 254 254 254 254 254 254 254 254 254 254 254 254
254 254 254 254 254 254 254 254 254 254 254 254 254 254 254
254 254 254 254 254 254 254 254 254 254 254 254 254 254 254
254 254 254 254 254 254 254 254 254 254 254 254 254 254 254
254 254 254 254 254 254 254 254 254 254 254 254 254 254 254
254 254 254 254 254 254 254 254 254 254 254 254 254 254 254
254 254 254 254 254 254 254 254 254 254 254 254 254 254 254
254 254 254 254 254 254 254 254 254 254 254 254 254 254 254
254 254 254 254 254 254 254 254 254 254 254 254 254 254 254
254 254 254 254 254 254 254 254 254 254 254 254 254 254 254
254 254 254 254 254 254 254 254 254 254 254 254 254 254 254
254 254 254 254 254 254 254 254 254 255 255 255 255 255 255
255 255 255 255 255 255 255 255 255 255 255 255 254 254 254
254 254 254 254 254 254 254 254 254 254 254 254 254 254 254
254 254 254 254 254 254 254 254 254 248 248 248 247 247 247
248 248 248 250 250 250 252 252 252 253 253 253 252 252 252
250 250 250 247 248 250 246 247 249 246 247 249 247 248 250
250 251 253 251 252 254 251 252 254 249 250 252 248 249 251
234 235 237 214 215 217 194 195 197 176 177 179 159 160 162
142 143 145 131 132 134 129 130 132 130 131 133 131 132 134
133 134 136 134 135 137 134 135 137 134 135 137 134 135 137
136 137 139 135 136 138 134 135 137 134 135 137 135 136 138
136 137 139 138 139 141 139 140 142 127 128 130 126 127 129
125 126 128 125 126 128 126 127 129 128 129 131 130 131 133
132 133 135 141 142 144 145 146 148 150 151 153 154 155 157
156 157 159 158 159 161 162 163 165 166 167 169 200 201 203
209 210 212 223 224 226 238 239 241 249 250 252 253 254 255
253 254 255 252 253 255 253 254 255 250 251 253 246 247 249
244 245 247 244 245 247 247 248 250 252 253 255 254 255 255
251 251 251 251 251 251 250 250 250 250 250 250 250 250 250
251 251 251 252 252 252 253 253 253 253 253 253 251 251 251
249 249 249 248 248 248 247 247 247 247 247 247 251 251 251
255 255 255 255 255 255 255 255 255 253 253 253 253 253 253
254 254 254 254 254 254 252 252 252 250 250 250 249 249 249
249 249 249 251 251 251 254 254 254 255 255 255 255 255 255
255 255 255 255 255 255 246 248 247 247 249 248 248 250 249
251 253 252 254 255 255 254 255 255 254 255 255 254 255 255
253 255 254 253 255 254 252 254 253 251 253 252 251 253 252
250 252 251 249 251 250 249 251 250 251 253 252 251 253 252
252 254 253 252 254 253 252 254 253 253 255 254 253 255 254
253 255 254 254 255 255 254 255 255 254 255 255 252 254 253
249 251 250 247 249 248 246 248 247 245 247 246 240 242 241
241 243 242 244 246 245 250 252 251 254 255 255 254 255 255
254 255 255 254 255 255 254 255 255 254 255 255 254 255 255
252 254 253 246 248 247 243 245 244 241 243 242 242 244 243
250 252 251 248 250 249 246 248 247 249 251 250 253 255 254
253 255 254 250 252 251 246 248 247 254 255 255 254 255 255
254 255 255 254 255 255 253 255 254 245 247 246 242 244 243
245 247 246 251 253 252 251 253 252 252 254 253 253 255 254
254 255 255 254 255 255 254 255 255 254 255 255 245 247 246
247 249 248 252 254 253 254 255 255 254 255 255 251 253 252
237 239 238 226 228 227 207 208 210 198 199 201 183 184 186
169 170 172 158 159 161 150 151 153 145 146 148 142 143 145
139 140 142 138 139 141 136 137 139 133 134 136 130 131 133
127 128 130 124 125 127 123 124 126 130 130 132 129 129 131
127 127 129 127 127 129 128 128 130 130 130 132 134 134 136
136 136 138 130 130 132 128 128 130 124 124 126 122 122 124
123 123 125 126 126 128 131 131 133 134 134 136 123 123 125
130 130 132 141 141 143 152 152 154 163 163 165 177 177 179
192 192 194 203 203 205 227 227 229 238 238 240 252 252 254
255 255 255 255 255 255 252 252 254 241 241 243 234 234 236
255 255 255 250 250 250 247 247 247 250 250 250 252 252 252
248 248 248 244 244 244 243 243 243 242 242 242 245 245 245
250 250 250 253 253 253 254 254 254 253 253 253 252 252 252
251 251 251 254 254 254 254 254 254 254 254 254 254 254 254
254 254 254 254 254 254 254 254 254 254 254 254 255 255 255
255 255 255 255 255 255 255 255 255 255 255 255 255 255 255
255 255 255 255 255 255 254 254 254 254 254 254 254 254 254
254 254 254 254 254 254 254 254 254 254 254 254 254 254 254
254 254 254 254 254 254 254 254 254 254 254 254 254 254 254
254 254 254 254 254 254 254 254 254 254 254 254 254 254 254
254 254 254 254 254 254 254 254 254 254 254 254 254 254 254
254 254 254 254 254 254 254 254 254 254 254 254 254 254 254
254 254 254 254 254 254 254 254 254 254 254 254 254 254 254
254 254 254 254 254 254 254 254 254 254 254 254 254 254 254
254 254 254 254 254 254 254 254 254 254 254 254 254 254 254
254 254 254 254 254 254 254 254 254 254 254 254 254 254 254
254 254 254 254 254 254 254 254 254 254 254 254 254 254 254
254 254 254 254 254 254 254 254 254 254 254 254 254 254 254
254 254 254 254 254 254 254 254 254 254 254 254 254 254 254
254 254 254 254 254 254 254 254 254 254 254 254 254 254 254
254 254 254 254 254 254 254 254 254 254 254 254 254 254 254
254 254 254 254 254 254 254 254 254 254 254 254 254 254 254
254 254 254 254 254 254 254 254 254 254 254 254 254 254 254
254 254 254 254 254 254 254 254 254 254 254 254 254 254 254
254 254 254 254 254 254 254 254 254 254 254 254 254 254 254
254 254 254 254 254 254 254 254 254 254 254 254 254 254 254
254 254 254 254 254 254 254 254 254 254 254 254 254 254 254
254 254 254 255 255 255 255 255 255 255 255 255 255 255 255
255 255 255 255 255 255 255 255 255 255 255 255 255 255 255
255 255 255 255 255 255 255 255 255 255 255 255 255 255 255
255 255 255 255 255 255 255 255 255 254 254 254 252 252 252
251 251 251 252 252 252 253 253 253 255 255 255 255 255 255
254 255 255 252 253 255 249 250 252 248 249 251 242 243 245
229 230 232 211 212 214 197 198 200 175 176 178 164 165 167
149 150 152 138 139 141 133 134 136 130 131 133 129 130 132
127 128 130 141 142 144 140 141 143 139 140 142 138 139 141
135 136 138 133 134 136 130 131 133 129 130 132 129 130 132
129 130 132 130 131 133 131 132 134 132 133 135 134 135 137
135 136 138 135 136 138 141 142 144 139 140 142 137 138 140
135 136 138 133 134 136 133 134 136 134 135 137 134 135 137
129 130 132 131 132 134 132 133 135 131 132 134 130 131 133
131 132 134 133 134 136 135 136 138 132 133 135 132 133 135
134 135 137 145 146 148 165 166 168 191 192 194 216 217 219
232 233 235 240 241 243 246 247 249 252 253 255 254 255 255
252 253 255 248 249 251 246 247 249 246 247 249 249 249 249
252 252 252 254 254 254 253 253 253 249 249 249 249 249 249
253 253 253 255 255 255 251 251 251 255 255 255 255 255 255
255 255 255 255 255 255 254 254 254 252 252 252 252 252 252
248 248 248 248 248 248 247 247 247 249 249 249 250 250 250
251 251 251 249 249 249 247 247 247 249 249 249 250 250 250
251 251 251 254 254 254 255 255 255 253 253 253 249 249 249
246 246 246 253 255 254 252 254 253 250 252 251 248 250 249
247 249 248 246 248 247 246 248 247 246 248 247 254 255 255
254 255 255 253 255 254 251 253 252 250 252 251 248 250 249
247 249 248 246 248 247 240 242 241 240 242 241 241 243 242
243 245 244 244 246 245 246 248 247 247 249 248 248 250 249
245 247 246 246 248 247 248 250 249 250 252 251 252 254 253
253 255 254 254 255 255 254 255 255 254 255 255 254 255 255
254 255 255 253 255 254 252 254 253 249 251 250 245 247 246
242 244 243 242 244 243 245 247 246 247 249 248 249 251 250
248 250 249 249 251 250 250 252 251 252 254 253 249 251 250
247 249 248 246 248 247 250 252 251 254 255 255 254 255 255
254 255 255 251 253 252 244 246 245 244 246 245 247 249 248
252 254 253 253 255 254 251 253 252 254 255 255 254 255 255
249 251 250 248 250 249 248 250 249 251 253 252 253 255 254
251 253 252 245 247 246 240 242 241 253 255 254 243 245 244
227 229 228 212 214 213 198 200 199 185 187 186 173 175 174
165 167 166 151 152 154 145 146 148 136 137 139 131 132 134
131 132 134 134 135 137 137 138 140 140 141 143 124 125 127
125 126 128 128 129 131 131 132 134 135 136 138 138 139 141
141 142 144 142 143 145 131 131 133 130 130 132 130 130 132
130 130 132 130 130 132 131 131 133 132 132 134 133 133 135
145 145 147 143 143 145 139 139 141 136 136 138 134 134 136
134 134 136 135 135 137 136 136 138 129 129 131 131 131 133
131 131 133 129 129 131 127 127 129 128 128 130 133 133 135
137 137 139 152 152 154 165 165 167 185 185 187 207 207 209
228 228 230 244 244 246 255 255 255 255 255 255 243 243 243
241 241 241 243 243 243 252 252 252 255 255 255 255 255 255
253 253 253 253 253 253 255 255 255 255 255 255 252 252 252
252 252 252 253 253 253 255 255 255 255 255 255 255 255 255
255 255 255 255 255 255 255 255 255 255 255 255 255 255 255
255 255 255 255 255 255 255 255 255 255 255 255 255 255 255
255 255 255 255 255 255 255 255 255 255 255 255 255 255 255
255 255 255 254 254 254 254 254 254 254 254 254 254 254 254
254 254 254 254 254 254 254 254 254 254 254 254 254 254 254
254 254 254 254 254 254 254 254 254 254 254 254 254 254 254
254 254 254 254 254 254 254 254 254 254 254 254 254 254 254
254 254 254 254 254 254 254 254 254 254 254 254 254 254 254
254 254 254 254 254 254 254 254 254 254 254 254 254 254 254
254 254 254 254 254 254 254 254 254 254 254 254 254 254 254
254 254 254 254 254 254 254 254 254 254 254 254 254 254 254
254 254 254 254 254 254 254 254 254 254 254 254 254 254 254
254 254 254 254 254 254 254 254 254 254 254 254 254 254 254
254 254 254 254 254 254 254 254 254 254 254 254 254 254 254
254 254 254 254 254 254 254 254 254 254 254 254 254 254 254
254 254 254 254 254 254 254 254 254 254 254 254 254 254 254
254 254 254 254 254 254 254 254 254 254 254 254 254 254 254
254 254 254 254 254 254 254 254 254 254 254 254 254 254 254
254 254 254 254 254 254 254 254 254 254 254 254 254 254 254
254 254 254 254 254 254 254 254 254 254 254 254 254 254 254
254 254 254 254 254 254 254 254 254 254 254 254 254 254 254
254 254 254 254 254 254 254 254 254 254 254 254 254 254 254
254 254 254 254 254 254 254 254 254 254 254 254 254 254 254
254 254 254 254 254 254 254 254 254 254 254 254 254 254 254
255 255 255 254 254 254 254 254 254 254 254 254 254 254 254
254 254 254 254 254 254 255 255 255 255 255 255 255 255 255
255 255 255 255 255 255 255 255 255 255 255 255 255 255 255
255 255 255 254 254 254 251 251 251 249 249 249 250 250 250
254 254 254 255 255 255 255 255 255 255 255 255 252 253 255
239 240 242 222 223 225 207 208 210 191 192 194 171 172 174
149 150 152 133 134 136 136 137 139 134 135 137 132 133 135
133 134 136 136 137 139 138 139 141 138 139 141 137 138 140
135 136 138 136 137 139 136 137 139 136 137 139 135 136 138
134 135 137 133 134 136 133 134 136 128 129 131 129 130 132
130 131 133 131 132 134 132 133 135 132 133 135 132 133 135
131 132 134 139 140 142 139 140 142 138 139 141 137 138 140
137 138 140 138 139 141 139 140 142 140 141 143 134 135 137
134 135 137 133 134 136 132 133 135 132 133 135 133 134 136
135 136 138 137 138 140 128 129 131 128 129 131 128 129 131
129 130 132 131 132 134 134 135 137 137 138 140 139 140 142
164 165 167 177 178 180 196 197 199 213 214 216 224 225 227
234 235 237 244 245 247 252 253 255 252 252 252 255 255 255
255 255 255 255 255 255 254 254 254 249 249 249 247 247 247
247 247 247 249 249 249 252 252 252 253 253 253 252 252 252
251 251 251 252 252 252 251 251 251 249 249 249 249 249 249
249 249 249 249 249 249 250 250 250 252 252 252 252 252 252
250 250 250 248 248 248 255 255 255 253 253 253 250 250 250
248 248 248 245 245 245 240 240 240 235 235 235 230 230 230
220 222 221 217 219 218 212 214 213 206 208 207 200 202 201
194 196 195 191 193 192 189 191 190 180 182 181 180 182 181
179 181 180 177 179 178 175 177 176 174 176 175 173 175 174
172 174 173 170 172 171 171 173 172 172 174 173 173 175 174
175 177 176 176 178 177 178 180 179 178 180 179 192 194 193
195 197 196 200 202 201 206 208 207 213 215 214 219 221 220
223 225 224 226 228 227 239 241 240 237 239 238 236 238 237
237 239 238 242 244 243 249 251 250 254 255 255 254 255 255
252 254 253 254 255 255 254 255 255 254 255 255 254 255 255
251 253 252 250 252 251 251 253 252 252 254 253 250 252 251
248 250 249 247 249 248 248 250 249 250 252 251 252 254 253
252 254 253 247 249 248 243 245 244 242 244 243 244 246 245
244 246 245 244 246 245 247 249 248 252 254 253 254 255 255
252 254 253 249 251 250 248 250 249 245 247 246 236 238 237
222 224 223 211 213 212 190 192 191 176 178 177 157 159 158
142 144 143 135 137 136 136 138 137 140 142 141 143 145 144
132 133 135 131 132 134 130 131 133 130 131 133 131 132 134
130 131 133 128 129 131 126 127 129 143 144 146 142 143 145
139 140 142 137 138 140 133 134 136 131 132 134 128 129 131
127 128 130 137 137 139 137 137 139 138 138 140 138 138 140
138 138 140 137 137 139 137 137 139 136 136 138 124 124 126
124 124 126 123 123 125 122 122 124 121 121 123 120 120 122
120 120 122 120 120 122 142 142 144 142 142 144 141 141 143
138 138 140 134 134 136 133 133 135 136 136 138 138 138 140
131 131 133 130 130 132 131 131 133 139 139 141 157 157 159
185 185 187 215 215 217 234 234 236 255 255 255 255 255 255
253 253 253 249 249 249 243 243 243 241 241 241 249 249 249
255 255 255 255 255 255 255 255 255 254 254 254 254 254 254
255 255 255 255 255 255 255 255 255 255 255 255 255 255 255
255 255 255 255 255 255 255 255 255 255 255 255 255 255 255
255 255 255 255 255 255 254 254 254 254 254 254 254 254 254
254 254 254 254 254 254 254 254 254 254 254 254 254 254 254
254 254 254 254 254 254 254 254 254 254 254 254 254 254 254
254 254 254 254 254 254 254 254 254 254 254 254 254 254 254
254 254 254 254 254 254 254 254 254 254 254 254 254 254 254
254 254 254 254 254 254 254 254 254 254 254 254 254 254 254
254 254 254 254 254 254 254 254 254 254 254 254 254 254 254
254 254 254 254 254 254 254 254 254 254 254 254 254 254 254
254 254 254 254 254 254 254 254 254 254 254 254 254 254 254
254 254 254 254 254 254 254 254 254 254 254 254 254 254 254
254 254 254 254 254 254 254 254 254 254 254 254 254 254 254
254 254 254 254 254 254 254 254 254 254 254 254 254 254 254
254 254 254 254 254 254 254 254 254 254 254 254 254 254 254
254 254 254 254 254 254 254 254 254 254 254 254 254 254 254
254 254 254 254 254 254 254 254 254 254 254 254 254 254 254
254 254 254 254 254 254 254 254 254 254 254 254 254 254 254
254 254 254 254 254 254 254 254 254 254 254 254 254 254 254
254 254 254 254 254 254 254 254 254 254 254 254 254 254 254
254 254 254 254 254 254 254 254 254 254 254 254 254 254 254
254 254 254 254 254 254 254 254 254 254 254 254 254 254 254
254 254 254 254 254 254 254 254 254 254 254 254 254 254 254
254 254 254 254 254 254 254 254 254 254 254 254 254 254 254
254 254 254 254 254 254 254 254 254 254 254 254 255 255 255
254 254 254 253 253 253 253 253 253 253 253 253 253 253 253
254 254 254 255 255 255 255 255 255 255 255 255 255 255 255
255 255 255 255 255 255 255 255 255 255 255 255 255 255 255
247 247 247 246 246 246 247 247 247 254 254 254 255 255 255
255 255 255 243 243 243 231 231 231 209 210 212 189 190 192
162 163 165 141 142 144 133 134 136 130 131 133 127 128 130
124 125 127 137 138 140 138 139 141 141 142 144 143 144 146
144 145 147 142 143 145 138 139 141 135 136 138 131 132 134
131 132 134 131 132 134 130 131 133 129 130 132 127 128 130
125 126 128 125 126 128 136 137 139 136 137 139 136 137 139
136 137 139 136 137 139 135 136 138 134 135 137 133 134 136
126 127 129 127 128 130 127 128 130 129 130 132 130 131 133
132 133 135 134 135 137 135 136 138 140 141 143 137 138 140
134 135 137 131 132 134 129 130 132 128 129 131 128 129 131
128 129 131 148 149 151 146 147 149 143 144 146 137 138 140
131 132 134 124 125 127 119 120 122 116 117 119 124 125 127
127 128 130 132 133 135 138 139 141 149 150 152 170 171 173
194 195 197 212 213 215 234 234 234 239 239 239 247 247 247
254 254 254 255 255 255 252 252 252 246 246 246 241 241 241
253 253 253 249 249 249 239 239 239 231 231 231 235 235 235
246 246 246 252 252 252 251 251 251 255 255 255 255 255 255
251 251 251 247 247 247 244 244 244 240 240 240 235 235 235
232 232 232 217 217 217 213 213 213 207 207 207 203 203 203
199 199 199 197 197 197 193 193 193 191 191 191 178 180 179
177 179 178 175 177 176 172 174 173 170 172 171 168 170 169
167 169 168 167 169 168 170 172 171 170 172 171 170 172 171
169 171 170 169 171 170 168 170 169 168 170 169 168 170 169
164 166 165 164 166 165 165 167 166 165 167 166 166 168 167
166 168 167 167 169 168 167 169 168 166 168 167 167 169 168
169 171 170 171 173 172 174 176 175 176 178 177 178 180 179
179 181 180 168 170 169 168 170 169 170 172 171 174 176 175
181 183 182 190 192 191 199 201 200 205 207 206 230 232 231
234 236 235 239 241 240 243 245 244 246 248 247 248 250 249
250 252 251 252 254 253 250 252 251 253 255 254 254 255 255
254 255 255 249 251 250 246 248 247 247 249 248 249 251 250
251 253 252 248 250 249 249 251 250 253 255 254 252 254 253
248 250 249 246 248 247 247 249 248 254 255 255 242 244 243
222 224 223 201 203 202 181 183 182 160 162 161 140 142 141
127 129 128 128 130 129 127 129 128 127 129 128 128 130 129
131 133 132 133 135 134 134 136 135 134 136 135 145 146 148
145 146 148 146 147 149 147 148 150 146 147 149 142 143 145
136 137 139 132 133 135 125 126 128 125 126 128 124 125 127
124 125 127 124 125 127 124 125 127 123 124 126 123 124 126
132 132 134 133 133 135 134 134 136 134 134 136 134 134 136
133 133 135 131 131 133 131 131 133 133 133 135 134 134 136
135 135 137 136 136 138 137 137 139 137 137 139 137 137 139
137 137 139 132 132 134 133 133 135 133 133 135 133 133 135
134 134 136 135 135 137 138 138 140 140 140 142 135 135 137
132 132 134 129 129 131 127 127 129 130 130 132 140 140 142
153 153 155 163 163 165 189 189 189 201 201 201 226 226 226
250 250 250 255 255 255 255 255 255 251 251 251 247 247 247
237 237 237 242 242 242 250 250 250 255 255 255 255 255 255
255 255 255 253 253 253 248 248 248 255 255 255 255 255 255
255 255 255 255 255 255 255 255 255 255 255 255 255 255 255
255 255 255 254 254 254 254 254 254 254 254 254 254 254 254
254 254 254 254 254 254 254 254 254 254 254 254 254 254 254
254 254 254 254 254 254 254 254 254 254 254 254 254 254 254
254 254 254 254 254 254 254 254 254 254 254 254 254 254 254
254 254 254 254 254 254 254 254 254 254 254 254 254 254 254
254 254 254 254 254 254 254 254 254 254 254 254 254 254 254
254 254 254 254 254 254 254 254 254 254 254 254 254 254 254
254 254 254 254 254 254 254 254 254 254 254 254 254 254 254
254 254 254 254 254 254 254 254 254 254 254 254 254 254 254
254 254 254 254 254 254 254 254 254 254 254 254 254 254 254
254 254 254 254 254 254 254 254 254 254 254 254 254 254 254
254 254 254 254 254 254 254 254 254 254 254 254 254 254 254
254 254 254 254 254 254 254 254 254 254 254 254 254 254 254
254 254 254 254 254 254 254 254 254 254 254 254 254 254 254
254 254 254 254 254 254 254 254 254 254 254 254 254 254 254
254 254 254 254 254 254 254 254 254 254 254 254 254 254 254
254 254 254 254 254 254 254 254 254 254 254 254 254 254 254
254 254 254 254 254 254 254 254 254 254 254 254 254 254 254
254 254 254 254 254 254 254 254 254 254 254 254 254 254 254
254 254 254 254 254 254 254 254 254 254 254 254 254 254 254
254 254 254 254 254 254 254 254 254 254 254 254 254 254 254
254 254 254 254 254 254 254 254 254 254 254 254 254 254 254
254 254 254 254 254 254 254 254 254 255 255 255 254 254 254
253 253 253 252 252 252 252 252 252 253 253 253 254 254 254
255 255 255 254 254 254 254 254 254 254 254 254 254 254 254
254 254 254 254 254 254 254 254 254 254 254 254 255 255 255
255 255 255 254 254 254 252 252 252 243 243 243 224 224 224
199 199 199 180 180 180 148 149 151 140 141 143 130 131 133
127 128 130 130 131 133 134 135 137 135 136 138 134 135 137
128 129 131 129 130 132 131 132 134 133 134 136 135 136 138
136 137 139 138 139 141 138 139 141 144 145 147 143 144 146
142 143 145 140 141 143 138 139 141 135 136 138 133 134 136
131 132 134 137 138 140 137 138 140 136 137 139 135 136 138
133 134 136 132 133 135 132 133 135 131 132 134 132 133 135
133 134 136 134 135 137 134 135 137 135 136 138 136 137 139
137 138 140 137 138 140 138 139 141 136 137 139 134 135 137
133 134 136 133 134 136 133 134 136 132 133 135 130 131 133
133 134 136 129 130 132 124 125 127 122 123 125 124 125 127
132 133 135 141 142 144 147 148 150 140 141 143 138 139 141
132 133 135 125 126 128 123 124 126 128 129 131 138 139 141
146 147 149 163 163 163 173 173 173 191 191 191 212 212 212
231 231 231 244 244 244 250 250 250 252 252 252 251 251 251
255 255 255 255 255 255 252 252 252 253 253 253 255 255 255
252 252 252 242 242 242 238 238 238 233 233 233 224 224 224
216 216 216 208 208 208 201 201 201 194 194 194 189 189 189
173 173 173 169 169 169 164 164 164 162 162 162 163 163 163
165 165 165 166 166 166 166 166 166 169 171 170 169 171 170
169 171 170 170 172 171 171 173 172 173 175 174 174 176 175
175 177 176 171 173 172 171 173 172 172 174 173 172 174 173
173 175 174 173 175 174 174 176 175 174 176 175 170 172 171
170 172 171 170 172 171 170 172 171 170 172 171 169 171 170
169 171 170 169 171 170 173 175 174 172 174 173 171 173 172
171 173 172 170 172 171 169 171 170 168 170 169 167 169 168
176 178 177 178 180 179 180 182 181 179 181 180 175 177 176
171 173 172 167 169 168 166 168 167 171 173 172 177 179 178
186 188 187 196 198 197 205 207 206 214 216 215 223 225 224
228 230 229 234 236 235 243 245 244 254 255 255 254 255 255
254 255 255 253 255 254 250 252 251 249 251 250 254 255 255
254 255 255 254 255 255 254 255 255 247 249 248 233 235 234
220 222 221 215 217 216 158 160 159 148 150 149 136 138 137
128 130 129 128 130 129 132 134 133 136 138 137 138 140 139
131 133 132 133 135 134 134 136 135 135 137 136 134 136 135
130 132 131 126 128 127 123 125 124 120 121 123 119 120 122
118 119 121 121 122 124 124 125 127 127 128 130 128 129 131
127 128 130 118 119 121 120 121 123 124 125 127 129 130 132
134 135 137 139 140 142 143 144 146 145 146 148 132 132 134
133 133 135 133 133 135 134 134 136 134 134 136 133 133 135
132 132 134 132 132 134 132 132 134 133 133 135 133 133 135
134 134 136 134 134 136 134 134 136 133 133 135 133 133 135
135 135 137 134 134 136 132 132 134 130 130 132 129 129 131
128 128 130 127 127 129 127 127 129 126 126 128 128 128 130
130 130 132 131 131 133 132 132 134 135 135 137 139 139 141
143 143 145 126 126 126 130 130 130 152 152 152 193 193 193
232 232 232 253 253 253 255 255 255 253 253 253 249 249 249
249 249 249 249 249 249 247 247 247 245 245 245 247 247 247
250 250 250 253 253 253 254 254 254 254 254 254 254 254 254
254 254 254 254 254 254 254 254 254 254 254 254 254 254 254
253 253 253 253 253 253 253 253 253 253 253 253 253 253 253
253 253 253 253 253 253 253 253 253 254 254 254 254 254 254
254 254 254 254 254 254 254 254 254 254 254 254 254 254 254
254 254 254 254 254 254 254 254 254 254 254 254 254 254 254
254 254 254 254 254 254 254 254 254 254 254 254 254 254 254
254 254 254 254 254 254 254 254 254 254 254 254 254 254 254
254 254 254 254 254 254 254 254 254 254 254 254 254 254 254
254 254 254 254 254 254 254 254 254 254 254 254 254 254 254
254 254 254 254 254 254 254 254 254 254 254 254 254 254 254
254 254 254 254 254 254 254 254 254 254 254 254 254 254 254
254 254 254 254 254 254 254 254 254 254 254 254 254 254 254
254 254 254 254 254 254 254 254 254 254 254 254 254 254 254
254 254 254 254 254 254 254 254 254 254 254 254 254 254 254
254 254 254 254 254 254 254 254 254 254 254 254 254 254 254
254 254 254 254 254 254 254 254 254 254 254 254 254 254 254
254 254 254 254 254 254 254 254 254 254 254 254 254 254 254
254 254 254 254 254 254 254 254 254 254 254 254 254 254 254
254 254 254 254 254 254 254 254 254 254 254 254 254 254 254
254 254 254 254 254 254 254 254 254 254 254 254 254 254 254
254 254 254 254 254 254 254 254 254 254 254 254 254 254 254
254 254 254 254 254 254 254 254 254 254 254 254 254 254 254
254 254 254 254 254 254 254 254 254 254 254 254 254 254 254
254 254 254 254 254 254 255 255 255 254 254 254 252 252 252
251 251 251 251 251 251 252 252 252 254 254 254 255 255 255
252 254 253 252 254 253 252 254 253 252 254 253 252 254 253
252 254 253 252 254 253 252 254 253 254 255 255 249 251 250
232 234 233 208 210 209 182 184 183 159 161 160 143 145 144
135 137 136 124 125 127 127 128 130 132 133 135 139 140 142
143 144 146 142 143 145 138 139 141 134 135 137 136 137 139
134 135 137 131 132 134 127 128 130 125 126 128 125 126 128
126 127 129 128 129 131 123 124 126 125 126 128 130 131 133
135 136 138 140 141 143 144 145 147 147 148 150 149 150 152
133 134 136 132 133 135 131 132 134 129 130 132 128 129 131
129 130 132 130 131 133 130 131 133 133 134 136 133 134 136
133 134 136 133 134 136 133 134 136 132 133 135 132 133 135
131 132 134 126 127 129 125 126 128 125 126 128 128 129 131
132 133 135 134 135 137 132 133 135 130 131 133 124 125 127
130 131 133 138 139 141 144 145 147 145 146 148 139 140 142
131 132 134 125 126 128 134 135 137 136 137 139 139 140 142
142 143 145 142 143 145 140 141 143 138 139 141 136 137 139
121 121 121 130 130 130 145 145 145 161 161 161 177 177 177
194 194 194 212 212 212 223 223 223 230 230 230 247 247 247
255 255 255 250 250 250 241 241 241 235 235 235 224 224 224
211 211 211 199 199 199 193 193 193 186 186 186 179 179 179
174 174 174 171 171 171 168 168 168 166 166 166 174 174 174
171 171 171 169 169 169 169 169 169 171 171 171 173 173 173
174 174 174 174 174 174 167 169 168 166 168 167 165 167 166
165 167 166 165 167 166 165 167 166 166 168 167 166 168 167
165 167 166 165 167 166 165 167 166 166 168 167 166 168 167
167 169 168 167 169 168 167 169 168 175 177 176 175 177 176
175 177 176 175 177 176 175 177 176 175 177 176 175 177 176
175 177 176 167 169 168 167 169 168 167 169 168 167 169 168
167 169 168 167 169 168 167 169 168 167 169 168 166 168 167
171 173 172 176 178 177 178 180 179 176 178 177 172 174 173
169 171 170 168 170 169 164 166 165 165 167 166 167 169 168
167 169 168 167 169 168 168 170 169 170 172 171 173 175 174
200 202 201 205 207 206 214 216 215 227 229 228 238 240 239
245 247 246 246 248 247 245 247 246 254 255 255 243 245 244
225 227 226 209 211 210 189 191 190 168 170 169 152 154 153
145 147 146 157 159 158 150 152 151 140 142 141 131 133 132
125 127 126 123 125 124 124 126 125 125 127 126 130 132 131
129 131 130 128 130 129 127 129 128 128 130 129 131 133 132
136 138 137 139 141 140 143 144 146 139 140 142 135 136 138
132 133 135 131 132 134 131 132 134 130 131 133 129 130 132
142 143 145 141 142 144 139 140 142 136 137 139 133 134 136
130 131 133 128 129 131 127 128 130 136 137 139 136 137 139
136 137 139 136 137 139 136 137 139 137 138 140 137 138 140
137 138 140 137 138 140 137 138 140 137 138 140 137 138 140
136 137 139 136 137 139 135 136 138 135 136 138 129 130 132
129 130 132 130 131 133 132 133 135 135 136 138 138 139 141
139 140 142 140 141 143 138 139 141 137 138 140 134 135 137
130 131 133 128 129 131 129 130 132 133 134 136 136 137 139
158 158 158 137 137 137 116 116 116 117 117 117 139 139 139
174 174 174 211 211 211 236 236 236 252 252 252 252 252 252
249 249 249 242 242 242 236 236 236 239 239 239 249 249 249
255 255 255 253 253 253 253 253 253 253 253 253 253 253 253
253 253 253 253 253 253 253 253 253 253 253 253 253 253 253
253 253 253 253 253 253 253 253 253 253 253 253 253 253 253
253 253 253 253 253 253 254 254 254 254 254 254 254 254 254
254 254 254 254 254 254 254 254 254 254 254 254 254 254 254
254 254 254 254 254 254 254 254 254 254 254 254 254 254 254
254 254 254 254 254 254 254 254 254 254 254 254 254 254 254
254 254 254 254 254 254 254 254 254 254 254 254 254 254 254
254 254 254 254 254 254 254 254 254 254 254 254 254 254 254
254 254 254 254 254 254 254 254 254 254 254 254 254 254 254
254 254 254 254 254 254 254 254 254 254 254 254 254 254 254
254 254 254 254 254 254 254 254 254 254 254 254 254 254 254
254 254 254 254 254 254 254 254 254 254 254 254 254 254 254
254 254 254 254 254 254 254 254 254 254 254 254 254 254 254
254 254 254 254 254 254 254 254 254 254 254 254 254 254 254
254 254 254 254 254 254 254 254 254 254 254 254 254 254 254
254 254 254 254 254 254 254 254 254 254 254 254 254 254 254
254 254 254 254 254 254 254 254 254 254 254 254 254 254 254
254 254 254 254 254 254 254 254 254 254 254 254 254 254 254
254 254 254 254 254 254 254 254 254 254 254 254 254 254 254
254 254 254 254 254 254 254 254 254 254 254 254 254 254 254
254 254 254 254 254 254 254 254 254 254 254 254 254 254 254
254 254 254 254 254 254 254 254 254 254 254 254 254 254 254
254 254 254 254 254 254 254 254 254 254 254 254 254 254 254
254 254 254 255 255 255 254 254 254 252 252 252 251 251 251
251 251 251 252 252 252 254 254 254 255 255 255 251 253 252
251 253 252 251 253 252 251 253 252 251 253 252 251 253 252
251 253 252 251 253 252 233 235 234 218 220 219 188 190 189
150 152 151 117 119 118 104 106 105 109 111 110 120 122 121
136 137 139 133 134 136 130 131 133 127 128 130 127 128 130
131 132 134 135 136 138 138 139 141 132 133 135 132 133 135
133 134 136 132 133 135 132 133 135 132 133 135 134 135 137
136 137 139 134 135 137 134 135 137 135 136 138 135 136 138
135 136 138 134 135 137 133 134 136 132 133 135 134 135 137
133 134 136 131 132 134 130 131 133 130 131 133 131 132 134
134 135 137 135 136 138 133 134 136 133 134 136 134 135 137
134 135 137 133 134 136 132 133 135 131 132 134 131 132 134
133 134 136 132 133 135 131 132 134 134 135 137 136 137 139
137 138 140 133 134 136 130 131 133 134 135 137 133 134 136
131 132 134 130 131 133 131 132 134 133 134 136 136 137 139
139 140 142 136 137 139 134 135 137 132 133 135 132 133 135
133 134 136 134 135 137 134 135 137 133 134 136 148 148 148
149 149 149 146 146 146 137 137 137 129 129 129 131 131 131
145 145 145 158 158 158 205 205 205 218 218 218 218 218 218
196 196 196 177 177 177 174 174 174 178 178 178 179 179 179
176 176 176 172 172 172 169 169 169 168 168 168 170 170 170
174 174 174 177 177 177 178 178 178 174 174 174 173 173 173
171 171 171 171 171 171 171 171 171 170 170 170 167 167 167
165 165 165 171 173 172 170 172 171 170 172 171 169 171 170
169 171 170 169 171 170 169 171 170 170 172 171 171 173 172
171 173 172 171 173 172 171 173 172 171 173 172 171 173 172
171 173 172 171 173 172 168 170 169 168 170 169 168 170 169
169 171 170 169 171 170 170 172 171 170 172 171 170 172 171
170 172 171 170 172 171 170 172 171 170 172 171 170 172 171
170 172 171 171 173 172 171 173 172 169 171 170 171 173 172
173 175 174 172 174 173 170 172 171 169 171 170 170 172 171
173 175 174 172 174 173 172 174 173 171 173 172 169 171 170
167 169 168 167 169 168 170 172 171 172 174 173 163 165 164
159 161 160 161 163 162 177 179 178 201 203 202 222 224 223
232 234 233 233 235 234 200 202 201 181 183 182 157 159 158
140 142 141 130 132 131 124 126 125 125 127 126 129 131 130
133 135 134 137 139 138 141 143 142 142 144 143 141 143 142
137 139 138 135 137 136 134 136 135 131 133 132 132 134 133
133 135 134 132 134 133 131 133 132 131 133 132 133 135 134
134 136 135 132 133 135 131 132 134 132 133 135 134 135 137
136 137 139 135 136 138 133 134 136 131 132 134 132 133 135
132 133 135 133 134 136 134 135 137 135 136 138 136 137 139
136 137 139 137 138 140 133 134 136 132 133 135 132 133 135
132 133 135 132 133 135 133 134 136 134 135 137 135 136 138
134 135 137 134 135 137 134 135 137 134 135 137 134 135 137
134 135 137 134 135 137 134 135 137 137 138 140 136 137 139
134 135 137 134 135 137 134 135 137 133 134 136 131 132 134
130 131 133 134 135 137 135 136 138 136 137 139 135 136 138
133 134 136 134 135 137 136 137 139 138 139 141 123 123 123
130 130 130 137 137 137 136 136 136 130 130 130 131 131 131
149 149 149 169 169 169 211 211 211 226 226 226 245 245 245
254 254 254 252 252 252 247 247 247 247 247 247 249 249 249
252 252 252 252 252 252 252 252 252 252 252 252 252 252 252
252 252 252 252 252 252 252 252 252 253 253 253 253 253 253
253 253 253 253 253 253 253 253 253 253 253 253 253 253 253
253 253 253 254 254 254 254 254 254 254 254 254 254 254 254
254 254 254 254 254 254 254 254 254 254 254 254 254 254 254
254 254 254 254 254 254 254 254 254 254 254 254 254 254 254
254 254 254 254 254 254 254 254 254 254 254 254 254 254 254
254 254 254 254 254 254 254 254 254 254 254 254 254 254 254
254 254 254 254 254 254 254 254 254 254 254 254 254 254 254
254 254 254 254 254 254 254 254 254 254 254 254 254 254 254
254 254 254 254 254 254 254 254 254 254 254 254 254 254 254
254 254 254 254 254 254 254 254 254 254 254 254 254 254 254
254 254 254 254 254 254 254 254 254 254 254 254 254 254 254
254 254 254 254 254 254 254 254 254 254 254 254 254 254 254
254 254 254 254 254 254 254 254 254 254 254 254 254 254 254
254 254 254 254 254 254 254 254 254 254 254 254 254 254 254
254 254 254 254 254 254 254 254 254 254 254 254 254 254 254
254 254 254 254 254 254 254 254 254 254 254 254 254 254 254
254 254 254 254 254 254 254 254 254 254 254 254 254 254 254
254 254 254 254 254 254 254 254 254 254 254 254 254 254 254
254 254 254 254 254 254 254 254 254 254 254 254 254 254 254
254 254 254 254 254 254 255 255 255 255 255 255 255 255 255
255 255 255 255 255 255 254 254 254 254 254 254 254 254 254
254 254 254 254 254 254 254 254 254 254 254 254 254 254 254
253 253 253 250 250 250 251 251 251 255 255 255 255 255 255
255 255 255 249 249 249 246 246 246 254 255 255 250 252 251
241 243 242 242 244 243 252 254 253 250 252 251 222 224 223
190 192 191 159 161 160 145 147 146 135 137 136 135 137 136
140 142 141 143 145 144 145 147 146 147 149 148 135 136 138
132 133 135 127 128 130 124 125 127 124 125 127 128 129 131
133 134 136 136 137 139 133 134 136 133 134 136 133 134 136
133 134 136 133 134 136 133 134 136 133 134 136 133 134 136
133 134 136 133 134 136 133 134 136 133 134 136 133 134 136
133 134 136 133 134 136 133 134 136 133 134 136 133 134 136
133 134 136 133 134 136 133 134 136 133 134 136 133 134 136
133 134 136 133 134 136 133 134 136 133 134 136 133 134 136
133 134 136 133 134 136 133 134 136 133 134 136 133 134 136
133 134 136 133 134 136 133 134 136 133 134 136 133 134 136
133 134 136 133 134 136 133 134 136 134 135 137 134 135 137
134 135 137 134 135 137 133 134 136 132 133 135 131 132 134
136 137 139 134 135 137 132 133 135 131 132 134 132 133 135
136 137 139 140 141 143 143 144 146 146 146 146 143 143 143
137 137 137 128 128 128 122 122 122 125 125 125 137 137 137
148 148 148 170 170 170 172 172 172 175 175 175 177 177 177
177 177 177 176 176 176 174 174 174 172 172 172 171 171 171
171 171 171 171 171 171 171 171 171 171 171 171 171 171 171
171 171 171 171 171 171 170 170 170 170 170 170 170 170 170
170 170 170 170 170 170 170 170 170 170 170 170 170 170 170
169 171 170 169 171 170 169 171 170 169 171 170 169 171 170
169 171 170 169 171 170 169 171 170 169 171 170 169 171 170
169 171 170 169 171 170 169 171 170 169 171 170 169 171 170
169 171 170 169 171 170 169 171 170 169 171 170 169 171 170
169 171 170 169 171 170 169 171 170 169 171 170 169 171 170
169 171 170 169 171 170 169 171 170 169 171 170 169 171 170
169 171 170 169 171 170 169 171 170 169 171 170 169 171 170
169 171 170 169 171 170 169 171 170 169 171 170 169 171 170
167 169 168 168 170 169 168 170 169 169 171 170 169 171 170
170 172 171 170 172 171 171 173 172 179 181 180 176 178 177
172 174 173 172 174 173 173 175 174 173 175 174 169 171 170
164 166 165 154 156 155 147 149 148 137 139 138 130 132 131
128 130 129 130 132 131 131 133 132 133 135 134 134 136 135
137 139 138 139 141 140 138 140 139 133 135 134 130 132 131
130 132 131 132 134 133 133 135 134 133 135 134 133 135 134
133 135 134 133 135 134 133 135 134 133 135 134 133 135 134
133 134 136 133 134 136 133 134 136 133 134 136 133 134 136
133 134 136 133 134 136 133 134 136 133 134 136 133 134 136
133 134 136 133 134 136 133 134 136 133 134 136 133 134 136
133 134 136 133 134 136 133 134 136 133 134 136 133 134 136
133 134 136 133 134 136 133 134 136 133 134 136 133 134 136
133 134 136 133 134 136 133 134 136 133 134 136 133 134 136
133 134 136 133 134 136 133 134 136 133 134 136 133 134 136
133 134 136 133 134 136 133 134 136 133 134 136 133 134 136
133 134 136 133 134 136 133 134 136 133 134 136 133 134 136
133 134 136 133 134 136 133 134 136 139 139 139 138 138 138
136 136 136 134 134 134 133 133 133 133 133 133 134 134 134
135 135 135 145 145 145 161 161 161 194 194 194 230 230 230
252 252 252 254 254 254 245 245 245 239 239 239 241 241 241
244 244 244 247 247 247 250 250 250 252 252 252 253 253 253
255 255 255 255 255 255 255 255 255 254 254 254 251 251 251
249 249 249 248 248 248 250 250 250 252 252 252 254 254 254
254 254 254 254 254 254 254 254 254 254 254 254 254 254 254
254 254 254 254 254 254 254 254 254 254 254 254 254 254 254
254 254 254 254 254 254 254 254 254 254 254 254 254 254 254
254 254 254 254 254 254 254 254 254 254 254 254 254 254 254
254 254 254 254 254 254 254 254 254 254 254 254 254 254 254
254 254 254 254 254 254 254 254 254 254 254 254 254 254 254
254 254 254 254 254 254 254 254 254 254 254 254 254 254 254
254 254 254 254 254 254 254 254 254 254 254 254 254 254 254
254 254 254 254 254 254 254 254 254 254 254 254 254 254 254
254 254 254 254 254 254 254 254 254 254 254 254 254 254 254
254 254 254 254 254 254 254 254 254 254 254 254 254 254 254
254 254 254 254 254 254 254 254 254 254 254 254 254 254 254
254 254 254 254 254 254 254 254 254 254 254 254 254 254 254
254 254 254 254 254 254 254 254 254 254 254 254 254 254 254
254 254 254 254 254 254 254 254 254 254 254 254 254 254 254
254 254 254 254 254 254 254 254 254 254 254 254 254 254 254
254 254 254 254 254 254 254 254 254 254 254 254 254 254 254
254 254 254 254 254 254 254 254 254 254 254 254 254 254 254
254 254 254 255 255 255 255 255 255 255 255 255 255 255 255
255 255 255 253 253 253 253 253 253 253 253 253 253 253 253
253 253 253 253 253 253 253 253 253 253 253 253 254 254 254
252 252 252 250 250 250 250 250 250 250 250 250 251 251 251
253 253 253 255 255 255 237 239 238 250 252 251 254 255 255
248 250 249 227 229 228 200 202 201 168 170 169 145 147 146
121 123 122 117 119 118 120 122 121 132 134 133 142 144 143
145 147 146 142 144 143 140 142 141 129 130 132 132 133 135
135 136 138 138 139 141 139 140 142 137 138 140 134 135 137
132 133 135 133 134 136 133 134 136 133 134 136 133 134 136
133 134 136 133 134 136 133 134 136 133 134 136 133 134 136
133 134 136 133 134 136 133 134 136 133 134 136 133 134 136
133 134 136 133 134 136 133 134 136 133 134 136 133 134 136
133 134 136 133 134 136 133 134 136 133 134 136 133 134 136
133 134 136 133 134 136 133 134 136 133 134 136 133 134 136
133 134 136 133 134 136 133 134 136 133 134 136 133 134 136
133 134 136 133 134 136 133 134 136 133 134 136 133 134 136
133 134 136 133 134 136 133 134 136 133 134 136 134 135 137
133 134 136 133 134 136 132 133 135 132 133 135 132 133 135
132 133 135 131 132 134 131 132 134 132 133 135 133 134 136
135 136 138 136 137 139 137 137 137 132 132 132 127 127 127
124 124 124 129 129 129 141 141 141 155 155 155 165 165 165
169 169 169 169 169 169 170 170 170 171 171 171 172 172 172
173 173 173 174 174 174 174 174 174 171 171 171 171 171 171
171 171 171 171 171 171 171 171 171 171 171 171 171 171 171
171 171 171 170 170 170 170 170 170 170 170 170 170 170 170
170 170 170 170 170 170 170 170 170 170 170 170 169 171 170
169 171 170 169 171 170 169 171 170 169 171 170 169 171 170
169 171 170 169 171 170 169 171 170 169 171 170 169 171 170
169 171 170 169 171 170 169 171 170 169 171 170 169 171 170
169 171 170 169 171 170 169 171 170 169 171 170 169 171 170
169 171 170 169 171 170 169 171 170 169 171 170 169 171 170
169 171 170 169 171 170 169 171 170 169 171 170 169 171 170
169 171 170 169 171 170 169 171 170 169 171 170 169 171 170
169 171 170 169 171 170 169 171 170 169 171 170 168 170 169
168 170 169 169 171 170 169 171 170 169 171 170 169 171 170
170 172 171 170 172 171 167 169 168 169 171 170 172 174 173
173 175 174 172 174 173 170 172 171 169 171 170 168 170 169
172 174 173 158 160 159 138 140 139 123 125 124 118 120 119
122 124 123 131 133 132 137 139 138 135 137 136 134 136 135
131 133 132 128 130 129 126 128 127 128 130 129 131 133 132
135 137 136 135 137 136 135 137 136 134 136 135 134 136 135
134 136 135 133 135 134 133 135 134 133 135 134 133 134 136
133 134 136 133 134 136 133 134 136 133 134 136 133 134 136
133 134 136 133 134 136 133 134 136 133 134 136 133 134 136
133 134 136 133 134 136 133 134 136 133 134 136 133 134 136
133 134 136 133 134 136 133 134 136 133 134 136 133 134 136
133 134 136 133 134 136 133 134 136 133 134 136 133 134 136
133 134 136 133 134 136 133 134 136 133 134 136 133 134 136
133 134 136 133 134 136 133 134 136 133 134 136 133 134 136
133 134 136 133 134 136 133 134 136 133 134 136 133 134 136
133 134 136 133 134 136 133 134 136 133 134 136 133 134 136
133 134 136 133 134 136 132 132 132 132 132 132 131 131 131
130 130 130 131 131 131 132 132 132 133 133 133 134 134 134
133 133 133 127 127 127 134 134 134 163 163 163 200 200 200
230 230 230 247 247 247 255 255 255 247 247 247 252 252 252
254 254 254 246 246 246 236 236 236 235 235 235 244 244 244
255 255 255 253 253 253 252 252 252 251 251 251 251 251 251
252 252 252 254 254 254 255 255 255 255 255 255 253 253 253
253 253 253 253 253 253 253 253 253 253 253 253 253 253 253
253 253 253 253 253 253 254 254 254 254 254 254 254 254 254
254 254 254 254 254 254 254 254 254 254 254 254 254 254 254
254 254 254 254 254 254 254 254 254 254 254 254 254 254 254
254 254 254 254 254 254 254 254 254 254 254 254 254 254 254
254 254 254 254 254 254 254 254 254 254 254 254 254 254 254
254 254 254 254 254 254 254 254 254 254 254 254 254 254 254
254 254 254 254 254 254 254 254 254 254 254 254 254 254 254
254 254 254 254 254 254 254 254 254 254 254 254 254 254 254
254 254 254 254 254 254 254 254 254 254 254 254 254 254 254
254 254 254 254 254 254 254 254 254 254 254 254 254 254 254
254 254 254 254 254 254 254 254 254 254 254 254 254 254 254
254 254 254 254 254 254 254 254 254 254 254 254 254 254 254
254 254 254 254 254 254 254 254 254 254 254 254 254 254 254
254 254 254 254 254 254 254 254 254 254 254 254 254 254 254
254 254 254 254 254 254 254 254 254 254 254 254 254 254 254
254 254 254 254 254 254 254 254 254 254 254 254 254 254 254
254 254 254 254 254 254 254 254 254 254 254 254 254 254 254
254 254 254 255 255 255 255 255 255 255 255 255 255 255 255
253 253 253 253 253 253 253 253 253 253 253 253 253 253 253
253 253 253 253 253 253 253 253 253 252 252 252 254 254 254
255 255 255 253 253 253 251 251 251 249 249 249 247 247 247
247 247 247 244 246 245 244 248 247 234 238 237 205 209 208
171 175 174 147 151 150 134 138 137 130 134 133 135 139 138
131 135 134 132 136 135 138 142 141 139 143 142 130 134 133
118 122 121 111 115 114 127 128 130 131 132 134 138 139 141
143 144 146 144 145 147 141 142 144 136 137 139 132 133 135
133 134 136 133 134 136 133 134 136 133 134 136 133 134 136
133 134 136 133 134 136 133 134 136 133 134 136 133 134 136
133 134 136 133 134 136 133 134 136 133 134 136 133 134 136
133 134 136 133 134 136 133 134 136 133 134 136 133 134 136
133 134 136 133 134 136 133 134 136 133 134 136 133 134 136
133 134 136 133 134 136 133 134 136 133 134 136 133 134 136
133 134 136 133 134 136 133 134 136 133 134 136 133 134 136
133 134 136 133 134 136 133 134 136 133 134 136 133 134 136
132 133 135 133 134 136 133 134 136 133 134 136 133 134 136
133 134 136 133 134 136 133 134 136 131 132 134 131 132 134
132 133 135 133 134 136 133 134 136 133 134 136 132 133 135
132 133 135 133 133 133 131 131 131 133 133 133 140 140 140
153 153 153 166 166 166 175 175 175 179 179 179 172 172 172
171 171 171 170 170 170 169 169 169 170 170 170 171 171 171
172 172 172 174 174 174 171 171 171 171 171 171 171 171 171
171 171 171 171 171 171 171 171 171 171 171 171 171 171 171
170 170 170 170 170 170 170 170 170 170 170 170 170 170 170
170 170 170 170 170 170 170 170 170 169 171 170 169 171 170
169 171 170 169 171 170 169 171 170 169 171 170 169 171 170
169 171 170 169 171 170 169 171 170 169 171 170 169 171 170
169 171 170 169 171 170 169 171 170 169 171 170 169 171 170
169 171 170 169 171 170 169 171 170 169 171 170 169 171 170
169 171 170 169 171 170 169 171 170 169 171 170 169 171 170
169 171 170 169 171 170 169 171 170 169 171 170 169 171 170
169 171 170 169 171 170 169 171 170 169 171 170 169 171 170
169 171 170 169 171 170 169 171 170 170 172 171 170 172 171
169 171 170 169 171 170 169 171 170 169 171 170 168 170 169
168 170 169 166 168 167 172 174 173 176 178 177 175 177 176
169 171 170 163 165 164 161 163 162 161 163 162 179 181 180
174 176 175 167 169 168 160 162 161 155 157 156 150 152 151
145 147 146 142 144 143 131 133 132 128 130 129 125 127 126
125 127 126 128 130 129 132 134 133 135 137 136 137 139 138
135 137 136 135 137 136 135 137 136 134 136 135 133 135 134
133 135 134 132 134 133 132 134 133 133 134 136 133 134 136
133 134 136 133 134 136 133 134 136 133 134 136 133 134 136
133 134 136 133 134 136 133 134 136 133 134 136 133 134 136
133 134 136 133 134 136 133 134 136 133 134 136 131 135 136
131 135 136 131 135 136 131 135 136 131 135 136 131 135 136
131 135 136 131 135 136 131 135 136 131 135 136 131 135 136
131 135 136 131 135 136 131 135 136 131 135 136 131 135 136
131 135 136 131 135 136 131 135 136 131 135 136 131 135 136
131 135 136 131 135 136 131 135 136 131 135 136 131 135 136
131 135 136 131 135 136 131 135 136 131 135 136 131 135 136
133 134 136 132 132 132 132 132 132 132 132 132 133 133 133
134 134 134 136 136 136 138 138 138 139 139 139 136 136 136
132 132 132 130 130 130 131 131 131 141 141 141 164 164 164
201 201 201 231 231 231 253 253 253 252 252 252 249 249 249
245 245 245 242 242 242 243 243 243 249 249 249 254 254 254
249 249 249 249 249 249 250 250 250 251 251 251 252 252 252
253 253 253 254 254 254 255 255 255 253 253 253 253 253 253
253 253 253 253 253 253 253 253 253 253 253 253 253 253 253
253 253 253 254 254 254 254 254 254 254 254 254 254 254 254
254 254 254 254 254 254 254 254 254 254 254 254 254 254 254
254 254 254 254 254 254 254 254 254 254 254 254 254 254 254
254 254 254 254 254 254 254 254 254 254 254 254 254 254 254
254 254 254 254 254 254 254 254 254 254 254 254 254 254 254
254 254 254 254 254 254 254 254 254 254 254 254 254 254 254
254 254 254 254 254 254 254 254 254 254 254 254 254 254 254
254 254 254 254 254 254 254 254 254 254 254 254 254 254 254
254 254 254 254 254 254 254 254 254 254 254 254 254 254 254
254 254 254 254 254 254 254 254 254 254 254 254 254 254 254
254 254 254 254 254 254 254 254 254 254 254 254 254 254 254
254 254 254 254 254 254 254 254 254 254 254 254 254 254 254
254 254 254 254 254 254 254 254 254 254 254 254 254 254 254
254 254 254 254 254 254 254 254 254 254 254 254 254 254 254
254 254 254 254 254 254 254 254 254 254 254 254 254 254 254
254 254 254 254 254 254 254 254 254 254 254 254 254 254 254
254 254 254 254 254 254 254 254 254 254 254 254 254 254 254
254 254 254 254 254 254 254 254 254 255 255 255 254 254 254
254 254 254 254 254 254 254 254 254 254 254 254 254 254 254
254 254 254 254 254 254 253 253 253 254 254 254 253 253 253
250 250 250 250 250 250 251 251 251 249 249 249 243 245 244
238 240 239 211 215 214 175 179 178 144 148 147 130 134 133
130 134 133 134 138 137 136 140 139 137 141 140 132 136 135
131 135 134 137 141 140 141 145 144 137 141 140 133 137 136
131 135 134 129 130 132 130 131 133 132 133 135 133 134 136
135 136 138 136 137 139 136 137 139 136 137 139 133 134 136
133 134 136 133 134 136 133 134 136 133 134 136 133 134 136
133 134 136 133 134 136 133 134 136 133 134 136 133 134 136
133 134 136 133 134 136 133 134 136 133 134 136 133 134 136
133 134 136 133 134 136 133 134 136 133 134 136 133 134 136
133 134 136 133 134 136 133 134 136 133 134 136 133 134 136
133 134 136 133 134 136 133 134 136 133 134 136 133 134 136
133 134 136 133 134 136 133 134 136 133 134 136 133 134 136
133 134 136 133 134 136 133 134 136 133 134 136 133 134 136
133 134 136 132 133 135 132 133 135 133 134 136 133 134 136
134 135 137 134 135 137 133 134 136 133 134 136 133 134 136
133 134 136 134 135 137 134 135 137 135 136 138 135 136 138
136 136 136 143 143 143 154 154 154 166 166 166 175 175 175
178 178 178 176 176 176 174 174 174 175 175 175 175 175 175
173 173 173 172 172 172 172 172 172 171 171 171 171 171 171
171 171 171 170 170 170 170 170 170 170 170 170 170 170 170
170 170 170 170 170 170 170 170 170 170 170 170 170 170 170
170 170 170 170 170 170 170 170 170 170 170 170 170 170 170
170 170 170 170 170 170 169 171 170 169 171 170 169 171 170
169 171 170 169 171 170 169 171 170 169 171 170 169 171 170
169 171 170 169 171 170 169 171 170 169 171 170 169 171 170
169 171 170 169 171 170 169 171 170 169 171 170 169 171 170
169 171 170 169 171 170 169 171 170 169 171 170 169 171 170
169 171 170 169 171 170 169 171 170 169 171 170 169 171 170
169 171 170 169 171 170 169 171 170 169 171 170 169 171 170
169 171 170 169 171 170 169 171 170 169 171 170 169 171 170
169 171 170 169 171 170 171 173 172 170 172 171 170 172 171
169 171 170 169 171 170 168 170 169 168 170 169 167 169 168
167 169 168 170 172 171 172 174 173 172 174 173 168 170 169
164 166 165 163 165 164 163 165 164 159 161 160 164 166 165
171 173 172 176 178 177 174 176 175 164 166 165 150 152 151
140 142 141 130 132 131 129 131 130 128 130 129 131 133 132
136 138 137 139 141 140 138 140 139 136 138 137 132 134 133
132 134 133 132 134 133 132 134 133 133 135 134 133 135 134
133 135 134 133 135 134 133 134 136 133 134 136 133 134 136
133 134 136 133 134 136 133 134 136 133 134 136 133 134 136
133 134 136 133 134 136 133 134 136 133 134 136 133 134 136
133 134 136 133 134 136 133 134 136 131 135 136 131 135 136
131 135 136 131 135 136 131 135 136 131 135 136 131 135 136
131 135 136 131 135 136 131 135 136 131 135 136 131 135 136
131 135 136 131 135 136 131 135 136 131 135 136 131 135 136
131 135 136 131 135 136 131 135 136 131 135 136 131 135 136
131 135 136 131 135 136 131 135 136 131 135 136 131 135 136
131 135 136 131 135 136 131 135 136 131 135 136 131 135 136
133 133 133 133 133 133 134 134 134 135 135 135 136 136 136
137 137 137 138 138 138 139 139 139 126 126 126 132 132 132
138 138 138 135 135 135 129 129 129 134 134 134 159 159 159
184 184 184 225 225 225 236 236 236 249 249 249 255 255 255
253 253 253 250 250 250 251 251 251 253 253 253 251 251 251
252 252 252 253 253 253 254 254 254 254 254 254 253 253 253
252 252 252 251 251 251 253 253 253 253 253 253 253 253 253
254 254 254 254 254 254 254 254 254 254 254 254 254 254 254
254 254 254 254 254 254 254 254 254 254 254 254 254 254 254
254 254 254 254 254 254 254 254 254 254 254 254 254 254 254
254 254 254 254 254 254 254 254 254 254 254 254 254 254 254
254 254 254 254 254 254 254 254 254 254 254 254 254 254 254
254 254 254 254 254 254 254 254 254 254 254 254 254 254 254
254 254 254 254 254 254 254 254 254 254 254 254 254 254 254
254 254 254 254 254 254 254 254 254 254 254 254 254 254 254
254 254 254 254 254 254 254 254 254 254 254 254 254 254 254
254 254 254 254 254 254 254 254 254 254 254 254 254 254 254
254 254 254 254 254 254 254 254 254 254 254 254 254 254 254
254 254 254 254 254 254 254 254 254 254 254 254 254 254 254
254 254 254 254 254 254 254 254 254 254 254 254 254 254 254
254 254 254 254 254 254 254 254 254 254 254 254 254 254 254
254 254 254 254 254 254 254 254 254 254 254 254 254 254 254
254 254 254 254 254 254 254 254 254 254 254 254 254 254 254
254 254 254 254 254 254 254 254 254 254 254 254 254 254 254
254 254 254 254 254 254 254 254 254 254 254 254 254 254 254
254 254 254 254 254 254 253 253 253 255 255 255 255 255 255
255 255 255 255 255 255 255 255 255 255 255 255 255 255 255
255 255 255 255 255 255 255 255 255 251 251 251 247 247 247
248 248 248 249 249 249 241 241 241 229 231 230 184 186 185
159 163 162 133 137 136 124 128 127 129 133 132 134 138 137
131 135 134 125 129 128 128 132 131 124 128 127 124 128 127
131 135 134 138 142 141 139 143 142 140 144 143 142 146 145
129 130 132 128 129 131 128 129 131 128 129 131 129 130 132
132 133 135 134 135 137 136 137 139 133 134 136 133 134 136
133 134 136 133 134 136 133 134 136 133 134 136 133 134 136
133 134 136 133 134 136 133 134 136 133 134 136 133 134 136
133 134 136 133 134 136 133 134 136 133 134 136 133 134 136
133 134 136 133 134 136 133 134 136 133 134 136 133 134 136
133 134 136 133 134 136 133 134 136 133 134 136 133 134 136
133 134 136 133 134 136 133 134 136 133 134 136 133 134 136
133 134 136 133 134 136 133 134 136 133 134 136 133 134 136
133 134 136 133 134 136 133 134 136 134 135 137 133 134 136
132 133 135 132 133 135 132 133 135 133 134 136 134 135 137
134 135 137 134 135 137 133 134 136 132 133 135 131 132 134
133 134 136 136 137 139 140 141 143 143 144 146 146 146 146
157 157 157 170 170 170 178 178 178 177 177 177 172 172 172
168 168 168 166 166 166 169 169 169 170 170 170 172 172 172
174 174 174 174 174 174 173 173 173 171 171 171 170 170 170
170 170 170 170 170 170 170 170 170 170 170 170 170 170 170
170 170 170 170 170 170 170 170 170 170 170 170 170 170 170
170 170 170 170 170 170 170 170 170 170 170 170 170 170 170
170 170 170 169 171 170 169 171 170 169 171 170 169 171 170
169 171 170 169 171 170 169 171 170 169 171 170 169 171 170
169 171 170 169 171 170 169 171 170 169 171 170 169 171 170
169 171 170 169 171 170 169 171 170 169 171 170 169 171 170
169 171 170 169 171 170 169 171 170 169 171 170 169 171 170
169 171 170 169 171 170 169 171 170 169 171 170 169 171 170
169 171 170 169 171 170 169 171 170 169 171 170 169 171 170
169 171 170 169 171 170 169 171 170 169 171 170 169 171 170
169 171 170 171 173 172 170 172 171 170 172 171 169 171 170
169 171 170 168 170 169 168 170 169 167 169 168 161 163 162
160 162 161 160 162 161 164 166 165 171 173 172 176 178 177
177 179 178 177 179 178 165 167 166 164 166 165 163 165 164
164 166 165 165 167 166 165 167 166 164 166 165 162 164 163
146 148 147 142 144 143 137 139 138 136 138 137 137 139 138
137 139 138 134 136 135 131 133 132 128 130 129 129 131 130
130 132 131 131 133 132 132 134 133 133 135 134 134 136 135
134 136 135 133 134 136 133 134 136 133 134 136 133 134 136
133 134 136 133 134 136 133 134 136 133 134 136 133 134 136
133 134 136 133 134 136 133 134 136 133 134 136 133 134 136
133 134 136 133 134 136 131 135 136 131 135 136 131 135 136
131 135 136 131 135 136 131 135 136 131 135 136 131 135 136
131 135 136 131 135 136 131 135 136 131 135 136 131 135 136
131 135 136 131 135 136 131 135 136 131 135 136 131 135 136
131 135 136 131 135 136 131 135 136 131 135 136 131 135 136
131 135 136 131 135 136 131 135 136 131 135 136 131 135 136
131 135 136 131 135 136 131 135 136 131 135 136 132 132 132
132 132 132 132 132 132 133 133 133 133 133 133 132 132 132
132 132 132 132 132 132 141 141 141 134 134 134 131 131 131
136 136 136 139 139 139 135 135 135 128 128 128 125 125 125
169 169 169 200 200 200 236 236 236 254 254 254 252 252 252
245 245 245 246 246 246 251 251 251 253 253 253 255 255 255
255 255 255 255 255 255 255 255 255 255 255 255 255 255 255
254 254 254 253 253 253 253 253 253 254 254 254 254 254 254
255 255 255 255 255 255 255 255 255 255 255 255 254 254 254
254 254 254 254 254 254 254 254 254 254 254 254 254 254 254
254 254 254 254 254 254 254 254 254 254 254 254 254 254 254
254 254 254 254 254 254 254 254 254 254 254 254 254 254 254
254 254 254 254 254 254 254 254 254 254 254 254 254 254 254
254 254 254 254 254 254 254 254 254 254 254 254 254 254 254
254 254 254 254 254 254 254 254 254 254 254 254 254 254 254
254 254 254 254 254 254 254 254 254 254 254 254 254 254 254
254 254 254 254 254 254 254 254 254 254 254 254 254 254 254
254 254 254 254 254 254 254 254 254 254 254 254 254 254 254
254 254 254 254 254 254 254 254 254 254 254 254 254 254 254
254 254 254 254 254 254 254 254 254 254 254 254 254 254 254
254 254 254 254 254 254 254 254 254 254 254 254 254 254 254
254 254 254 254 254 254 254 254 254 254 254 254 254 254 254
254 254 254 254 254 254 254 254 254 254 254 254 254 254 254
254 254 254 254 254 254 254 254 254 254 254 254 254 254 254
254 254 254 254 254 254 254 254 254 254 254 254 254 254 254
254 254 254 254 254 254 254 254 254 253 253 253 253 253 253
253 253 253 253 253 253 254 254 254 254 254 254 254 254 254
254 254 254 254 254 254 254 254 254 254 254 254 254 254 254
250 250 250 255 255 255 255 255 255 255 255 255 246 246 246
226 226 226 193 193 193 164 166 165 140 144 143 133 137 136
129 133 132 132 136 135 135 139 138 133 137 136 129 133 132
128 132 131 135 139 138 132 136 135 132 136 135 136 140 139
135 139 138 130 134 133 125 129 128 124 128 127 127 128 130
128 129 131 131 132 134 133 134 136 134 135 137 134 135 137
133 134 136 132 133 135 133 134 136 133 134 136 133 134 136
133 134 136 133 134 136 133 134 136 133 134 136 133 134 136
133 134 136 133 134 136 133 134 136 133 134 136 133 134 136
133 134 136 133 134 136 133 134 136 133 134 136 133 134 136
133 134 136 133 134 136 133 134 136 133 134 136 133 134 136
133 134 136 133 134 136 133 134 136 133 134 136 133 134 136
133 134 136 133 134 136 133 134 136 133 134 136 133 134 136
133 134 136 133 134 136 133 134 136 133 134 136 133 134 136
133 134 136 133 134 136 136 137 139 135 136 138 133 134 136
132 133 135 131 132 134 132 133 135 133 134 136 134 135 137
132 133 135 131 132 134 130 131 133 132 133 135 136 137 139
142 143 145 148 149 151 152 153 155 165 165 165 172 172 172
178 178 178 177 177 177 171 171 171 167 167 167 169 169 169
173 173 173 160 160 160 163 163 163 167 167 167 171 171 171
173 173 173 173 173 173 172 172 172 170 170 170 169 169 169
169 169 169 169 169 169 169 169 169 169 169 169 169 169 169
169 169 169 169 169 169 170 170 170 170 170 170 170 170 170
170 170 170 170 170 170 170 170 170 170 170 170 170 170 170
169 171 170 169 171 170 169 171 170 169 171 170 169 171 170
169 171 170 169 171 170 169 171 170 169 171 170 169 171 170
169 171 170 169 171 170 169 171 170 169 171 170 169 171 170
169 171 170 169 171 170 169 171 170 169 171 170 169 171 170
169 171 170 169 171 170 169 171 170 169 171 170 169 171 170
169 171 170 169 171 170 169 171 170 169 171 170 169 171 170
169 171 170 169 171 170 169 171 170 169 171 170 169 171 170
169 171 170 169 171 170 169 171 170 169 171 170 169 171 170
170 172 171 170 172 171 169 171 170 169 171 170 169 171 170
169 171 170 168 170 169 168 170 169 167 169 168 163 165 164
160 162 161 163 165 164 170 172 171 176 178 177 178 180 179
177 179 178 179 181 180 175 177 176 171 173 172 170 172 171
172 174 173 175 177 176 178 180 179 178 180 179 167 169 168
160 162 161 150 152 151 140 142 141 133 135 134 130 132 131
128 130 129 127 129 128 128 130 129 129 131 130 130 132 131
131 133 132 132 134 133 133 135 134 134 136 135 134 136 135
133 134 136 133 134 136 133 134 136 133 134 136 133 134 136
133 134 136 133 134 136 133 134 136 133 134 136 133 134 136
133 134 136 133 134 136 133 134 136 133 134 136 133 134 136
133 134 136 131 135 136 131 135 136 131 135 136 131 135 136
131 135 136 131 135 136 131 135 136 131 135 136 131 135 136
131 135 136 131 135 136 131 135 136 131 135 136 131 135 136
131 135 136 131 135 136 131 135 136 131 135 136 131 135 136
131 135 136 131 135 136 131 135 136 131 135 136 131 135 136
131 135 136 131 135 136 131 135 136 131 135 136 131 135 136
131 135 136 131 135 136 131 135 136 134 136 135 135 135 135
135 135 135 135 135 135 134 134 134 133 133 133 131 131 131
130 130 130 151 151 151 144 144 144 139 139 139 137 137 137
133 133 133 126 126 126 122 122 122 122 122 122 137 137 137
150 150 150 178 178 178 215 215 215 247 247 247 255 255 255
255 255 255 246 246 246 245 245 245 246 246 246 249 249 249
252 252 252 254 254 254 255 255 255 255 255 255 254 254 254
252 252 252 253 253 253 253 253 253 254 254 254 254 254 254
255 255 255 255 255 255 255 255 255 254 254 254 254 254 254
254 254 254 254 254 254 254 254 254 254 254 254 254 254 254
254 254 254 254 254 254 254 254 254 254 254 254 254 254 254
254 254 254 254 254 254 254 254 254 254 254 254 254 254 254
254 254 254 254 254 254 254 254 254 254 254 254 254 254 254
254 254 254 254 254 254 254 254 254 254 254 254 254 254 254
254 254 254 254 254 254 254 254 254 254 254 254 254 254 254
254 254 254 254 254 254 254 254 254 254 254 254 254 254 254
254 254 254 254 254 254 254 254 254 254 254 254 254 254 254
254 254 254 254 254 254 254 254 254 254 254 254 254 254 254
254 254 254 254 254 254 254 254 254 254 254 254 254 254 254
254 254 254 254 254 254 254 254 254 254 254 254 254 254 254
254 254 254 254 254 254 254 254 254 254 254 254 254 254 254
254 254 254 254 254 254 254 254 254 254 254 254 254 254 254
254 254 254 254 254 254 254 254 254 254 254 254 254 254 254
254 254 254 254 254 254 254 254 254 254 254 254 254 254 254
254 254 254 254 254 254 254 254 254 254 254 254 254 254 254
254 254 254 253 253 253 253 253 253 252 252 252 252 252 252
252 252 252 252 252 252 252 252 252 252 252 252 252 252 252
252 252 252 252 252 252 252 252 252 252 252 252 244 244 244
255 255 255 255 255 255 236 236 236 208 208 208 178 178 178
145 145 145 118 120 119 132 136 135 129 135 133 130 136 134
132 138 136 130 136 134 127 133 131 132 138 136 141 147 145
128 134 132 126 132 130 128 134 132 133 139 137 136 142 140
133 139 137 132 138 136 134 138 137 129 130 132 131 132 134
134 135 137 136 137 139 137 138 140 136 137 139 134 135 137
132 133 135 133 134 136 133 134 136 133 134 136 133 134 136
133 134 136 133 134 136 133 134 136 133 134 136 133 134 136
133 134 136 133 134 136 133 134 136 133 134 136 133 134 136
133 134 136 133 134 136 133 134 136 133 134 136 133 134 136
133 134 136 133 134 136 133 134 136 133 134 136 133 134 136
133 134 136 133 134 136 133 134 136 133 134 136 133 134 136
133 134 136 133 134 136 133 134 136 133 134 136 133 134 136
133 134 136 133 134 136 133 134 136 133 134 136 133 134 136
133 134 136 138 139 141 136 137 139 134 135 137 131 132 134
130 131 133 130 131 133 131 132 134 132 133 135 130 131 133
131 132 134 134 135 137 139 140 142 146 147 149 153 154 156
160 161 163 163 164 166 176 176 176 177 177 177 177 177 177
175 175 175 172 172 172 171 171 171 173 173 173 176 176 176
163 163 163 165 165 165 167 167 167 169 169 169 170 170 170
171 171 171 170 170 170 170 170 170 169 169 169 169 169 169
169 169 169 169 169 169 169 169 169 169 169 169 169 169 169
169 169 169 170 170 170 170 170 170 170 170 170 170 170 170
170 170 170 170 170 170 170 170 170 170 170 170 169 171 170
169 171 170 169 171 170 169 171 170 169 171 170 169 171 170
169 171 170 169 171 170 169 171 170 169 171 170 169 171 170
169 171 170 169 171 170 169 171 170 169 171 170 169 171 170
169 171 170 169 171 170 169 171 170 169 171 170 169 171 170
169 171 170 169 171 170 169 171 170 169 171 170 169 171 170
169 171 170 169 171 170 169 171 170 169 171 170 169 171 170
169 171 170 169 171 170 169 171 170 169 171 170 169 171 170
169 171 170 169 171 170 169 171 170 169 171 170 168 170 169
168 170 169 169 171 170 169 171 170 169 171 170 169 171 170
170 172 171 170 172 171 173 175 174 171 173 172 169 171 170
168 170 169 168 170 169 168 170 169 167 169 168 167 169 168
167 169 168 167 169 168 169 171 170 172 174 173 173 175 174
172 174 173 168 170 169 165 167 166 172 174 173 170 172 171
164 166 165 155 157 156 144 146 145 134 136 135 127 129 128
124 126 125 133 135 134 133 135 134 133 135 134 133 135 134
133 135 134 133 135 134 133 135 134 133 135 134 133 134 136
133 134 136 133 134 136 133 134 136 133 134 136 133 134 136
133 134 136 133 134 136 133 134 136 133 134 136 133 134 136
133 134 136 133 134 136 133 134 136 133 134 136 133 134 136
131 135 136 130 136 136 130 136 136 130 136 136 130 136 136
130 136 136 130 136 136 130 136 136 130 136 136 130 136 136
130 136 136 130 136 136 130 136 136 130 136 136 130 136 136
130 136 136 130 136 136 130 136 136 130 136 136 130 136 136
130 136 136 130 136 136 130 136 136 130 136 136 130 136 136
130 136 136 130 136 136 130 136 136 130 136 136 130 136 136
130 136 136 131 135 136 136 138 137 137 137 137 138 138 138
138 138 138 137 137 137 135 135 135 134 134 134 132 132 132
125 125 125 131 131 131 138 138 138 138 138 138 131 131 131
129 129 129 142 142 142 159 159 159 134 134 134 126 126 126
131 131 131 163 163 163 210 210 210 242 242 242 247 247 247
239 239 239 242 242 242 243 243 243 245 245 245 247 247 247
249 249 249 251 251 251 252 252 252 252 252 252 250 250 250
250 250 250 251 251 251 251 251 251 252 252 252 253 253 253
254 254 254 254 254 254 254 254 254 254 254 254 254 254 254
254 254 254 254 254 254 254 254 254 254 254 254 254 254 254
254 254 254 254 254 254 254 254 254 254 254 254 254 254 254
254 254 254 254 254 254 254 254 254 254 254 254 254 254 254
254 254 254 254 254 254 254 254 254 254 254 254 254 254 254
254 254 254 254 254 254 254 254 254 254 254 254 254 254 254
254 254 254 254 254 254 254 254 254 254 254 254 254 254 254
254 254 254 254 254 254 254 254 254 254 254 254 254 254 254
254 254 254 254 254 254 254 254 254 254 254 254 254 254 254
254 254 254 254 254 254 254 254 254 254 254 254 254 254 254
254 254 254 254 254 254 254 254 254 254 254 254 254 254 254
254 254 254 254 254 254 254 254 254 254 254 254 254 254 254
254 254 254 254 254 254 254 254 254 254 254 254 254 254 254
254 254 254 254 254 254 254 254 254 254 254 254 254 254 254
254 254 254 254 254 254 254 254 254 254 254 254 254 254 254
254 254 254 254 254 254 254 254 254 254 254 254 254 254 254
254 254 254 254 254 254 254 254 254 254 254 254 254 254 254
253 253 253 253 253 253 252 252 252 252 252 252 252 252 252
250 250 250 250 250 250 250 250 250 250 250 250 250 250 250
250 250 250 250 250 250 250 250 250 248 248 248 246 246 246
223 223 223 179 181 180 146 146 146 135 137 136 136 138 137
136 138 137 127 131 130 122 128 126 123 129 127 129 135 133
131 137 135 128 134 132 132 138 136 139 145 143 138 144 142
132 138 136 128 134 132 128 134 132 128 134 132 126 132 130
128 134 132 133 137 136 133 137 138 134 135 137 133 134 136
132 133 135 132 133 135 133 134 136 135 136 138 136 137 139
133 134 136 133 134 136 133 134 136 133 134 136 133 134 136
133 134 136 133 134 136 133 134 136 133 134 136 133 134 136
133 134 136 133 134 136 133 134 136 133 134 136 133 134 136
133 134 136 133 134 136 133 134 136 133 134 136 133 134 136
133 134 136 133 134 136 133 134 136 133 134 136 133 134 136
133 134 136 133 134 136 133 134 136 133 134 136 133 134 136
133 134 136 133 134 136 133 134 136 133 134 136 133 134 136
133 134 136 133 134 136 133 134 136 133 134 136 133 134 136
139 140 142 137 138 140 134 135 137 131 132 134 130 131 133
130 131 133 131 132 134 131 132 134 131 132 134 134 135 137
140 141 143 148 149 151 157 158 160 164 165 167 169 170 172
172 173 175 173 173 173 172 172 172 171 171 171 172 172 172
173 173 173 172 172 172 168 168 168 165 165 165 174 174 174
173 173 173 171 171 171 169 169 169 168 168 168 168 168 168
168 168 168 169 169 169 169 169 169 169 169 169 169 169 169
169 169 169 169 169 169 169 169 169 169 169 169 169 169 169
170 170 170 170 170 170 170 170 170 170 170 170 170 170 170
170 170 170 170 170 170 170 170 170 169 171 170 169 171 170
169 171 170 169 171 170 169 171 170 169 171 170 169 171 170
169 171 170 169 171 170 169 171 170 169 171 170 169 171 170
169 171 170 169 171 170 169 171 170 169 171 170 169 171 170
169 171 170 169 171 170 169 171 170 169 171 170 169 171 170
169 171 170 169 171 170 169 171 170 169 171 170 169 171 170
169 171 170 169 171 170 169 171 170 169 171 170 169 171 170
169 171 170 169 171 170 169 171 170 169 171 170 169 171 170
169 171 170 169 171 170 169 171 170 167 169 168 168 170 169
168 170 169 169 171 170 169 171 170 170 172 171 170 172 171
171 173 172 166 168 167 169 171 170 173 175 174 171 173 172
167 169 168 165 167 166 166 168 167 168 170 169 170 172 171
169 171 170 167 169 168 168 170 169 170 172 171 171 173 172
170 172 171 169 171 170 163 165 164 169 171 170 175 177 176
173 175 174 161 163 162 145 147 146 131 133 132 124 126 125
139 141 140 138 140 139 137 139 138 136 138 137 135 137 136
133 135 134 132 134 133 132 134 133 133 134 136 133 134 136
133 134 136 133 134 136 133 134 136 133 134 136 133 134 136
133 134 136 133 134 136 133 134 136 133 134 136 133 134 136
133 134 136 133 134 136 133 134 136 133 134 136 131 135 136
130 136 136 131 135 136 130 136 136 131 135 136 130 136 136
131 135 136 130 136 136 131 135 136 130 136 136 131 135 136
130 136 136 131 135 136 130 136 136 131 135 136 130 136 136
130 136 136 130 136 136 130 136 136 130 136 136 130 136 136
130 136 136 130 136 136 130 136 136 130 136 136 130 136 136
130 136 136 130 136 136 130 136 136 130 136 136 130 136 136
131 135 136 131 133 132 132 134 133 134 134 134 134 136 135
134 134 134 132 134 133 131 131 131 129 131 130 138 138 138
133 135 134 134 134 134 135 137 136 135 135 135 130 132 131
130 130 130 132 132 132 133 133 133 135 135 135 136 136 136
139 139 139 150 150 150 176 176 176 210 210 210 236 236 236
251 251 251 251 251 251 251 251 251 252 252 252 252 252 252
253 253 253 254 254 254 254 254 254 247 247 247 248 248 248
248 248 248 249 249 249 250 250 250 251 251 251 252 252 252
252 252 252 254 254 254 254 254 254 254 254 254 254 254 254
254 254 254 254 254 254 254 254 254 254 254 254 254 254 254
254 254 254 254 254 254 254 254 254 254 254 254 254 254 254
254 254 254 254 254 254 254 254 254 254 254 254 254 254 254
254 254 254 254 254 254 254 254 254 254 254 254 254 254 254
254 254 254 254 254 254 254 254 254 254 254 254 254 254 254
254 254 254 254 254 254 254 254 254 254 254 254 254 254 254
254 254 254 254 254 254 254 254 254 254 254 254 254 254 254
254 254 254 254 254 254 254 254 254 254 254 254 254 254 254
254 254 254 254 254 254 254 254 254 254 254 254 254 254 254
254 254 254 254 254 254 254 254 254 254 254 254 254 254 254
254 254 254 254 254 254 254 254 254 254 254 254 254 254 254
254 254 254 254 254 254 254 254 254 254 254 254 254 254 254
254 254 254 254 254 254 254 254 254 254 254 254 254 254 254
254 254 254 254 254 254 254 254 254 254 254 254 254 254 254
254 254 254 254 254 254 254 254 254 254 254 254 254 254 254
254 254 254 255 255 255 255 255 255 255 255 255 255 255 255
253 253 253 251 251 251 249 249 249 248 248 248 247 247 247
250 250 250 250 250 250 248 248 248 248 248 248 251 251 251
249 251 250 245 247 246 251 253 252 215 217 216 175 177 176
150 154 153 143 145 144 135 139 138 133 137 136 135 139 138
129 133 134 129 133 134 129 133 134 130 134 135 132 136 137
134 138 139 136 140 141 137 141 142 133 137 138 132 136 137
132 136 137 131 135 136 131 135 136 130 134 135 130 134 135
129 133 134 131 135 136 131 135 136 131 135 136 131 135 136
131 135 136 131 135 136 131 135 136 131 135 136 131 135 136
131 135 136 131 135 136 131 135 136 131 135 136 131 135 136
131 135 136 131 135 136 131 135 136 131 135 136 131 135 136
131 135 136 131 135 136 131 135 136 131 135 136 131 135 136
131 135 136 131 135 136 131 135 136 131 135 136 131 135 136
131 135 136 131 135 136 131 135 136 133 134 136 133 134 136
133 134 136 133 134 136 133 134 136 133 134 136 133 134 136
133 134 136 133 134 136 133 134 136 133 134 136 133 134 136
133 134 136 133 134 136 133 134 136 133 134 136 131 132 134
135 136 138 139 140 142 138 139 141 134 135 137 128 129 131
125 126 128 124 125 127 123 124 126 136 137 139 153 154 156
165 166 168 169 170 172 168 169 171 168 169 171 168 169 171
169 171 170 170 172 171 170 172 171 171 173 172 171 173 172
170 172 171 170 172 171 169 171 170 169 171 170 169 171 170
169 171 170 169 171 170 169 171 170 169 171 170 169 171 170
169 171 170 169 171 170 169 171 170 169 171 170 169 171 170
169 171 170 169 171 170 169 171 170 169 171 170 169 171 170
169 171 170 169 171 170 169 171 170 169 171 170 169 171 170
169 171 170 169 171 170 169 171 170 169 171 170 169 171 170
169 171 170 169 171 170 169 171 170 169 171 170 169 171 170
169 171 170 169 171 170 169 171 170 169 171 170 169 171 170
169 171 170 169 171 170 169 171 170 169 171 170 169 171 170
169 171 170 169 171 170 169 171 170 169 171 170 169 171 170
169 171 170 169 171 170 169 171 170 169 171 170 169 171 170
169 171 170 169 171 170 169 171 170 169 171 170 169 171 170
169 171 170 169 171 170 169 171 170 169 171 170 169 171 170
169 171 170 169 171 170 169 171 170 169 171 170 169 171 170
169 171 170 169 171 170 169 171 170 169 171 170 169 171 170
168 170 169 168 170 169 168 170 169 168 170 169 168 170 169
168 170 169 168 170 169 168 170 169 169 171 170 169 171 170
169 171 170 169 171 170 169 171 170 168 170 169 166 168 167
166 168 167 170 172 171 170 172 171 170 172 171 169 171 170
165 167 166 156 158 157 146 148 147 138 140 139 134 136 135
134 136 135 135 137 136 135 137 136 134 136 135 133 135 134
133 135 134 133 135 134 133 134 136 134 135 137 134 135 137
134 135 137 134 135 137 133 134 136 132 133 135 131 132 134
133 134 136 133 134 136 133 134 136 133 134 136 133 134 136
133 134 136 133 134 136 133 134 136 133 134 136 131 135 136
133 134 136 131 135 136 133 134 136 131 135 136 133 134 136
131 135 136 133 134 136 131 135 136 133 134 136 131 135 136
133 134 136 131 135 136 133 134 136 131 135 136 131 135 136
131 135 136 131 135 136 131 135 136 131 135 136 131 135 136
131 135 136 131 135 136 131 135 136 131 135 136 131 135 136
131 135 136 131 135 136 131 135 136 131 135 136 131 135 136
131 135 136 131 135 136 133 134 136 131 135 136 133 134 136
131 135 136 133 134 136 131 135 136 134 135 137 132 136 137
134 135 137 131 135 136 133 134 136 130 134 135 132 133 135
132 133 135 140 141 143 136 137 139 135 136 138 133 134 136
127 128 130 131 132 134 161 162 164 195 196 198 234 235 237
246 247 249 254 255 255 252 253 255 250 251 253 252 253 255
252 253 255 249 250 252 253 253 253 252 252 252 251 251 251
250 250 250 249 249 249 249 249 249 248 248 248 247 247 247
249 249 249 251 251 251 252 252 252 254 254 254 255 255 255
255 255 255 254 254 254 253 253 253 254 254 254 254 254 254
254 254 254 254 254 254 254 254 254 254 254 254 254 254 254
254 254 254 254 254 254 254 254 254 254 254 254 254 254 254
254 254 254 254 254 254 254 254 254 254 254 254 254 254 254
254 254 254 254 254 254 254 254 254 254 254 254 254 254 254
254 254 254 254 254 254 254 254 254 254 254 254 254 254 254
254 254 254 254 254 254 254 254 254 254 254 254 254 254 254
254 254 254 254 254 254 254 254 254 254 254 254 254 254 254
254 254 254 254 254 254 254 254 254 254 254 254 254 254 254
254 254 254 254 254 254 254 254 254 254 254 254 254 254 254
254 254 254 254 254 254 254 254 254 254 254 254 254 254 254
254 254 254 254 254 254 254 254 254 254 254 254 254 254 254
254 254 254 254 254 254 254 254 254 254 254 254 254 254 254
254 254 254 254 254 254 254 254 254 254 254 254 254 254 254
254 254 254 254 254 254 254 254 254 254 254 254 254 254 254
255 255 255 255 255 255 255 255 255 255 255 255 253 253 253
252 252 252 250 250 250 249 249 249 249 249 249 245 245 245
240 240 240 242 242 242 251 251 251 255 255 255 251 253 252
240 242 241 193 195 194 169 171 170 143 147 146 132 136 135
130 134 133 130 134 133 131 137 135 134 140 138 133 137 138
133 137 138 133 137 138 133 137 138 133 137 138 133 137 138
133 137 138 133 137 138 132 136 137 132 136 137 131 135 136
131 135 136 131 135 136 131 135 136 130 134 135 130 134 135
131 135 136 131 135 136 131 135 136 131 135 136 131 135 136
131 135 136 131 135 136 131 135 136 131 135 136 131 135 136
131 135 136 131 135 136 131 135 136 131 135 136 131 135 136
131 135 136 131 135 136 131 135 136 131 135 136 131 135 136
131 135 136 131 135 136 131 135 136 131 135 136 131 135 136
131 135 136 131 135 136 131 135 136 131 135 136 131 135 136
131 135 136 131 135 136 133 134 136 133 134 136 133 134 136
133 134 136 133 134 136 133 134 136 133 134 136 133 134 136
133 134 136 133 134 136 133 134 136 133 134 136 133 134 136
133 134 136 133 134 136 133 134 136 131 132 134 135 136 138
137 138 140 136 137 139 131 132 134 128 129 131 128 129 131
130 131 133 138 139 141 149 150 152 162 163 165 170 171 173
171 172 174 169 170 172 168 169 171 169 170 172 169 171 170
169 171 170 170 172 171 170 172 171 170 172 171 170 172 171
169 171 170 169 171 170 169 171 170 169 171 170 169 171 170
169 171 170 169 171 170 169 171 170 169 171 170 169 171 170
169 171 170 169 171 170 169 171 170 169 171 170 169 171 170
169 171 170 169 171 170 169 171 170 169 171 170 169 171 170
169 171 170 169 171 170 169 171 170 169 171 170 169 171 170
169 171 170 169 171 170 169 171 170 169 171 170 169 171 170
169 171 170 169 171 170 169 171 170 169 171 170 169 171 170
169 171 170 169 171 170 169 171 170 169 171 170 169 171 170
169 171 170 169 171 170 169 171 170 169 171 170 169 171 170
169 171 170 169 171 170 169 171 170 169 171 170 169 171 170
169 171 170 169 171 170 169 171 170 169 171 170 169 171 170
169 171 170 169 171 170 169 171 170 169 171 170 169 171 170
169 171 170 169 171 170 169 171 170 169 171 170 169 171 170
169 171 170 169 171 170 169 171 170 169 171 170 169 171 170
169 171 170 169 171 170 169 171 170 169 171 170 168 170 169
168 170 169 168 170 169 168 170 169 168 170 169 168 170 169
168 170 169 168 170 169 169 171 170 169 171 170 169 171 170
168 170 169 168 170 169 167 169 168 167 169 168 167 169 168
168 170 169 169 171 170 169 171 170 170 172 171 168 170 169
162 164 163 155 157 156 149 151 150 135 137 136 134 136 135
133 135 134 134 136 135 135 137 136 135 137 136 134 136 135
133 135 134 133 134 136 133 134 136 134 135 137 134 135 137
134 135 137 133 134 136 132 133 135 132 133 135 133 134 136
133 134 136 133 134 136 133 134 136 133 134 136 133 134 136
133 134 136 133 134 136 133 134 136 133 134 136 133 134 136
133 134 136 133 134 136 133 134 136 133 134 136 133 134 136
133 134 136 133 134 136 133 134 136 133 134 136 133 134 136
133 134 136 133 134 136 133 134 136 131 135 136 131 135 136
131 135 136 131 135 136 131 135 136 131 135 136 131 135 136
131 135 136 131 135 136 131 135 136 131 135 136 131 135 136
131 135 136 131 135 136 131 135 136 131 135 136 131 135 136
131 135 136 131 135 136 131 135 136 131 135 136 131 135 136
131 135 136 131 135 136 132 136 137 132 136 137 132 136 137
131 135 136 131 135 136 130 134 135 130 134 135 130 134 135
132 133 135 129 130 132 131 132 134 134 135 137 129 130 132
122 123 125 130 131 133 146 147 149 186 187 189 215 216 218
245 246 248 254 255 255 251 252 254 249 250 252 250 251 253
250 251 253 249 249 249 251 251 251 253 253 253 252 252 252
250 250 250 247 247 247 247 247 247 248 248 248 249 249 249
251 251 251 252 252 252 254 254 254 255 255 255 255 255 255
254 254 254 253 253 253 254 254 254 254 254 254 254 254 254
254 254 254 254 254 254 254 254 254 254 254 254 254 254 254
254 254 254 254 254 254 254 254 254 254 254 254 254 254 254
254 254 254 254 254 254 254 254 254 254 254 254 254 254 254
254 254 254 254 254 254 254 254 254 254 254 254 254 254 254
254 254 254 254 254 254 254 254 254 254 254 254 254 254 254
254 254 254 254 254 254 254 254 254 254 254 254 254 254 254
254 254 254 254 254 254 254 254 254 254 254 254 254 254 254
254 254 254 254 254 254 254 254 254 254 254 254 254 254 254
254 254 254 254 254 254 254 254 254 254 254 254 254 254 254
254 254 254 254 254 254 254 254 254 254 254 254 254 254 254
254 254 254 254 254 254 254 254 254 254 254 254 254 254 254
254 254 254 254 254 254 254 254 254 254 254 254 254 254 254
254 254 254 254 254 254 254 254 254 254 254 254 254 254 254
254 254 254 254 254 254 254 254 254 254 254 254 254 254 254
254 254 254 254 254 254 254 254 254 254 254 254 253 253 253
252 252 252 251 251 251 254 254 254 248 248 248 241 241 241
244 244 244 251 251 251 248 248 248 224 226 225 199 201 200
145 147 146 135 137 136 125 129 128 125 129 128 128 132 131
130 134 133 132 138 136 136 142 140 137 141 142 137 141 142
137 141 142 136 140 141 134 138 139 132 136 137 129 133 134
128 132 133 130 134 135 130 134 135 131 135 136 131 135 136
131 135 136 131 135 136 132 136 137 132 136 137 131 135 136
131 135 136 131 135 136 131 135 136 131 135 136 131 135 136
131 135 136 131 135 136 131 135 136 131 135 136 131 135 136
131 135 136 131 135 136 131 135 136 131 135 136 131 135 136
131 135 136 131 135 136 131 135 136 131 135 136 131 135 136
131 135 136 131 135 136 131 135 136 131 135 136 131 135 136
131 135 136 131 135 136 131 135 136 131 135 136 131 135 136
131 135 136 133 134 136 133 134 136 133 134 136 133 134 136
133 134 136 133 134 136 133 134 136 133 134 136 133 134 136
133 134 136 133 134 136 133 134 136 133 134 136 133 134 136
133 134 136 133 134 136 131 132 134 134 135 137 135 136 138
133 134 136 129 130 132 129 130 132 134 135 137 140 141 143
157 158 160 164 165 167 172 173 175 176 177 179 174 175 177
171 172 174 169 170 172 169 170 172 168 170 169 169 171 170
169 171 170 170 172 171 170 172 171 169 171 170 169 171 170
168 170 169 169 171 170 169 171 170 169 171 170 169 171 170
169 171 170 169 171 170 169 171 170 169 171 170 169 171 170
169 171 170 169 171 170 169 171 170 169 171 170 169 171 170
169 171 170 169 171 170 169 171 170 169 171 170 169 171 170
169 171 170 169 171 170 169 171 170 169 171 170 169 171 170
169 171 170 169 171 170 169 171 170 169 171 170 169 171 170
169 171 170 169 171 170 169 171 170 169 171 170 169 171 170
169 171 170 169 171 170 169 171 170 169 171 170 169 171 170
169 171 170 169 171 170 169 171 170 169 171 170 169 171 170
169 171 170 169 171 170 169 171 170 169 171 170 169 171 170
169 171 170 169 171 170 169 171 170 169 171 170 169 171 170
169 171 170 169 171 170 169 171 170 169 171 170 169 171 170
169 171 170 169 171 170 169 171 170 169 171 170 169 171 170
169 171 170 169 171 170 169 171 170 169 171 170 169 171 170
169 171 170 169 171 170 169 171 170 168 170 169 168 170 169
168 170 169 168 170 169 168 170 169 168 170 169 168 170 169
168 170 169 171 173 172 170 172 171 168 170 169 167 169 168
167 169 168 167 169 168 168 170 169 169 171 170 169 171 170
168 170 169 169 171 170 170 172 171 170 172 171 168 170 169
164 166 165 161 163 162 141 143 142 137 139 138 132 134 133
132 134 133 134 136 135 135 137 136 135 137 136 133 135 134
132 133 135 132 133 135 133 134 136 134 135 137 134 135 137
134 135 137 133 134 136 133 134 136 133 134 136 133 134 136
133 134 136 133 134 136 133 134 136 133 134 136 133 134 136
133 134 136 133 134 136 133 134 136 133 134 136 133 134 136
133 134 136 133 134 136 133 134 136 133 134 136 133 134 136
133 134 136 133 134 136 133 134 136 133 134 136 133 134 136
133 134 136 133 134 136 131 135 136 131 135 136 131 135 136
131 135 136 131 135 136 131 135 136 131 135 136 131 135 136
131 135 136 131 135 136 131 135 136 131 135 136 131 135 136
131 135 136 131 135 136 131 135 136 131 135 136 131 135 136
131 135 136 131 135 136 131 135 136 131 135 136 131 135 136
131 135 136 132 136 137 132 136 137 131 135 136 131 135 136
131 135 136 131 135 136 130 134 135 130 134 135 133 134 136
129 130 132 131 132 134 138 139 141 137 138 140 125 126 128
118 119 121 119 120 122 136 137 139 168 169 171 208 209 211
236 237 239 248 249 251 253 254 255 253 254 255 251 252 254
249 249 249 252 252 252 255 255 255 255 255 255 254 254 254
253 253 253 254 254 254 255 255 255 249 249 249 251 251 251
252 252 252 254 254 254 255 255 255 255 255 255 254 254 254
253 253 253 254 254 254 254 254 254 254 254 254 254 254 254
254 254 254 254 254 254 254 254 254 254 254 254 254 254 254
254 254 254 254 254 254 254 254 254 254 254 254 254 254 254
254 254 254 254 254 254 254 254 254 254 254 254 254 254 254
254 254 254 254 254 254 254 254 254 254 254 254 254 254 254
254 254 254 254 254 254 254 254 254 254 254 254 254 254 254
254 254 254 254 254 254 254 254 254 254 254 254 254 254 254
254 254 254 254 254 254 254 254 254 254 254 254 254 254 254
254 254 254 254 254 254 254 254 254 254 254 254 254 254 254
254 254 254 254 254 254 254 254 254 254 254 254 254 254 254
254 254 254 254 254 254 254 254 254 254 254 254 254 254 254
254 254 254 254 254 254 254 254 254 254 254 254 254 254 254
254 254 254 254 254 254 254 254 254 254 254 254 254 254 254
254 254 254 254 254 254 254 254 254 254 254 254 254 254 254
254 254 254 254 254 254 254 254 254 253 253 253 253 253 253
254 254 254 255 255 255 255 255 255 254 254 254 254 254 254
253 253 253 249 249 249 250 250 250 250 250 250 249 249 249
241 241 241 219 219 219 179 181 180 147 149 148 131 133 132
131 133 132 129 133 132 130 134 133 131 135 134 131 135 134
131 137 135 133 139 137 136 140 141 136 140 141 137 141 142
137 141 142 134 138 139 131 135 136 127 131 132 125 129 130
129 133 134 130 134 135 130 134 135 131 135 136 131 135 136
132 136 137 132 136 137 133 137 138 131 135 136 131 135 136
131 135 136 131 135 136 131 135 136 131 135 136 131 135 136
131 135 136 131 135 136 131 135 136 131 135 136 131 135 136
131 135 136 131 135 136 131 135 136 131 135 136 131 135 136
131 135 136 131 135 136 131 135 136 131 135 136 131 135 136
131 135 136 131 135 136 131 135 136 131 135 136 131 135 136
131 135 136 131 135 136 131 135 136 131 135 136 131 135 136
133 134 136 133 134 136 133 134 136 133 134 136 133 134 136
133 134 136 133 134 136 133 134 136 133 134 136 133 134 136
133 134 136 133 134 136 133 134 136 133 134 136 133 134 136
133 134 136 131 132 134 132 133 135 133 134 136 131 132 134
130 131 133 134 135 137 143 144 146 151 152 154 169 170 172
173 174 176 176 177 179 177 178 180 174 175 177 171 172 174
169 170 172 168 169 171 168 170 169 168 170 169 169 171 170
169 171 170 169 171 170 169 171 170 168 170 169 168 170 169
169 171 170 169 171 170 169 171 170 169 171 170 169 171 170
169 171 170 169 171 170 169 171 170 169 171 170 169 171 170
169 171 170 169 171 170 169 171 170 169 171 170 169 171 170
169 171 170 169 171 170 169 171 170 169 171 170 169 171 170
169 171 170 169 171 170 169 171 170 169 171 170 169 171 170
169 171 170 169 171 170 169 171 170 169 171 170 169 171 170
169 171 170 169 171 170 169 171 170 169 171 170 169 171 170
169 171 170 169 171 170 169 171 170 169 171 170 169 171 170
169 171 170 169 171 170 169 171 170 169 171 170 169 171 170
169 171 170 169 171 170 169 171 170 169 171 170 169 171 170
169 171 170 169 171 170 169 171 170 169 171 170 169 171 170
169 171 170 169 171 170 169 171 170 169 171 170 169 171 170
169 171 170 169 171 170 169 171 170 169 171 170 169 171 170
169 171 170 169 171 170 169 171 170 169 171 170 169 171 170
169 171 170 169 171 170 169 171 170 169 171 170 169 171 170
169 171 170 169 171 170 169 171 170 169 171 170 169 171 170
172 174 173 170 172 171 168 170 169 166 168 167 166 168 167
168 170 169 170 172 171 171 173 172 172 174 173 171 173 172
169 171 170 170 172 171 170 172 171 170 172 171 168 170 169
166 168 167 153 155 154 145 147 146 135 137 136 130 132 131
131 133 132 134 136 135 134 136 135 133 135 134 131 132 134
132 133 135 133 134 136 134 135 137 134 135 137 134 135 137
133 134 136 133 134 136 133 134 136 133 134 136 133 134 136
133 134 136 133 134 136 133 134 136 133 134 136 133 134 136
133 134 136 133 134 136 133 134 136 133 134 136 133 134 136
133 134 136 133 134 136 133 134 136 133 134 136 133 134 136
133 134 136 133 134 136 133 134 136 133 134 136 133 134 136
133 134 136 131 135 136 131 135 136 131 135 136 131 135 136
131 135 136 131 135 136 131 135 136 131 135 136 131 135 136
131 135 136 131 135 136 131 135 136 131 135 136 131 135 136
131 135 136 131 135 136 131 135 136 131 135 136 131 135 136
131 135 136 131 135 136 131 135 136 131 135 136 131 135 136
131 135 136 131 135 136 131 135 136 131 135 136 131 135 136
131 135 136 131 135 136 131 135 136 137 138 140 132 133 135
131 132 134 137 138 140 139 140 142 135 136 138 130 131 133
130 131 133 121 122 124 133 134 136 157 158 160 191 192 194
225 226 228 248 249 251 254 255 255 253 254 255 250 250 250
250 250 250 251 251 251 252 252 252 255 255 255 255 255 255
255 255 255 255 255 255 249 249 249 251 251 251 252 252 252
254 254 254 255 255 255 255 255 255 254 254 254 253 253 253
254 254 254 254 254 254 254 254 254 254 254 254 254 254 254
254 254 254 254 254 254 254 254 254 254 254 254 254 254 254
254 254 254 254 254 254 254 254 254 254 254 254 254 254 254
254 254 254 254 254 254 254 254 254 254 254 254 254 254 254
254 254 254 254 254 254 254 254 254 254 254 254 254 254 254
254 254 254 254 254 254 254 254 254 254 254 254 254 254 254
254 254 254 254 254 254 254 254 254 254 254 254 254 254 254
254 254 254 254 254 254 254 254 254 254 254 254 254 254 254
254 254 254 254 254 254 254 254 254 254 254 254 254 254 254
254 254 254 254 254 254 254 254 254 254 254 254 254 254 254
254 254 254 254 254 254 254 254 254 254 254 254 254 254 254
254 254 254 254 254 254 254 254 254 254 254 254 254 254 254
254 254 254 254 254 254 254 254 254 254 254 254 254 254 254
254 254 254 254 254 254 254 254 254 254 254 254 254 254 254
254 254 254 254 254 254 253 253 253 253 253 253 254 254 254
255 255 255 255 255 255 255 255 255 255 255 255 254 254 254
242 242 242 248 248 248 249 249 249 237 237 237 213 213 213
182 182 182 148 150 149 125 127 126 129 131 130 133 135 134
133 137 136 132 136 135 129 133 132 128 132 131 127 133 131
128 134 132 132 136 137 133 137 138 134 138 139 134 138 139
133 137 138 130 134 135 128 132 133 126 130 131 129 133 134
130 134 135 130 134 135 131 135 136 131 135 136 132 136 137
132 136 137 133 137 138 131 135 136 131 135 136 131 135 136
131 135 136 131 135 136 131 135 136 131 135 136 131 135 136
131 135 136 131 135 136 131 135 136 131 135 136 131 135 136
131 135 136 131 135 136 131 135 136 131 135 136 131 135 136
131 135 136 131 135 136 131 135 136 131 135 136 131 135 136
131 135 136 131 135 136 131 135 136 131 135 136 131 135 136
131 135 136 131 135 136 131 135 136 131 135 136 133 134 136
133 134 136 133 134 136 133 134 136 133 134 136 133 134 136
133 134 136 133 134 136 133 134 136 133 134 136 133 134 136
133 134 136 133 134 136 133 134 136 133 134 136 133 134 136
131 132 134 131 132 134 131 132 134 132 133 135 135 136 138
143 144 146 154 155 157 161 162 164 171 172 174 173 174 176
174 175 177 173 174 176 171 172 174 169 170 172 168 169 171
168 169 171 168 170 169 169 171 170 169 171 170 170 172 171
170 172 171 169 171 170 169 171 170 168 170 169 169 171 170
169 171 170 169 171 170 169 171 170 169 171 170 169 171 170
169 171 170 169 171 170 169 171 170 169 171 170 169 171 170
169 171 170 169 171 170 169 171 170 169 171 170 169 171 170
169 171 170 169 171 170 169 171 170 169 171 170 169 171 170
169 171 170 169 171 170 169 171 170 169 171 170 169 171 170
169 171 170 169 171 170 169 171 170 169 171 170 169 171 170
169 171 170 169 171 170 169 171 170 169 171 170 169 171 170
169 171 170 169 171 170 169 171 170 169 171 170 169 171 170
169 171 170 169 171 170 169 171 170 169 171 170 169 171 170
169 171 170 169 171 170 169 171 170 169 171 170 169 171 170
169 171 170 169 171 170 169 171 170 169 171 170 169 171 170
169 171 170 169 171 170 169 171 170 169 171 170 169 171 170
169 171 170 169 171 170 169 171 170 169 171 170 169 171 170
169 171 170 169 171 170 169 171 170 169 171 170 169 171 170
169 171 170 169 171 170 169 171 170 169 171 170 169 171 170
169 171 170 169 171 170 169 171 170 169 171 170 171 173 172
170 172 171 168 170 169 167 169 168 167 169 168 168 170 169
171 173 172 172 174 173 176 178 177 174 176 175 170 172 171
169 171 170 168 170 169 167 169 168 165 167 166 164 166 165
165 167 166 156 158 157 142 144 143 133 135 134 130 132 131
131 133 132 133 135 134 134 136 135 132 133 135 132 133 135
133 134 136 134 135 137 134 135 137 133 134 136 133 134 136
132 133 135 133 134 136 133 134 136 133 134 136 133 134 136
133 134 136 133 134 136 133 134 136 133 134 136 133 134 136
133 134 136 133 134 136 133 134 136 133 134 136 133 134 136
133 134 136 133 134 136 133 134 136 133 134 136 133 134 136
133 134 136 133 134 136 133 134 136 133 134 136 133 134 136
131 135 136 131 135 136 131 135 136 131 135 136 131 135 136
131 135 136 131 135 136 131 135 136 131 135 136 131 135 136
131 135 136 131 135 136 131 135 136 131 135 136 131 135 136
131 135 136 131 135 136 131 135 136 131 135 136 131 135 136
131 135 136 131 135 136 131 135 136 131 135 136 131 135 136
131 135 136 131 135 136 131 135 136 131 135 136 131 135 136
131 135 136 131 135 136 135 136 138 132 133 135 131 132 134
133 134 136 134 135 137 133 134 136 135 136 138 138 139 141
130 131 133 126 127 129 129 130 132 148 149 151 180 181 183
213 214 216 240 241 243 254 255 255 253 253 253 248 248 248
243 243 243 245 245 245 251 251 251 254 254 254 251 251 251
246 246 246 249 249 249 251 251 251 252 252 252 254 254 254
255 255 255 255 255 255 254 254 254 253 253 253 254 254 254
254 254 254 254 254 254 254 254 254 254 254 254 254 254 254
254 254 254 254 254 254 254 254 254 254 254 254 254 254 254
254 254 254 254 254 254 254 254 254 254 254 254 254 254 254
254 254 254 254 254 254 254 254 254 254 254 254 254 254 254
254 254 254 254 254 254 254 254 254 254 254 254 254 254 254
254 254 254 254 254 254 254 254 254 254 254 254 254 254 254
254 254 254 254 254 254 254 254 254 254 254 254 254 254 254
254 254 254 254 254 254 254 254 254 254 254 254 254 254 254
254 254 254 254 254 254 254 254 254 254 254 254 254 254 254
254 254 254 254 254 254 254 254 254 254 254 254 254 254 254
254 254 254 254 254 254 254 254 254 254 254 254 254 254 254
254 254 254 254 254 254 254 254 254 254 254 254 254 254 254
254 254 254 254 254 254 254 254 254 254 254 254 254 254 254
254 254 254 254 254 254 254 254 254 254 254 254 254 254 254
254 254 254 253 253 253 254 254 254 255 255 255 255 255 255
255 255 255 255 255 255 255 255 255 254 254 254 253 253 253
250 250 250 233 233 233 203 203 203 171 171 171 147 147 147
132 134 133 123 125 124 126 128 127 132 134 133 133 137 136
131 135 134 129 133 132 131 135 134 131 137 135 131 137 135
129 133 134 130 134 135 131 135 136 132 136 137 132 136 137
131 135 136 129 133 134 129 133 134 130 134 135 130 134 135
131 135 136 131 135 136 131 135 136 131 135 136 132 136 137
132 136 137 131 135 136 131 135 136 131 135 136 131 135 136
131 135 136 131 135 136 131 135 136 131 135 136 131 135 136
131 135 136 131 135 136 131 135 136 131 135 136 131 135 136
131 135 136 131 135 136 131 135 136 131 135 136 131 135 136
131 135 136 131 135 136 131 135 136 131 135 136 131 135 136
131 135 136 131 135 136 131 135 136 131 135 136 131 135 136
131 135 136 131 135 136 131 135 136 133 134 136 133 134 136
133 134 136 133 134 136 133 134 136 133 134 136 133 134 136
133 134 136 133 134 136 133 134 136 133 134 136 133 134 136
133 134 136 133 134 136 133 134 136 133 134 136 133 134 136
131 132 134 130 131 133 135 136 138 144 145 147 155 156 158
164 165 167 169 170 172 168 169 171 169 170 172 169 170 172
170 171 173 169 170 172 169 170 172 168 169 171 168 169 171
169 171 170 170 172 171 170 172 171 171 173 172 171 173 172
170 172 171 170 172 171 169 171 170 169 171 170 169 171 170
169 171 170 169 171 170 169 171 170 169 171 170 169 171 170
169 171 170 169 171 170 169 171 170 169 171 170 169 171 170
169 171 170 169 171 170 169 171 170 169 171 170 169 171 170
169 171 170 169 171 170 169 171 170 169 171 170 169 171 170
169 171 170 169 171 170 169 171 170 169 171 170 169 171 170
169 171 170 169 171 170 169 171 170 169 171 170 169 171 170
169 171 170 169 171 170 169 171 170 169 171 170 169 171 170
169 171 170 169 171 170 169 171 170 169 171 170 169 171 170
169 171 170 169 171 170 169 171 170 169 171 170 169 171 170
169 171 170 169 171 170 169 171 170 169 171 170 169 171 170
169 171 170 169 171 170 169 171 170 169 171 170 169 171 170
169 171 170 169 171 170 169 171 170 169 171 170 169 171 170
169 171 170 169 171 170 169 171 170 169 171 170 169 171 170
169 171 170 169 171 170 169 171 170 169 171 170 169 171 170
170 172 171 170 172 171 170 172 171 170 172 171 170 172 171
170 172 171 170 172 171 170 172 171 170 172 171 170 172 171
169 171 170 168 170 169 168 170 169 169 171 170 171 173 172
172 174 173 177 179 178 174 176 175 170 172 171 168 170 169
167 169 168 166 168 167 164 166 165 162 164 163 171 173 172
165 167 166 153 155 154 142 144 143 134 136 135 131 133 132
132 134 133 133 135 134 133 134 136 134 135 137 134 135 137
134 135 137 134 135 137 133 134 136 132 133 135 131 132 134
133 134 136 133 134 136 133 134 136 133 134 136 133 134 136
133 134 136 133 134 136 133 134 136 133 134 136 133 134 136
133 134 136 133 134 136 133 134 136 133 134 136 133 134 136
133 134 136 133 134 136 133 134 136 133 134 136 133 134 136
133 134 136 133 134 136 133 134 136 133 134 136 131 135 136
131 135 136 131 135 136 131 135 136 131 135 136 131 135 136
131 135 136 131 135 136 131 135 136 131 135 136 131 135 136
131 135 136 131 135 136 131 135 136 131 135 136 131 135 136
131 135 136 131 135 136 131 135 136 131 135 136 131 135 136
131 135 136 131 135 136 131 135 136 130 134 135 130 134 135
131 135 136 131 135 136 131 135 136 131 135 136 132 136 137
132 136 137 134 135 137 135 136 138 136 137 139 135 136 138
133 134 136 131 132 134 130 131 133 130 131 133 137 138 140
135 136 138 132 133 135 130 131 133 136 137 139 161 162 164
203 204 206 239 240 242 255 255 255 251 251 251 248 248 248
250 250 250 255 255 255 255 255 255 249 249 249 242 242 242
249 249 249 251 251 251 252 252 252 254 254 254 255 255 255
255 255 255 254 254 254 253 253 253 254 254 254 254 254 254
254 254 254 254 254 254 254 254 254 254 254 254 254 254 254
254 254 254 254 254 254 254 254 254 254 254 254 254 254 254
254 254 254 254 254 254 254 254 254 254 254 254 254 254 254
254 254 254 254 254 254 254 254 254 254 254 254 254 254 254
254 254 254 254 254 254 254 254 254 254 254 254 254 254 254
254 254 254 254 254 254 254 254 254 254 254 254 254 254 254
254 254 254 254 254 254 254 254 254 254 254 254 254 254 254
254 254 254 254 254 254 254 254 254 254 254 254 254 254 254
254 254 254 254 254 254 254 254 254 254 254 254 254 254 254
254 254 254 254 254 254 254 254 254 254 254 254 254 254 254
254 254 254 254 254 254 254 254 254 254 254 254 254 254 254
254 254 254 254 254 254 254 254 254 254 254 254 254 254 254
254 254 254 254 254 254 254 254 254 254 254 254 254 254 254
254 254 254 254 254 254 254 254 254 254 254 254 254 254 254
255 255 255 255 255 255 255 255 255 255 255 255 255 255 255
255 255 255 254 254 254 254 254 254 255 255 255 238 238 238
201 201 201 161 161 161 137 137 137 130 130 130 129 131 130
129 131 130 126 128 127 133 135 134 135 139 138 132 136 135
132 136 135 135 139 138 135 141 139 132 138 136 130 134 135
130 134 135 131 135 136 131 135 136 131 135 136 131 135 136
131 135 136 131 135 136 132 136 137 132 136 137 131 135 136
131 135 136 131 135 136 131 135 136 130 134 135 130 134 135
131 135 136 131 135 136 131 135 136 131 135 136 131 135 136
131 135 136 131 135 136 131 135 136 131 135 136 131 135 136
131 135 136 131 135 136 131 135 136 131 135 136 131 135 136
131 135 136 131 135 136 131 135 136 131 135 136 131 135 136
131 135 136 131 135 136 131 135 136 131 135 136 131 135 136
131 135 136 131 135 136 131 135 136 131 135 136 131 135 136
131 135 136 131 135 136 133 134 136 133 134 136 133 134 136
133 134 136 133 134 136 133 134 136 133 134 136 133 134 136
133 134 136 133 134 136 133 134 136 133 134 136 133 134 136
133 134 136 133 134 136 133 134 136 134 135 137 130 131 133
130 131 133 138 139 141 154 155 157 167 168 170 173 174 176
173 174 176 167 168 170 167 168 170 167 168 170 168 169 171
170 171 173 170 171 173 169 170 172 168 169 171 171 173 172
171 173 172 172 174 173 172 174 173 172 174 173 172 174 173
171 173 172 171 173 172 169 171 170 169 171 170 169 171 170
169 171 170 169 171 170 169 171 170 169 171 170 169 171 170
169 171 170 169 171 170 169 171 170 169 171 170 169 171 170
169 171 170 169 171 170 169 171 170 169 171 170 169 171 170
169 171 170 169 171 170 169 171 170 169 171 170 169 171 170
169 171 170 169 171 170 169 171 170 169 171 170 169 171 170
169 171 170 169 171 170 169 171 170 169 171 170 169 171 170
169 171 170 169 171 170 169 171 170 169 171 170 169 171 170
169 171 170 169 171 170 169 171 170 169 171 170 169 171 170
169 171 170 169 171 170 169 171 170 169 171 170 169 171 170
169 171 170 169 171 170 169 171 170 169 171 170 169 171 170
169 171 170 169 171 170 169 171 170 169 171 170 169 171 170
169 171 170 169 171 170 169 171 170 169 171 170 169 171 170
169 171 170 169 171 170 169 171 170 169 171 170 169 171 170
169 171 170 169 171 170 169 171 170 169 171 170 170 172 171
170 172 171 170 172 171 170 172 171 170 172 171 170 172 171
170 172 171 170 172 171 169 171 170 169 171 170 169 171 170
170 172 171 170 172 171 171 173 172 171 173 172 171 173 172
173 175 174 171 173 172 169 171 170 168 170 169 168 170 169
168 170 169 166 168 167 165 167 166 169 171 170 168 170 169
164 166 165 155 157 156 143 145 144 135 137 136 132 134 133
133 135 134 135 136 138 135 136 138 135 136 138 134 135 137
133 134 136 132 133 135 130 131 133 129 130 132 133 134 136
133 134 136 133 134 136 133 134 136 133 134 136 133 134 136
133 134 136 133 134 136 133 134 136 133 134 136 133 134 136
133 134 136 133 134 136 133 134 136 133 134 136 133 134 136
133 134 136 133 134 136 133 134 136 133 134 136 133 134 136
133 134 136 133 134 136 133 134 136 131 135 136 131 135 136
131 135 136 131 135 136 131 135 136 131 135 136 131 135 136
131 135 136 131 135 136 131 135 136 131 135 136 131 135 136
131 135 136 131 135 136 131 135 136 131 135 136 131 135 136
131 135 136 131 135 136 131 135 136 131 135 136 131 135 136
131 135 136 131 135 136 130 134 135 130 134 135 130 134 135
131 135 136 131 135 136 132 136 137 132 136 137 132 136 137
135 136 138 136 137 139 136 137 139 136 137 139 135 136 138
134 135 137 130 131 133 126 127 129 133 134 136 136 137 139
137 138 140 130 131 133 122 123 125 131 132 134 166 167 169
201 202 204 238 238 238 244 244 244 252 252 252 255 255 255
255 255 255 255 255 255 250 250 250 246 246 246 249 249 249
251 251 251 252 252 252 254 254 254 255 255 255 255 255 255
254 254 254 253 253 253 254 254 254 254 254 254 254 254 254
254 254 254 254 254 254 254 254 254 254 254 254 254 254 254
254 254 254 254 254 254 254 254 254 254 254 254 254 254 254
254 254 254 254 254 254 254 254 254 254 254 254 254 254 254
254 254 254 254 254 254 254 254 254 254 254 254 254 254 254
254 254 254 254 254 254 254 254 254 254 254 254 254 254 254
254 254 254 254 254 254 254 254 254 254 254 254 254 254 254
254 254 254 254 254 254 254 254 254 254 254 254 254 254 254
254 254 254 254 254 254 254 254 254 254 254 254 254 254 254
254 254 254 254 254 254 254 254 254 254 254 254 254 254 254
254 254 254 254 254 254 254 254 254 254 254 254 254 254 254
254 254 254 254 254 254 254 254 254 254 254 254 254 254 254
254 254 254 254 254 254 254 254 254 254 254 254 254 254 254
254 254 254 254 254 254 254 254 254 254 254 254 254 254 254
254 254 254 254 254 254 254 254 254 254 254 254 255 255 255
255 255 255 255 255 255 255 255 255 255 255 255 255 255 255
254 254 254 253 253 253 243 243 243 212 212 212 167 167 167
132 132 132 124 124 124 133 133 133 140 142 141 140 142 141
127 129 128 134 136 135 135 139 138 132 136 135 131 135 134
134 138 137 130 136 134 124 130 128 133 137 138 132 136 137
131 135 136 131 135 136 131 135 136 132 136 137 133 137 138
133 137 138 133 137 138 132 136 137 132 136 137 131 135 136
131 135 136 130 134 135 130 134 135 129 133 134 131 135 136
131 135 136 131 135 136 131 135 136 131 135 136 131 135 136
131 135 136 131 135 136 131 135 136 131 135 136 131 135 136
131 135 136 131 135 136 131 135 136 131 135 136 131 135 136
131 135 136 131 135 136 131 135 136 131 135 136 131 135 136
131 135 136 131 135 136 131 135 136 131 135 136 131 135 136
131 135 136 131 135 136 131 135 136 131 135 136 131 135 136
131 135 136 133 134 136 133 134 136 133 134 136 133 134 136
133 134 136 133 134 136 133 134 136 133 134 136 133 134 136
133 134 136 133 134 136 133 134 136 133 134 136 133 134 136
133 134 136 133 134 136 135 136 138 130 131 133 129 130 132
141 142 144 160 161 163 174 175 177 177 178 180 175 176 178
167 168 170 167 168 170 167 168 170 169 170 172 171 172 174
171 172 174 170 171 173 168 169 171 171 173 172 172 174 173
173 175 174 173 175 174 173 175 174 173 175 174 172 174 173
171 173 172 169 171 170 169 171 170 169 171 170 169 171 170
169 171 170 169 171 170 169 171 170 169 171 170 169 171 170
169 171 170 169 171 170 169 171 170 169 171 170 169 171 170
169 171 170 169 171 170 169 171 170 169 171 170 169 171 170
169 171 170 169 171 170 169 171 170 169 171 170 169 171 170
169 171 170 169 171 170 169 171 170 169 171 170 169 171 170
169 171 170 169 171 170 169 171 170 169 171 170 169 171 170
169 171 170 169 171 170 169 171 170 169 171 170 169 171 170
169 171 170 169 171 170 169 171 170 169 171 170 169 171 170
169 171 170 169 171 170 169 171 170 169 171 170 169 171 170
169 171 170 169 171 170 169 171 170 169 171 170 169 171 170
169 171 170 169 171 170 169 171 170 169 171 170 169 171 170
169 171 170 169 171 170 169 171 170 169 171 170 169 171 170
169 171 170 169 171 170 169 171 170 169 171 170 169 171 170
169 171 170 169 171 170 169 171 170 170 172 171 170 172 171
170 172 171 170 172 171 170 172 171 170 172 171 170 172 171
170 172 171 168 170 169 168 170 169 170 172 171 171 173 172
171 173 172 171 173 172 171 173 172 171 173 172 169 171 170
168 170 169 167 169 168 168 170 169 170 172 171 171 173 172
170 172 171 169 171 170 164 166 165 169 171 170 171 173 172
164 166 165 151 153 152 138 140 139 133 135 134 132 134 133
136 137 139 136 137 139 136 137 139 135 136 138 133 134 136
131 132 134 129 130 132 128 129 131 133 134 136 133 134 136
133 134 136 133 134 136 133 134 136 133 134 136 133 134 136
133 134 136 133 134 136 133 134 136 133 134 136 133 134 136
133 134 136 133 134 136 133 134 136 133 134 136 133 134 136
133 134 136 133 134 136 133 134 136 133 134 136 133 134 136
133 134 136 133 134 136 131 135 136 131 135 136 131 135 136
131 135 136 131 135 136 131 135 136 131 135 136 131 135 136
131 135 136 131 135 136 131 135 136 131 135 136 131 135 136
131 135 136 131 135 136 131 135 136 131 135 136 131 135 136
131 135 136 131 135 136 131 135 136 131 135 136 131 135 136
131 135 136 130 134 135 130 134 135 130 134 135 131 135 136
131 135 136 132 136 137 132 136 137 132 136 137 134 135 137
131 132 134 128 129 131 128 129 131 133 134 136 137 138 140
136 137 139 131 132 134 128 129 131 129 130 132 132 133 135
133 134 136 128 129 131 129 130 132 145 146 148 166 167 169
211 211 211 227 227 227 247 247 247 255 255 255 255 255 255
251 251 251 248 248 248 248 248 248 249 249 249 251 251 251
252 252 252 254 254 254 255 255 255 255 255 255 254 254 254
253 253 253 254 254 254 254 254 254 254 254 254 254 254 254
254 254 254 254 254 254 254 254 254 254 254 254 254 254 254
254 254 254 254 254 254 254 254 254 254 254 254 254 254 254
254 254 254 254 254 254 254 254 254 254 254 254 254 254 254
254 254 254 254 254 254 254 254 254 254 254 254 254 254 254
254 254 254 254 254 254 254 254 254 254 254 254 254 254 254
254 254 254 254 254 254 254 254 254 254 254 254 254 254 254
254 254 254 254 254 254 254 254 254 254 254 254 254 254 254
254 254 254 254 254 254 254 254 254 254 254 254 254 254 254
254 254 254 254 254 254 254 254 254 254 254 254 254 254 254
254 254 254 254 254 254 254 254 254 254 254 254 254 254 254
254 254 254 254 254 254 254 254 254 254 254 254 254 254 254
254 254 254 254 254 254 254 254 254 254 254 254 254 254 254
251 251 251 252 252 252 253 253 253 254 254 254 254 254 254
254 254 254 253 253 253 253 253 253 254 254 254 254 254 254
252 252 252 252 252 252 255 255 255 255 255 255 253 253 253
247 247 247 212 212 212 168 168 168 136 136 136 139 139 139
143 143 143 131 131 131 128 130 129 141 143 142 134 136 135
133 135 134 130 134 133 130 134 133 132 136 135 132 136 135
130 136 134 129 135 133 131 135 136 131 135 136 131 135 136
131 135 136 131 135 136 131 135 136 131 135 136 131 135 136
131 135 136 131 135 136 131 135 136 131 135 136 131 135 136
131 135 136 131 135 136 131 135 136 131 135 136 131 135 136
131 135 136 131 135 136 131 135 136 131 135 136 131 135 136
131 135 136 131 135 136 131 135 136 131 135 136 131 135 136
131 135 136 131 135 136 131 135 136 131 135 136 131 135 136
131 135 136 131 135 136 131 135 136 131 135 136 131 135 136
131 135 136 131 135 136 131 135 136 131 135 136 131 135 136
131 135 136 131 135 136 131 135 136 131 135 136 131 135 136
135 136 138 134 135 137 133 134 136 133 134 136 133 134 136
133 134 136 132 133 135 131 132 134 135 136 138 134 135 137
132 133 135 132 133 135 133 134 136 133 134 136 133 134 136
131 132 134 130 131 133 133 134 136 141 142 144 154 155 157
168 169 171 175 176 178 174 175 177 171 172 174 168 169 171
170 171 173 171 172 174 171 172 174 168 169 171 166 167 169
164 165 167 164 165 167 165 167 166 166 168 167 167 169 168
169 171 170 171 173 172 172 174 173 173 175 174 173 175 174
167 169 168 167 169 168 168 170 169 170 172 171 171 173 172
171 173 172 168 170 169 165 167 166 167 169 168 168 170 169
169 171 170 169 171 170 167 169 168 167 169 168 168 170 169
169 171 170 169 171 170 169 171 170 169 171 170 169 171 170
169 171 170 169 171 170 169 171 170 169 171 170 169 171 170
169 171 170 169 171 170 169 171 170 169 171 170 169 171 170
169 171 170 169 171 170 169 171 170 169 171 170 169 171 170
169 171 170 169 171 170 169 171 170 169 171 170 169 171 170
169 171 170 169 171 170 169 171 170 169 171 170 169 171 170
169 171 170 169 171 170 169 171 170 169 171 170 169 171 170
169 171 170 169 171 170 169 171 170 169 171 170 169 171 170
169 171 170 169 171 170 169 171 170 169 171 170 169 171 170
169 171 170 169 171 170 169 171 170 169 171 170 169 171 170
169 171 170 169 171 170 169 171 170 169 171 170 169 171 170
169 171 170 169 171 170 166 168 167 166 168 167 167 169 168
167 169 168 167 169 168 167 169 168 167 169 168 167 169 168
167 169 168 168 170 169 169 171 170 166 168 167 163 165 164
163 165 164 167 169 168 172 174 173 168 170 169 169 171 170
170 172 171 171 173 172 171 173 172 171 173 172 171 173 172
170 172 171 170 172 171 169 171 170 169 171 170 168 170 169
163 165 164 152 154 153 137 139 138 126 128 127 133 134 136
132 133 135 131 132 134 131 132 134 132 133 135 133 134 136
132 133 135 131 132 134 133 134 136 133 134 136 133 134 136
133 134 136 133 134 136 133 134 136 133 134 136 133 134 136
133 134 136 133 134 136 133 134 136 133 134 136 133 134 136
133 134 136 133 134 136 133 134 136 133 134 136 133 134 136
133 134 136 133 134 136 133 134 136 133 134 136 133 134 136
133 134 136 131 135 136 131 135 136 131 135 136 131 135 136
131 135 136 131 135 136 131 135 136 131 135 136 131 135 136
131 135 136 131 135 136 131 135 136 131 135 136 131 135 136
131 135 136 131 135 136 131 135 136 131 135 136 131 135 136
131 135 136 131 135 136 131 135 136 131 135 136 131 135 136
131 135 136 131 135 136 131 135 136 131 135 136 131 135 136
131 135 136 131 135 136 131 135 136 133 134 136 133 134 136
133 134 136 133 134 136 133 134 136 133 134 136 133 134 136
133 134 136 129 130 132 134 135 137 137 138 140 136 137 139
133 134 136 134 135 137 140 141 143 146 147 149 156 156 156
194 194 194 232 232 232 248 248 248 249 249 249 249 249 249
247 247 247 243 243 243 252 252 252 253 253 253 254 254 254
255 255 255 255 255 255 255 255 255 255 255 255 254 254 254
254 254 254 254 254 254 254 254 254 254 254 254 254 254 254
254 254 254 254 254 254 254 254 254 254 254 254 254 254 254
254 254 254 254 254 254 254 254 254 254 254 254 254 254 254
254 254 254 254 254 254 254 254 254 254 254 254 254 254 254
254 254 254 254 254 254 254 254 254 254 254 254 254 254 254
254 254 254 254 254 254 254 254 254 254 254 254 254 254 254
254 254 254 254 254 254 254 254 254 254 254 254 254 254 254
254 254 254 254 254 254 254 254 254 254 254 254 254 254 254
254 254 254 254 254 254 254 254 254 254 254 254 254 254 254
254 254 254 254 254 254 254 254 254 254 254 254 254 254 254
254 254 254 254 254 254 254 254 254 254 254 254 254 254 254
254 254 254 254 254 254 254 254 254 254 254 254 254 254 254
254 254 254 254 254 254 254 254 254 254 254 254 252 252 252
252 252 252 253 253 253 254 254 254 254 254 254 254 254 254
254 254 254 254 254 254 250 250 250 255 255 255 253 253 253
247 247 247 251 251 251 255 255 255 244 244 244 221 221 221
171 171 171 143 143 143 127 127 127 136 136 136 142 142 142
133 133 133 127 129 128 132 134 133 134 136 135 133 135 134
130 134 133 130 134 133 132 136 135 132 136 135 130 136 134
129 135 133 131 135 136 131 135 136 131 135 136 131 135 136
131 135 136 131 135 136 131 135 136 131 135 136 131 135 136
131 135 136 131 135 136 131 135 136 131 135 136 131 135 136
131 135 136 131 135 136 131 135 136 131 135 136 131 135 136
131 135 136 131 135 136 131 135 136 131 135 136 131 135 136
131 135 136 131 135 136 131 135 136 131 135 136 131 135 136
131 135 136 131 135 136 131 135 136 131 135 136 131 135 136
131 135 136 131 135 136 131 135 136 131 135 136 131 135 136
131 135 136 131 135 136 131 135 136 131 135 136 131 135 136
131 135 136 131 135 136 131 135 136 131 135 136 134 135 137
133 134 136 133 134 136 133 134 136 133 134 136 133 134 136
133 134 136 132 133 135 134 135 137 133 134 136 133 134 136
133 134 136 134 135 137 134 135 137 133 134 136 132 133 135
129 130 132 136 137 139 150 151 153 164 165 167 175 176 178
177 178 180 173 174 176 168 169 171 168 169 171 169 170 172
169 170 172 167 168 170 165 166 168 164 165 167 163 164 166
163 164 166 164 166 165 165 167 166 167 169 168 169 171 170
169 171 170 169 171 170 169 171 170 168 170 169 170 172 171
168 170 169 166 168 167 167 169 168 168 170 169 170 172 171
169 171 170 168 170 169 167 169 168 168 170 169 169 171 170
169 171 170 169 171 170 169 171 170 170 172 171 171 173 172
169 171 170 169 171 170 169 171 170 169 171 170 169 171 170
169 171 170 169 171 170 169 171 170 169 171 170 169 171 170
169 171 170 169 171 170 169 171 170 169 171 170 169 171 170
169 171 170 169 171 170 169 171 170 169 171 170 169 171 170
169 171 170 169 171 170 169 171 170 169 171 170 169 171 170
169 171 170 169 171 170 169 171 170 169 171 170 169 171 170
169 171 170 169 171 170 169 171 170 169 171 170 169 171 170
169 171 170 169 171 170 169 171 170 169 171 170 169 171 170
169 171 170 169 171 170 169 171 170 169 171 170 169 171 170
169 171 170 169 171 170 169 171 170 169 171 170 169 171 170
169 171 170 169 171 170 169 171 170 169 171 170 169 171 170
169 171 170 165 167 166 165 167 166 166 168 167 167 169 168
168 170 169 168 170 169 169 171 170 169 171 170 173 175 174
174 176 175 174 176 175 173 175 174 171 173 172 169 171 170
169 171 170 170 172 171 169 171 170 169 171 170 170 172 171
170 172 171 170 172 171 170 172 171 170 172 171 170 172 171
170 172 171 170 172 171 170 172 171 170 172 171 166 168 167
155 157 156 140 142 141 129 131 130 128 129 131 130 131 133
133 134 136 133 134 136 132 133 135 132 133 135 134 135 137
136 137 139 133 134 136 133 134 136 133 134 136 133 134 136
133 134 136 133 134 136 133 134 136 133 134 136 133 134 136
133 134 136 133 134 136 133 134 136 133 134 136 133 134 136
133 134 136 133 134 136 133 134 136 133 134 136 133 134 136
133 134 136 133 134 136 133 134 136 133 134 136 133 134 136
131 135 136 131 135 136 131 135 136 131 135 136 131 135 136
131 135 136 131 135 136 131 135 136 131 135 136 131 135 136
131 135 136 131 135 136 131 135 136 131 135 136 131 135 136
131 135 136 131 135 136 131 135 136 131 135 136 131 135 136
131 135 136 131 135 136 131 135 136 131 135 136 131 135 136
131 135 136 131 135 136 131 135 136 131 135 136 131 135 136
131 135 136 131 135 136 133 134 136 133 134 136 133 134 136
133 134 136 133 134 136 133 134 136 133 134 136 133 134 136
133 134 136 133 134 136 133 134 136 134 135 137 135 136 138
134 135 137 131 132 134 129 130 132 141 141 141 148 148 148
184 184 184 234 234 234 255 255 255 245 245 245 244 244 244
255 255 255 252 252 252 253 253 253 254 254 254 255 255 255
255 255 255 255 255 255 255 255 255 254 254 254 254 254 254
254 254 254 254 254 254 254 254 254 254 254 254 254 254 254
254 254 254 254 254 254 254 254 254 254 254 254 254 254 254
254 254 254 254 254 254 254 254 254 254 254 254 254 254 254
254 254 254 254 254 254 254 254 254 254 254 254 254 254 254
254 254 254 254 254 254 254 254 254 254 254 254 254 254 254
254 254 254 254 254 254 254 254 254 254 254 254 254 254 254
254 254 254 254 254 254 254 254 254 254 254 254 254 254 254
254 254 254 254 254 254 254 254 254 254 254 254 254 254 254
254 254 254 254 254 254 254 254 254 254 254 254 254 254 254
254 254 254 254 254 254 254 254 254 254 254 254 254 254 254
254 254 254 254 254 254 254 254 254 254 254 254 254 254 254
254 254 254 254 254 254 254 254 254 254 254 254 254 254 254
254 254 254 254 254 254 254 254 254 252 252 252 253 253 253
254 254 254 255 255 255 255 255 255 255 255 255 255 255 255
254 254 254 248 248 248 255 255 255 252 252 252 243 243 243
247 247 247 251 251 251 224 224 224 186 186 186 132 132 132
123 123 123 123 123 123 134 134 134 142 142 142 136 136 136
127 129 128 124 126 125 134 136 135 133 135 134 130 134 133
130 134 133 132 136 135 132 136 135 130 136 134 129 135 133
131 135 136 131 135 136 131 135 136 131 135 136 131 135 136
131 135 136 131 135 136 131 135 136 131 135 136 131 135 136
131 135 136 131 135 136 131 135 136 131 135 136 131 135 136
131 135 136 131 135 136 131 135 136 131 135 136 131 135 136
131 135 136 131 135 136 131 135 136 131 135 136 131 135 136
131 135 136 131 135 136 131 135 136 131 135 136 131 135 136
131 135 136 131 135 136 131 135 136 131 135 136 131 135 136
131 135 136 131 135 136 131 135 136 131 135 136 131 135 136
131 135 136 131 135 136 131 135 136 131 135 136 131 135 136
131 135 136 131 135 136 131 135 136 133 134 136 133 134 136
133 134 136 133 134 136 133 134 136 133 134 136 133 134 136
133 134 136 132 133 135 133 134 136 134 135 137 134 135 137
134 135 137 134 135 137 133 134 136 133 134 136 132 133 135
144 145 147 161 162 164 175 176 178 180 181 183 177 178 180
171 172 174 166 167 169 172 173 175 171 172 174 169 170 172
168 169 171 167 168 170 168 169 171 168 169 171 169 170 172
166 168 167 167 169 168 168 170 169 169 171 170 170 172 171
170 172 171 169 171 170 169 171 170 174 176 175 171 173 172
168 170 169 167 169 168 168 170 169 170 172 171 169 171 170
169 171 170 169 171 170 169 171 170 169 171 170 169 171 170
169 171 170 169 171 170 169 171 170 169 171 170 169 171 170
169 171 170 169 171 170 169 171 170 169 171 170 169 171 170
169 171 170 169 171 170 169 171 170 169 171 170 169 171 170
169 171 170 169 171 170 169 171 170 169 171 170 169 171 170
169 171 170 169 171 170 169 171 170 169 171 170 169 171 170
169 171 170 169 171 170 169 171 170 169 171 170 169 171 170
169 171 170 169 171 170 169 171 170 169 171 170 169 171 170
169 171 170 169 171 170 169 171 170 169 171 170 169 171 170
169 171 170 169 171 170 169 171 170 169 171 170 169 171 170
169 171 170 169 171 170 169 171 170 169 171 170 169 171 170
169 171 170 169 171 170 169 171 170 169 171 170 169 171 170
169 171 170 169 171 170 169 171 170 169 171 170 169 171 170
167 169 168 168 170 169 168 170 169 169 171 170 170 172 171
171 173 172 172 174 173 172 174 173 173 175 174 173 175 174
173 175 174 173 175 174 173 175 174 172 174 173 168 170 169
166 168 167 171 173 172 170 172 171 170 172 171 169 171 170
169 171 170 169 171 170 170 172 171 170 172 171 170 172 171
170 172 171 171 173 172 172 174 173 170 172 171 160 162 161
146 148 147 136 138 137 125 126 128 130 131 133 134 135 137
135 136 138 133 134 136 132 133 135 135 136 138 139 140 142
133 134 136 133 134 136 133 134 136 133 134 136 133 134 136
133 134 136 133 134 136 133 134 136 133 134 136 133 134 136
133 134 136 133 134 136 133 134 136 133 134 136 133 134 136
133 134 136 133 134 136 133 134 136 133 134 136 133 134 136
133 134 136 133 134 136 133 134 136 133 134 136 131 135 136
131 135 136 131 135 136 131 135 136 131 135 136 131 135 136
131 135 136 131 135 136 131 135 136 131 135 136 131 135 136
131 135 136 131 135 136 131 135 136 131 135 136 131 135 136
131 135 136 131 135 136 131 135 136 131 135 136 131 135 136
131 135 136 131 135 136 131 135 136 131 135 136 131 135 136
131 135 136 131 135 136 131 135 136 131 135 136 131 135 136
131 135 136 133 134 136 133 134 136 133 134 136 133 134 136
133 134 136 133 134 136 133 134 136 133 134 136 135 136 138
131 132 134 129 130 132 134 135 137 139 140 142 138 139 141
128 129 131 119 120 122 136 136 136 128 128 128 153 153 153
208 208 208 244 244 244 245 245 245 245 245 245 255 255 255
252 252 252 253 253 253 254 254 254 255 255 255 255 255 255
255 255 255 255 255 255 254 254 254 254 254 254 254 254 254
254 254 254 254 254 254 254 254 254 254 254 254 254 254 254
254 254 254 254 254 254 254 254 254 254 254 254 254 254 254
254 254 254 254 254 254 254 254 254 254 254 254 254 254 254
254 254 254 254 254 254 254 254 254 254 254 254 254 254 254
254 254 254 254 254 254 254 254 254 254 254 254 254 254 254
254 254 254 254 254 254 254 254 254 254 254 254 254 254 254
254 254 254 254 254 254 254 254 254 254 254 254 254 254 254
254 254 254 254 254 254 254 254 254 254 254 254 254 254 254
254 254 254 254 254 254 254 254 254 254 254 254 254 254 254
254 254 254 254 254 254 254 254 254 254 254 254 254 254 254
254 254 254 254 254 254 254 254 254 254 254 254 254 254 254
254 254 254 254 254 254 254 254 254 254 254 254 254 254 254
254 254 254 254 254 254 252 252 252 253 253 253 254 254 254
255 255 255 255 255 255 255 255 255 255 255 255 255 255 255
253 253 253 252 252 252 248 248 248 245 245 245 246 246 246
235 235 235 197 197 197 158 158 158 124 124 124 125 125 125
128 128 128 134 134 134 138 138 138 137 137 137 131 133 132
126 128 127 134 136 135 133 135 134 130 134 133 130 134 133
132 136 135 132 136 135 130 136 134 129 135 133 131 135 136
131 135 136 131 135 136 131 135 136 131 135 136 131 135 136
131 135 136 131 135 136 131 135 136 131 135 136 131 135 136
131 135 136 131 135 136 131 135 136 131 135 136 131 135 136
131 135 136 131 135 136 131 135 136 131 135 136 131 135 136
131 135 136 131 135 136 131 135 136 131 135 136 131 135 136
131 135 136 131 135 136 131 135 136 131 135 136 131 135 136
131 135 136 131 135 136 131 135 136 131 135 136 131 135 136
131 135 136 131 135 136 131 135 136 131 135 136 131 135 136
131 135 136 131 135 136 131 135 136 131 135 136 131 135 136
131 135 136 131 135 136 131 132 134 132 133 135 133 134 136
133 134 136 133 134 136 133 134 136 134 135 137 135 136 138
131 132 134 132 133 135 134 135 137 135 136 138 134 135 137
134 135 137 135 136 138 135 136 138 141 142 144 153 154 156
168 169 171 176 177 179 177 178 180 173 174 176 170 171 173
169 170 172 173 174 176 171 172 174 168 169 171 168 169 171
169 170 172 171 172 174 173 174 176 174 175 177 170 172 171
169 171 170 168 170 169 167 169 168 167 169 168 168 170 169
170 172 171 171 173 172 171 173 172 170 172 171 170 172 171
171 173 172 172 174 173 171 173 172 168 170 169 166 168 167
172 174 173 171 173 172 169 171 170 168 170 169 168 170 169
167 169 168 166 168 167 164 166 165 169 171 170 169 171 170
169 171 170 169 171 170 169 171 170 169 171 170 169 171 170
169 171 170 169 171 170 169 171 170 169 171 170 169 171 170
169 171 170 169 171 170 169 171 170 169 171 170 169 171 170
169 171 170 169 171 170 169 171 170 169 171 170 169 171 170
169 171 170 169 171 170 169 171 170 169 171 170 169 171 170
169 171 170 169 171 170 169 171 170 169 171 170 169 171 170
169 171 170 169 171 170 169 171 170 169 171 170 169 171 170
169 171 170 169 171 170 169 171 170 169 171 170 169 171 170
169 171 170 169 171 170 169 171 170 169 171 170 169 171 170
169 171 170 169 171 170 169 171 170 169 171 170 169 171 170
169 171 170 169 171 170 169 171 170 169 171 170 172 174 173
172 174 173 172 174 173 172 174 173 172 174 173 172 174 173
172 174 173 172 174 173 169 171 170 167 169 168 165 167 166
167 169 168 170 172 171 172 174 173 170 172 171 168 170 169
171 173 172 170 172 171 169 171 170 168 170 169 168 170 169
168 170 169 169 171 170 170 172 171 170 172 171 170 172 171
172 174 173 174 176 175 173 175 174 165 167 166 153 155 154
144 146 145 130 131 133 131 132 134 133 134 136 134 135 137
135 136 138 135 136 138 136 137 139 136 137 139 133 134 136
133 134 136 133 134 136 133 134 136 133 134 136 133 134 136
133 134 136 133 134 136 133 134 136 133 134 136 133 134 136
133 134 136 133 134 136 133 134 136 133 134 136 133 134 136
133 134 136 133 134 136 133 134 136 133 134 136 133 134 136
133 134 136 133 134 136 133 134 136 131 135 136 131 135 136
131 135 136 131 135 136 131 135 136 131 135 136 131 135 136
131 135 136 131 135 136 131 135 136 131 135 136 131 135 136
131 135 136 131 135 136 131 135 136 131 135 136 131 135 136
131 135 136 131 135 136 131 135 136 131 135 136 131 135 136
131 135 136 131 135 136 131 135 136 131 135 136 131 135 136
131 135 136 131 135 136 131 135 136 131 135 136 131 135 136
133 134 136 133 134 136 133 134 136 133 134 136 133 134 136
133 134 136 133 134 136 133 134 136 134 135 137 130 131 133
129 130 132 135 136 138 143 144 146 143 144 146 135 136 138
127 128 130 127 127 127 134 134 134 144 144 144 166 166 166
205 205 205 242 242 242 253 253 253 246 246 246 252 252 252
253 253 253 254 254 254 255 255 255 255 255 255 255 255 255
255 255 255 254 254 254 254 254 254 254 254 254 254 254 254
254 254 254 254 254 254 254 254 254 254 254 254 254 254 254
254 254 254 254 254 254 254 254 254 254 254 254 254 254 254
254 254 254 254 254 254 254 254 254 254 254 254 254 254 254
254 254 254 254 254 254 254 254 254 254 254 254 254 254 254
254 254 254 254 254 254 254 254 254 254 254 254 254 254 254
254 254 254 254 254 254 254 254 254 254 254 254 254 254 254
254 254 254 254 254 254 254 254 254 254 254 254 254 254 254
254 254 254 254 254 254 254 254 254 254 254 254 254 254 254
254 254 254 254 254 254 254 254 254 254 254 254 254 254 254
254 254 254 254 254 254 254 254 254 254 254 254 254 254 254
254 254 254 254 254 254 254 254 254 254 254 254 254 254 254
254 254 254 254 254 254 254 254 254 254 254 254 254 254 254
254 254 254 252 252 252 253 253 253 254 254 254 255 255 255
255 255 255 255 255 255 254 254 254 254 254 254 255 255 255
246 246 246 243 243 243 250 250 250 244 244 244 210 210 210
169 169 169 144 144 144 134 134 134 134 134 134 133 133 133
131 131 131 133 133 133 136 136 136 137 139 138 136 138 137
134 136 135 133 135 134 130 134 133 130 134 133 132 136 135
132 136 135 130 136 134 129 135 133 131 135 136 131 135 136
131 135 136 131 135 136 131 135 136 131 135 136 131 135 136
131 135 136 131 135 136 131 135 136 131 135 136 131 135 136
131 135 136 131 135 136 131 135 136 131 135 136 131 135 136
131 135 136 131 135 136 131 135 136 131 135 136 131 135 136
131 135 136 131 135 136 131 135 136 131 135 136 131 135 136
131 135 136 131 135 136 131 135 136 131 135 136 131 135 136
131 135 136 131 135 136 131 135 136 131 135 136 131 135 136
131 135 136 131 135 136 131 135 136 131 135 136 131 135 136
131 135 136 131 135 136 131 135 136 131 135 136 131 135 136
131 135 136 131 132 134 133 134 136 135 136 138 134 135 137
132 133 135 131 132 134 133 134 136 135 136 138 131 132 134
133 134 136 134 135 137 134 135 137 133 134 136 134 135 137
136 137 139 139 140 142 154 155 157 161 162 164 169 170 172
170 171 173 168 169 171 167 168 170 170 171 173 174 175 177
170 171 173 168 169 171 166 167 169 167 168 170 170 171 173
172 173 175 173 174 176 172 173 175 170 172 171 167 169 168
163 165 164 159 161 160 157 159 158 158 160 159 160 162 161
161 163 162 155 157 156 157 159 158 162 164 163 168 170 169
172 174 173 172 174 173 168 170 169 164 166 165 170 172 171
168 170 169 166 168 167 166 168 167 168 170 169 169 171 170
167 169 168 165 167 166 169 171 170 169 171 170 169 171 170
169 171 170 169 171 170 169 171 170 169 171 170 169 171 170
169 171 170 169 171 170 169 171 170 169 171 170 169 171 170
169 171 170 169 171 170 169 171 170 169 171 170 169 171 170
169 171 170 169 171 170 169 171 170 169 171 170 169 171 170
169 171 170 169 171 170 169 171 170 169 171 170 169 171 170
169 171 170 169 171 170 169 171 170 169 171 170 169 171 170
169 171 170 169 171 170 169 171 170 169 171 170 169 171 170
169 171 170 169 171 170 169 171 170 169 171 170 169 171 170
169 171 170 169 171 170 169 171 170 169 171 170 169 171 170
169 171 170 169 171 170 169 171 170 169 171 170 169 171 170
169 171 170 169 171 170 169 171 170 173 175 174 173 175 174
171 173 172 170 172 171 168 170 169 167 169 168 166 168 167
165 167 166 163 165 164 159 161 160 156 158 157 158 160 159
164 166 165 170 172 171 172 174 173 172 174 173 170 172 171
169 171 170 169 171 170 168 170 169 168 170 169 168 170 169
169 171 170 169 171 170 169 171 170 169 171 170 171 173 172
173 175 174 174 176 175 169 171 170 160 162 161 152 154 153
141 142 144 135 136 138 129 130 132 131 132 134 137 138 140
139 140 142 134 135 137 129 130 132 133 134 136 133 134 136
133 134 136 133 134 136 133 134 136 133 134 136 133 134 136
133 134 136 133 134 136 133 134 136 133 134 136 133 134 136
133 134 136 133 134 136 133 134 136 133 134 136 133 134 136
133 134 136 133 134 136 133 134 136 133 134 136 133 134 136
133 134 136 133 134 136 131 135 136 131 135 136 131 135 136
131 135 136 131 135 136 131 135 136 131 135 136 131 135 136
131 135 136 131 135 136 131 135 136 131 135 136 131 135 136
131 135 136 131 135 136 131 135 136 131 135 136 131 135 136
131 135 136 131 135 136 131 135 136 131 135 136 131 135 136
131 135 136 131 135 136 131 135 136 131 135 136 131 135 136
131 135 136 131 135 136 131 135 136 131 135 136 133 134 136
133 134 136 133 134 136 133 134 136 133 134 136 133 134 136
133 134 136 133 134 136 133 134 136 132 133 135 132 133 135
135 136 138 139 140 142 141 142 144 139 140 142 137 138 140
112 112 112 127 127 127 131 131 131 130 130 130 162 162 162
217 217 217 247 247 247 247 247 247 252 252 252 253 253 253
254 254 254 255 255 255 255 255 255 255 255 255 255 255 255
254 254 254 254 254 254 254 254 254 254 254 254 254 254 254
254 254 254 254 254 254 254 254 254 254 254 254 254 254 254
254 254 254 254 254 254 254 254 254 254 254 254 254 254 254
254 254 254 254 254 254 254 254 254 254 254 254 254 254 254
254 254 254 254 254 254 254 254 254 254 254 254 254 254 254
254 254 254 254 254 254 254 254 254 254 254 254 254 254 254
254 254 254 254 254 254 254 254 254 254 254 254 254 254 254
254 254 254 254 254 254 254 254 254 254 254 254 254 254 254
254 254 254 254 254 254 254 254 254 254 254 254 254 254 254
254 254 254 254 254 254 254 254 254 254 254 254 254 254 254
254 254 254 254 254 254 254 254 254 254 254 254 254 254 254
254 254 254 254 254 254 254 254 254 254 254 254 254 254 254
254 254 254 254 254 254 254 254 254 254 254 254 254 254 254
251 251 251 252 252 252 253 253 253 253 253 253 254 254 254
254 254 254 253 253 253 253 253 253 255 255 255 244 244 244
243 243 243 251 251 251 232 232 232 185 185 185 148 148 148
139 139 139 140 140 140 136 136 136 131 131 131 128 128 128
130 130 130 134 134 134 139 141 140 144 146 145 134 136 135
133 135 134 130 134 133 130 134 133 132 136 135 132 136 135
130 136 134 129 135 133 131 135 136 131 135 136 131 135 136
131 135 136 131 135 136 131 135 136 131 135 136 131 135 136
131 135 136 131 135 136 131 135 136 131 135 136 131 135 136
131 135 136 131 135 136 131 135 136 131 135 136 131 135 136
131 135 136 131 135 136 131 135 136 131 135 136 131 135 136
131 135 136 131 135 136 131 135 136 131 135 136 131 135 136
131 135 136 131 135 136 131 135 136 131 135 136 131 135 136
131 135 136 131 135 136 131 135 136 131 135 136 131 135 136
131 135 136 131 135 136 131 135 136 131 135 136 131 135 136
131 135 136 131 135 136 131 135 136 131 135 136 131 135 136
132 133 135 135 136 138 136 137 139 135 136 138 131 132 134
130 131 133 131 132 134 134 135 137 131 132 134 133 134 136
134 135 137 133 134 136 131 132 134 133 134 136 138 139 141
143 144 146 163 164 166 166 167 169 167 168 170 165 166 168
162 163 165 163 164 166 170 171 173 176 177 179 173 174 176
171 172 174 170 171 173 173 174 176 175 176 178 175 176 178
171 172 174 167 168 170 162 164 163 160 162 161 156 158 157
152 154 153 149 151 150 148 150 149 148 150 149 148 150 149
144 146 145 146 148 147 151 153 152 158 160 159 165 167 166
169 171 170 170 172 171 169 171 170 166 168 167 164 166 165
163 165 164 166 168 167 170 172 171 173 175 174 172 174 173
170 172 171 169 171 170 169 171 170 169 171 170 169 171 170
169 171 170 169 171 170 169 171 170 169 171 170 169 171 170
169 171 170 169 171 170 169 171 170 169 171 170 169 171 170
169 171 170 169 171 170 169 171 170 169 171 170 169 171 170
169 171 170 169 171 170 169 171 170 169 171 170 169 171 170
169 171 170 169 171 170 169 171 170 169 171 170 169 171 170
169 171 170 169 171 170 169 171 170 169 171 170 169 171 170
169 171 170 169 171 170 169 171 170 169 171 170 169 171 170
169 171 170 169 171 170 169 171 170 169 171 170 169 171 170
169 171 170 169 171 170 169 171 170 169 171 170 169 171 170
169 171 170 169 171 170 169 171 170 169 171 170 169 171 170
169 171 170 169 171 170 169 171 170 168 170 169 167 169 168
164 166 165 161 163 162 159 161 160 157 159 158 156 158 157
153 155 154 150 152 151 147 149 148 147 149 148 151 153 152
158 160 159 163 165 164 166 168 167 166 168 167 167 169 168
168 170 169 169 171 170 170 172 171 170 172 171 169 171 170
169 171 170 168 170 169 167 169 168 168 170 169 170 172 171
173 175 174 171 173 172 165 167 166 160 162 161 151 152 154
139 140 142 128 129 131 128 129 131 137 138 140 140 141 143
134 135 137 125 126 128 133 134 136 133 134 136 133 134 136
133 134 136 133 134 136 133 134 136 133 134 136 133 134 136
133 134 136 133 134 136 133 134 136 133 134 136 133 134 136
133 134 136 133 134 136 133 134 136 133 134 136 133 134 136
133 134 136 133 134 136 133 134 136 133 134 136 133 134 136
133 134 136 131 135 136 131 135 136 131 135 136 131 135 136
131 135 136 131 135 136 131 135 136 131 135 136 131 135 136
131 135 136 131 135 136 131 135 136 131 135 136 131 135 136
131 135 136 131 135 136 131 135 136 131 135 136 131 135 136
131 135 136 131 135 136 131 135 136 131 135 136 131 135 136
131 135 136 131 135 136 131 135 136 131 135 136 131 135 136
131 135 136 131 135 136 131 135 136 133 134 136 133 134 136
133 134 136 133 134 136 133 134 136 133 134 136 133 134 136
133 134 136 134 135 137 134 135 137 134 135 137 133 134 136
132 133 135 133 134 136 136 137 139 138 139 141 123 123 123
124 124 124 125 125 125 127 127 127 141 141 141 174 174 174
217 217 217 248 248 248 252 252 252 253 253 253 254 254 254
255 255 255 255 255 255 255 255 255 255 255 255 254 254 254
254 254 254 254 254 254 254 254 254 254 254 254 254 254 254
254 254 254 254 254 254 254 254 254 254 254 254 254 254 254
254 254 254 254 254 254 254 254 254 254 254 254 254 254 254
254 254 254 254 254 254 254 254 254 254 254 254 254 254 254
254 254 254 254 254 254 254 254 254 254 254 254 254 254 254
254 254 254 254 254 254 254 254 254 254 254 254 254 254 254
254 254 254 254 254 254 254 254 254 254 254 254 254 254 254
254 254 254 254 254 254 254 254 254 254 254 254 254 254 254
254 254 254 254 254 254 254 254 254 254 254 254 254 254 254
254 254 254 254 254 254 254 254 254 254 254 254 254 254 254
254 254 254 254 254 254 254 254 254 254 254 254 254 254 254
254 254 254 254 254 254 254 254 254 254 254 254 254 254 254
254 254 254 254 254 254 254 254 254 254 254 254 250 250 250
250 250 250 251 251 251 252 252 252 253 253 253 253 253 253
252 252 252 252 252 252 251 251 251 247 247 247 248 248 248
243 243 243 212 212 212 167 167 167 139 139 139 136 136 136
140 140 140 132 132 132 128 128 128 131 131 131 134 134 134
132 132 132 135 137 136 141 143 142 134 136 135 133 135 134
130 134 133 130 134 133 132 136 135 132 136 135 130 136 134
129 135 133 131 135 136 131 135 136 131 135 136 131 135 136
131 135 136 131 135 136 131 135 136 131 135 136 131 135 136
131 135 136 131 135 136 131 135 136 131 135 136 131 135 136
131 135 136 131 135 136 131 135 136 131 135 136 131 135 136
131 135 136 131 135 136 131 135 136 131 135 136 131 135 136
131 135 136 131 135 136 131 135 136 131 135 136 131 135 136
131 135 136 131 135 136 131 135 136 131 135 136 131 135 136
131 135 136 131 135 136 131 135 136 131 135 136 131 135 136
131 135 136 131 135 136 131 135 136 131 135 136 131 135 136
131 135 136 131 135 136 131 135 136 131 135 136 133 134 136
136 137 139 138 139 141 136 137 139 130 131 133 128 129 131
130 131 133 133 134 136 132 133 135 134 135 137 134 135 137
131 132 134 129 130 132 132 133 135 140 141 143 147 148 150
166 167 169 168 169 171 168 169 171 166 167 169 164 165 167
165 166 168 169 170 172 173 174 176 174 175 177 172 173 175
172 173 175 175 176 178 176 177 179 171 172 174 162 163 165
154 155 157 151 153 152 152 154 153 155 157 156 157 159 158
157 159 158 155 157 156 153 155 154 151 153 152 155 157 156
151 153 152 148 150 149 149 151 150 155 157 156 164 166 165
172 174 173 176 178 177 171 173 172 167 169 168 165 167 166
168 170 169 173 175 174 175 177 176 173 175 174 170 172 171
169 171 170 169 171 170 169 171 170 169 171 170 169 171 170
169 171 170 169 171 170 169 171 170 169 171 170 169 171 170
169 171 170 169 171 170 169 171 170 169 171 170 169 171 170
169 171 170 169 171 170 169 171 170 169 171 170 169 171 170
169 171 170 169 171 170 169 171 170 169 171 170 169 171 170
169 171 170 169 171 170 169 171 170 169 171 170 169 171 170
169 171 170 169 171 170 169 171 170 169 171 170 169 171 170
169 171 170 169 171 170 169 171 170 169 171 170 169 171 170
169 171 170 169 171 170 169 171 170 169 171 170 169 171 170
169 171 170 169 171 170 169 171 170 169 171 170 169 171 170
169 171 170 169 171 170 169 171 170 169 171 170 169 171 170
169 171 170 166 168 167 165 167 166 163 165 164 161 163 162
158 160 159 156 158 157 154 156 155 153 155 154 151 153 152
150 152 151 149 151 150 147 149 148 146 148 147 149 151 150
153 155 154 156 158 157 162 164 163 164 166 165 168 170 169
170 172 171 172 174 173 171 173 172 169 171 170 168 170 169
167 169 168 165 167 166 164 166 165 167 169 168 170 172 171
171 173 172 169 171 170 166 168 167 153 154 156 141 142 144
129 130 132 128 129 131 134 135 137 138 139 141 134 135 137
129 130 132 133 134 136 133 134 136 133 134 136 133 134 136
133 134 136 133 134 136 133 134 136 133 134 136 133 134 136
133 134 136 133 134 136 133 134 136 133 134 136 133 134 136
133 134 136 133 134 136 133 134 136 133 134 136 133 134 136
133 134 136 133 134 136 133 134 136 133 134 136 133 134 136
131 135 136 131 135 136 131 135 136 131 135 136 131 135 136
131 135 136 131 135 136 131 135 136 131 135 136 131 135 136
131 135 136 131 135 136 131 135 136 131 135 136 131 135 136
131 135 136 131 135 136 131 135 136 131 135 136 131 135 136
131 135 136 131 135 136 131 135 136 131 135 136 131 135 136
131 135 136 131 135 136 131 135 136 131 135 136 131 135 136
131 135 136 131 135 136 133 134 136 133 134 136 133 134 136
133 134 136 133 134 136 133 134 136 133 134 136 133 134 136
135 136 138 134 135 137 133 134 136 132 133 135 131 132 134
132 133 135 133 134 136 135 136 138 139 139 139 133 133 133
135 135 135 139 139 139 136 136 136 144 144 144 187 187 187
236 236 236 252 252 252 253 253 253 254 254 254 255 255 255
255 255 255 255 255 255 255 255 255 254 254 254 254 254 254
254 254 254 254 254 254 254 254 254 254 254 254 254 254 254
254 254 254 254 254 254 254 254 254 254 254 254 254 254 254
254 254 254 254 254 254 254 254 254 254 254 254 254 254 254
254 254 254 254 254 254 254 254 254 254 254 254 254 254 254
254 254 254 254 254 254 254 254 254 254 254 254 254 254 254
254 254 254 254 254 254 254 254 254 254 254 254 254 254 254
254 254 254 254 254 254 254 254 254 254 254 254 254 254 254
254 254 254 254 254 254 254 254 254 254 254 254 254 254 254
254 254 254 254 254 254 254 254 254 254 254 254 254 254 254
254 254 254 254 254 254 254 254 254 254 254 254 254 254 254
254 254 254 254 254 254 254 254 254 254 254 254 254 254 254
254 254 254 254 254 254 254 254 254 254 254 254 254 254 254
254 254 254 254 254 254 254 254 254 249 249 249 250 250 250
251 251 251 251 251 251 252 252 252 252 252 252 251 251 251
251 251 251 243 243 243 251 251 251 254 254 254 235 235 235
197 197 197 158 158 158 138 138 138 133 133 133 139 139 139
129 129 129 128 128 128 137 137 137 140 140 140 132 132 132
128 130 129 133 135 134 134 136 135 133 135 134 130 134 133
130 134 133 132 136 135 132 136 135 131 135 134 130 134 133
131 135 136 131 135 136 131 135 136 131 135 136 131 135 136
131 135 136 131 135 136 131 135 136 131 135 136 131 135 136
131 135 136 131 135 136 131 135 136 131 135 136 131 135 136
131 135 136 131 135 136 131 135 136 131 135 136 131 135 136
131 135 136 131 135 136 131 135 136 131 135 136 131 135 136
131 135 136 131 135 136 131 135 136 131 135 136 131 135 136
131 135 136 131 135 136 131 135 136 131 135 136 131 135 136
131 135 136 131 135 136 131 135 136 131 135 136 131 135 136
131 135 136 131 135 136 131 135 136 131 135 136 131 135 136
131 135 136 131 135 136 131 135 136 134 135 137 137 138 140
139 140 142 136 137 139 130 131 133 127 128 130 129 130 132
132 133 135 133 134 136 134 135 137 133 134 136 130 131 133
127 128 130 131 132 134 141 142 144 150 151 153 166 167 169
167 168 170 169 170 172 170 171 173 168 169 171 168 169 171
168 169 171 168 169 171 167 168 170 166 167 169 166 167 169
168 169 171 167 168 170 159 160 162 146 147 149 135 136 138
142 144 143 148 150 149 158 160 159 167 169 168 171 173 172
171 173 172 167 169 168 164 166 165 174 176 175 164 166 165
151 153 152 144 146 145 148 150 149 159 161 160 172 174 173
181 183 182 179 181 180 175 177 176 171 173 172 171 173 172
174 176 175 174 176 175 170 172 171 165 167 166 169 171 170
169 171 170 169 171 170 169 171 170 169 171 170 169 171 170
169 171 170 169 171 170 169 171 170 169 171 170 169 171 170
169 171 170 169 171 170 169 171 170 169 171 170 169 171 170
169 171 170 169 171 170 169 171 170 169 171 170 169 171 170
169 171 170 169 171 170 169 171 170 169 171 170 169 171 170
169 171 170 169 171 170 169 171 170 169 171 170 169 171 170
169 171 170 169 171 170 169 171 170 169 171 170 169 171 170
169 171 170 169 171 170 169 171 170 169 171 170 169 171 170
169 171 170 169 171 170 169 171 170 169 171 170 169 171 170
169 171 170 169 171 170 169 171 170 169 171 170 169 171 170
169 171 170 169 171 170 169 171 170 169 171 170 169 171 170
165 167 166 164 166 165 163 165 164 161 163 162 160 162 161
158 160 159 157 159 158 156 158 157 160 162 161 161 163 162
162 164 163 158 160 159 153 155 154 151 153 152 153 155 154
156 158 157 160 162 161 163 165 164 167 169 168 171 173 172
173 175 174 172 174 173 170 172 171 168 170 169 167 169 168
164 166 165 162 164 163 164 166 165 168 170 169 171 173 172
170 172 171 168 170 169 152 153 155 142 143 145 132 133 135
128 129 131 131 132 134 135 136 138 135 136 138 134 135 137
133 134 136 133 134 136 133 134 136 133 134 136 133 134 136
133 134 136 133 134 136 133 134 136 133 134 136 133 134 136
133 134 136 133 134 136 133 134 136 133 134 136 133 134 136
133 134 136 133 134 136 133 134 136 133 134 136 133 134 136
133 134 136 133 134 136 133 134 136 133 134 136 131 135 136
131 135 136 131 135 136 131 135 136 131 135 136 131 135 136
131 135 136 131 135 136 131 135 136 131 135 136 131 135 136
131 135 136 131 135 136 131 135 136 131 135 136 131 135 136
131 135 136 131 135 136 131 135 136 131 135 136 131 135 136
131 135 136 131 135 136 131 135 136 131 135 136 131 135 136
131 135 136 131 135 136 131 135 136 131 135 136 131 135 136
131 135 136 133 134 136 133 134 136 133 134 136 133 134 136
133 134 136 133 134 136 133 134 136 133 134 136 135 136 138
133 134 136 132 133 135 133 134 136 135 136 138 136 137 139
136 137 139 134 135 137 133 133 133 136 136 136 142 142 142
141 141 141 130 130 130 136 136 136 176 176 176 222 222 222
252 252 252 253 253 253 254 254 254 255 255 255 255 255 255
255 255 255 255 255 255 254 254 254 254 254 254 254 254 254
254 254 254 254 254 254 254 254 254 254 254 254 254 254 254
254 254 254 254 254 254 254 254 254 254 254 254 254 254 254
254 254 254 254 254 254 254 254 254 254 254 254 254 254 254
254 254 254 254 254 254 254 254 254 254 254 254 254 254 254
254 254 254 254 254 254 254 254 254 254 254 254 254 254 254
254 254 254 254 254 254 254 254 254 254 254 254 254 254 254
254 254 254 254 254 254 254 254 254 254 254 254 254 254 254
254 254 254 254 254 254 254 254 254 254 254 254 254 254 254
254 254 254 254 254 254 254 254 254 254 254 254 254 254 254
254 254 254 254 254 254 254 254 254 254 254 254 254 254 254
254 254 254 254 254 254 254 254 254 254 254 254 254 254 254
254 254 254 254 254 254 254 254 254 254 254 254 254 254 254
254 254 254 254 254 254 248 248 248 251 251 251 253 253 253
254 254 254 253 253 253 252 252 252 252 252 252 253 253 253
251 251 251 247 247 247 255 255 255 234 234 234 168 168 168
141 141 141 146 146 146 134 134 134 134 136 135 133 135 134
132 134 133 132 134 133 133 135 134 134 136 135 133 135 134
132 134 133 133 135 134 133 135 134 133 135 134 133 135 134
133 135 134 133 135 134 133 135 134 131 135 134 131 135 136
131 135 136 131 135 136 131 135 136 131 135 136 131 135 136
131 135 136 131 135 136 131 135 136 131 135 136 131 135 136
131 135 136 131 135 136 131 135 136 131 135 136 131 135 136
131 135 136 131 135 136 131 135 136 131 135 136 131 135 136
131 135 136 131 135 136 131 135 136 131 135 136 131 135 136
131 135 136 131 135 136 131 135 136 131 135 136 131 135 136
131 135 136 131 135 136 131 135 136 131 135 136 131 135 136
131 135 136 131 135 136 131 135 136 131 135 136 131 135 136
131 135 136 131 135 136 131 135 136 131 135 136 131 135 136
131 135 136 131 135 136 132 134 133 135 137 136 136 138 137
135 137 136 131 133 132 130 132 131 131 133 132 134 136 135
136 138 137 131 133 132 129 131 130 131 133 132 131 133 132
133 135 134 145 147 146 159 161 160 170 172 171 170 172 171
169 171 170 169 171 170 169 171 170 169 171 170 168 170 169
168 170 169 165 167 166 165 167 166 166 168 167 166 168 167
165 167 166 163 165 164 161 163 162 160 162 161 156 158 157
166 168 167 175 177 176 173 175 174 163 165 164 159 161 160
165 167 166 174 176 175 173 175 174 166 168 167 164 166 165
170 172 171 173 175 174 169 171 170 168 170 169 171 173 172
172 174 173 168 170 169 165 167 166 165 167 166 168 170 169
170 172 171 169 171 170 166 168 167 169 171 170 169 171 170
169 171 170 169 171 170 169 171 170 169 171 170 169 171 170
169 171 170 169 171 170 169 171 170 169 171 170 169 171 170
169 171 170 169 171 170 169 171 170 169 171 170 169 171 170
169 171 170 169 171 170 169 171 170 169 171 170 169 171 170
169 171 170 169 171 170 169 171 170 169 171 170 169 171 170
169 171 170 169 171 170 169 171 170 169 171 170 169 171 170
169 171 170 169 171 170 169 171 170 169 171 170 169 171 170
169 171 170 169 171 170 169 171 170 169 171 170 169 171 170
169 171 170 169 171 170 169 171 170 169 171 170 169 171 170
169 171 170 171 173 172 171 173 172 171 173 172 169 171 170
168 170 169 169 171 170 173 175 174 176 178 177 179 179 179
171 171 171 163 163 163 164 164 164 171 171 171 177 177 177
177 177 177 175 175 175 184 184 184 174 174 174 163 163 163
160 160 160 164 164 164 165 165 165 160 160 160 154 154 154
161 161 161 162 162 162 163 163 163 165 165 165 167 167 167
169 169 169 170 170 170 171 171 171 171 171 171 171 171 171
171 171 171 168 168 168 167 167 167 167 167 167 170 170 170
173 173 173 161 162 164 148 149 151 137 138 140 133 134 136
135 136 138 135 136 138 132 133 135 130 131 133 133 134 136
133 134 136 133 134 136 133 134 136 133 134 136 133 134 136
133 134 136 133 134 136 133 134 136 133 134 136 133 134 136
133 134 136 133 134 136 133 134 136 133 134 136 133 134 136
133 134 136 133 134 136 133 134 136 133 134 136 133 134 136
133 134 136 133 134 136 133 134 136 131 135 136 131 135 136
131 135 136 131 135 136 131 135 136 131 135 136 131 135 136
131 135 136 131 135 136 131 135 136 131 135 136 131 135 136
131 135 136 131 135 136 131 135 136 131 135 136 131 135 136
131 135 136 131 135 136 131 135 136 131 135 136 131 135 136
131 135 136 131 135 136 131 135 136 131 135 136 131 135 136
131 135 136 131 135 136 131 135 136 131 135 136 131 135 136
133 134 136 133 134 136 133 134 136 133 134 136 133 134 136
133 134 136 133 134 136 133 134 136 132 133 135 132 133 135
133 134 136 136 137 139 138 139 141 137 138 140 131 132 134
126 127 129 136 136 136 140 140 140 135 135 135 129 129 129
133 133 133 141 141 141 166 166 166 201 201 201 234 234 234
250 250 250 255 255 255 253 253 253 249 249 249 254 254 254
255 255 255 252 252 252 254 254 254 254 254 254 254 254 254
254 254 254 254 254 254 254 254 254 254 254 254 254 254 254
254 254 254 254 254 254 254 254 254 254 254 254 254 254 254
254 254 254 254 254 254 254 254 254 254 254 254 254 254 254
254 254 254 254 254 254 254 254 254 254 254 254 254 254 254
254 254 254 254 254 254 254 254 254 254 254 254 254 254 254
254 254 254 254 254 254 254 254 254 254 254 254 254 254 254
254 254 254 254 254 254 254 254 254 254 254 254 254 254 254
254 254 254 254 254 254 254 254 254 254 254 254 254 254 254
254 254 254 254 254 254 254 254 254 254 254 254 254 254 254
254 254 254 254 254 254 254 254 254 254 254 254 254 254 254
254 254 254 254 254 254 254 254 254 254 254 254 254 254 254
254 254 254 254 254 254 254 254 254 254 254 254 254 254 254
254 254 254 248 248 248 251 251 251 254 254 254 254 254 254
253 253 253 252 252 252 252 252 252 253 253 253 255 255 255
250 250 250 255 255 255 228 228 228 160 160 160 132 132 132
138 138 138 131 131 131 132 134 133 132 134 133 132 134 133
132 134 133 133 135 134 133 135 134 132 134 133 131 133 132
133 135 134 133 135 134 133 135 134 133 135 134 133 135 134
133 135 134 133 135 134 133 135 134 131 135 136 131 135 136
131 135 136 131 135 136 131 135 136 131 135 136 131 135 136
131 135 136 131 135 136 131 135 136 131 135 136 131 135 136
131 135 136 131 135 136 131 135 136 131 135 136 131 135 136
131 135 136 131 135 136 131 135 136 131 135 136 131 135 136
131 135 136 131 135 136 131 135 136 131 135 136 131 135 136
131 135 136 131 135 136 131 135 136 131 135 136 131 135 136
131 135 136 131 135 136 131 135 136 131 135 136 131 135 136
131 135 136 131 135 136 131 135 136 131 135 136 131 135 136
131 135 136 131 135 136 131 135 136 131 135 136 131 135 136
131 135 136 132 134 133 134 136 135 136 138 137 134 136 135
132 134 133 130 132 131 132 134 133 134 136 135 135 137 136
129 131 130 127 129 128 130 132 131 133 135 134 138 140 139
148 150 149 160 162 161 173 175 174 172 174 173 172 174 173
171 173 172 170 172 171 169 171 170 168 170 169 167 169 168
167 169 168 166 168 167 163 165 164 160 162 161 158 160 159
158 160 159 158 160 159 159 161 160 176 178 177 169 171 170
161 163 162 158 160 159 162 164 163 166 168 167 167 169 168
166 168 167 168 170 169 168 170 169 171 173 172 176 178 177
178 180 179 175 177 176 173 175 174 172 174 173 165 167 166
166 168 167 168 170 169 170 172 171 171 173 172 173 175 174
173 175 174 173 175 174 169 171 170 169 171 170 169 171 170
169 171 170 169 171 170 169 171 170 169 171 170 169 171 170
169 171 170 169 171 170 169 171 170 169 171 170 169 171 170
169 171 170 169 171 170 169 171 170 169 171 170 169 171 170
169 171 170 169 171 170 169 171 170 169 171 170 169 171 170
169 171 170 169 171 170 169 171 170 169 171 170 169 171 170
169 171 170 169 171 170 169 171 170 169 171 170 169 171 170
169 171 170 169 171 170 169 171 170 169 171 170 169 171 170
169 171 170 169 171 170 169 171 170 169 171 170 169 171 170
169 171 170 169 171 170 169 171 170 169 171 170 169 171 170
170 172 171 171 173 172 171 173 172 170 172 171 168 170 169
169 171 170 171 173 172 174 176 175 171 171 171 167 167 167
162 162 162 158 158 158 160 160 160 167 167 167 178 178 178
185 185 185 161 161 161 165 165 165 170 170 170 172 172 172
166 166 166 160 160 160 162 162 162 168 168 168 162 162 162
162 162 162 163 163 163 164 164 164 165 165 165 167 167 167
169 169 169 170 170 170 173 173 173 172 172 172 171 171 171
168 168 168 166 166 166 168 168 168 171 171 171 175 175 175
163 164 166 151 152 154 138 139 141 133 134 136 133 134 136
134 135 137 133 134 136 131 132 134 133 134 136 133 134 136
133 134 136 133 134 136 133 134 136 133 134 136 133 134 136
133 134 136 133 134 136 133 134 136 133 134 136 133 134 136
133 134 136 133 134 136 133 134 136 133 134 136 133 134 136
133 134 136 133 134 136 133 134 136 133 134 136 133 134 136
133 134 136 133 134 136 131 135 136 131 135 136 131 135 136
131 135 136 131 135 136 131 135 136 131 135 136 131 135 136
131 135 136 131 135 136 131 135 136 131 135 136 131 135 136
131 135 136 131 135 136 131 135 136 131 135 136 131 135 136
131 135 136 131 135 136 131 135 136 131 135 136 131 135 136
131 135 136 131 135 136 131 135 136 131 135 136 131 135 136
131 135 136 131 135 136 131 135 136 131 135 136 133 134 136
133 134 136 133 134 136 133 134 136 133 134 136 133 134 136
133 134 136 133 134 136 133 134 136 133 134 136 133 134 136
136 137 139 137 138 140 136 137 139 131 132 134 126 127 129
137 137 137 135 135 135 128 128 128 127 127 127 132 132 132
136 136 136 156 156 156 189 189 189 235 235 235 250 250 250
255 255 255 253 253 253 249 249 249 254 254 254 255 255 255
252 252 252 254 254 254 254 254 254 254 254 254 254 254 254
254 254 254 254 254 254 254 254 254 254 254 254 254 254 254
254 254 254 254 254 254 254 254 254 254 254 254 254 254 254
254 254 254 254 254 254 254 254 254 254 254 254 254 254 254
254 254 254 254 254 254 254 254 254 254 254 254 254 254 254
254 254 254 254 254 254 254 254 254 254 254 254 254 254 254
254 254 254 254 254 254 254 254 254 254 254 254 254 254 254
254 254 254 254 254 254 254 254 254 254 254 254 254 254 254
254 254 254 254 254 254 254 254 254 254 254 254 254 254 254
254 254 254 254 254 254 254 254 254 254 254 254 254 254 254
254 254 254 254 254 254 254 254 254 254 254 254 254 254 254
254 254 254 254 254 254 254 254 254 254 254 254 254 254 254
254 254 254 254 254 254 254 254 254 254 254 254 254 254 254
249 249 249 251 251 251 254 254 254 255 255 255 253 253 253
252 252 252 252 252 252 253 253 253 255 255 255 252 252 252
254 254 254 222 222 222 157 157 157 127 127 127 134 134 134
133 133 133 132 134 133 133 135 134 133 135 134 134 136 135
134 136 135 133 135 134 133 135 134 132 134 133 134 136 135
134 136 135 134 136 135 133 135 134 133 135 134 133 135 134
133 135 134 133 135 134 131 135 136 131 135 136 131 135 136
131 135 136 131 135 136 131 135 136 131 135 136 131 135 136
131 135 136 131 135 136 131 135 136 131 135 136 131 135 136
131 135 136 131 135 136 131 135 136 131 135 136 131 135 136
131 135 136 131 135 136 131 135 136 131 135 136 131 135 136
131 135 136 131 135 136 131 135 136 131 135 136 131 135 136
131 135 136 131 135 136 131 135 136 131 135 136 131 135 136
131 135 136 131 135 136 131 135 136 131 135 136 131 135 136
131 135 136 131 135 136 131 135 136 131 135 136 131 135 136
131 135 136 131 135 136 131 135 136 131 135 136 131 135 136
133 135 134 134 136 135 135 137 136 134 136 135 132 134 133
131 133 132 132 134 133 133 135 134 134 136 135 127 129 128
124 126 125 128 130 129 136 138 137 144 146 145 154 156 155
163 165 164 175 177 176 174 176 175 173 175 174 172 174 173
170 172 171 169 171 170 167 169 168 167 169 168 168 170 169
165 167 166 162 164 163 160 162 161 161 163 162 165 167 166
170 172 171 173 175 174 181 183 182 182 184 183 180 182 181
174 176 175 167 169 168 164 166 165 166 168 167 170 172 171
169 171 170 168 170 169 165 167 166 159 161 160 158 160 159
162 164 163 165 167 166 165 167 166 173 175 174 174 176 175
176 178 177 175 177 176 173 175 174 170 172 171 169 171 170
169 171 170 169 171 170 169 171 170 169 171 170 169 171 170
169 171 170 169 171 170 169 171 170 169 171 170 169 171 170
169 171 170 169 171 170 169 171 170 169 171 170 169 171 170
169 171 170 169 171 170 169 171 170 169 171 170 169 171 170
169 171 170 169 171 170 169 171 170 169 171 170 169 171 170
169 171 170 169 171 170 169 171 170 169 171 170 169 171 170
169 171 170 169 171 170 169 171 170 169 171 170 169 171 170
169 171 170 169 171 170 169 171 170 169 171 170 169 171 170
169 171 170 169 171 170 169 171 170 169 171 170 169 171 170
169 171 170 169 171 170 169 171 170 169 171 170 169 171 170
170 172 171 171 173 172 170 172 171 169 171 170 168 170 169
169 171 170 170 172 171 156 156 156 159 159 159 164 164 164
168 168 168 169 169 169 167 167 167 164 164 164 161 161 161
174 174 174 166 166 166 165 165 165 174 174 174 181 181 181
179 179 179 175 175 175 176 176 176 164 164 164 164 164 164
163 163 163 163 163 163 164 164 164 166 166 166 168 168 168
169 169 169 174 174 174 173 173 173 171 171 171 168 168 168
166 166 166 168 168 168 173 173 173 176 176 176 166 167 169
155 156 158 141 142 144 132 133 135 131 132 134 134 135 137
134 135 137 132 133 135 133 134 136 133 134 136 133 134 136
133 134 136 133 134 136 133 134 136 133 134 136 133 134 136
133 134 136 133 134 136 133 134 136 133 134 136 133 134 136
133 134 136 133 134 136 133 134 136 133 134 136 133 134 136
133 134 136 133 134 136 133 134 136 133 134 136 133 134 136
133 134 136 131 135 136 131 135 136 131 135 136 131 135 136
131 135 136 131 135 136 131 135 136 131 135 136 131 135 136
131 135 136 131 135 136 131 135 136 131 135 136 131 135 136
131 135 136 131 135 136 131 135 136 131 135 136 131 135 136
131 135 136 131 135 136 131 135 136 131 135 136 131 135 136
131 135 136 131 135 136 131 135 136 131 135 136 131 135 136
131 135 136 131 135 136 131 135 136 133 134 136 133 134 136
133 134 136 133 134 136 133 134 136 133 134 136 133 134 136
133 134 136 134 135 137 134 135 137 134 135 137 135 136 138
136 137 139 134 135 137 130 131 133 127 128 130 137 137 137
132 132 132 126 126 126 129 129 129 135 135 135 134 134 134
153 153 153 191 191 191 238 238 238 250 250 250 255 255 255
253 253 253 250 250 250 254 254 254 255 255 255 253 253 253
254 254 254 254 254 254 254 254 254 254 254 254 254 254 254
254 254 254 254 254 254 254 254 254 254 254 254 254 254 254
254 254 254 254 254 254 254 254 254 254 254 254 254 254 254
254 254 254 254 254 254 254 254 254 254 254 254 254 254 254
254 254 254 254 254 254 254 254 254 254 254 254 254 254 254
254 254 254 254 254 254 254 254 254 254 254 254 254 254 254
254 254 254 254 254 254 254 254 254 254 254 254 254 254 254
254 254 254 254 254 254 254 254 254 254 254 254 254 254 254
254 254 254 254 254 254 254 254 254 254 254 254 254 254 254
254 254 254 254 254 254 254 254 254 254 254 254 254 254 254
254 254 254 254 254 254 254 254 254 254 254 254 254 254 254
254 254 254 254 254 254 254 254 254 254 254 254 254 254 254
254 254 254 254 254 254 254 254 254 254 254 254 249 249 249
251 251 251 254 254 254 255 255 255 254 254 254 253 253 253
253 253 253 253 253 253 252 252 252 250 250 250 250 250 250
222 222 222 165 165 165 133 133 133 135 135 135 138 138 138
133 135 134 135 137 136 136 138 137 136 138 137 135 137 136
134 136 135 134 136 135 135 137 136 135 137 136 134 136 135
134 136 135 134 136 135 134 136 135 133 135 134 133 135 134
133 135 134 131 135 136 131 135 136 131 135 136 131 135 136
131 135 136 131 135 136 131 135 136 131 135 136 131 135 136
131 135 136 131 135 136 131 135 136 131 135 136 131 135 136
131 135 136 131 135 136 131 135 136 131 135 136 131 135 136
131 135 136 131 135 136 131 135 136 131 135 136 131 135 136
131 135 136 131 135 136 131 135 136 131 135 136 131 135 136
131 135 136 131 135 136 131 135 136 131 135 136 131 135 136
131 135 136 131 135 136 131 135 136 131 135 136 131 135 136
131 135 136 131 135 136 131 135 136 131 135 136 131 135 136
131 135 136 131 135 136 131 135 136 131 135 136 133 135 134
133 135 134 134 136 135 133 135 134 133 135 134 132 134 133
133 135 134 133 135 134 132 134 133 126 128 127 123 125 124
127 129 128 138 140 139 150 152 151 160 162 161 165 167 166
172 174 173 172 174 173 171 173 172 170 172 171 169 171 170
168 170 169 168 170 169 167 169 168 171 173 172 169 171 170
166 168 167 165 167 166 166 168 167 170 172 171 174 176 175
177 179 178 164 166 165 169 171 170 172 174 173 171 173 172
168 170 169 167 169 168 171 173 172 175 177 176 185 187 186
185 187 186 179 181 180 171 173 172 170 172 171 175 177 176
173 175 174 166 168 167 174 176 175 172 174 173 170 172 171
169 171 170 168 170 169 167 169 168 164 166 165 162 164 163
169 171 170 169 171 170 169 171 170 169 171 170 169 171 170
169 171 170 169 171 170 169 171 170 169 171 170 169 171 170
169 171 170 169 171 170 169 171 170 169 171 170 169 171 170
169 171 170 169 171 170 169 171 170 169 171 170 169 171 170
169 171 170 169 171 170 169 171 170 169 171 170 169 171 170
169 171 170 169 171 170 169 171 170 169 171 170 169 171 170
169 171 170 169 171 170 169 171 170 169 171 170 169 171 170
169 171 170 169 171 170 169 171 170 169 171 170 169 171 170
169 171 170 169 171 170 169 171 170 169 171 170 169 171 170
169 171 170 169 171 170 169 171 170 168 170 169 169 171 170
171 173 172 171 173 172 169 171 170 167 169 168 167 169 168
168 170 169 176 176 176 168 168 168 162 162 162 162 162 162
168 168 168 172 172 172 171 171 171 167 167 167 173 173 173
161 161 161 156 156 156 164 164 164 171 171 171 168 168 168
163 163 163 162 162 162 168 168 168 167 167 167 165 165 165
164 164 164 165 165 165 166 166 166 168 168 168 170 170 170
174 174 174 173 173 173 170 170 170 167 167 167 166 166 166
169 169 169 174 174 174 178 178 178 170 171 173 160 161 163
144 145 147 132 133 135 130 131 133 133 134 136 135 136 138
133 134 136 133 134 136 133 134 136 133 134 136 133 134 136
133 134 136 133 134 136 133 134 136 133 134 136 133 134 136
133 134 136 133 134 136 133 134 136 133 134 136 133 134 136
133 134 136 133 134 136 133 134 136 133 134 136 133 134 136
133 134 136 133 134 136 133 134 136 133 134 136 133 134 136
131 135 136 131 135 136 131 135 136 131 135 136 131 135 136
131 135 136 131 135 136 131 135 136 131 135 136 131 135 136
131 135 136 131 135 136 131 135 136 131 135 136 131 135 136
131 135 136 131 135 136 131 135 136 131 135 136 131 135 136
131 135 136 131 135 136 131 135 136 131 135 136 131 135 136
131 135 136 131 135 136 131 135 136 131 135 136 131 135 136
131 135 136 131 135 136 133 134 136 133 134 136 133 134 136
133 134 136 133 134 136 133 134 136 133 134 136 133 134 136
135 136 138 135 136 138 135 136 138 135 136 138 134 135 137
132 133 135 130 131 133 128 129 131 136 136 136 135 135 135
133 133 133 135 135 135 135 135 135 132 132 132 161 161 161
210 210 210 241 241 241 250 250 250 255 255 255 254 254 254
251 251 251 254 254 254 255 255 255 253 253 253 254 254 254
254 254 254 254 254 254 254 254 254 254 254 254 254 254 254
254 254 254 254 254 254 254 254 254 254 254 254 254 254 254
254 254 254 254 254 254 254 254 254 254 254 254 254 254 254
254 254 254 254 254 254 254 254 254 254 254 254 254 254 254
254 254 254 254 254 254 254 254 254 254 254 254 254 254 254
254 254 254 254 254 254 254 254 254 254 254 254 254 254 254
254 254 254 254 254 254 254 254 254 254 254 254 254 254 254
254 254 254 254 254 254 254 254 254 254 254 254 254 254 254
254 254 254 254 254 254 254 254 254 254 254 254 254 254 254
254 254 254 254 254 254 254 254 254 254 254 254 254 254 254
254 254 254 254 254 254 254 254 254 254 254 254 254 254 254
254 254 254 254 254 254 254 254 254 254 254 254 254 254 254
254 254 254 254 254 254 254 254 254 249 249 249 252 252 252
255 255 255 255 255 255 254 254 254 253 253 253 253 253 253
254 254 254 247 247 247 246 246 246 246 246 246 226 226 226
182 182 182 147 147 147 135 135 135 135 135 135 132 134 133
134 136 135 135 137 136 134 136 135 132 134 133 131 133 132
133 135 134 136 138 137 136 138 137 135 137 136 135 137 136
134 136 135 134 136 135 133 135 134 133 135 134 133 135 134
131 135 136 131 135 136 131 135 136 131 135 136 131 135 136
131 135 136 131 135 136 131 135 136 131 135 136 131 135 136
131 135 136 131 135 136 131 135 136 131 135 136 131 135 136
131 135 136 131 135 136 131 135 136 131 135 136 131 135 136
131 135 136 131 135 136 131 135 136 131 135 136 131 135 136
131 135 136 131 135 136 131 135 136 131 135 136 131 135 136
131 135 136 131 135 136 131 135 136 131 135 136 131 135 136
131 135 136 131 135 136 131 135 136 131 135 136 131 135 136
131 135 136 131 135 136 131 135 136 131 135 136 131 135 136
131 135 136 131 135 136 131 135 136 133 135 134 133 135 134
132 134 133 133 135 134 133 135 134 134 136 135 133 135 134
133 135 134 131 133 132 128 130 129 124 126 125 128 130 129
139 141 140 153 155 154 164 166 165 168 170 169 168 170 169
168 170 169 168 170 169 168 170 169 168 170 169 168 170 169
168 170 169 169 171 170 173 175 174 172 174 173 171 173 172
169 171 170 167 169 168 166 168 167 166 168 167 166 168 167
175 177 176 165 167 166 158 160 159 165 167 166 177 179 178
179 181 180 165 167 166 149 151 150 135 137 136 140 142 141
147 149 148 156 158 157 169 171 170 178 180 179 177 179 178
172 174 173 164 166 165 159 161 160 155 157 156 158 160 159
165 167 166 169 171 170 169 171 170 166 168 167 169 171 170
169 171 170 169 171 170 169 171 170 169 171 170 169 171 170
169 171 170 169 171 170 169 171 170 169 171 170 169 171 170
169 171 170 169 171 170 169 171 170 169 171 170 169 171 170
169 171 170 169 171 170 169 171 170 169 171 170 169 171 170
169 171 170 169 171 170 169 171 170 169 171 170 169 171 170
169 171 170 169 171 170 169 171 170 169 171 170 169 171 170
169 171 170 169 171 170 169 171 170 169 171 170 169 171 170
169 171 170 169 171 170 169 171 170 169 171 170 169 171 170
169 171 170 169 171 170 169 171 170 169 171 170 169 171 170
169 171 170 169 171 170 167 169 168 169 171 170 171 173 172
171 173 172 169 171 170 168 170 169 168 170 169 169 171 170
177 177 177 175 175 175 172 172 172 165 165 165 154 154 154
142 142 142 131 131 131 124 124 124 137 137 137 154 154 154
177 177 177 188 188 188 185 185 185 177 177 177 178 178 178
184 184 184 170 170 170 170 170 170 169 169 169 168 168 168
168 168 168 169 169 169 170 170 170 171 171 171 172 172 172
172 172 172 170 170 170 168 168 168 167 167 167 169 169 169
173 173 173 177 177 177 173 174 176 165 166 168 149 150 152
133 134 136 129 130 132 133 134 136 136 137 139 133 134 136
133 134 136 133 134 136 133 134 136 133 134 136 133 134 136
133 134 136 133 134 136 133 134 136 133 134 136 133 134 136
133 134 136 133 134 136 133 134 136 133 134 136 133 134 136
133 134 136 133 134 136 133 134 136 133 134 136 133 134 136
133 134 136 133 134 136 133 134 136 133 134 136 131 135 136
131 135 136 131 135 136 131 135 136 131 135 136 131 135 136
131 135 136 131 135 136 131 135 136 131 135 136 131 135 136
131 135 136 131 135 136 131 135 136 131 135 136 131 135 136
131 135 136 131 135 136 131 135 136 131 135 136 131 135 136
131 135 136 131 135 136 131 135 136 131 135 136 131 135 136
131 135 136 131 135 136 131 135 136 131 135 136 131 135 136
131 135 136 133 134 136 133 134 136 133 134 136 133 134 136
133 134 136 133 134 136 133 134 136 133 134 136 135 136 138
135 136 138 135 136 138 134 135 137 132 133 135 131 132 134
131 132 134 131 132 134 132 132 132 139 139 139 140 140 140
136 136 136 129 129 129 129 129 129 169 169 169 227 227 227
244 244 244 250 250 250 255 255 255 254 254 254 253 253 253
253 253 253 254 254 254 254 254 254 254 254 254 254 254 254
254 254 254 254 254 254 254 254 254 254 254 254 254 254 254
254 254 254 254 254 254 254 254 254 254 254 254 254 254 254
254 254 254 254 254 254 254 254 254 254 254 254 254 254 254
254 254 254 254 254 254 254 254 254 254 254 254 254 254 254
254 254 254 254 254 254 254 254 254 254 254 254 254 254 254
254 254 254 254 254 254 254 254 254 254 254 254 254 254 254
254 254 254 254 254 254 254 254 254 254 254 254 254 254 254
254 254 254 254 254 254 254 254 254 254 254 254 254 254 254
254 254 254 254 254 254 254 254 254 254 254 254 254 254 254
254 254 254 254 254 254 254 254 254 254 254 254 254 254 254
254 254 254 254 254 254 254 254 254 254 254 254 254 254 254
254 254 254 254 254 254 254 254 254 254 254 254 254 254 254
254 254 254 254 254 254 250 250 250 252 252 252 255 255 255
255 255 255 255 255 255 253 253 253 254 254 254 254 254 254
247 247 247 245 245 245 243 243 243 232 232 232 204 204 204
164 164 164 137 137 137 129 129 129 131 133 132 132 134 133
132 134 133 129 131 130 126 128 127 127 129 128 131 133 132
136 138 137 136 138 137 136 138 137 136 138 137 135 137 136
134 136 135 134 136 135 133 135 134 133 135 134 131 135 136
131 135 136 131 135 136 131 135 136 131 135 136 131 135 136
131 135 136 131 135 136 131 135 136 131 135 136 131 135 136
131 135 136 131 135 136 131 135 136 131 135 136 131 135 136
131 135 136 131 135 136 131 135 136 131 135 136 131 135 136
131 135 136 131 135 136 131 135 136 131 135 136 131 135 136
131 135 136 131 135 136 131 135 136 131 135 136 131 135 136
131 135 136 131 135 136 131 135 136 131 135 136 131 135 136
131 135 136 131 135 136 131 135 136 131 135 136 131 135 136
131 135 136 131 135 136 131 135 136 131 135 136 131 135 136
131 135 136 131 135 136 133 135 134 132 134 133 131 133 132
132 134 133 134 136 135 135 137 136 134 136 135 133 135 134
131 133 132 131 133 132 129 131 130 129 131 130 139 141 140
154 156 155 166 168 167 170 172 171 165 167 166 166 168 167
166 168 167 167 169 168 168 170 169 168 170 169 169 171 170
169 171 170 166 168 167 168 170 169 170 172 171 172 174 173
173 175 174 173 175 174 172 174 173 171 173 172 176 178 177
180 182 181 184 186 185 178 180 179 157 159 158 121 123 122 82 84 83
57 59 58 37 39 38 37 39 38 46 48 47 66 68 67 94 96 95 128 130 129
163 165 164 188 190 189 170 172 171 167 169 168 163 165 164
165 167 166 170 172 171 174 176 175 173 175 174 171 173 172
169 171 170 169 171 170 169 171 170 169 171 170 169 171 170
169 171 170 169 171 170 169 171 170 169 171 170 169 171 170
169 171 170 169 171 170 169 171 170 169 171 170 169 171 170
169 171 170 169 171 170 169 171 170 169 171 170 169 171 170
169 171 170 169 171 170 169 171 170 169 171 170 169 171 170
169 171 170 169 171 170 169 171 170 169 171 170 169 171 170
169 171 170 169 171 170 169 171 170 169 171 170 169 171 170
169 171 170 169 171 170 169 171 170 169 171 170 169 171 170
169 171 170 169 171 170 169 171 170 169 171 170 169 171 170
169 171 170 169 171 170 169 171 170 167 169 168 169 171 170
170 172 171 170 172 171 169 171 170 169 171 170 170 172 171
172 174 173 180 180 180 173 173 173 153 153 153 119 119 119 78 78 78
45 45 45 28 28 28 22 22 22 29 29 29 59 59 59 97 97 97 129 129 129
155 155 155 173 173 173 173 173 173 165 165 165 170 170 170
170 170 170 171 171 171 171 171 171 171 171 171 171 171 171
171 171 171 171 171 171 169 169 169 170 170 170 169 169 169
168 168 168 167 167 167 169 169 169 172 172 172 175 175 175
174 175 177 169 170 172 154 155 157 135 136 138 129 130 132
134 135 137 136 137 139 132 133 135 133 134 136 133 134 136
133 134 136 133 134 136 133 134 136 133 134 136 133 134 136
133 134 136 133 134 136 133 134 136 133 134 136 133 134 136
133 134 136 133 134 136 133 134 136 133 134 136 133 134 136
133 134 136 133 134 136 133 134 136 133 134 136 133 134 136
133 134 136 133 134 136 131 135 136 131 135 136 131 135 136
131 135 136 131 135 136 131 135 136 131 135 136 131 135 136
131 135 136 131 135 136 131 135 136 131 135 136 131 135 136
131 135 136 131 135 136 131 135 136 131 135 136 131 135 136
131 135 136 131 135 136 131 135 136 131 135 136 131 135 136
131 135 136 131 135 136 131 135 136 131 135 136 131 135 136
131 135 136 131 135 136 131 135 136 131 135 136 133 134 136
133 134 136 133 134 136 133 134 136 133 134 136 133 134 136
133 134 136 133 134 136 134 135 137 134 135 137 134 135 137
133 134 136 131 132 134 131 132 134 132 133 135 134 135 137
130 130 130 139 139 139 138 138 138 130 130 130 128 128 128
140 140 140 182 182 182 234 234 234 247 247 247 250 250 250
253 253 253 254 254 254 254 254 254 253 253 253 254 254 254
254 254 254 254 254 254 254 254 254 254 254 254 254 254 254
254 254 254 254 254 254 254 254 254 254 254 254 254 254 254
254 254 254 254 254 254 254 254 254 254 254 254 254 254 254
254 254 254 254 254 254 254 254 254 254 254 254 254 254 254
254 254 254 254 254 254 254 254 254 254 254 254 254 254 254
254 254 254 254 254 254 254 254 254 254 254 254 254 254 254
254 254 254 254 254 254 254 254 254 254 254 254 254 254 254
254 254 254 254 254 254 254 254 254 254 254 254 254 254 254
254 254 254 254 254 254 254 254 254 254 254 254 254 254 254
254 254 254 254 254 254 254 254 254 254 254 254 254 254 254
254 254 254 254 254 254 254 254 254 254 254 254 254 254 254
254 254 254 254 254 254 254 254 254 254 254 254 254 254 254
254 254 254 254 254 254 254 254 254 254 254 254 254 254 254
250 250 250 253 253 253 255 255 255 255 255 255 255 255 255
254 254 254 254 254 254 254 254 254 251 251 251 246 246 246
241 241 241 239 239 239 227 227 227 188 188 188 149 149 149
134 134 134 134 136 135 134 136 135 133 135 134 129 131 130
125 127 126 126 128 127 133 135 134 140 142 141 137 139 138
137 139 138 136 138 137 135 137 136 134 136 135 134 136 135
133 135 134 133 135 134 131 135 136 131 135 136 131 135 136
131 135 136 131 135 136 131 135 136 131 135 136 131 135 136
131 135 136 131 135 136 131 135 136 131 135 136 131 135 136
131 135 136 131 135 136 131 135 136 131 135 136 131 135 136
131 135 136 131 135 136 131 135 136 131 135 136 131 135 136
131 135 136 131 135 136 131 135 136 131 135 136 131 135 136
131 135 136 131 135 136 131 135 136 131 135 136 131 135 136
131 135 136 131 135 136 131 135 136 131 135 136 131 135 136
131 135 136 131 135 136 131 135 136 131 135 136 131 135 136
131 135 136 131 135 136 131 135 136 131 135 136 131 135 136
134 136 135 132 134 133 130 132 131 132 134 133 134 136 135
136 138 137 134 136 135 132 134 133 131 133 132 134 136 135
134 136 135 131 133 132 137 139 138 153 155 154 166 168 167
171 173 172 167 169 168 167 169 168 168 170 169 168 170 169
168 170 169 168 170 169 168 170 169 168 170 169 163 165 164
165 167 166 168 170 169 171 173 172 174 176 175 176 178 177
176 178 177 176 178 177 156 158 157 173 175 174 179 181 180
148 150 149 90 92 91 35 37 36 7 9 8 1 3 2 6 8 7 0 1 0 0 1 0 7 9 8
26 28 27 62 64 63 124 126 125 179 181 180 173 175 174 176 178 177
179 181 180 178 180 179 174 176 175 170 172 171 169 171 170
169 171 170 169 171 170 169 171 170 169 171 170 169 171 170
169 171 170 169 171 170 169 171 170 169 171 170 169 171 170
169 171 170 169 171 170 169 171 170 169 171 170 169 171 170
169 171 170 169 171 170 169 171 170 169 171 170 169 171 170
169 171 170 169 171 170 169 171 170 169 171 170 169 171 170
169 171 170 169 171 170 169 171 170 169 171 170 169 171 170
169 171 170 169 171 170 169 171 170 169 171 170 169 171 170
169 171 170 169 171 170 169 171 170 169 171 170 169 171 170
169 171 170 169 171 170 169 171 170 169 171 170 169 171 170
169 171 170 169 171 170 169 171 170 169 171 170 168 170 169
169 171 170 170 172 171 169 171 170 169 171 170 170 172 171
173 175 174 176 178 177 194 194 194 150 150 150 88 88 88 38 38 38
11 11 11 3 3 3 0 0 0 0 0 0 0 0 0 4 4 4 19 19 19 51 51 51 110 110 110
167 167 167 180 180 180 161 161 161 167 167 167 169 169 169
171 171 171 173 173 173 173 173 173 173 173 173 171 171 171
170 170 170 166 166 166 167 167 167 169 169 169 169 169 169
168 168 168 168 168 168 170 170 170 172 172 172 175 176 178
172 173 175 158 159 161 137 138 140 129 130 132 135 136 138
136 137 139 130 131 133 133 134 136 133 134 136 133 134 136
133 134 136 133 134 136 133 134 136 133 134 136 133 134 136
133 134 136 133 134 136 133 134 136 133 134 136 133 134 136
133 134 136 133 134 136 133 134 136 133 134 136 133 134 136
133 134 136 133 134 136 133 134 136 133 134 136 133 134 136
133 134 136 131 135 136 131 135 136 131 135 136 131 135 136
131 135 136 131 135 136 131 135 136 131 135 136 131 135 136
131 135 136 131 135 136 131 135 136 131 135 136 131 135 136
131 135 136 131 135 136 131 135 136 131 135 136 131 135 136
131 135 136 131 135 136 131 135 136 131 135 136 131 135 136
131 135 136 131 135 136 131 135 136 131 135 136 131 135 136
131 135 136 131 135 136 131 135 136 133 134 136 133 134 136
133 134 136 133 134 136 133 134 136 133 134 136 133 134 136
133 134 136 132 133 135 133 134 136 134 135 137 132 133 135
130 131 133 131 132 134 134 135 137 137 138 140 133 133 133
138 138 138 130 130 130 126 126 126 144 144 144 173 173 173
208 208 208 241 241 241 250 250 250 250 250 250 252 252 252
255 255 255 255 255 255 253 253 253 253 253 253 255 255 255
254 254 254 254 254 254 254 254 254 254 254 254 254 254 254
254 254 254 254 254 254 254 254 254 254 254 254 254 254 254
254 254 254 254 254 254 254 254 254 254 254 254 254 254 254
254 254 254 254 254 254 254 254 254 254 254 254 254 254 254
254 254 254 254 254 254 254 254 254 254 254 254 254 254 254
254 254 254 254 254 254 254 254 254 254 254 254 254 254 254
254 254 254 254 254 254 254 254 254 254 254 254 254 254 254
254 254 254 254 254 254 254 254 254 254 254 254 254 254 254
254 254 254 254 254 254 254 254 254 254 254 254 254 254 254
254 254 254 254 254 254 254 254 254 254 254 254 254 254 254
254 254 254 254 254 254 254 254 254 254 254 254 254 254 254
254 254 254 254 254 254 254 254 254 254 254 254 254 254 254
254 254 254 254 254 254 254 254 254 254 254 254 250 250 250
253 253 253 255 255 255 255 255 255 255 255 255 254 254 254
254 254 254 255 255 255 254 254 254 247 247 247 240 240 240
245 245 245 244 244 244 207 207 207 163 163 163 146 146 146
138 140 139 139 141 140 136 138 137 131 133 132 127 129 128
129 131 130 137 139 138 145 147 146 138 140 139 137 139 138
136 138 137 136 138 137 135 137 136 134 136 135 133 135 134
133 135 134 131 135 136 131 135 136 131 135 136 131 135 136
131 135 136 131 135 136 131 135 136 131 135 136 131 135 136
131 135 136 131 135 136 131 135 136 131 135 136 131 135 136
131 135 136 131 135 136 131 135 136 131 135 136 131 135 136
131 135 136 131 135 136 131 135 136 131 135 136 131 135 136
131 135 136 131 135 136 131 135 136 131 135 136 131 135 136
131 135 136 131 135 136 131 135 136 131 135 136 131 135 136
131 135 136 131 135 136 131 135 136 131 135 136 131 135 136
131 135 136 131 135 136 131 135 136 131 135 136 131 135 136
131 135 136 131 135 136 131 135 136 131 135 136 134 136 135
131 133 132 130 132 131 131 133 132 135 137 136 136 138 137
135 137 136 132 134 133 131 133 132 136 138 137 137 139 138
133 135 134 137 139 138 152 154 153 166 168 167 171 173 172
170 172 171 170 172 171 170 172 171 169 171 170 169 171 170
168 170 169 168 170 169 168 170 169 170 172 171 169 171 170
168 170 169 167 169 168 165 167 166 163 165 164 162 164 163
161 163 162 170 172 171 165 167 166 143 145 144 100 102 101 54 56 55
31 33 32 38 40 39 53 55 54 22 24 23 13 15 14 10 12 11 10 12 11 2 4 3
10 12 11 60 62 61 118 120 119 154 156 155 166 168 167 178 180 179
178 180 179 169 171 170 162 164 163 164 166 165 169 171 170
169 171 170 169 171 170 169 171 170 169 171 170 169 171 170
169 171 170 169 171 170 169 171 170 169 171 170 169 171 170
169 171 170 169 171 170 169 171 170 169 171 170 169 171 170
169 171 170 169 171 170 169 171 170 169 171 170 169 171 170
169 171 170 169 171 170 169 171 170 169 171 170 169 171 170
169 171 170 169 171 170 169 171 170 169 171 170 169 171 170
169 171 170 169 171 170 169 171 170 169 171 170 169 171 170
169 171 170 169 171 170 169 171 170 169 171 170 169 171 170
169 171 170 169 171 170 169 171 170 169 171 170 169 171 170
169 171 170 169 171 170 169 171 170 168 170 169 169 171 170
169 171 170 169 171 170 169 171 170 171 173 172 175 177 176
179 181 180 144 144 144 98 98 98 51 51 51 44 44 44 67 67 67 76 76 76
51 51 51 20 20 20 5 5 5 7 7 7 0 0 0 0 0 0 46 46 46 122 122 122
162 162 162 161 161 161 165 165 165 167 167 167 170 170 170
173 173 173 174 174 174 173 173 173 171 171 171 169 169 169
163 163 163 166 166 166 168 168 168 169 169 169 168 168 168
168 168 168 169 169 169 171 171 171 175 176 178 174 175 177
160 161 163 139 140 142 130 131 133 135 136 138 136 137 139
129 130 132 133 134 136 133 134 136 133 134 136 133 134 136
133 134 136 133 134 136 133 134 136 133 134 136 133 134 136
133 134 136 133 134 136 133 134 136 133 134 136 133 134 136
133 134 136 133 134 136 133 134 136 133 134 136 133 134 136
133 134 136 133 134 136 133 134 136 133 134 136 133 134 136
131 135 136 131 135 136 131 135 136 131 135 136 131 135 136
131 135 136 131 135 136 131 135 136 131 135 136 131 135 136
131 135 136 131 135 136 131 135 136 131 135 136 131 135 136
131 135 136 131 135 136 131 135 136 131 135 136 131 135 136
131 135 136 131 135 136 131 135 136 131 135 136 131 135 136
131 135 136 131 135 136 131 135 136 131 135 136 131 135 136
131 135 136 131 135 136 133 134 136 133 134 136 133 134 136
133 134 136 133 134 136 133 134 136 133 134 136 133 134 136
131 132 134 133 134 136 133 134 136 132 133 135 130 131 133
131 132 134 135 136 138 139 140 142 137 137 137 136 136 136
124 124 124 127 127 127 165 165 165 207 207 207 234 234 234
250 250 250 251 251 251 250 250 250 252 252 252 255 255 255
255 255 255 253 253 253 253 253 253 255 255 255 254 254 254
254 254 254 254 254 254 254 254 254 254 254 254 254 254 254
254 254 254 254 254 254 254 254 254 254 254 254 254 254 254
254 254 254 254 254 254 254 254 254 254 254 254 254 254 254
254 254 254 254 254 254 254 254 254 254 254 254 254 254 254
254 254 254 254 254 254 254 254 254 254 254 254 254 254 254
254 254 254 254 254 254 254 254 254 254 254 254 254 254 254
254 254 254 254 254 254 254 254 254 254 254 254 254 254 254
254 254 254 254 254 254 254 254 254 254 254 254 254 254 254
254 254 254 254 254 254 254 254 254 254 254 254 254 254 254
254 254 254 254 254 254 254 254 254 254 254 254 254 254 254
254 254 254 254 254 254 254 254 254 254 254 254 254 254 254
254 254 254 254 254 254 254 254 254 254 254 254 254 254 254
254 254 254 254 254 254 254 254 254 245 245 245 246 246 246
248 248 248 250 250 250 252 252 252 254 254 254 255 255 255
255 255 255 255 255 255 255 255 255 253 253 253 248 248 248
248 248 248 237 237 237 202 202 202 165 165 165 133 135 134
130 132 131 133 135 134 141 143 142 141 143 142 135 137 136
132 134 133 135 137 136 127 129 128 133 135 134 138 140 139
138 140 139 133 135 134 130 132 131 131 133 132 134 136 135
130 134 135 130 134 135 130 134 135 130 134 135 131 135 136
132 136 137 133 137 138 133 137 138 130 134 135 132 136 137
133 137 138 131 135 136 128 132 133 128 132 133 131 135 136
134 138 139 134 138 139 130 134 135 127 131 132 127 131 132
130 134 135 133 137 138 134 138 139 134 138 139 131 135 136
131 135 136 131 135 136 131 135 136 131 135 136 131 135 136
131 135 136 131 135 136 131 135 136 131 135 136 131 135 136
131 135 136 131 135 136 131 135 136 131 135 136 131 135 136
131 135 136 131 135 136 131 135 136 131 135 136 131 135 136
131 135 136 131 135 136 131 135 136 132 134 133 132 134 133
131 133 132 133 135 134 135 137 136 135 137 136 134 136 135
132 134 133 134 136 135 134 136 135 132 134 133 132 134 133
141 143 142 156 158 157 168 170 169 172 174 173 169 171 170
169 171 170 169 171 170 169 171 170 169 171 170 169 171 170
169 171 170 169 171 170 166 168 167 167 169 168 168 170 169
170 172 171 172 174 173 174 176 175 175 177 176 176 178 177
165 167 166 165 167 166 74 76 75 52 54 53 105 107 106 149 151 150
190 192 191 182 184 183 122 124 123 39 41 40 0 1 0 2 4 3 9 11 10
4 6 5 18 20 19 72 74 73 138 140 139 172 174 173 181 183 182
165 167 166 165 167 166 173 175 174 171 173 172 166 168 167
166 168 167 166 168 167 167 169 168 168 170 169 169 171 170
169 171 170 169 171 170 169 171 170 169 171 170 169 171 170
169 171 170 169 171 170 169 171 170 169 171 170 169 171 170
169 171 170 169 171 170 169 171 170 169 171 170 169 171 170
169 171 170 169 171 170 169 171 170 169 171 170 169 171 170
169 171 170 169 171 170 169 171 170 169 171 170 169 171 170
169 171 170 169 171 170 169 171 170 169 171 170 169 171 170
169 171 170 169 171 170 169 171 170 169 171 170 169 171 170
169 171 170 169 171 170 169 171 170 169 171 170 169 171 170
169 171 170 169 171 170 169 171 170 166 168 167 174 176 175
175 177 176 166 168 167 164 166 165 168 170 169 166 168 167
157 159 158 113 113 113 70 70 70 123 123 123 198 198 198 222 222 222
212 212 212 152 152 152 84 84 84 10 10 10 3 3 3 0 0 0 4 4 4 33 33 33
79 79 79 129 129 129 162 162 162 166 166 166 167 167 167 175 175 175
184 184 184 177 177 177 163 163 163 162 162 162 172 172 172
169 169 169 170 170 170 170 170 170 169 169 169 167 167 167
167 167 167 169 169 169 171 171 171 172 173 175 170 171 173
157 158 160 138 139 141 130 131 133 133 134 136 135 136 138
132 133 135 133 134 136 133 134 136 133 134 136 133 134 136
133 134 136 133 134 136 133 134 136 133 134 136 133 134 136
133 134 136 133 134 136 133 134 136 133 134 136 133 134 136
133 134 136 133 134 136 133 134 136 133 134 136 133 134 136
133 134 136 133 134 136 133 134 136 133 134 136 133 134 136
131 135 136 131 135 136 131 135 136 131 135 136 131 135 136
131 135 136 131 135 136 131 135 136 131 135 136 131 135 136
131 135 136 131 135 136 131 135 136 131 135 136 131 135 136
131 135 136 130 134 135 131 135 136 131 135 136 132 136 137
132 136 137 131 135 136 131 135 136 130 134 135 132 136 137
131 135 136 130 134 135 130 134 135 132 136 137 132 136 137
131 135 136 130 134 135 133 134 136 133 134 136 133 134 136
133 134 136 133 134 136 133 134 136 133 134 136 133 134 136
134 135 137 135 136 138 135 136 138 135 136 138 134 135 137
135 136 138 136 137 139 138 139 141 132 132 132 136 136 136
153 153 153 185 185 185 221 221 221 245 245 245 250 250 250
245 245 245 249 249 249 248 248 248 247 247 247 248 248 248
251 251 251 253 253 253 254 254 254 254 254 254 253 253 253
254 254 254 255 255 255 255 255 255 255 255 255 255 255 255
255 255 255 255 255 255 254 254 254 254 254 254 254 254 254
254 254 254 254 254 254 254 254 254 255 255 255 255 255 255
255 255 255 255 255 255 255 255 255 254 254 254 254 254 254
253 253 253 253 253 253 253 253 253 254 254 254 254 254 254
254 254 254 254 254 254 254 254 254 254 254 254 254 254 254
254 254 254 254 254 254 254 254 254 254 254 254 254 254 254
254 254 254 254 254 254 254 254 254 254 254 254 254 254 254
254 254 254 254 254 254 254 254 254 254 254 254 254 254 254
254 254 254 254 254 254 254 254 254 254 254 254 254 254 254
254 254 254 254 254 254 254 254 254 254 254 254 254 254 254
254 254 254 254 254 254 254 254 254 254 254 254 254 254 254
254 254 254 254 254 254 254 254 254 247 247 247 248 248 248
249 249 249 250 250 250 252 252 252 254 254 254 255 255 255
255 255 255 254 254 254 255 255 255 254 254 254 251 251 251
254 254 254 250 250 250 226 226 226 198 198 198 140 142 141
139 141 140 139 141 140 136 138 137 128 130 129 122 124 123
129 131 130 141 143 142 129 131 130 130 132 131 132 134 133
133 135 134 134 136 135 133 135 134 132 134 133 132 134 133
133 137 138 132 136 137 131 135 136 130 134 135 130 134 135
130 134 135 131 135 136 131 135 136 130 134 135 131 135 136
132 136 137 132 136 137 132 136 137 131 135 136 131 135 136
130 134 135 127 131 132 129 133 134 130 134 135 129 133 134
128 132 133 128 132 133 130 134 135 131 135 136 131 135 136
131 135 136 131 135 136 131 135 136 131 135 136 131 135 136
131 135 136 131 135 136 131 135 136 131 135 136 131 135 136
131 135 136 131 135 136 131 135 136 131 135 136 131 135 136
131 135 136 131 135 136 131 135 136 131 135 136 131 135 136
131 135 136 131 135 136 131 135 136 132 134 133 132 134 133
131 133 132 133 135 134 135 137 136 135 137 136 134 136 135
132 134 133 133 135 134 134 136 135 132 134 133 132 134 133
141 143 142 156 158 157 168 170 169 172 174 173 169 171 170
169 171 170 169 171 170 169 171 170 169 171 170 169 171 170
169 171 170 169 171 170 171 173 172 171 173 172 171 173 172
172 174 173 172 174 173 173 175 174 173 175 174 174 176 175
163 165 164 150 152 151 51 53 52 36 38 37 123 125 124 206 208 207
254 255 255 235 237 236 173 175 174 74 76 75 8 10 9 0 1 0 7 9 8
9 11 10 10 12 11 44 46 45 127 129 128 163 165 164 176 178 177
166 168 167 167 169 168 174 176 175 172 174 173 168 170 169
166 168 167 167 169 168 168 170 169 168 170 169 169 171 170
169 171 170 169 171 170 169 171 170 169 171 170 169 171 170
169 171 170 169 171 170 169 171 170 169 171 170 169 171 170
169 171 170 169 171 170 169 171 170 169 171 170 169 171 170
169 171 170 169 171 170 169 171 170 169 171 170 169 171 170
169 171 170 169 171 170 169 171 170 169 171 170 169 171 170
169 171 170 169 171 170 169 171 170 169 171 170 169 171 170
169 171 170 169 171 170 169 171 170 169 171 170 169 171 170
169 171 170 169 171 170 169 171 170 169 171 170 169 171 170
169 171 170 169 171 170 169 171 170 166 168 167 171 173 172
171 173 172 167 169 168 171 173 172 176 178 177 167 169 168
152 154 153 111 111 111 74 74 74 138 138 138 228 228 228 255 255 255
235 235 235 152 152 152 70 70 70 6 6 6 11 11 11 16 16 16 14 14 14
10 10 10 36 36 36 106 106 106 174 174 174 165 165 165 164 164 164
171 171 171 179 179 179 175 175 175 163 163 163 161 161 161
168 168 168 169 169 169 170 170 170 170 170 170 169 169 169
167 167 167 167 167 167 169 169 169 171 171 171 173 174 176
172 173 175 158 159 161 139 140 142 129 130 132 133 134 136
135 136 138 132 133 135 133 134 136 133 134 136 133 134 136
133 134 136 133 134 136 133 134 136 133 134 136 133 134 136
133 134 136 133 134 136 133 134 136 133 134 136 133 134 136
133 134 136 133 134 136 133 134 136 133 134 136 133 134 136
133 134 136 133 134 136 133 134 136 133 134 136 133 134 136
133 134 136 131 135 136 131 135 136 131 135 136 131 135 136
131 135 136 131 135 136 131 135 136 131 135 136 131 135 136
131 135 136 131 135 136 131 135 136 131 135 136 131 135 136
131 135 136 131 135 136 131 135 136 131 135 136 132 136 137
132 136 137 132 136 137 132 136 137 131 135 136 131 135 136
131 135 136 130 134 135 130 134 135 130 134 135 132 136 137
132 136 137 132 136 137 131 135 136 133 134 136 133 134 136
133 134 136 133 134 136 133 134 136 133 134 136 133 134 136
133 134 136 131 132 134 132 133 135 132 133 135 132 133 135
133 134 136 134 135 137 136 137 139 137 138 140 121 121 121
143 143 143 181 181 181 222 222 222 251 251 251 255 255 255
255 255 255 254 254 254 245 245 245 248 248 248 253 253 253
255 255 255 255 255 255 255 255 255 250 250 250 246 246 246
252 252 252 253 253 253 254 254 254 254 254 254 255 255 255
255 255 255 255 255 255 255 255 255 254 254 254 254 254 254
254 254 254 253 253 253 253 253 253 252 252 252 252 252 252
252 252 252 255 255 255 255 255 255 255 255 255 254 254 254
254 254 254 253 253 253 253 253 253 253 253 253 254 254 254
254 254 254 254 254 254 254 254 254 254 254 254 254 254 254
254 254 254 254 254 254 254 254 254 254 254 254 254 254 254
254 254 254 254 254 254 254 254 254 254 254 254 254 254 254
254 254 254 254 254 254 254 254 254 254 254 254 254 254 254
254 254 254 254 254 254 254 254 254 254 254 254 254 254 254
254 254 254 254 254 254 254 254 254 254 254 254 254 254 254
254 254 254 254 254 254 254 254 254 254 254 254 254 254 254
254 254 254 254 254 254 254 254 254 254 254 254 250 250 250
250 250 250 251 251 251 251 251 251 252 252 252 253 253 253
254 254 254 254 254 254 253 253 253 255 255 255 255 255 255
253 253 253 255 255 255 255 255 255 248 248 248 231 231 231
190 192 191 165 167 166 138 140 139 126 128 127 127 129 128
130 132 131 133 135 134 135 137 136 133 135 134 130 132 131
127 129 128 129 131 130 134 136 135 136 138 137 133 135 134
130 132 131 132 136 137 132 136 137 131 135 136 130 134 135
130 134 135 130 134 135 131 135 136 131 135 136 130 134 135
130 134 135 131 135 136 132 136 137 133 137 138 133 137 138
131 135 136 128 132 133 125 129 130 130 134 135 134 138 139
133 137 138 129 133 134 126 130 131 127 131 132 130 134 135
131 135 136 131 135 136 131 135 136 131 135 136 131 135 136
131 135 136 131 135 136 131 135 136 131 135 136 131 135 136
131 135 136 131 135 136 131 135 136 131 135 136 131 135 136
131 135 136 131 135 136 131 135 136 131 135 136 131 135 136
131 135 136 131 135 136 131 135 136 131 135 136 132 134 133
132 134 133 131 133 132 133 135 134 135 137 136 135 137 136
134 136 135 132 134 133 132 134 133 134 136 135 133 135 134
132 134 133 140 142 141 155 157 156 167 169 168 172 174 173
169 171 170 169 171 170 169 171 170 169 171 170 169 171 170
169 171 170 169 171 170 169 171 170 169 171 170 169 171 170
169 171 170 168 170 169 167 169 168 166 168 167 166 168 167
166 168 167 183 185 184 169 171 170 66 68 67 16 18 17 59 61 60
119 121 120 153 155 154 129 131 130 82 84 83 26 28 27 0 2 1 0 1 0
3 5 4 3 5 4 4 6 5 34 36 35 118 120 119 154 156 155 171 173 172
166 168 167 168 170 169 173 175 174 172 174 173 172 174 173
168 170 169 168 170 169 168 170 169 168 170 169 169 171 170
169 171 170 169 171 170 169 171 170 169 171 170 169 171 170
169 171 170 169 171 170 169 171 170 169 171 170 169 171 170
169 171 170 169 171 170 169 171 170 169 171 170 169 171 170
169 171 170 169 171 170 169 171 170 169 171 170 169 171 170
169 171 170 169 171 170 169 171 170 169 171 170 169 171 170
169 171 170 169 171 170 169 171 170 169 171 170 169 171 170
169 171 170 169 171 170 169 171 170 169 171 170 169 171 170
169 171 170 169 171 170 169 171 170 169 171 170 169 171 170
169 171 170 169 171 170 169 171 170 169 171 170 169 171 170
166 168 167 167 169 168 175 177 176 178 180 179 163 165 164
143 145 144 87 87 87 29 29 29 56 56 56 116 116 116 139 139 139
128 128 128 77 77 77 30 30 30 10 10 10 8 8 8 12 12 12 13 13 13 7 7 7
26 26 26 98 98 98 175 175 175 167 167 167 164 164 164 168 168 168
176 176 176 175 175 175 166 166 166 163 163 163 166 166 166
169 169 169 170 170 170 170 170 170 169 169 169 168 168 168
168 168 168 170 170 170 172 172 172 175 176 178 173 174 176
160 161 163 140 141 143 129 130 132 132 133 135 135 136 138
133 134 136 133 134 136 133 134 136 133 134 136 133 134 136
133 134 136 133 134 136 133 134 136 133 134 136 133 134 136
133 134 136 133 134 136 133 134 136 133 134 136 133 134 136
133 134 136 133 134 136 133 134 136 133 134 136 133 134 136
133 134 136 133 134 136 133 134 136 133 134 136 133 134 136
131 135 136 131 135 136 131 135 136 131 135 136 131 135 136
131 135 136 131 135 136 131 135 136 131 135 136 131 135 136
131 135 136 131 135 136 131 135 136 131 135 136 131 135 136
131 135 136 132 136 137 132 136 137 132 136 137 132 136 137
132 136 137 132 136 137 132 136 137 132 136 137 130 134 135
130 134 135 130 134 135 131 135 136 131 135 136 132 136 137
132 136 137 132 136 137 133 134 136 133 134 136 133 134 136
133 134 136 133 134 136 133 134 136 133 134 136 133 134 136
132 133 135 132 133 135 131 132 134 131 132 134 131 132 134
132 133 135 133 134 136 133 134 136 163 163 163 192 192 192
230 230 230 255 255 255 255 255 255 250 250 250 237 237 237
229 229 229 240 240 240 244 244 244 249 249 249 254 254 254
255 255 255 255 255 255 255 255 255 255 255 255 252 252 252
253 253 253 253 253 253 253 253 253 254 254 254 254 254 254
254 254 254 254 254 254 254 254 254 254 254 254 254 254 254
254 254 254 254 254 254 254 254 254 254 254 254 254 254 254
255 255 255 255 255 255 254 254 254 254 254 254 254 254 254
254 254 254 253 253 253 253 253 253 254 254 254 254 254 254
254 254 254 254 254 254 254 254 254 254 254 254 254 254 254
254 254 254 254 254 254 254 254 254 254 254 254 254 254 254
254 254 254 254 254 254 254 254 254 254 254 254 254 254 254
254 254 254 254 254 254 254 254 254 254 254 254 254 254 254
254 254 254 254 254 254 254 254 254 254 254 254 254 254 254
254 254 254 254 254 254 254 254 254 254 254 254 254 254 254
254 254 254 254 254 254 254 254 254 254 254 254 254 254 254
254 254 254 254 254 254 254 254 254 253 253 253 253 253 253
253 253 253 253 253 253 253 253 253 253 253 253 253 253 253
253 253 253 253 253 253 255 255 255 255 255 255 253 253 253
254 254 254 255 255 255 252 252 252 244 244 244 241 243 242
209 211 210 169 171 170 142 144 143 134 136 135 135 137 136
135 137 136 133 135 134 137 139 138 134 136 135 130 132 131
131 133 132 133 135 134 135 137 136 133 135 134 130 132 131
130 134 135 130 134 135 130 134 135 130 134 135 130 134 135
132 136 137 133 137 138 133 137 138 130 134 135 131 135 136
132 136 137 132 136 137 131 135 136 130 134 135 131 135 136
132 136 137 130 134 135 132 136 137 133 137 138 132 136 137
131 135 136 129 133 134 130 134 135 130 134 135 131 135 136
131 135 136 131 135 136 131 135 136 131 135 136 131 135 136
131 135 136 131 135 136 131 135 136 131 135 136 131 135 136
131 135 136 131 135 136 131 135 136 131 135 136 131 135 136
131 135 136 131 135 136 131 135 136 131 135 136 131 135 136
131 135 136 131 135 136 131 135 136 132 134 133 132 134 133
131 133 132 133 135 134 135 137 136 135 137 136 134 136 135
132 134 133 131 133 132 134 136 135 133 135 134 132 134 133
139 141 140 154 156 155 167 169 168 172 174 173 169 171 170
169 171 170 169 171 170 169 171 170 169 171 170 169 171 170
169 171 170 169 171 170 168 170 169 168 170 169 167 169 168
166 168 167 165 167 166 164 166 165 163 165 164 163 165 164
170 172 171 156 158 157 71 73 72 7 9 8 0 2 1 13 15 14 26 28 27
9 11 10 4 6 5 0 1 0 5 7 6 5 7 6 0 1 0 0 1 0 0 1 0 26 28 27
124 126 125 154 156 155 169 171 170 165 167 166 167 169 168
169 171 170 170 172 171 175 177 176 169 171 170 169 171 170
168 170 169 168 170 169 168 170 169 169 171 170 169 171 170
170 172 171 169 171 170 169 171 170 169 171 170 169 171 170
169 171 170 169 171 170 169 171 170 169 171 170 169 171 170
169 171 170 169 171 170 169 171 170 169 171 170 169 171 170
169 171 170 169 171 170 169 171 170 169 171 170 169 171 170
169 171 170 169 171 170 169 171 170 169 171 170 169 171 170
169 171 170 169 171 170 169 171 170 169 171 170 169 171 170
169 171 170 169 171 170 169 171 170 169 171 170 169 171 170
169 171 170 169 171 170 169 171 170 169 171 170 169 171 170
169 171 170 171 173 172 169 171 170 165 167 166 166 168 167
172 174 173 173 175 174 159 161 160 142 144 143 88 88 88 11 11 11
0 0 0 6 6 6 9 9 9 16 16 16 13 13 13 13 13 13 11 11 11 8 8 8 7 7 7
7 7 7 10 10 10 39 39 39 106 106 106 169 169 169 173 173 173
168 168 168 169 169 169 175 175 175 178 178 178 173 173 173
169 169 169 168 168 168 169 169 169 170 170 170 170 170 170
170 170 170 168 168 168 168 168 168 170 170 170 173 173 173
175 176 178 174 175 177 161 162 164 140 141 143 128 129 131
131 132 134 135 136 138 134 135 137 133 134 136 133 134 136
133 134 136 133 134 136 133 134 136 133 134 136 133 134 136
133 134 136 133 134 136 133 134 136 133 134 136 133 134 136
133 134 136 133 134 136 133 134 136 133 134 136 133 134 136
133 134 136 133 134 136 133 134 136 133 134 136 133 134 136
133 134 136 133 134 136 131 135 136 131 135 136 131 135 136
131 135 136 131 135 136 131 135 136 131 135 136 131 135 136
131 135 136 131 135 136 131 135 136 131 135 136 131 135 136
131 135 136 131 135 136 131 135 136 132 136 137 132 136 137
131 135 136 131 135 136 131 135 136 131 135 136 132 136 137
132 136 137 129 133 134 130 134 135 131 135 136 131 135 136
131 135 136 131 135 136 132 136 137 133 137 138 133 134 136
133 134 136 133 134 136 133 134 136 133 134 136 133 134 136
133 134 136 133 134 136 136 137 139 134 135 137 133 134 136
132 133 135 132 133 135 133 134 136 132 133 135 132 133 135
179 179 179 201 201 201 228 228 228 245 245 245 247 247 247
246 246 246 250 250 250 255 255 255 254 254 254 253 253 253
251 251 251 249 249 249 249 249 249 251 251 251 255 255 255
255 255 255 253 253 253 253 253 253 253 253 253 253 253 253
254 254 254 254 254 254 255 255 255 255 255 255 253 253 253
253 253 253 254 254 254 255 255 255 255 255 255 255 255 255
255 255 255 255 255 255 254 254 254 254 254 254 254 254 254
254 254 254 254 254 254 254 254 254 254 254 254 254 254 254
254 254 254 254 254 254 254 254 254 254 254 254 254 254 254
254 254 254 254 254 254 254 254 254 254 254 254 254 254 254
254 254 254 254 254 254 254 254 254 254 254 254 254 254 254
254 254 254 254 254 254 254 254 254 254 254 254 254 254 254
254 254 254 254 254 254 254 254 254 254 254 254 254 254 254
254 254 254 254 254 254 254 254 254 254 254 254 254 254 254
254 254 254 254 254 254 254 254 254 254 254 254 254 254 254
254 254 254 254 254 254 254 254 254 254 254 254 254 254 254
255 255 255 254 254 254 254 254 254 254 254 254 253 253 253
253 253 253 252 252 252 252 252 252 251 251 251 254 254 254
255 255 255 253 253 253 253 253 253 253 253 253 250 250 250
246 246 246 249 251 250 246 248 247 228 230 229 191 193 192
152 154 153 130 132 131 129 131 130 137 139 138 140 142 141
139 141 140 137 139 138 135 137 136 133 135 134 132 134 133
132 134 133 132 134 133 133 137 138 132 136 137 131 135 136
130 134 135 130 134 135 130 134 135 131 135 136 131 135 136
129 133 134 133 137 138 134 138 139 131 135 136 127 131 132
126 130 131 131 135 136 137 141 142 134 138 139 129 133 134
124 128 129 125 129 130 130 134 135 133 137 138 132 136 137
129 133 134 131 135 136 131 135 136 131 135 136 131 135 136
131 135 136 131 135 136 131 135 136 131 135 136 131 135 136
131 135 136 131 135 136 131 135 136 131 135 136 131 135 136
131 135 136 131 135 136 131 135 136 131 135 136 131 135 136
131 135 136 131 135 136 131 135 136 131 135 136 131 135 136
132 134 133 132 134 133 131 133 132 133 135 134 135 137 136
135 137 136 134 136 135 132 134 133 130 132 131 133 135 134
134 136 135 132 134 133 138 140 139 152 154 153 166 168 167
173 175 174 169 171 170 169 171 170 169 171 170 169 171 170
169 171 170 169 171 170 169 171 170 169 171 170 171 173 172
171 173 172 170 172 171 170 172 171 170 172 171 170 172 171
170 172 171 169 171 170 169 171 170 142 144 143 77 79 78 31 33 32
12 14 13 3 5 4 6 8 7 1 3 2 22 24 23 10 12 11 12 14 13 0 2 1 0 1 0
12 14 13 31 33 32 66 68 67 141 143 142 162 164 163 168 170 169
164 166 165 166 168 167 166 168 167 168 170 169 176 178 177
171 173 172 170 172 171 169 171 170 168 170 169 168 170 169
169 171 170 169 171 170 170 172 171 169 171 170 169 171 170
169 171 170 169 171 170 169 171 170 169 171 170 169 171 170
169 171 170 169 171 170 169 171 170 169 171 170 169 171 170
169 171 170 169 171 170 169 171 170 169 171 170 169 171 170
169 171 170 169 171 170 169 171 170 169 171 170 169 171 170
169 171 170 169 171 170 169 171 170 169 171 170 169 171 170
169 171 170 169 171 170 169 171 170 169 171 170 169 171 170
169 171 170 169 171 170 169 171 170 169 171 170 169 171 170
169 171 170 169 171 170 169 171 170 170 172 171 169 171 170
168 170 169 167 169 168 169 171 170 170 172 171 165 167 166
158 160 159 110 110 110 37 37 37 7 7 7 3 3 3 3 3 3 9 9 9 6 6 6
12 12 12 3 3 3 13 13 13 13 13 13 2 2 2 8 8 8 52 52 52 120 120 120
171 171 171 175 175 175 170 170 170 169 169 169 174 174 174
178 178 178 176 176 176 172 172 172 170 170 170 169 169 169
170 170 170 171 171 171 170 170 170 169 169 169 169 169 169
171 171 171 174 174 174 174 175 177 174 175 177 161 162 164
139 140 142 127 128 130 130 131 133 135 136 138 136 137 139
133 134 136 133 134 136 133 134 136 133 134 136 133 134 136
133 134 136 133 134 136 133 134 136 133 134 136 133 134 136
133 134 136 133 134 136 133 134 136 133 134 136 133 134 136
133 134 136 133 134 136 133 134 136 133 134 136 133 134 136
133 134 136 133 134 136 133 134 136 133 134 136 131 135 136
131 135 136 131 135 136 131 135 136 131 135 136 131 135 136
131 135 136 131 135 136 131 135 136 131 135 136 131 135 136
131 135 136 131 135 136 131 135 136 131 135 136 131 135 136
132 136 137 131 135 136 130 134 135 130 134 135 130 134 135
130 134 135 131 135 136 132 136 137 129 133 134 131 135 136
133 137 138 132 136 137 130 134 135 129 133 134 131 135 136
133 137 138 133 134 136 133 134 136 133 134 136 133 134 136
133 134 136 133 134 136 133 134 136 133 134 136 136 137 139
134 135 137 133 134 136 134 135 137 137 138 140 140 141 143
139 140 142 138 139 141 149 149 149 158 158 158 170 170 170
180 180 180 190 190 190 205 205 205 224 224 224 238 238 238
250 250 250 253 253 253 255 255 255 255 255 255 254 254 254
250 250 250 249 249 249 248 248 248 255 255 255 254 254 254
253 253 253 253 253 253 253 253 253 255 255 255 255 255 255
255 255 255 254 254 254 254 254 254 254 254 254 253 253 253
253 253 253 253 253 253 253 253 253 253 253 253 254 254 254
254 254 254 254 254 254 254 254 254 254 254 254 254 254 254
254 254 254 254 254 254 254 254 254 254 254 254 254 254 254
254 254 254 254 254 254 254 254 254 254 254 254 254 254 254
254 254 254 254 254 254 254 254 254 254 254 254 254 254 254
254 254 254 254 254 254 254 254 254 254 254 254 254 254 254
254 254 254 254 254 254 254 254 254 254 254 254 254 254 254
254 254 254 254 254 254 254 254 254 254 254 254 254 254 254
254 254 254 254 254 254 254 254 254 254 254 254 254 254 254
254 254 254 254 254 254 254 254 254 254 254 254 254 254 254
254 254 254 254 254 254 255 255 255 255 255 255 255 255 255
254 254 254 254 254 254 253 253 253 253 253 253 253 253 253
250 250 250 252 252 252 253 253 253 255 255 255 255 255 255
254 254 254 252 252 252 250 250 250 246 248 247 253 255 254
250 252 251 227 229 228 194 196 195 164 166 165 142 144 143
131 133 132 140 142 141 140 142 141 140 142 141 138 140 139
135 137 136 133 135 134 132 134 133 132 134 133 137 141 142
135 139 140 133 137 138 131 135 136 129 133 134 128 132 133
127 131 132 127 131 132 130 134 135 132 136 137 134 138 139
131 135 136 128 132 133 127 131 132 131 135 136 135 139 140
130 134 135 122 126 127 115 119 120 118 122 123 127 131 132
133 137 138 132 136 137 128 132 133 131 135 136 131 135 136
131 135 136 131 135 136 131 135 136 131 135 136 131 135 136
131 135 136 131 135 136 131 135 136 131 135 136 131 135 136
131 135 136 131 135 136 131 135 136 131 135 136 131 135 136
131 135 136 131 135 136 131 135 136 131 135 136 131 135 136
131 135 136 131 135 136 132 134 133 132 134 133 131 133 132
133 135 134 135 137 136 135 137 136 134 136 135 132 134 133
129 131 130 133 135 134 134 136 135 132 134 133 137 139 138
151 153 152 166 168 167 173 175 174 169 171 170 169 171 170
169 171 170 169 171 170 169 171 170 169 171 170 169 171 170
169 171 170 169 171 170 169 171 170 169 171 170 169 171 170
170 172 171 170 172 171 170 172 171 170 172 171 183 185 184
159 161 160 120 122 121 74 76 75 26 28 27 0 1 0 1 3 2 15 17 16
18 20 19 10 12 11 13 15 14 0 1 0 0 1 0 20 22 21 64 66 65 119 121 120
157 159 158 168 170 169 167 169 168 163 165 164 167 169 168
166 168 167 167 169 168 178 180 179 172 174 173 171 173 172
169 171 170 168 170 169 168 170 169 168 170 169 170 172 171
170 172 171 169 171 170 169 171 170 169 171 170 169 171 170
169 171 170 169 171 170 169 171 170 169 171 170 169 171 170
169 171 170 169 171 170 169 171 170 169 171 170 169 171 170
169 171 170 169 171 170 169 171 170 169 171 170 169 171 170
169 171 170 169 171 170 169 171 170 169 171 170 169 171 170
169 171 170 169 171 170 169 171 170 169 171 170 169 171 170
169 171 170 169 171 170 169 171 170 169 171 170 169 171 170
169 171 170 169 171 170 169 171 170 169 171 170 169 171 170
169 171 170 167 169 168 169 171 170 170 172 171 170 172 171
170 172 171 172 174 173 175 177 176 177 179 178 136 136 136 66 66 66
20 20 20 0 0 0 3 3 3 17 17 17 11 11 11 12 12 12 1 1 1 3 3 3 0 0 0
3 3 3 39 39 39 100 100 100 151 151 151 173 173 173 171 171 171
169 169 169 168 168 168 170 170 170 173 173 173 174 174 174
171 171 171 169 169 169 168 168 168 170 170 170 171 171 171
170 170 170 169 169 169 170 170 170 172 172 172 174 174 174
172 173 175 172 173 175 160 161 163 138 139 141 125 126 128
128 129 131 135 136 138 137 138 140 133 134 136 133 134 136
133 134 136 133 134 136 133 134 136 133 134 136 133 134 136
133 134 136 133 134 136 133 134 136 133 134 136 133 134 136
133 134 136 133 134 136 133 134 136 133 134 136 133 134 136
133 134 136 133 134 136 133 134 136 133 134 136 133 134 136
133 134 136 133 134 136 131 135 136 131 135 136 131 135 136
131 135 136 131 135 136 131 135 136 131 135 136 131 135 136
131 135 136 131 135 136 131 135 136 131 135 136 131 135 136
131 135 136 131 135 136 131 135 136 131 135 136 130 134 135
129 133 134 128 132 133 128 132 133 129 133 134 130 134 135
131 135 136 131 135 136 133 137 138 135 139 140 133 137 138
129 133 134 127 131 132 129 133 134 131 135 136 133 134 136
133 134 136 133 134 136 133 134 136 133 134 136 133 134 136
133 134 136 133 134 136 133 134 136 132 133 135 131 132 134
136 137 139 143 144 146 148 149 151 150 151 153 149 150 152
147 147 147 145 145 145 141 141 141 139 139 139 141 141 141
148 148 148 158 158 158 166 166 166 187 187 187 203 203 203
227 227 227 247 247 247 255 255 255 255 255 255 255 255 255
255 255 255 254 254 254 253 253 253 252 252 252 252 252 252
252 252 252 253 253 253 255 255 255 255 255 255 255 255 255
255 255 255 253 253 253 251 251 251 249 249 249 247 247 247
245 245 245 244 244 244 253 253 253 253 253 253 254 254 254
254 254 254 254 254 254 254 254 254 255 255 255 255 255 255
254 254 254 254 254 254 254 254 254 254 254 254 254 254 254
254 254 254 254 254 254 254 254 254 254 254 254 254 254 254
254 254 254 254 254 254 254 254 254 254 254 254 254 254 254
254 254 254 254 254 254 254 254 254 254 254 254 254 254 254
254 254 254 254 254 254 254 254 254 254 254 254 254 254 254
254 254 254 254 254 254 254 254 254 254 254 254 254 254 254
254 254 254 254 254 254 254 254 254 254 254 254 254 254 254
254 254 254 254 254 254 254 254 254 254 254 254 254 254 254
255 255 255 255 255 255 255 255 255 255 255 255 255 255 255
254 254 254 254 254 254 254 254 254 254 254 254 252 252 252
252 252 252 254 254 254 255 255 255 255 255 255 253 253 253
253 253 253 248 250 249 247 249 248 243 245 244 241 243 242
237 239 238 219 221 220 182 184 183 149 151 150 139 141 140
137 139 138 135 137 136 136 138 137 139 141 140 138 140 139
134 136 135 130 132 131 134 138 139 133 137 138 132 136 137
131 135 136 130 134 135 130 134 135 130 134 135 130 134 135
131 135 136 130 134 135 130 134 135 132 136 137 135 139 140
134 138 139 131 135 136 127 131 132 120 124 125 117 121 122
114 118 119 118 122 123 126 130 131 132 136 137 132 136 137
130 134 135 131 135 136 131 135 136 131 135 136 131 135 136
131 135 136 131 135 136 131 135 136 131 135 136 131 135 136
131 135 136 131 135 136 131 135 136 131 135 136 131 135 136
131 135 136 131 135 136 131 135 136 131 135 136 131 135 136
131 135 136 131 135 136 131 135 136 131 135 136 131 135 136
132 134 133 132 134 133 131 133 132 133 135 134 135 137 136
135 137 136 134 136 135 132 134 133 128 130 129 133 135 134
134 136 135 132 134 133 136 138 137 150 152 151 165 167 166
173 175 174 169 171 170 169 171 170 169 171 170 169 171 170
169 171 170 169 171 170 169 171 170 169 171 170 167 169 168
167 169 168 167 169 168 167 169 168 167 169 168 167 169 168
167 169 168 167 169 168 165 167 166 164 166 165 160 162 161
119 121 120 56 58 57 16 18 17 7 9 8 15 17 16 4 6 5 3 5 4 17 19 18
10 12 11 10 12 11 37 39 38 81 83 82 135 137 136 164 166 165
168 170 169 163 165 164 163 165 164 170 172 171 169 171 170
168 170 169 179 181 180 173 175 174 172 174 173 170 172 171
168 170 169 167 169 168 168 170 169 170 172 171 171 173 172
169 171 170 169 171 170 169 171 170 169 171 170 169 171 170
169 171 170 169 171 170 169 171 170 169 171 170 169 171 170
169 171 170 169 171 170 169 171 170 169 171 170 169 171 170
169 171 170 169 171 170 169 171 170 169 171 170 169 171 170
169 171 170 169 171 170 169 171 170 169 171 170 169 171 170
169 171 170 169 171 170 169 171 170 169 171 170 169 171 170
169 171 170 169 171 170 169 171 170 169 171 170 169 171 170
169 171 170 169 171 170 169 171 170 169 171 170 169 171 170
168 170 169 168 170 169 169 171 170 170 172 171 171 173 172
172 174 173 175 177 176 179 181 180 168 168 168 112 112 112 59 59 59
12 12 12 0 0 0 12 12 12 12 12 12 20 20 20 5 5 5 0 0 0 7 7 7 44 44 44
103 103 103 154 154 154 173 173 173 170 170 170 168 168 168
168 168 168 168 168 168 167 167 167 169 169 169 171 171 171
171 171 171 169 169 169 168 168 168 170 170 170 171 171 171
170 170 170 170 170 170 170 170 170 173 173 173 175 175 175
168 169 171 170 171 173 158 159 161 136 137 139 123 124 126
127 128 130 136 137 139 139 140 142 133 134 136 133 134 136
133 134 136 133 134 136 133 134 136 133 134 136 133 134 136
133 134 136 133 134 136 133 134 136 133 134 136 133 134 136
133 134 136 133 134 136 133 134 136 133 134 136 133 134 136
133 134 136 133 134 136 133 134 136 133 134 136 133 134 136
133 134 136 133 134 136 131 135 136 131 135 136 131 135 136
131 135 136 131 135 136 131 135 136 131 135 136 131 135 136
131 135 136 131 135 136 131 135 136 131 135 136 131 135 136
131 135 136 131 135 136 131 135 136 130 134 135 129 133 134
127 131 132 126 130 131 126 130 131 127 131 132 129 133 134
130 134 135 132 136 137 135 139 140 137 141 142 134 138 139
128 132 133 125 129 130 127 131 132 130 134 135 133 134 136
133 134 136 133 134 136 133 134 136 133 134 136 133 134 136
133 134 136 133 134 136 135 136 138 133 134 136 133 134 136
138 139 141 146 147 149 152 153 155 153 154 156 151 152 154
153 153 153 152 152 152 151 151 151 150 150 150 149 149 149
150 150 150 152 152 152 154 154 154 139 139 139 153 153 153
175 175 175 196 196 196 214 214 214 231 231 231 246 246 246
255 255 255 252 252 252 251 251 251 250 250 250 249 249 249
249 249 249 251 251 251 253 253 253 254 254 254 255 255 255
255 255 255 253 253 253 252 252 252 250 250 250 248 248 248
247 247 247 246 246 246 253 253 253 253 253 253 253 253 253
254 254 254 254 254 254 255 255 255 255 255 255 255 255 255
254 254 254 254 254 254 254 254 254 254 254 254 254 254 254
254 254 254 254 254 254 254 254 254 254 254 254 254 254 254
254 254 254 254 254 254 254 254 254 254 254 254 254 254 254
254 254 254 254 254 254 254 254 254 254 254 254 254 254 254
254 254 254 254 254 254 254 254 254 254 254 254 254 254 254
254 254 254 254 254 254 254 254 254 254 254 254 254 254 254
254 254 254 254 254 254 254 254 254 254 254 254 254 254 254
254 254 254 254 254 254 254 254 254 254 254 254 254 254 254
255 255 255 255 255 255 255 255 255 255 255 255 255 255 255
255 255 255 255 255 255 255 255 255 255 255 255 254 254 254
251 251 251 253 253 253 255 255 255 254 254 254 252 252 252
252 252 252 244 246 245 247 249 248 248 250 249 250 252 251
252 254 253 244 246 245 219 221 220 194 196 195 137 139 138
132 134 133 129 131 130 134 136 135 142 144 143 143 145 144
136 138 137 128 130 129 128 129 131 127 131 132 128 132 133
129 133 134 131 135 136 134 138 139 136 140 141 137 141 142
132 136 137 127 131 132 125 129 130 133 137 138 142 146 147
142 146 147 130 134 135 118 122 123 114 118 119 115 119 120
119 123 124 124 128 129 129 133 134 132 136 137 133 137 138
134 138 139 131 135 136 131 135 136 131 135 136 131 135 136
131 135 136 131 135 136 131 135 136 131 135 136 131 135 136
131 135 136 131 135 136 131 135 136 131 135 136 131 135 136
131 135 136 131 135 136 131 135 136 131 135 136 131 135 136
131 135 136 131 135 136 131 135 136 131 135 136 131 135 136
132 134 133 132 134 133 131 133 132 133 135 134 135 137 136
135 137 136 134 136 135 132 134 133 128 130 129 133 135 134
135 137 136 133 135 134 136 138 137 150 152 151 165 167 166
174 176 175 169 171 170 169 171 170 169 171 170 169 171 170
169 171 170 169 171 170 169 171 170 169 171 170 171 173 172
171 173 172 170 172 171 170 172 171 169 171 170 168 170 169
168 170 169 168 170 169 168 170 169 172 174 173 184 186 185
160 162 161 116 118 117 78 80 79 32 34 33 0 1 0 9 11 10 0 1 0 0 2 1
21 23 22 59 61 60 105 107 106 135 137 136 171 173 172 165 167 166
165 167 166 159 161 160 163 165 164 174 176 175 172 174 173
170 172 171 179 181 180 174 176 175 172 174 173 170 172 171
168 170 169 167 169 168 168 170 169 170 172 171 171 173 172
169 171 170 169 171 170 169 171 170 169 171 170 169 171 170
169 171 170 169 171 170 169 171 170 169 171 170 169 171 170
169 171 170 169 171 170 169 171 170 169 171 170 169 171 170
169 171 170 169 171 170 169 171 170 169 171 170 169 171 170
169 171 170 169 171 170 169 171 170 169 171 170 169 171 170
169 171 170 169 171 170 169 171 170 169 171 170 169 171 170
169 171 170 169 171 170 169 171 170 169 171 170 169 171 170
169 171 170 169 171 170 169 171 170 169 171 170 169 171 170
171 173 172 168 170 169 167 169 168 169 171 170 170 172 171
169 171 170 168 170 169 170 172 171 175 175 175 152 152 152
123 123 123 65 65 65 25 25 25 15 15 15 5 5 5 13 13 13 5 5 5 17 17 17
54 54 54 106 106 106 148 148 148 165 165 165 168 168 168 169 169 169
167 167 167 169 169 169 169 169 169 167 167 167 167 167 167
170 170 170 171 171 171 170 170 170 168 168 168 170 170 170
171 171 171 171 171 171 170 170 170 171 171 171 173 173 173
175 175 177 166 167 169 168 169 171 157 158 160 135 136 138
122 123 125 127 128 130 136 137 139 140 141 143 133 134 136
133 134 136 133 134 136 133 134 136 133 134 136 133 134 136
133 134 136 133 134 136 133 134 136 133 134 136 133 134 136
133 134 136 133 134 136 133 134 136 133 134 136 133 134 136
133 134 136 133 134 136 133 134 136 133 134 136 133 134 136
133 134 136 133 134 136 133 134 136 131 135 136 131 135 136
131 135 136 131 135 136 131 135 136 131 135 136 131 135 136
131 135 136 131 135 136 131 135 136 131 135 136 131 135 136
131 135 136 131 135 136 131 135 136 131 135 136 129 133 134
128 132 133 126 130 131 124 128 129 124 128 129 126 130 131
128 132 133 129 133 134 133 137 138 136 140 141 138 142 143
134 138 139 128 132 133 124 128 129 126 130 131 129 133 134
133 134 136 133 134 136 133 134 136 133 134 136 133 134 136
133 134 136 133 134 136 133 134 136 141 142 144 138 139 141
136 137 139 139 140 142 146 147 149 150 151 153 150 151 153
147 148 150 145 145 145 148 148 148 152 152 152 153 153 153
151 151 151 149 149 149 148 148 148 148 148 148 151 151 151
148 148 148 144 144 144 143 143 143 152 152 152 174 174 174
203 203 203 224 224 224 250 250 250 249 249 249 247 247 247
246 246 246 247 247 247 248 248 248 251 251 251 252 252 252
253 253 253 253 253 253 253 253 253 254 254 254 254 254 254
255 255 255 255 255 255 255 255 255 253 253 253 253 253 253
253 253 253 254 254 254 254 254 254 255 255 255 255 255 255
255 255 255 254 254 254 254 254 254 254 254 254 254 254 254
254 254 254 254 254 254 254 254 254 254 254 254 254 254 254
254 254 254 254 254 254 254 254 254 254 254 254 254 254 254
254 254 254 254 254 254 254 254 254 254 254 254 254 254 254
254 254 254 254 254 254 254 254 254 254 254 254 254 254 254
254 254 254 254 254 254 254 254 254 254 254 254 254 254 254
254 254 254 254 254 254 254 254 254 254 254 254 254 254 254
254 254 254 254 254 254 254 254 254 254 254 254 254 254 254
254 254 254 254 254 254 254 254 254 254 254 254 254 254 254
254 254 254 254 254 254 254 254 254 254 254 254 253 253 253
254 254 254 255 255 255 255 255 255 255 255 255 253 253 253
250 250 250 248 248 248 246 246 246 251 251 251 255 255 255
255 255 255 252 252 252 248 248 248 245 245 245 245 245 245
204 204 204 160 160 160 126 126 126 129 129 129 141 141 141
138 138 138 133 133 133 134 136 135 124 125 127 127 128 130
130 131 133 133 134 136 135 136 138 138 139 141 141 142 144
143 144 146 134 135 137 131 132 134 129 130 132 133 134 136
137 138 140 133 134 136 121 122 124 110 111 113 112 113 115
120 121 123 129 130 132 135 136 138 135 136 138 133 134 136
132 133 135 132 133 135 133 134 136 133 134 136 133 134 136
133 134 136 133 134 136 133 134 136 133 134 136 133 134 136
131 135 136 131 135 136 131 135 136 131 135 136 131 135 136
131 135 136 131 135 136 131 135 136 131 135 136 131 135 136
131 135 136 131 135 136 131 135 136 131 135 136 131 135 136
131 135 136 133 135 134 131 133 132 130 132 131 131 133 132
133 135 134 135 137 136 135 137 136 134 136 135 128 130 129
135 137 136 136 138 137 130 132 131 132 134 133 146 148 147
161 163 162 169 171 170 169 171 170 169 171 170 169 171 170
169 171 170 169 171 170 169 171 170 169 171 170 169 171 170
167 169 168 167 169 168 167 169 168 170 172 171 172 174 173
174 176 175 173 175 174 171 173 172 158 160 159 160 162 161
165 167 166 170 172 171 167 169 168 150 152 151 123 125 124
103 105 104 80 82 81 74 76 75 77 79 78 103 105 104 141 143 142
169 171 170 177 179 178 173 175 174 175 177 176 181 183 182
177 179 178 164 166 165 160 162 161 168 170 169 170 172 171
165 167 166 169 171 170 169 171 170 169 171 170 169 171 170
169 171 170 169 171 170 169 171 170 169 171 170 169 171 170
169 171 170 169 171 170 169 171 170 169 171 170 169 171 170
169 171 170 169 171 170 169 171 170 169 171 170 169 171 170
169 171 170 169 171 170 169 171 170 169 171 170 169 171 170
169 171 170 169 171 170 169 171 170 169 171 170 169 171 170
169 171 170 169 171 170 169 171 170 169 171 170 169 171 170
169 171 170 169 171 170 169 171 170 169 171 170 169 171 170
169 171 170 169 171 170 169 171 170 169 171 170 169 171 170
169 171 170 169 171 170 169 171 170 169 171 170 168 170 169
169 171 170 170 172 171 171 173 172 170 172 171 168 170 169
165 167 166 163 165 164 170 172 171 178 180 179 180 182 181
162 164 163 128 130 129 96 98 97 78 80 79 72 74 73 91 93 92
115 117 116 147 149 148 170 172 171 177 179 178 173 175 174
168 170 169 165 167 166 168 170 167 168 170 167 168 170 167
169 171 168 169 171 168 170 172 169 170 172 171 170 172 171
170 172 171 169 171 170 167 168 170 166 167 169 167 168 170
169 170 172 171 172 174 173 174 176 167 168 170 161 162 164
148 149 151 133 134 136 126 127 129 129 130 132 135 136 138
138 139 141 133 134 136 133 134 136 133 134 136 133 134 136
133 134 136 133 134 136 133 134 136 133 134 136 133 134 136
133 134 136 133 134 136 133 134 136 133 134 136 133 134 136
133 134 136 133 134 136 133 134 136 133 134 136 133 134 136
133 134 136 133 134 136 133 134 136 133 134 136 133 134 136
131 135 136 131 135 136 131 135 136 131 135 136 131 135 136
131 135 136 131 135 136 131 135 136 131 135 136 131 135 136
131 135 136 131 135 136 131 135 136 131 135 136 131 135 136
131 135 136 134 136 135 133 135 134 130 132 131 125 127 126
122 124 123 123 125 124 130 132 131 135 137 136 143 145 144
135 137 136 130 132 131 132 134 133 134 136 135 133 135 134
133 135 134 134 136 135 136 138 137 134 136 135 132 134 133
130 132 131 129 131 130 130 132 131 131 133 132 132 134 133
138 140 139 140 142 141 144 146 145 147 149 148 149 151 150
150 152 151 149 151 150 149 151 150 148 150 149 148 150 149
148 150 149 148 150 149 148 150 149 148 150 149 148 150 149
148 150 149 142 144 143 147 149 148 153 155 154 154 156 155
152 154 153 150 152 151 151 153 152 152 154 153 189 191 190
203 205 204 225 227 226 243 245 244 252 254 253 252 254 253
248 250 249 244 246 245 243 245 244 244 246 245 245 247 246
245 247 246 246 248 247 249 251 250 253 255 254 254 255 255
249 249 249 252 252 252 252 252 252 251 251 251 252 252 252
255 255 255 254 254 254 249 249 249 255 255 255 254 254 254
254 254 254 254 254 254 255 255 255 255 255 255 253 253 253
251 251 251 255 255 255 255 255 255 255 255 255 254 254 254
254 254 254 253 253 253 253 253 253 252 252 252 254 254 254
254 254 254 254 254 254 254 254 254 254 254 254 254 254 254
254 254 254 254 254 254 254 254 254 254 254 254 254 254 254
254 254 254 254 254 254 254 254 254 254 254 254 254 254 254
254 254 254 254 254 254 254 254 254 254 254 254 254 254 254
254 254 254 254 254 254 254 254 254 254 254 254 254 254 254
254 254 254 254 254 254 254 254 254 254 254 254 254 254 254
254 254 254 252 252 252 253 253 253 254 254 254 254 254 254
254 254 254 251 251 251 249 249 249 247 247 247 250 250 250
252 252 252 254 254 254 253 253 253 251 251 251 249 249 249
248 248 248 248 248 248 239 239 239 211 211 211 172 172 172
143 143 143 129 129 129 126 126 126 131 131 131 137 137 137
131 132 134 131 132 134 132 133 135 132 133 135 133 134 136
135 136 138 137 138 140 139 140 142 137 138 140 136 137 139
134 135 137 130 131 133 123 124 126 118 119 121 116 117 119
116 117 119 125 126 128 130 131 133 136 137 139 138 139 141
136 137 139 133 134 136 130 131 133 130 131 133 133 134 136
133 134 136 133 134 136 133 134 136 133 134 136 133 134 136
133 134 136 133 134 136 131 135 136 131 135 136 131 135 136
131 135 136 131 135 136 131 135 136 131 135 136 131 135 136
131 135 136 131 135 136 131 135 136 131 135 136 131 135 136
131 135 136 131 135 136 131 135 136 133 135 134 131 133 132
130 132 131 131 133 132 134 136 135 136 138 137 136 138 137
136 138 137 130 132 131 135 137 136 135 137 136 129 131 130
131 133 132 144 146 145 160 162 161 168 170 169 169 171 170
169 171 170 169 171 170 169 171 170 169 171 170 169 171 170
169 171 170 169 171 170 168 170 169 167 169 168 167 169 168
169 171 170 171 173 172 172 174 173 171 173 172 169 171 170
162 164 163 163 165 164 168 170 169 175 177 176 180 182 181
179 181 180 172 174 173 165 167 166 164 166 165 158 160 159
156 158 157 162 164 163 173 175 174 178 180 179 173 175 174
166 168 167 175 177 176 181 183 182 179 181 180 169 171 170
166 168 167 174 176 175 176 178 177 172 174 173 169 171 170
169 171 170 169 171 170 169 171 170 169 171 170 169 171 170
169 171 170 169 171 170 169 171 170 169 171 170 169 171 170
169 171 170 169 171 170 169 171 170 169 171 170 169 171 170
169 171 170 169 171 170 169 171 170 169 171 170 169 171 170
169 171 170 169 171 170 169 171 170 169 171 170 169 171 170
169 171 170 169 171 170 169 171 170 169 171 170 169 171 170
169 171 170 169 171 170 169 171 170 169 171 170 169 171 170
169 171 170 169 171 170 169 171 170 169 171 170 169 171 170
169 171 170 169 171 170 169 171 170 169 171 170 169 171 170
169 171 170 169 171 170 168 170 169 169 171 170 170 172 171
171 173 172 170 172 171 168 170 169 165 167 166 164 166 165
157 159 158 164 166 165 171 173 172 173 175 174 170 172 171
167 169 168 168 170 169 170 172 171 157 159 158 160 162 161
161 163 162 160 162 161 159 161 160 161 163 162 168 170 169
173 175 172 168 170 167 168 170 165 168 170 167 169 171 168
169 171 168 170 172 169 170 172 171 170 172 171 170 172 171
169 171 170 167 168 170 167 168 170 167 168 170 169 170 172
171 172 176 172 173 177 166 167 169 158 159 161 145 146 148
133 134 136 128 129 131 131 132 134 135 136 138 137 138 140
133 134 136 133 134 136 133 134 136 133 134 136 133 134 136
133 134 136 133 134 136 133 134 136 133 134 136 133 134 136
133 134 136 133 134 136 133 134 136 133 134 136 133 134 136
133 134 136 133 134 136 133 134 136 133 134 136 133 134 136
133 134 136 133 134 136 133 134 136 133 134 136 131 135 136
131 135 136 131 135 136 131 135 136 131 135 136 131 135 136
131 135 136 131 135 136 131 135 136 131 135 136 131 135 136
131 135 136 131 135 136 131 135 136 131 135 136 131 135 136
134 136 135 133 135 134 130 132 131 126 128 127 123 125 124
124 126 125 128 130 129 132 134 133 136 138 137 130 132 131
127 129 128 129 131 130 131 133 132 131 133 132 133 135 134
137 139 138 135 137 136 134 136 135 132 134 133 130 132 131
130 132 131 132 134 133 133 135 134 135 137 136 140 142 141
142 144 143 145 147 146 148 150 149 150 152 151 150 152 151
149 151 150 149 151 150 148 150 149 148 150 149 148 150 149
148 150 149 148 150 149 148 150 149 148 150 149 148 150 149
153 155 154 155 157 156 155 157 156 153 155 154 149 151 150
145 147 146 142 144 143 141 143 142 130 132 131 152 154 153
184 186 185 216 218 217 238 240 239 248 250 249 251 253 252
250 252 251 250 252 251 245 247 246 241 243 242 243 245 244
249 251 250 253 255 254 249 251 250 245 247 246 255 255 255
255 255 255 254 254 254 250 250 250 250 250 250 255 255 255
255 255 255 255 255 255 255 255 255 254 254 254 254 254 254
255 255 255 255 255 255 255 255 255 254 254 254 253 253 253
255 255 255 255 255 255 255 255 255 255 255 255 254 254 254
254 254 254 253 253 253 253 253 253 254 254 254 254 254 254
254 254 254 254 254 254 254 254 254 254 254 254 254 254 254
254 254 254 254 254 254 254 254 254 254 254 254 254 254 254
254 254 254 254 254 254 254 254 254 254 254 254 254 254 254
254 254 254 254 254 254 254 254 254 254 254 254 254 254 254
254 254 254 254 254 254 254 254 254 254 254 254 254 254 254
254 254 254 254 254 254 254 254 254 254 254 254 254 254 254
251 251 251 252 252 252 253 253 253 253 253 253 253 253 253
251 251 251 249 249 249 248 248 248 253 253 253 251 251 251
249 249 249 248 248 248 249 249 249 249 249 249 248 248 248
247 247 247 255 255 255 251 251 251 223 223 223 174 174 174
135 135 135 125 125 125 131 131 131 137 137 137 136 137 139
134 135 137 131 132 134 129 130 132 129 130 132 131 132 134
133 134 136 135 136 138 136 137 139 138 139 141 134 135 137
123 124 126 110 111 113 106 107 109 114 115 117 124 125 127
133 134 136 136 137 139 139 140 142 139 140 142 136 137 139
133 134 136 131 132 134 130 131 133 133 134 136 133 134 136
133 134 136 133 134 136 133 134 136 133 134 136 133 134 136
133 134 136 131 135 136 131 135 136 131 135 136 131 135 136
131 135 136 131 135 136 131 135 136 131 135 136 131 135 136
131 135 136 131 135 136 131 135 136 131 135 136 131 135 136
131 135 136 131 135 136 133 135 134 132 134 133 131 133 132
132 134 133 135 137 136 138 140 139 138 140 139 138 140 139
132 134 133 135 137 136 134 136 135 129 131 130 129 131 130
141 143 142 156 158 157 166 168 167 169 171 170 169 171 170
169 171 170 169 171 170 169 171 170 169 171 170 169 171 170
169 171 170 169 171 170 168 170 169 167 169 168 169 171 170
170 172 171 170 172 171 169 171 170 167 169 168 182 184 183
181 183 182 178 180 179 176 178 177 173 175 174 169 171 170
166 168 167 164 166 165 171 173 172 172 174 173 174 176 175
174 176 175 172 174 173 167 169 168 160 162 161 156 158 157
165 167 166 172 174 173 173 175 174 166 168 167 165 167 166
171 173 172 173 175 174 170 172 171 169 171 170 169 171 170
169 171 170 169 171 170 169 171 170 169 171 170 169 171 170
169 171 170 169 171 170 169 171 170 169 171 170 169 171 170
169 171 170 169 171 170 169 171 170 169 171 170 169 171 170
169 171 170 169 171 170 169 171 170 169 171 170 169 171 170
169 171 170 169 171 170 169 171 170 169 171 170 169 171 170
169 171 170 169 171 170 169 171 170 169 171 170 169 171 170
169 171 170 169 171 170 169 171 170 169 171 170 169 171 170
169 171 170 169 171 170 169 171 170 169 171 170 169 171 170
169 171 170 169 171 170 169 171 170 169 171 170 169 171 170
169 171 170 169 171 170 169 171 170 170 172 171 170 172 171
170 172 171 168 170 169 166 168 167 165 167 166 170 172 171
169 171 170 169 171 170 171 173 172 174 176 175 174 176 175
172 174 173 169 171 170 176 178 177 173 175 174 168 170 169
164 166 165 162 164 163 163 165 164 166 168 167 169 171 168
168 170 167 168 170 165 168 170 167 169 171 168 169 171 168
170 172 169 170 172 171 170 172 171 170 172 171 169 171 170
168 169 171 167 168 170 167 168 170 169 170 172 170 171 175
172 173 177 165 166 168 153 154 156 139 140 142 132 133 135
132 133 135 134 135 137 136 137 139 136 137 139 133 134 136
133 134 136 133 134 136 133 134 136 133 134 136 133 134 136
133 134 136 133 134 136 133 134 136 133 134 136 133 134 136
133 134 136 133 134 136 133 134 136 133 134 136 133 134 136
133 134 136 133 134 136 133 134 136 133 134 136 133 134 136
133 134 136 133 134 136 133 134 136 131 135 136 131 135 136
131 135 136 131 135 136 131 135 136 131 135 136 131 135 136
131 135 136 131 135 136 131 135 136 131 135 136 131 135 136
131 135 136 131 135 136 131 135 136 131 135 136 133 135 134
133 135 134 131 133 132 128 130 129 125 127 126 124 126 125
126 128 127 128 130 129 131 133 132 129 131 130 130 132 131
132 134 133 132 134 133 130 132 131 132 134 133 138 140 139
133 135 134 133 135 134 132 134 133 132 134 133 133 135 134
135 137 136 137 139 138 138 140 139 144 146 145 145 147 146
147 149 148 149 151 150 150 152 151 150 152 151 149 151 150
148 150 149 148 150 149 148 150 149 148 150 149 148 150 149
148 150 149 148 150 149 148 150 149 148 150 149 149 151 150
148 150 149 147 149 148 148 150 149 149 151 150 149 151 150
148 150 149 147 149 148 152 154 153 148 150 149 144 146 145
148 150 149 164 166 165 193 195 194 225 227 226 246 248 247
254 255 255 253 255 254 249 251 250 248 250 249 249 251 250
250 252 251 250 252 251 250 252 251 255 255 255 255 255 255
255 255 255 252 252 252 252 252 252 255 255 255 255 255 255
255 255 255 254 254 254 254 254 254 254 254 254 255 255 255
255 255 255 255 255 255 255 255 255 255 255 255 255 255 255
255 255 255 255 255 255 255 255 255 255 255 255 255 255 255
254 254 254 254 254 254 254 254 254 254 254 254 254 254 254
254 254 254 254 254 254 254 254 254 254 254 254 254 254 254
254 254 254 254 254 254 254 254 254 254 254 254 254 254 254
254 254 254 254 254 254 254 254 254 254 254 254 254 254 254
254 254 254 254 254 254 254 254 254 254 254 254 254 254 254
254 254 254 254 254 254 254 254 254 254 254 254 254 254 254
254 254 254 254 254 254 254 254 254 254 254 254 252 252 252
253 253 253 253 253 253 254 254 254 253 253 253 252 252 252
250 250 250 250 250 250 252 252 252 248 248 248 246 246 246
246 246 246 249 249 249 249 249 249 247 247 247 244 244 244
243 243 243 252 252 252 246 246 246 213 213 213 172 172 172
145 145 145 134 134 134 132 132 132 137 138 140 134 135 137
129 130 132 127 128 130 127 128 130 130 131 133 132 133 135
133 134 136 130 131 133 129 130 132 123 124 126 114 115 117
108 109 111 111 112 114 121 122 124 130 131 133 133 134 136
133 134 136 134 135 137 135 136 138 134 135 137 134 135 137
134 135 137 134 135 137 133 134 136 133 134 136 133 134 136
133 134 136 133 134 136 133 134 136 133 134 136 133 134 136
131 135 136 131 135 136 131 135 136 131 135 136 131 135 136
131 135 136 131 135 136 131 135 136 131 135 136 131 135 136
131 135 136 131 135 136 131 135 136 131 135 136 131 135 136
131 135 136 133 135 134 132 134 133 131 133 132 133 135 134
136 138 137 138 140 139 139 141 140 139 141 140 134 136 135
135 137 136 133 135 134 129 131 130 128 130 129 137 139 138
152 154 153 162 164 163 169 171 170 169 171 170 169 171 170
169 171 170 169 171 170 169 171 170 169 171 170 169 171 170
170 172 171 168 170 169 168 170 169 168 170 169 169 171 170
169 171 170 167 169 168 165 167 166 161 163 162 165 167 166
170 172 171 171 173 172 168 170 169 164 166 165 163 165 164
163 165 164 156 158 157 160 162 161 166 168 167 170 172 171
171 173 172 170 172 171 168 170 169 167 169 168 159 161 160
165 167 166 167 169 168 163 165 164 162 164 163 166 168 167
167 169 168 164 166 165 169 171 170 169 171 170 169 171 170
169 171 170 169 171 170 169 171 170 169 171 170 169 171 170
169 171 170 169 171 170 169 171 170 169 171 170 169 171 170
169 171 170 169 171 170 169 171 170 169 171 170 169 171 170
169 171 170 169 171 170 169 171 170 169 171 170 169 171 170
169 171 170 169 171 170 169 171 170 169 171 170 169 171 170
169 171 170 169 171 170 169 171 170 169 171 170 169 171 170
169 171 170 169 171 170 169 171 170 169 171 170 169 171 170
169 171 170 169 171 170 169 171 170 169 171 170 169 171 170
169 171 170 169 171 170 169 171 170 169 171 170 169 171 170
169 171 170 169 171 170 170 172 171 170 172 171 170 172 171
168 170 169 167 169 168 166 168 167 172 174 173 171 173 172
172 174 173 176 178 177 178 180 179 176 178 177 169 171 170
163 165 164 165 167 166 164 166 165 166 168 167 169 171 170
173 175 174 172 174 173 168 170 169 164 166 163 168 170 167
168 170 165 168 170 167 169 171 168 169 171 168 170 172 169
170 172 171 170 172 171 170 172 171 169 171 170 168 169 171
168 169 171 168 169 171 169 170 172 170 171 175 170 171 175
162 163 165 148 149 151 134 135 137 131 132 134 135 136 138
137 138 140 136 137 139 134 135 137 133 134 136 133 134 136
133 134 136 133 134 136 133 134 136 133 134 136 133 134 136
133 134 136 133 134 136 133 134 136 133 134 136 133 134 136
133 134 136 133 134 136 133 134 136 133 134 136 133 134 136
133 134 136 133 134 136 133 134 136 133 134 136 133 134 136
133 134 136 133 134 136 131 135 136 131 135 136 131 135 136
131 135 136 131 135 136 131 135 136 131 135 136 131 135 136
131 135 136 131 135 136 131 135 136 131 135 136 131 135 136
131 135 136 131 135 136 131 135 136 133 135 134 132 134 133
132 134 133 130 132 131 127 129 128 125 127 126 124 126 125
124 126 125 130 132 131 131 133 132 136 138 137 139 141 140
136 138 137 130 132 131 129 131 130 133 135 134 132 134 133
132 134 133 133 135 134 134 136 135 136 138 137 138 140 139
141 143 142 142 144 143 148 150 149 148 150 149 149 151 150
150 152 151 150 152 151 149 151 150 149 151 150 148 150 149
148 150 149 148 150 149 148 150 149 148 150 149 148 150 149
148 150 149 148 150 149 148 150 149 144 146 145 141 143 142
140 142 141 143 145 144 149 151 150 153 155 154 154 156 155
153 155 154 154 156 155 151 153 152 146 148 147 143 145 144
146 148 147 155 157 156 168 170 169 178 180 179 219 221 220
236 238 237 254 255 255 254 255 255 254 255 255 248 250 249
247 249 248 250 252 251 248 248 248 254 254 254 255 255 255
255 255 255 253 253 253 255 255 255 253 253 253 250 250 250
253 253 253 254 254 254 255 255 255 254 254 254 254 254 254
254 254 254 255 255 255 255 255 255 255 255 255 255 255 255
255 255 255 255 255 255 255 255 255 255 255 255 255 255 255
255 255 255 254 254 254 254 254 254 254 254 254 254 254 254
254 254 254 254 254 254 254 254 254 254 254 254 254 254 254
254 254 254 254 254 254 254 254 254 254 254 254 254 254 254
254 254 254 254 254 254 254 254 254 254 254 254 254 254 254
254 254 254 254 254 254 254 254 254 254 254 254 254 254 254
254 254 254 254 254 254 254 254 254 254 254 254 254 254 254
254 254 254 254 254 254 254 254 254 254 254 254 254 254 254
255 255 255 255 255 255 254 254 254 254 254 254 253 253 253
253 253 253 251 251 251 249 249 249 248 248 248 250 250 250
253 253 253 253 253 253 249 249 249 245 245 245 239 239 239
244 244 244 249 249 249 244 244 244 216 216 216 174 174 174
140 140 140 125 125 125 137 138 140 134 135 137 130 131 133
129 130 132 131 132 134 134 135 137 135 136 138 134 135 137
120 121 123 114 115 117 108 109 111 110 111 113 119 120 122
128 129 131 132 133 135 133 134 136 133 134 136 133 134 136
132 133 135 133 134 136 134 135 137 136 137 139 137 138 140
137 138 140 133 134 136 133 134 136 133 134 136 133 134 136
133 134 136 133 134 136 133 134 136 133 134 136 131 135 136
131 135 136 131 135 136 131 135 136 131 135 136 131 135 136
131 135 136 131 135 136 131 135 136 131 135 136 131 135 136
131 135 136 131 135 136 131 135 136 131 135 136 131 135 136
134 136 135 132 134 133 132 134 133 133 135 134 136 138 137
138 140 139 139 141 140 138 140 139 135 137 136 134 136 135
133 135 134 130 132 131 128 130 129 134 136 135 146 148 147
158 160 159 169 171 170 169 171 170 169 171 170 169 171 170
169 171 170 169 171 170 169 171 170 169 171 170 170 172 171
169 171 170 168 170 169 168 170 169 169 171 170 169 171 170
166 168 167 164 166 165 156 158 157 162 164 163 170 172 171
173 175 174 172 174 173 171 173 172 172 174 173 174 176 175
175 177 176 175 177 176 174 176 175 175 177 176 175 177 176
173 175 174 169 171 170 167 169 168 164 166 165 168 170 169
170 172 171 168 170 169 166 168 167 167 169 168 167 169 168
166 168 167 169 171 170 169 171 170 169 171 170 169 171 170
169 171 170 169 171 170 169 171 170 169 171 170 169 171 170
169 171 170 169 171 170 169 171 170 169 171 170 169 171 170
169 171 170 169 171 170 169 171 170 169 171 170 169 171 170
169 171 170 169 171 170 169 171 170 169 171 170 169 171 170
169 171 170 169 171 170 169 171 170 169 171 170 169 171 170
169 171 170 169 171 170 169 171 170 169 171 170 169 171 170
169 171 170 169 171 170 169 171 170 169 171 170 169 171 170
169 171 170 169 171 170 169 171 170 169 171 170 169 171 170
169 171 170 169 171 170 169 171 170 169 171 170 169 171 170
170 172 171 170 172 171 170 172 171 170 172 171 169 171 170
168 170 169 168 170 169 164 166 165 167 169 168 171 173 172
175 177 176 177 179 178 177 179 178 176 178 177 176 178 177
180 182 181 174 176 175 167 169 168 166 168 167 169 171 170
172 174 173 172 174 173 171 173 170 168 170 167 168 170 165
168 170 167 169 171 168 169 171 168 170 172 169 170 172 171
170 172 171 170 172 171 169 171 170 169 170 172 169 170 172
168 169 171 169 170 172 169 170 174 169 170 174 159 160 162
143 144 146 131 132 134 132 133 135 138 139 141 138 139 141
134 135 137 133 134 136 133 134 136 133 134 136 133 134 136
133 134 136 133 134 136 133 134 136 133 134 136 133 134 136
133 134 136 133 134 136 133 134 136 133 134 136 133 134 136
133 134 136 133 134 136 133 134 136 133 134 136 133 134 136
133 134 136 133 134 136 133 134 136 133 134 136 133 134 136
133 134 136 131 135 136 131 135 136 131 135 136 131 135 136
131 135 136 131 135 136 131 135 136 131 135 136 131 135 136
131 135 136 131 135 136 131 135 136 131 135 136 131 135 136
131 135 136 131 135 136 133 135 134 133 135 134 132 134 133
131 133 132 130 132 131 128 130 129 125 127 126 123 125 124
122 124 123 126 128 127 135 137 136 141 143 142 139 141 140
131 133 132 128 130 129 130 132 131 132 134 133 133 135 134
134 136 135 136 138 137 139 141 140 142 144 143 144 146 145
145 147 146 150 152 151 150 152 151 150 152 151 150 152 151
150 152 151 149 151 150 148 150 149 148 150 149 148 150 149
148 150 149 148 150 149 148 150 149 148 150 149 148 150 149
148 150 149 148 150 149 151 153 152 147 149 148 143 145 144
143 145 144 146 148 147 148 150 149 148 150 149 146 148 147
134 136 135 140 142 141 149 151 150 155 157 156 155 157 156
152 154 153 149 151 150 147 149 148 163 165 164 187 189 188
220 222 221 245 247 246 254 255 255 251 253 252 246 248 247
243 245 244 247 247 247 252 252 252 254 254 254 251 251 251
249 249 249 252 252 252 253 253 253 252 252 252 253 253 253
254 254 254 255 255 255 254 254 254 252 252 252 252 252 252
254 254 254 255 255 255 255 255 255 255 255 255 255 255 255
255 255 255 255 255 255 255 255 255 255 255 255 255 255 255
254 254 254 254 254 254 254 254 254 254 254 254 254 254 254
254 254 254 254 254 254 254 254 254 254 254 254 254 254 254
254 254 254 254 254 254 254 254 254 254 254 254 254 254 254
254 254 254 254 254 254 254 254 254 254 254 254 254 254 254
254 254 254 254 254 254 254 254 254 254 254 254 254 254 254
254 254 254 254 254 254 254 254 254 254 254 254 254 254 254
254 254 254 254 254 254 255 255 255 255 255 255 255 255 255
255 255 255 255 255 255 255 255 255 255 255 255 255 255 255
253 253 253 253 253 253 254 254 254 255 255 255 255 255 255
255 255 255 253 253 253 250 250 250 255 255 255 250 250 250
251 251 251 255 255 255 243 243 243 203 203 203 159 159 159
134 134 134 139 140 142 136 137 139 133 134 136 134 135 137
136 137 139 137 138 140 134 135 137 130 131 133 110 111 113
105 106 108 104 105 107 114 115 117 130 131 133 140 141 143
139 140 142 135 136 138 138 139 141 136 137 139 134 135 137
134 135 137 136 137 139 137 138 140 136 137 139 135 136 138
133 134 136 133 134 136 133 134 136 133 134 136 133 134 136
133 134 136 133 134 136 133 134 136 131 135 136 131 135 136
131 135 136 131 135 136 131 135 136 131 135 136 131 135 136
131 135 136 131 135 136 131 135 136 131 135 136 131 135 136
131 135 136 131 135 136 131 135 136 131 135 136 135 137 136
133 135 134 132 134 133 132 134 133 135 137 136 137 139 138
137 139 138 136 138 137 134 136 135 133 135 134 133 135 134
132 134 133 129 131 130 131 133 132 141 143 142 152 154 153
169 171 170 169 171 170 169 171 170 169 171 170 169 171 170
169 171 170 169 171 170 169 171 170 170 172 171 169 171 170
168 170 169 169 171 170 170 172 171 169 171 170 167 169 168
165 167 166 174 176 175 175 177 176 175 177 176 171 173 172
166 168 167 164 166 165 166 168 167 169 171 170 177 179 178
173 175 174 170 172 171 169 171 170 169 171 170 169 171 170
165 167 166 162 164 163 169 171 170 171 173 172 172 174 173
171 173 172 169 171 170 167 169 168 167 169 168 168 170 169
169 171 170 169 171 170 169 171 170 169 171 170 169 171 170
169 171 170 169 171 170 169 171 170 169 171 170 169 171 170
169 171 170 169 171 170 169 171 170 169 171 170 169 171 170
169 171 170 169 171 170 169 171 170 169 171 170 169 171 170
169 171 170 169 171 170 169 171 170 169 171 170 169 171 170
169 171 170 169 171 170 169 171 170 169 171 170 169 171 170
169 171 170 169 171 170 169 171 170 169 171 170 169 171 170
169 171 170 169 171 170 169 171 170 169 171 170 169 171 170
169 171 170 169 171 170 169 171 170 169 171 170 169 171 170
169 171 170 169 171 170 169 171 170 170 172 171 170 172 171
170 172 171 170 172 171 169 171 170 169 171 170 169 171 170
169 171 170 170 172 171 169 171 170 167 169 168 163 165 164
159 161 160 159 161 160 164 166 165 169 171 170 177 179 178
173 175 174 168 170 169 167 169 168 169 171 170 171 173 172
170 172 171 169 171 168 168 170 167 168 170 165 168 170 167
169 171 168 169 171 168 170 172 169 170 172 171 170 172 171
170 172 171 170 172 171 170 171 173 169 170 172 169 170 172
169 170 172 168 169 173 168 169 173 156 157 159 140 141 143
130 131 133 134 135 137 139 140 142 136 137 139 132 133 135
132 133 135 133 134 136 133 134 136 133 134 136 133 134 136
133 134 136 133 134 136 133 134 136 133 134 136 133 134 136
133 134 136 133 134 136 133 134 136 133 134 136 133 134 136
133 134 136 133 134 136 133 134 136 133 134 136 133 134 136
133 134 136 133 134 136 133 134 136 133 134 136 133 134 136
131 135 136 131 135 136 131 135 136 131 135 136 131 135 136
131 135 136 131 135 136 131 135 136 131 135 136 131 135 136
131 135 136 131 135 136 131 135 136 131 135 136 131 135 136
131 135 136 134 136 135 133 135 134 132 134 133 132 134 133
132 134 133 131 133 132 127 129 128 124 126 125 112 114 113
115 117 116 125 127 126 135 137 136 137 139 138 132 134 133
130 132 131 131 133 132 133 135 134 134 136 135 136 138 137
139 141 140 141 143 142 144 146 145 146 148 147 147 149 148
150 152 151 150 152 151 150 152 151 149 151 150 149 151 150
148 150 149 148 150 149 148 150 149 148 150 149 148 150 149
148 150 149 148 150 149 148 150 149 148 150 149 148 150 149
148 150 149 152 154 153 149 151 150 146 148 147 145 147 146
146 148 147 146 148 147 146 148 147 145 147 146 152 154 153
149 151 150 144 146 145 139 141 140 139 141 140 146 148 147
156 158 157 163 165 164 153 155 154 154 156 155 163 165 164
184 186 185 213 215 214 236 238 237 248 250 249 251 253 252
249 249 249 252 252 252 251 251 251 245 245 245 243 243 243
249 249 249 255 255 255 255 255 255 253 253 253 255 255 255
255 255 255 252 252 252 249 249 249 248 248 248 251 251 251
255 255 255 253 253 253 253 253 253 253 253 253 254 254 254
254 254 254 254 254 254 255 255 255 255 255 255 254 254 254
254 254 254 254 254 254 254 254 254 254 254 254 254 254 254
254 254 254 254 254 254 254 254 254 254 254 254 254 254 254
254 254 254 254 254 254 254 254 254 254 254 254 254 254 254
254 254 254 254 254 254 254 254 254 254 254 254 254 254 254
254 254 254 254 254 254 254 254 254 254 254 254 254 254 254
254 254 254 254 254 254 254 254 254 254 254 254 254 254 254
254 254 254 254 254 254 254 254 254 254 254 254 254 254 254
254 254 254 254 254 254 254 254 254 255 255 255 254 254 254
255 255 255 255 255 255 255 255 255 254 254 254 254 254 254
255 255 255 255 255 255 255 255 255 255 255 255 254 254 254
255 255 255 251 251 251 232 232 232 195 195 195 163 163 163
139 140 142 137 138 140 135 136 138 135 136 138 136 137 139
131 132 134 123 124 126 115 116 118 104 105 107 108 109 111
115 116 118 124 125 127 133 134 136 138 139 141 138 139 141
137 138 140 137 138 140 135 136 138 132 133 135 133 134 136
135 136 138 135 136 138 134 135 137 132 133 135 133 134 136
133 134 136 133 134 136 133 134 136 133 134 136 133 134 136
133 134 136 133 134 136 131 135 136 131 135 136 131 135 136
131 135 136 131 135 136 131 135 136 131 135 136 131 135 136
131 135 136 131 135 136 131 135 136 131 135 136 131 135 136
131 135 136 131 135 136 131 135 136 135 137 136 133 135 134
132 134 133 132 134 133 134 136 135 135 137 136 134 136 135
133 135 134 134 136 135 132 134 133 133 135 134 134 136 135
131 133 132 128 130 129 136 138 137 147 149 148 169 171 170
169 171 170 169 171 170 169 171 170 169 171 170 169 171 170
169 171 170 169 171 170 170 172 171 169 171 170 169 171 170
170 172 171 171 173 172 171 173 172 169 171 170 167 169 168
165 167 166 165 167 166 165 167 166 164 166 165 165 167 166
168 170 169 172 174 173 175 177 176 166 168 167 167 169 168
168 170 169 170 172 171 172 174 173 174 176 175 174 176 175
174 176 175 169 171 170 169 171 170 169 171 170 169 171 170
168 170 169 166 168 167 167 169 168 169 171 170 169 171 170
169 171 170 169 171 170 169 171 170 169 171 170 169 171 170
169 171 170 169 171 170 169 171 170 169 171 170 169 171 170
169 171 170 169 171 170 169 171 170 169 171 170 169 171 170
169 171 170 169 171 170 169 171 170 169 171 170 169 171 170
169 171 170 169 171 170 169 171 170 169 171 170 169 171 170
169 171 170 169 171 170 169 171 170 169 171 170 169 171 170
169 171 170 169 171 170 169 171 170 169 171 170 169 171 170
169 171 170 169 171 170 169 171 170 169 171 170 169 171 170
169 171 170 169 171 170 169 171 170 169 171 170 169 171 170
169 171 170 169 171 170 170 172 171 170 172 171 170 172 171
169 171 170 169 171 170 170 172 171 170 172 171 171 173 172
169 171 170 169 171 170 167 169 168 166 168 167 166 168 167
169 171 170 175 177 176 179 181 180 163 165 164 164 166 165
168 170 169 171 173 172 173 175 174 172 174 173 168 170 169
165 167 164 168 170 167 168 170 165 168 170 167 169 171 168
169 171 168 170 172 169 170 172 171 170 172 171 170 172 171
170 172 171 170 171 173 170 171 173 169 170 172 169 170 172
168 169 173 167 168 172 153 154 156 138 139 141 130 131 133
136 137 139 139 140 142 133 134 136 129 130 132 132 133 135
133 134 136 133 134 136 133 134 136 133 134 136 133 134 136
133 134 136 133 134 136 133 134 136 133 134 136 133 134 136
133 134 136 133 134 136 133 134 136 133 134 136 133 134 136
133 134 136 133 134 136 133 134 136 133 134 136 133 134 136
133 134 136 133 134 136 133 134 136 133 134 136 131 135 136
131 135 136 131 135 136 131 135 136 131 135 136 131 135 136
131 135 136 131 135 136 131 135 136 131 135 136 131 135 136
131 135 136 131 135 136 131 135 136 131 135 136 131 135 136
135 137 136 133 135 134 132 134 133 133 135 134 134 136 135
133 135 134 130 132 131 127 129 128 112 114 113 112 114 113
117 119 118 127 129 128 133 135 134 132 134 133 132 134 133
134 136 135 134 136 135 135 137 136 138 140 139 141 143 142
143 145 144 146 148 147 147 149 148 148 150 149 150 152 151
149 151 150 149 151 150 148 150 149 148 150 149 148 150 149
148 150 149 148 150 149 148 150 149 148 150 149 148 150 149
148 150 149 148 150 149 148 150 149 148 150 149 148 150 149
146 148 147 147 149 148 147 149 148 147 149 148 147 149 148
147 149 148 149 151 150 151 153 152 152 154 153 153 155 154
153 155 154 151 153 152 148 150 149 146 148 147 146 148 147
147 149 148 159 161 160 149 151 150 139 141 140 141 143 142
160 162 161 189 191 190 218 220 219 236 238 237 240 240 240
246 246 246 249 249 249 246 246 246 244 244 244 248 248 248
254 254 254 255 255 255 253 253 253 255 255 255 255 255 255
251 251 251 246 246 246 245 245 245 249 249 249 253 253 253
251 251 251 252 252 252 252 252 252 252 252 252 253 253 253
253 253 253 254 254 254 254 254 254 254 254 254 254 254 254
254 254 254 254 254 254 254 254 254 254 254 254 254 254 254
254 254 254 254 254 254 254 254 254 254 254 254 254 254 254
254 254 254 254 254 254 254 254 254 254 254 254 254 254 254
254 254 254 254 254 254 254 254 254 254 254 254 254 254 254
254 254 254 254 254 254 254 254 254 254 254 254 254 254 254
254 254 254 254 254 254 254 254 254 254 254 254 254 254 254
253 253 253 253 253 253 252 252 252 252 252 252 252 252 252
253 253 253 254 254 254 254 254 254 252 252 252 253 253 253
253 253 253 251 251 251 248 248 248 248 248 248 253 253 253
255 255 255 245 245 245 254 254 254 255 255 255 249 249 249
253 253 253 254 254 254 228 228 228 192 192 192 138 139 141
136 137 139 134 135 137 133 134 136 131 132 134 123 124 126
110 111 113 100 101 103 102 103 105 114 115 117 127 128 130
133 134 136 131 132 134 130 131 133 134 135 137 140 141 143
131 132 134 129 130 132 128 129 131 129 130 132 132 133 135
134 135 137 132 133 135 130 131 133 133 134 136 133 134 136
133 134 136 133 134 136 133 134 136 133 134 136 133 134 136
133 134 136 131 135 136 131 135 136 131 135 136 131 135 136
131 135 136 131 135 136 131 135 136 131 135 136 131 135 136
131 135 136 131 135 136 131 135 136 131 135 136 131 135 136
131 135 136 131 135 136 136 138 137 134 136 135 132 134 133
131 133 132 133 135 134 133 135 134 133 135 134 132 134 133
133 135 134 131 133 132 133 135 134 136 138 137 132 134 133
127 129 128 133 135 134 144 146 145 169 171 170 169 171 170
169 171 170 169 171 170 169 171 170 169 171 170 169 171 170
169 171 170 170 172 171 169 171 170 169 171 170 170 172 171
172 174 173 172 174 173 170 172 171 168 170 169 172 174 173
172 174 173 173 175 174 173 175 174 173 175 174 170 172 171
168 170 169 166 168 167 162 164 163 166 168 167 169 171 170
170 172 171 167 169 168 165 167 166 166 168 167 167 169 168
170 172 171 169 171 170 170 172 171 171 173 172 170 172 171
168 170 169 170 172 171 174 176 175 169 171 170 169 171 170
169 171 170 169 171 170 169 171 170 169 171 170 169 171 170
169 171 170 169 171 170 169 171 170 169 171 170 169 171 170
169 171 170 169 171 170 169 171 170 169 171 170 169 171 170
169 171 170 169 171 170 169 171 170 169 171 170 169 171 170
169 171 170 169 171 170 169 171 170 169 171 170 169 171 170
169 171 170 169 171 170 169 171 170 169 171 170 169 171 170
169 171 170 169 171 170 169 171 170 169 171 170 169 171 170
169 171 170 169 171 170 169 171 170 169 171 170 169 171 170
169 171 170 169 171 170 169 171 170 169 171 170 169 171 170
169 171 170 170 172 171 170 172 171 169 171 170 169 171 170
169 171 170 170 172 171 171 173 172 171 173 172 170 172 171
170 172 171 170 172 171 171 173 172 171 173 172 170 172 171
166 168 167 162 164 163 173 175 174 172 174 173 169 171 170
167 169 168 167 169 168 168 170 169 170 172 171 172 174 171
168 170 167 168 170 165 168 170 167 169 171 168 169 171 168
170 172 169 170 172 171 170 172 171 170 172 171 170 172 171
170 171 173 170 171 173 169 170 172 169 170 172 167 168 172
167 168 172 151 152 154 138 139 141 131 132 134 137 138 140
139 140 142 131 132 134 128 129 131 132 133 135 133 134 136
133 134 136 133 134 136 133 134 136 133 134 136 133 134 136
133 134 136 133 134 136 133 134 136 133 134 136 133 134 136
133 134 136 133 134 136 133 134 136 133 134 136 133 134 136
133 134 136 133 134 136 133 134 136 133 134 136 133 134 136
133 134 136 133 134 136 133 134 136 131 135 136 131 135 136
131 135 136 131 135 136 131 135 136 131 135 136 131 135 136
131 135 136 131 135 136 131 135 136 131 135 136 131 135 136
131 135 136 131 135 136 131 135 136 131 135 136 136 138 137
134 136 135 132 134 133 133 135 134 135 137 136 135 137 136
132 134 133 129 131 130 121 123 122 116 118 117 116 118 117
123 125 124 130 132 131 132 134 133 133 135 134 135 137 136
135 137 136 136 138 137 139 141 140 142 144 143 144 146 145
146 148 147 148 150 149 148 150 149 149 151 150 148 150 149
148 150 149 147 149 148 147 149 148 147 149 148 148 150 149
148 150 149 148 150 149 148 150 149 148 150 149 148 150 149
148 150 149 148 150 149 148 150 149 148 150 149 148 150 149
150 152 151 152 154 153 150 152 151 146 148 147 144 146 145
146 148 147 148 150 149 145 147 146 147 149 148 149 151 150
150 152 151 149 151 150 149 151 150 150 152 151 151 153 152
139 141 140 147 149 148 151 153 152 144 146 145 136 138 137
143 145 144 166 168 167 187 189 188 224 224 224 237 237 237
249 249 249 251 251 251 250 250 250 248 248 248 246 246 246
243 243 243 253 253 253 255 255 255 255 255 255 250 250 250
244 244 244 243 243 243 247 247 247 251 251 251 250 250 250
251 251 251 251 251 251 252 252 252 252 252 252 253 253 253
253 253 253 253 253 253 254 254 254 254 254 254 254 254 254
254 254 254 254 254 254 254 254 254 254 254 254 254 254 254
254 254 254 254 254 254 254 254 254 254 254 254 254 254 254
254 254 254 254 254 254 254 254 254 254 254 254 254 254 254
254 254 254 254 254 254 254 254 254 254 254 254 254 254 254
254 254 254 254 254 254 254 254 254 254 254 254 254 254 254
254 254 254 254 254 254 254 254 254 254 254 254 254 254 254
254 254 254 254 254 254 254 254 254 254 254 254 254 254 254
254 254 254 254 254 254 254 254 254 254 254 254 254 254 254
254 254 254 254 254 254 254 254 254 254 254 254 254 254 254
251 251 251 255 255 255 254 254 254 249 249 249 252 252 252
255 255 255 251 251 251 237 237 237 168 169 171 144 145 147
126 127 129 124 125 127 121 122 124 110 111 113 107 108 110
113 114 116 121 122 124 125 126 128 132 133 135 135 136 138
136 137 139 134 135 137 133 134 136 132 133 135 127 128 130
128 129 131 129 130 132 129 130 132 128 129 131 129 130 132
132 133 135 134 135 137 131 132 134 133 134 136 136 137 139
137 138 140 136 137 139 134 135 137 133 134 136 133 134 136
131 135 136 131 135 136 131 135 136 131 135 136 131 135 136
131 135 136 131 135 136 131 135 136 131 135 136 131 135 136
131 135 136 131 135 136 131 135 136 131 135 136 131 135 136
131 135 136 133 135 134 133 135 134 133 135 134 133 135 134
133 135 134 133 135 134 133 135 134 133 135 134 132 134 133
132 134 133 131 133 132 131 133 132 132 134 133 135 137 136
138 140 139 141 143 142 162 164 163 163 165 164 169 171 170
175 177 176 174 176 175 167 169 168 163 165 164 164 166 165
169 171 170 170 172 171 171 173 172 172 174 173 171 173 172
170 172 171 168 170 169 167 169 168 169 171 170 169 171 170
169 171 170 169 171 170 169 171 170 169 171 170 169 171 170
169 171 170 169 171 170 169 171 170 169 171 170 169 171 170
169 171 170 169 171 170 169 171 170 169 171 170 170 172 171
170 172 171 170 172 171 170 172 171 170 172 171 170 172 171
170 172 171 170 172 171 169 171 170 169 171 170 169 171 170
169 171 170 169 171 170 169 171 170 169 171 170 169 171 170
167 169 168 167 169 168 166 168 167 165 167 166 166 168 167
168 170 169 170 172 171 171 173 172 169 171 170 169 171 170
169 171 170 169 171 170 169 171 170 169 171 170 169 171 170
169 171 170 170 172 171 170 172 171 170 172 171 169 171 170
168 170 169 167 169 168 167 169 168 167 169 168 170 172 171
170 172 171 170 172 171 170 172 171 170 172 171 170 172 171
170 172 171 170 172 171 170 172 171 169 171 170 169 171 170
169 171 170 169 171 170 169 171 170 168 170 169 168 170 169
170 172 171 170 172 171 170 172 171 169 171 170 169 171 170
168 170 169 168 170 169 168 170 169 169 171 170 169 171 170
169 171 170 169 171 170 169 171 170 169 171 170 169 171 170
169 171 170 169 171 170 169 171 170 169 171 170 169 171 170
169 171 170 169 171 170 169 171 170 169 171 168 170 172 169
170 172 167 170 172 169 170 172 169 170 172 169 170 172 169
170 172 171 170 172 171 168 170 169 169 171 170 171 172 174
171 172 174 169 170 172 165 166 168 160 161 165 157 158 162
141 142 144 137 138 140 133 134 136 132 133 135 134 135 137
134 135 137 132 133 135 129 130 132 133 134 136 133 134 136
133 134 136 133 134 136 133 134 136 133 134 136 133 134 136
133 134 136 133 134 136 133 134 136 133 134 136 133 134 136
133 134 136 133 134 136 133 134 136 133 134 136 133 134 136
133 134 136 133 134 136 133 134 136 133 134 136 133 134 136
133 134 136 133 134 136 132 136 137 132 136 137 132 136 137
132 136 137 132 136 137 131 135 136 129 133 134 129 133 134
130 134 135 133 137 138 136 140 141 134 138 139 130 134 135
128 132 133 131 135 136 134 138 139 134 136 135 137 139 138
139 141 140 137 139 138 132 134 133 128 130 129 127 129 128
128 130 129 135 137 136 127 129 128 118 120 119 115 117 116
121 123 122 129 131 130 135 137 136 137 139 138 139 141 140
140 142 141 142 144 143 145 147 146 147 149 148 148 150 149
149 151 150 149 151 150 149 151 150 147 149 148 145 147 146
145 147 146 147 149 148 148 150 149 148 150 149 147 149 148
148 150 149 148 150 149 148 150 149 148 150 149 148 150 149
148 150 149 148 150 149 148 150 149 148 150 149 148 150 149
148 150 149 148 150 149 148 150 149 148 150 149 148 150 149
148 150 149 148 150 149 148 150 149 148 150 149 148 150 149
148 150 149 148 150 149 148 150 149 148 150 149 147 149 148
143 145 144 141 143 142 144 146 145 149 151 150 149 151 150
142 144 143 134 136 135 170 170 170 200 200 200 234 234 234
251 251 251 251 251 251 247 247 247 246 246 246 246 246 246
251 251 251 246 246 246 248 248 248 253 253 253 250 250 250
244 244 244 250 250 250 255 255 255 253 253 253 253 253 253
254 254 254 254 254 254 254 254 254 253 253 253 252 252 252
252 252 252 254 254 254 254 254 254 254 254 254 254 254 254
254 254 254 254 254 254 254 254 254 254 254 254 254 254 254
254 254 254 254 254 254 254 254 254 254 254 254 254 254 254
254 254 254 254 254 254 254 254 254 254 254 254 254 254 254
254 254 254 254 254 254 254 254 254 254 254 254 254 254 254
254 254 254 254 254 254 254 254 254 254 254 254 254 254 254
254 254 254 254 254 254 254 254 254 254 254 254 254 254 254
254 254 254 254 254 254 254 254 254 254 254 254 254 254 254
254 254 254 254 254 254 254 254 254 254 254 254 254 254 254
254 254 254 254 254 254 254 254 254 254 254 254 251 251 251
255 255 255 254 254 254 249 249 249 252 252 252 255 255 255
251 251 251 238 238 238 210 211 213 176 177 179 138 139 141
119 120 122 114 115 117 113 114 116 119 120 122 127 128 130
136 137 139 138 139 141 138 139 141 136 137 139 133 134 136
130 131 133 130 131 133 130 131 133 128 129 131 130 131 133
130 131 133 130 131 133 129 130 132 129 130 132 131 132 134
133 134 136 133 134 136 133 134 136 132 133 135 131 132 134
130 131 133 132 133 135 135 136 138 137 138 140 130 134 135
131 135 136 131 135 136 132 136 137 132 136 137 131 135 136
131 135 136 130 134 135 131 135 136 131 135 136 131 135 136
131 135 136 131 135 136 131 135 136 131 135 136 131 135 136
133 135 134 133 135 134 133 135 134 133 135 134 133 135 134
133 135 134 133 135 134 133 135 134 133 135 134 132 134 133
131 133 132 131 133 132 132 134 133 135 137 136 137 139 138
139 141 140 152 154 153 157 159 158 166 168 167 175 177 176
175 177 176 168 170 169 166 168 167 167 169 168 170 172 171
170 172 171 171 173 172 172 174 173 171 173 172 170 172 171
169 171 170 168 170 169 169 171 170 169 171 170 169 171 170
169 171 170 169 171 170 169 171 170 169 171 170 169 171 170
169 171 170 169 171 170 169 171 170 169 171 170 169 171 170
169 171 170 169 171 170 169 171 170 169 171 170 169 171 170
169 171 170 169 171 170 169 171 170 169 171 170 169 171 170
169 171 170 167 169 168 167 169 168 168 170 169 168 170 169
168 170 169 169 171 170 169 171 170 169 171 170 170 172 171
169 171 170 169 171 170 168 170 169 169 171 170 169 171 170
170 172 171 170 172 171 171 173 172 171 173 172 171 173 172
171 173 172 171 173 172 171 173 172 171 173 172 171 173 172
167 169 168 168 170 169 168 170 169 169 171 170 170 172 171
170 172 171 171 173 172 171 173 172 168 170 169 168 170 169
168 170 169 168 170 169 168 170 169 168 170 169 168 170 169
168 170 169 167 169 168 168 170 169 168 170 169 168 170 169
168 170 169 169 171 170 169 171 170 169 171 170 169 171 170
169 171 170 169 171 170 169 171 170 169 171 170 169 171 170
169 171 170 169 171 170 169 171 170 169 171 170 169 171 170
169 171 170 169 171 170 169 171 170 169 171 170 169 171 170
169 171 170 169 171 170 169 171 170 169 171 170 169 171 170
169 171 170 169 171 170 169 171 168 168 170 167 168 170 165
168 170 167 169 171 168 169 171 168 169 171 168 170 172 171
170 172 171 170 172 171 167 169 168 165 166 168 168 169 171
171 172 174 168 169 171 157 158 162 147 148 152 138 139 141
136 137 139 134 135 137 134 135 137 135 136 138 135 136 138
132 133 135 129 130 132 133 134 136 133 134 136 133 134 136
133 134 136 133 134 136 133 134 136 133 134 136 133 134 136
133 134 136 133 134 136 133 134 136 133 134 136 133 134 136
133 134 136 133 134 136 133 134 136 133 134 136 133 134 136
133 134 136 133 134 136 133 134 136 133 134 136 133 134 136
133 134 136 130 134 135 130 134 135 131 135 136 132 136 137
132 136 137 132 136 137 131 135 136 131 135 136 133 137 138
132 136 137 131 135 136 132 136 137 132 136 137 132 136 137
132 136 137 131 135 136 134 136 135 136 138 137 138 140 139
137 139 138 133 135 134 130 132 131 129 131 130 129 131 130
134 136 135 131 133 132 124 126 125 117 119 118 114 116 115
120 122 121 133 135 134 144 146 145 140 142 141 141 143 142
143 145 144 146 148 147 147 149 148 149 151 150 149 151 150
149 151 150 149 151 150 147 149 148 145 147 146 145 147 146
147 149 148 148 150 149 148 150 149 147 149 148 148 150 149
148 150 149 148 150 149 148 150 149 148 150 149 148 150 149
148 150 149 148 150 149 148 150 149 148 150 149 148 150 149
148 150 149 148 150 149 148 150 149 148 150 149 148 150 149
148 150 149 148 150 149 148 150 149 148 150 149 148 150 149
148 150 149 148 150 149 148 150 149 148 150 149 145 147 146
142 144 143 144 146 145 148 150 149 151 153 152 149 151 150
146 148 147 134 134 134 148 148 148 175 175 175 210 210 210
242 242 242 255 255 255 255 255 255 251 251 251 248 248 248
247 247 247 250 250 250 255 255 255 255 255 255 253 253 253
251 251 251 253 253 253 252 252 252 252 252 252 253 253 253
254 254 254 254 254 254 254 254 254 253 253 253 253 253 253
254 254 254 254 254 254 254 254 254 254 254 254 254 254 254
254 254 254 254 254 254 254 254 254 254 254 254 254 254 254
254 254 254 254 254 254 254 254 254 254 254 254 254 254 254
254 254 254 254 254 254 254 254 254 254 254 254 254 254 254
254 254 254 254 254 254 254 254 254 254 254 254 254 254 254
254 254 254 254 254 254 254 254 254 254 254 254 254 254 254
254 254 254 254 254 254 254 254 254 254 254 254 254 254 254
254 254 254 254 254 254 254 254 254 254 254 254 254 254 254
254 254 254 254 254 254 254 254 254 254 254 254 254 254 254
254 254 254 254 254 254 254 254 254 251 251 251 255 255 255
254 254 254 250 250 250 252 252 252 255 255 255 251 251 251
241 241 241 246 247 249 213 214 216 166 167 169 130 131 133
116 117 119 120 121 123 131 132 134 139 140 142 145 146 148
143 144 146 139 140 142 133 134 136 128 129 131 126 127 129
127 128 130 129 130 132 134 135 137 134 135 137 134 135 137
132 133 135 129 130 132 128 129 131 129 130 132 131 132 134
133 134 136 132 133 135 131 132 134 130 131 133 131 132 134
133 134 136 135 136 138 136 137 139 129 133 134 130 134 135
132 136 137 133 137 138 133 137 138 132 136 137 130 134 135
129 133 134 131 135 136 131 135 136 131 135 136 131 135 136
131 135 136 131 135 136 131 135 136 131 135 136 133 135 134
133 135 134 133 135 134 133 135 134 133 135 134 133 135 134
133 135 134 133 135 134 134 136 135 133 135 134 132 134 133
132 134 133 132 134 133 134 136 135 135 137 136 137 139 138
143 145 144 152 154 153 166 168 167 177 179 178 176 178 177
168 170 169 165 167 166 167 169 168 170 172 171 171 173 172
171 173 172 171 173 172 171 173 172 170 172 171 169 171 170
168 170 169 169 171 170 169 171 170 169 171 170 169 171 170
169 171 170 169 171 170 169 171 170 169 171 170 169 171 170
169 171 170 169 171 170 169 171 170 169 171 170 169 171 170
169 171 170 169 171 170 168 170 169 168 170 169 168 170 169
168 170 169 168 170 169 168 170 169 168 170 169 168 170 169
167 169 168 167 169 168 167 169 168 168 170 169 169 171 170
169 171 170 170 172 171 170 172 171 170 172 171 170 172 171
170 172 171 170 172 171 170 172 171 169 171 170 168 170 169
168 170 169 168 170 169 168 170 169 168 170 169 168 170 169
168 170 169 168 170 169 168 170 169 168 170 169 167 169 168
167 169 168 168 170 169 169 171 170 169 171 170 170 172 171
171 173 172 171 173 172 170 172 171 170 172 171 170 172 171
170 172 171 170 172 171 170 172 171 170 172 171 170 172 171
167 169 168 167 169 168 167 169 168 168 170 169 169 171 170
169 171 170 170 172 171 170 172 171 169 171 170 169 171 170
169 171 170 169 171 170 169 171 170 169 171 170 169 171 170
169 171 170 169 171 170 169 171 170 169 171 170 169 171 170
169 171 170 169 171 170 169 171 170 169 171 170 169 171 170
169 171 170 169 171 170 169 171 170 169 171 170 169 171 170
169 171 170 169 171 168 166 168 165 166 168 163 167 169 166
167 169 166 168 170 167 169 171 168 169 171 170 169 171 170
172 174 173 166 168 167 163 164 166 168 169 171 174 175 177
169 170 172 153 154 158 137 138 142 135 136 138 134 135 137
134 135 137 135 136 138 136 137 139 135 136 138 132 133 135
130 131 133 133 134 136 133 134 136 133 134 136 133 134 136
133 134 136 133 134 136 133 134 136 133 134 136 133 134 136
133 134 136 133 134 136 133 134 136 133 134 136 133 134 136
133 134 136 133 134 136 133 134 136 133 134 136 133 134 136
133 134 136 133 134 136 133 134 136 133 134 136 133 134 136
128 132 133 129 133 134 130 134 135 131 135 136 132 136 137
132 136 137 132 136 137 132 136 137 134 138 139 131 135 136
128 132 133 129 133 134 134 138 139 135 139 140 133 137 138
129 133 134 133 135 134 135 137 136 137 139 138 136 138 137
134 136 135 131 133 132 131 133 132 131 133 132 133 135 134
135 137 136 132 134 133 118 120 119 106 108 107 108 110 109
126 128 127 144 146 145 142 144 143 143 145 144 145 147 146
147 149 148 148 150 149 149 151 150 150 152 151 150 152 151
149 151 150 147 149 148 145 147 146 145 147 146 147 149 148
148 150 149 148 150 149 147 149 148 148 150 149 148 150 149
148 150 149 148 150 149 148 150 149 148 150 149 148 150 149
148 150 149 148 150 149 148 150 149 148 150 149 148 150 149
148 150 149 148 150 149 148 150 149 148 150 149 148 150 149
148 150 149 148 150 149 148 150 149 148 150 149 148 150 149
148 150 149 148 150 149 147 149 148 145 147 146 142 144 143
140 142 141 141 143 142 144 146 145 148 150 149 150 152 151
128 128 128 125 125 125 133 133 133 160 160 160 198 198 198
230 230 230 245 245 245 248 248 248 249 249 249 251 251 251
251 251 251 251 251 251 254 254 254 255 255 255 254 254 254
248 248 248 250 250 250 251 251 251 252 252 252 253 253 253
254 254 254 254 254 254 254 254 254 254 254 254 254 254 254
254 254 254 254 254 254 254 254 254 254 254 254 254 254 254
254 254 254 254 254 254 254 254 254 254 254 254 254 254 254
254 254 254 254 254 254 254 254 254 254 254 254 254 254 254
254 254 254 254 254 254 254 254 254 254 254 254 254 254 254
254 254 254 254 254 254 254 254 254 254 254 254 254 254 254
254 254 254 254 254 254 254 254 254 254 254 254 254 254 254
254 254 254 254 254 254 254 254 254 254 254 254 254 254 254
254 254 254 254 254 254 254 254 254 254 254 254 254 254 254
254 254 254 254 254 254 254 254 254 254 254 254 254 254 254
254 254 254 254 254 254 252 252 252 255 255 255 254 254 254
251 251 251 252 252 252 255 255 255 251 251 251 244 244 244
251 252 254 237 238 240 205 206 208 163 164 166 134 135 137
127 128 130 133 134 136 138 139 141 136 137 139 135 136 138
132 133 135 128 129 131 125 126 128 126 127 129 129 130 132
132 133 135 139 140 142 139 140 142 138 139 141 135 136 138
132 133 135 130 131 133 130 131 133 131 132 134 132 133 135
132 133 135 133 134 136 134 135 137 135 136 138 135 136 138
133 134 136 131 132 134 131 135 136 131 135 136 131 135 136
131 135 136 131 135 136 131 135 136 131 135 136 131 135 136
131 135 136 131 135 136 131 135 136 131 135 136 131 135 136
131 135 136 131 135 136 131 135 136 133 135 134 133 135 134
133 135 134 133 135 134 133 135 134 133 135 134 133 135 134
133 135 134 135 137 136 134 136 135 133 135 134 132 134 133
132 134 133 133 135 134 133 135 134 134 136 135 140 142 141
150 152 151 167 169 168 178 180 179 177 179 178 167 169 168
163 165 164 165 167 166 171 173 172 171 173 172 171 173 172
171 173 172 170 172 171 170 172 171 169 171 170 169 171 170
169 171 170 169 171 170 169 171 170 169 171 170 169 171 170
169 171 170 169 171 170 169 171 170 169 171 170 169 171 170
169 171 170 169 171 170 169 171 170 169 171 170 169 171 170
169 171 170 168 170 169 168 170 169 168 170 169 168 170 169
168 170 169 168 170 169 168 170 169 168 170 169 170 172 171
170 172 171 170 172 171 170 172 171 169 171 170 169 171 170
169 171 170 169 171 170 167 169 168 168 170 169 170 172 171
171 173 172 171 173 172 170 172 171 168 170 169 167 169 168
168 170 169 168 170 169 168 170 169 168 170 169 168 170 169
168 170 169 168 170 169 168 170 169 171 173 172 171 173 172
170 172 171 169 171 170 169 171 170 168 170 169 167 169 168
167 169 168 169 171 170 169 171 170 169 171 170 169 171 170
170 172 171 170 172 171 170 172 171 170 172 171 169 171 170
169 171 170 169 171 170 169 171 170 170 172 171 170 172 171
170 172 171 170 172 171 168 170 169 168 170 169 169 171 170
169 171 170 169 171 170 169 171 170 170 172 171 170 172 171
169 171 170 169 171 170 169 171 170 169 171 170 169 171 170
169 171 170 169 171 170 169 171 170 169 171 170 169 171 170
169 171 170 169 171 170 169 171 170 169 171 170 169 171 170
169 171 168 169 171 168 169 171 166 169 171 168 168 170 167
168 170 167 168 170 167 168 170 169 168 170 169 172 174 173
168 170 169 166 167 169 170 171 173 172 173 175 165 166 168
147 148 152 132 133 137 132 133 135 133 134 136 135 136 138
136 137 139 137 138 140 135 136 138 133 134 136 131 132 134
133 134 136 133 134 136 133 134 136 133 134 136 133 134 136
133 134 136 133 134 136 133 134 136 133 134 136 133 134 136
133 134 136 133 134 136 133 134 136 133 134 136 133 134 136
133 134 136 133 134 136 133 134 136 133 134 136 133 134 136
133 134 136 133 134 136 133 134 136 133 134 136 130 134 135
130 134 135 131 135 136 132 136 137 132 136 137 132 136 137
131 135 136 131 135 136 131 135 136 130 134 135 128 132 133
130 134 135 133 137 138 134 138 139 133 137 138 131 135 136
133 135 134 134 136 135 135 137 136 136 138 137 135 137 136
134 136 135 132 134 133 132 134 133 134 136 135 137 139 138
135 137 136 121 123 122 106 108 107 105 107 106 120 122 121
137 139 138 144 146 145 145 147 146 147 149 148 148 150 149
149 151 150 150 152 151 150 152 151 150 152 151 149 151 150
147 149 148 145 147 146 145 147 146 147 149 148 148 150 149
148 150 149 147 149 148 148 150 149 148 150 149 148 150 149
148 150 149 148 150 149 148 150 149 148 150 149 148 150 149
148 150 149 148 150 149 148 150 149 148 150 149 148 150 149
148 150 149 148 150 149 148 150 149 148 150 149 148 150 149
148 150 149 148 150 149 148 150 149 148 150 149 148 150 149
148 150 149 149 151 150 149 151 150 147 149 148 143 145 144
140 142 141 140 142 141 145 147 146 149 151 150 151 151 151
144 144 144 135 135 135 132 132 132 142 142 142 168 168 168
206 206 206 235 235 235 249 249 249 255 255 255 253 253 253
244 244 244 244 244 244 252 252 252 255 255 255 250 250 250
250 250 250 250 250 250 252 252 252 253 253 253 254 254 254
255 255 255 255 255 255 255 255 255 254 254 254 254 254 254
254 254 254 254 254 254 254 254 254 254 254 254 254 254 254
254 254 254 254 254 254 254 254 254 254 254 254 254 254 254
254 254 254 254 254 254 254 254 254 254 254 254 254 254 254
254 254 254 254 254 254 254 254 254 254 254 254 254 254 254
254 254 254 254 254 254 254 254 254 254 254 254 254 254 254
254 254 254 254 254 254 254 254 254 254 254 254 254 254 254
254 254 254 254 254 254 254 254 254 254 254 254 254 254 254
254 254 254 254 254 254 254 254 254 254 254 254 254 254 254
254 254 254 254 254 254 254 254 254 254 254 254 254 254 254
254 254 254 252 252 252 254 254 254 254 254 254 252 252 252
253 253 253 254 254 254 251 251 251 247 247 247 244 245 247
250 251 253 239 240 242 201 202 204 157 158 160 132 133 135
128 129 131 132 133 135 127 128 130 128 129 131 129 130 132
128 129 131 127 128 130 128 129 131 131 132 134 134 135 137
137 138 140 138 139 141 138 139 141 136 137 139 135 136 138
134 135 137 136 137 139 138 139 141 135 136 138 132 133 135
128 129 131 128 129 131 130 131 133 132 133 135 132 133 135
131 132 134 134 138 139 132 136 137 130 134 135 128 132 133
128 132 133 130 134 135 132 136 137 134 138 139 131 135 136
131 135 136 131 135 136 131 135 136 131 135 136 131 135 136
131 135 136 131 135 136 133 135 134 133 135 134 133 135 134
133 135 134 133 135 134 133 135 134 133 135 134 133 135 134
134 136 135 134 136 135 133 135 134 132 134 133 132 134 133
132 134 133 132 134 133 132 134 133 136 138 137 146 148 147
163 165 164 176 178 177 177 179 178 170 172 171 166 168 167
168 170 169 171 173 172 171 173 172 170 172 171 170 172 171
169 171 170 169 171 170 169 171 170 169 171 170 169 171 170
169 171 170 169 171 170 169 171 170 169 171 170 169 171 170
169 171 170 169 171 170 169 171 170 169 171 170 169 171 170
169 171 170 169 171 170 169 171 170 169 171 170 169 171 170
170 172 171 170 172 171 170 172 171 170 172 171 170 172 171
170 172 171 170 172 171 170 172 171 174 176 175 173 175 174
172 174 173 171 173 172 170 172 171 169 171 170 168 170 169
168 170 169 167 169 168 168 170 169 170 172 171 171 173 172
172 174 173 171 173 172 170 172 171 169 171 170 171 173 172
171 173 172 171 173 172 171 173 172 171 173 172 171 173 172
171 173 172 171 173 172 172 174 173 172 174 173 171 173 172
171 173 172 170 172 171 169 171 170 169 171 170 168 170 169
165 167 166 165 167 166 166 168 167 166 168 167 167 169 168
167 169 168 168 170 169 168 170 169 172 174 173 172 174 173
172 174 173 171 173 172 171 173 172 170 172 171 170 172 171
169 171 170 169 171 170 169 171 170 169 171 170 169 171 170
169 171 170 169 171 170 169 171 170 169 171 170 169 171 170
169 171 170 169 171 170 169 171 170 169 171 170 169 171 170
169 171 170 169 171 170 169 171 170 169 171 170 169 171 170
169 171 170 169 171 170 169 171 170 169 171 170 169 171 168
173 175 172 172 174 169 171 173 170 170 172 169 169 171 168
168 170 167 167 169 168 167 169 168 167 169 168 168 170 169
169 170 172 168 169 171 163 164 166 152 153 155 138 139 143
129 130 134 132 133 135 133 134 136 136 137 139 137 138 140
136 137 139 134 135 137 132 133 135 131 132 134 133 134 136
133 134 136 133 134 136 133 134 136 133 134 136 133 134 136
133 134 136 133 134 136 133 134 136 133 134 136 133 134 136
133 134 136 133 134 136 133 134 136 133 134 136 133 134 136
133 134 136 133 134 136 133 134 136 133 134 136 133 134 136
133 134 136 133 134 136 133 134 136 133 137 138 133 137 138
133 137 138 132 136 137 131 135 136 130 134 135 128 132 133
128 132 133 126 130 131 129 133 134 131 135 136 131 135 136
130 134 135 130 134 135 133 137 138 135 139 140 133 135 134
134 136 135 135 137 136 136 138 137 136 138 137 135 137 136
133 135 134 132 134 133 132 134 133 134 136 135 134 136 135
127 129 128 119 121 120 119 121 120 127 129 128 136 138 137
146 148 147 147 149 148 148 150 149 149 151 150 149 151 150
150 152 151 149 151 150 149 151 150 149 151 150 147 149 148
145 147 146 145 147 146 147 149 148 148 150 149 148 150 149
147 149 148 148 150 149 148 150 149 148 150 149 148 150 149
148 150 149 148 150 149 148 150 149 148 150 149 148 150 149
148 150 149 148 150 149 148 150 149 148 150 149 148 150 149
148 150 149 148 150 149 148 150 149 148 150 149 148 150 149
148 150 149 148 150 149 148 150 149 148 150 149 148 150 149
151 153 152 154 156 155 155 157 156 152 154 153 148 150 149
146 148 147 149 151 150 153 155 154 157 157 157 154 154 154
147 147 147 135 135 135 124 124 124 133 133 133 168 168 168
202 202 202 233 233 233 247 247 247 255 255 255 249 249 249
245 245 245 250 250 250 253 253 253 251 251 251 250 250 250
250 250 250 252 252 252 253 253 253 254 254 254 255 255 255
255 255 255 255 255 255 254 254 254 254 254 254 254 254 254
254 254 254 254 254 254 254 254 254 254 254 254 254 254 254
254 254 254 254 254 254 254 254 254 254 254 254 254 254 254
254 254 254 254 254 254 254 254 254 254 254 254 254 254 254
254 254 254 254 254 254 254 254 254 254 254 254 254 254 254
254 254 254 254 254 254 254 254 254 254 254 254 254 254 254
254 254 254 254 254 254 254 254 254 254 254 254 254 254 254
254 254 254 254 254 254 254 254 254 254 254 254 254 254 254
254 254 254 254 254 254 254 254 254 254 254 254 254 254 254
254 254 254 254 254 254 254 254 254 254 254 254 254 254 254
253 253 253 253 253 253 254 254 254 253 253 253 253 253 253
252 252 252 251 251 251 250 250 250 245 246 248 254 255 255
254 255 255 228 229 231 183 184 186 145 146 148 130 131 133
130 131 133 129 130 132 130 131 133 132 133 135 132 133 135
131 132 134 131 132 134 132 133 135 134 135 137 132 133 135
133 134 136 135 136 138 135 136 138 136 137 139 137 138 140
140 141 143 143 144 146 136 137 139 128 129 131 119 120 122
116 117 119 120 121 123 127 128 130 133 134 136 135 136 138
134 138 139 132 136 137 130 134 135 128 132 133 128 132 133
130 134 135 132 136 137 134 138 139 131 135 136 131 135 136
131 135 136 131 135 136 131 135 136 131 135 136 131 135 136
131 135 136 133 135 134 133 135 134 133 135 134 133 135 134
133 135 134 133 135 134 133 135 134 133 135 134 133 135 134
133 135 134 133 135 134 133 135 134 132 134 133 132 134 133
132 134 133 132 134 133 131 133 132 138 140 139 153 155 154
169 171 170 176 178 177 174 176 175 172 174 173 173 175 174
172 174 173 171 173 172 170 172 171 169 171 170 169 171 170
169 171 170 169 171 170 170 172 171 169 171 170 169 171 170
169 171 170 169 171 170 169 171 170 169 171 170 169 171 170
169 171 170 169 171 170 169 171 170 169 171 170 169 171 170
169 171 170 169 171 170 169 171 170 169 171 170 170 172 171
170 172 171 170 172 171 170 172 171 170 172 171 170 172 171
170 172 171 170 172 171 174 176 175 173 175 174 172 174 173
171 173 172 170 172 171 169 171 170 168 170 169 168 170 169
168 170 169 168 170 169 169 171 170 169 171 170 169 171 170
169 171 170 168 170 169 168 170 169 166 168 167 166 168 167
166 168 167 166 168 167 166 168 167 166 168 167 166 168 167
166 168 167 166 168 167 166 168 167 167 169 168 168 170 169
168 170 169 169 171 170 170 172 171 170 172 171 167 169 168
168 170 169 168 170 169 169 171 170 170 172 171 170 172 171
171 173 172 171 173 172 172 174 173 171 173 172 171 173 172
171 173 172 170 172 171 170 172 171 170 172 171 170 172 171
170 172 171 170 172 171 170 172 171 169 171 170 169 171 170
168 170 169 168 170 169 168 170 169 169 171 170 169 171 170
169 171 170 169 171 170 169 171 170 169 171 170 169 171 170
169 171 170 169 171 170 169 171 170 169 171 170 169 171 170
169 171 170 169 171 170 169 171 170 169 171 168 173 175 172
173 175 170 172 174 171 171 173 170 170 172 169 169 171 168
168 170 169 167 169 168 163 165 164 167 169 168 169 170 172
164 165 167 151 152 154 138 139 141 130 131 135 127 128 132
133 134 136 135 136 138 137 138 140 137 138 140 134 135 137
132 133 135 132 133 135 132 133 135 133 134 136 133 134 136
133 134 136 133 134 136 133 134 136 133 134 136 133 134 136
133 134 136 133 134 136 133 134 136 133 134 136 133 134 136
133 134 136 133 134 136 133 134 136 133 134 136 133 134 136
133 134 136 133 134 136 133 134 136 133 134 136 133 134 136
133 134 136 133 134 136 134 138 139 134 138 139 134 138 139
133 137 138 131 135 136 129 133 134 127 131 132 126 130 131
124 128 129 128 132 133 132 136 137 132 136 137 129 133 134
129 133 134 133 137 138 137 141 142 135 137 136 134 136 135
134 136 135 136 138 137 137 139 138 136 138 137 134 136 135
131 133 132 129 131 130 130 132 131 131 133 132 133 135 134
136 138 137 140 142 141 143 145 144 145 147 146 147 149 148
147 149 148 148 150 149 149 151 150 149 151 150 149 151 150
148 150 149 148 150 149 149 151 150 147 149 148 145 147 146
145 147 146 147 149 148 148 150 149 148 150 149 147 149 148
148 150 149 148 150 149 148 150 149 148 150 149 148 150 149
148 150 149 148 150 149 148 150 149 148 150 149 148 150 149
148 150 149 148 150 149 148 150 149 148 150 149 148 150 149
148 150 149 148 150 149 148 150 149 148 150 149 148 150 149
148 150 149 148 150 149 148 150 149 148 150 149 145 147 146
149 151 150 152 154 153 152 154 153 150 152 151 149 151 150
151 153 152 153 155 154 150 150 150 148 148 148 149 149 149
150 150 150 144 144 144 136 136 136 140 140 140 151 151 151
196 196 196 219 219 219 245 245 245 255 255 255 255 255 255
252 252 252 250 250 250 249 249 249 250 250 250 251 251 251
252 252 252 253 253 253 254 254 254 254 254 254 254 254 254
254 254 254 254 254 254 254 254 254 254 254 254 254 254 254
254 254 254 254 254 254 254 254 254 254 254 254 254 254 254
254 254 254 254 254 254 254 254 254 254 254 254 254 254 254
254 254 254 254 254 254 254 254 254 254 254 254 254 254 254
254 254 254 254 254 254 254 254 254 254 254 254 254 254 254
254 254 254 254 254 254 254 254 254 254 254 254 254 254 254
254 254 254 254 254 254 254 254 254 254 254 254 254 254 254
254 254 254 254 254 254 254 254 254 254 254 254 254 254 254
254 254 254 254 254 254 254 254 254 254 254 254 254 254 254
254 254 254 254 254 254 254 254 254 254 254 254 253 253 253
253 253 253 254 254 254 254 254 254 253 253 253 251 251 251
251 251 251 253 253 253 247 248 250 248 249 251 250 251 253
244 245 247 216 217 219 174 175 177 143 144 146 132 133 135
133 134 136 134 135 137 134 135 137 133 134 136 132 133 135
131 132 134 133 134 136 135 136 138 133 134 136 134 135 137
135 136 138 134 135 137 133 134 136 133 134 136 135 136 138
137 138 140 128 129 131 122 123 125 117 118 120 118 119 121
125 126 128 132 133 135 137 138 140 138 139 141 131 135 136
131 135 136 131 135 136 131 135 136 131 135 136 131 135 136
131 135 136 131 135 136 131 135 136 131 135 136 131 135 136
131 135 136 131 135 136 131 135 136 131 135 136 131 135 136
133 135 134 133 135 134 133 135 134 133 135 134 133 135 134
133 135 134 133 135 134 133 135 134 131 133 132 132 134 133
132 134 133 133 135 134 133 135 134 133 135 134 132 134 133
132 134 133 130 132 131 133 135 134 144 146 145 161 163 162
172 174 173 174 176 175 173 175 174 173 175 174 172 174 173
171 173 172 170 172 171 169 171 170 168 170 169 169 171 170
170 172 171 170 172 171 169 171 170 169 171 170 169 171 170
169 171 170 169 171 170 169 171 170 169 171 170 169 171 170
169 171 170 169 171 170 169 171 170 169 171 170 169 171 170
169 171 170 169 171 170 169 171 170 169 171 170 169 171 170
169 171 170 169 171 170 169 171 170 169 171 170 169 171 170
169 171 170 169 171 170 169 171 170 169 171 170 169 171 170
169 171 170 169 171 170 169 171 170 169 171 170 166 168 167
165 167 166 163 165 164 161 163 162 160 162 161 159 161 160
158 160 159 158 160 159 155 157 156 155 157 156 155 157 156
155 157 156 155 157 156 155 157 156 155 157 156 155 157 156
156 158 157 157 159 158 157 159 158 158 160 159 159 161 160
159 161 160 160 162 161 160 162 161 167 169 168 167 169 168
168 170 169 169 171 170 170 172 171 170 172 171 171 173 172
171 173 172 166 168 167 167 169 168 167 169 168 168 170 169
169 171 170 170 172 171 171 173 172 171 173 172 172 174 173
171 173 172 171 173 172 170 172 171 168 170 169 167 169 168
167 169 168 166 168 167 169 171 170 169 171 170 169 171 170
169 171 170 169 171 170 169 171 170 169 171 170 169 171 170
169 171 170 169 171 170 169 171 170 169 171 170 169 171 170
169 171 170 169 171 170 169 171 168 169 171 168 169 171 166
169 171 168 169 171 168 169 171 168 169 171 168 169 171 170
169 171 170 167 169 168 170 172 171 169 170 172 160 161 163
145 146 148 133 134 136 127 128 132 126 127 131 135 136 138
137 138 140 138 139 141 136 137 139 132 133 135 130 131 133
131 132 134 133 134 136 133 134 136 133 134 136 133 134 136
133 134 136 133 134 136 133 134 136 133 134 136 133 134 136
133 134 136 133 134 136 133 134 136 133 134 136 133 134 136
133 134 136 133 134 136 133 134 136 133 134 136 133 134 136
133 134 136 133 134 136 133 134 136 133 134 136 133 134 136
133 134 136 133 137 138 133 137 138 133 137 138 132 136 137
131 135 136 130 134 135 128 132 133 127 131 132 125 129 130
126 130 131 128 132 133 130 134 135 131 135 136 132 136 137
134 138 139 135 139 140 136 138 137 135 137 136 134 136 135
136 138 137 137 139 138 137 139 138 133 135 134 130 132 131
129 131 130 129 131 130 130 132 131 136 138 137 144 146 145
150 152 151 151 153 152 151 153 152 147 149 148 147 149 148
148 150 149 148 150 149 148 150 149 148 150 149 147 149 148
146 148 147 149 151 150 147 149 148 145 147 146 145 147 146
147 149 148 148 150 149 148 150 149 147 149 148 148 150 149
148 150 149 148 150 149 148 150 149 148 150 149 148 150 149
148 150 149 148 150 149 148 150 149 148 150 149 148 150 149
148 150 149 148 150 149 148 150 149 148 150 149 148 150 149
148 150 149 148 150 149 148 150 149 148 150 149 148 150 149
148 150 149 148 150 149 148 150 149 143 145 144 145 147 146
146 148 147 147 149 148 147 149 148 147 149 148 148 150 149
149 151 150 153 153 153 145 145 145 146 146 146 156 156 156
156 156 156 142 142 142 129 129 129 127 127 127 155 155 155
179 179 179 215 215 215 245 245 245 255 255 255 252 252 252
248 248 248 249 249 249 252 252 252 252 252 252 253 253 253
254 254 254 254 254 254 254 254 254 253 253 253 253 253 253
254 254 254 254 254 254 254 254 254 254 254 254 254 254 254
254 254 254 254 254 254 254 254 254 254 254 254 254 254 254
254 254 254 254 254 254 254 254 254 254 254 254 254 254 254
254 254 254 254 254 254 254 254 254 254 254 254 254 254 254
254 254 254 254 254 254 254 254 254 254 254 254 254 254 254
254 254 254 254 254 254 254 254 254 254 254 254 254 254 254
254 254 254 254 254 254 254 254 254 254 254 254 254 254 254
254 254 254 254 254 254 254 254 254 254 254 254 254 254 254
254 254 254 254 254 254 254 254 254 254 254 254 254 254 254
254 254 254 254 254 254 254 254 254 254 254 254 253 253 253
253 253 253 255 255 255 253 253 253 251 251 251 251 251 251
254 254 254 245 246 248 237 238 240 241 242 244 253 254 255
243 244 246 202 203 205 158 159 161 135 136 138 134 135 137
134 135 137 133 134 136 131 132 134 130 131 133 131 132 134
134 135 137 137 138 140 139 140 142 139 140 142 137 138 140
133 134 136 129 130 132 125 126 128 125 126 128 126 127 129
117 118 120 117 118 120 121 122 124 129 130 132 138 139 141
142 143 145 140 141 143 136 137 139 127 131 132 129 133 134
133 137 138 135 139 140 135 139 140 133 137 138 129 133 134
127 131 132 131 135 136 131 135 136 131 135 136 131 135 136
131 135 136 131 135 136 131 135 136 131 135 136 131 135 134
133 135 134 133 135 134 133 135 134 133 135 134 133 135 134
133 135 134 133 135 134 130 132 131 131 133 132 132 134 133
133 135 134 133 135 134 133 135 134 133 135 134 132 134 133
133 134 136 133 134 136 140 141 143 155 156 158 168 169 171
171 173 172 169 171 170 168 170 169 174 174 174 172 174 173
171 171 171 169 171 170 168 170 169 169 171 170 170 171 173
171 173 172 167 171 170 167 171 170 167 171 172 167 171 172
167 171 172 167 171 172 167 171 172 167 171 172 169 170 172
169 170 172 169 170 172 169 171 170 169 171 170 169 171 170
169 171 168 169 171 168 168 170 167 168 170 167 168 170 169
168 170 167 168 170 169 168 170 167 168 170 169 168 170 167
163 165 164 164 166 163 165 167 166 166 168 165 167 169 168
169 171 168 170 172 171 170 172 171 162 164 163 160 162 161
156 158 157 153 155 154 150 152 151 148 150 149 148 150 149
147 149 148 152 154 153 152 154 153 152 154 153 152 154 153
152 154 153 152 154 153 152 154 153 152 154 153 150 152 151
149 151 150 149 151 150 148 150 149 147 149 148 147 149 148
146 148 147 146 148 147 159 161 160 159 161 160 160 162 161
161 163 162 162 164 163 163 165 164 164 166 165 164 166 165
161 163 162 162 164 163 163 165 164 166 168 167 168 170 169
170 172 171 172 174 173 173 175 174 173 175 174 172 174 173
171 173 172 170 172 171 168 170 169 167 169 168 166 168 167
165 167 166 169 171 168 169 171 168 169 171 168 169 171 168
169 171 168 167 171 170 167 171 170 167 171 170 167 171 170
167 171 170 167 171 170 169 171 170 169 171 170 169 171 170
169 171 170 169 171 168 165 167 164 165 167 164 166 168 167
167 169 168 169 171 170 170 172 171 171 172 174 171 172 174
174 175 177 174 175 177 170 171 173 159 160 162 146 147 149
135 136 138 129 130 132 128 129 131 137 138 140 138 139 141
138 139 141 135 136 138 131 132 134 129 130 132 131 132 134
133 134 136 133 134 136 133 134 136 133 134 136 133 134 136
133 134 136 133 134 136 133 134 136 133 134 136 133 134 136
133 134 136 133 134 136 133 134 136 133 134 136 133 134 136
133 134 136 133 134 136 133 134 136 133 134 136 133 134 136
133 134 136 133 134 136 133 134 136 133 134 136 133 134 136
131 135 136 131 135 136 132 136 137 132 136 137 132 136 137
131 135 136 130 134 135 130 134 135 128 132 133 125 129 130
124 128 129 127 131 132 133 137 138 136 140 141 135 139 140
132 136 137 138 140 139 136 138 137 135 137 136 136 138 137
138 140 139 137 139 138 133 135 134 129 131 130 130 132 131
130 132 131 131 133 132 136 138 137 142 144 143 148 150 149
150 152 151 150 152 151 147 149 148 147 149 148 148 150 149
148 150 149 148 150 149 147 149 148 146 148 147 145 147 146
149 151 150 147 149 148 145 147 146 145 147 146 147 149 148
148 150 149 148 150 149 147 149 148 148 150 149 148 150 149
148 150 149 148 150 149 148 150 149 148 150 149 148 150 149
148 150 149 148 150 149 148 150 149 148 150 149 148 150 149
148 150 149 148 150 149 148 150 149 148 150 149 148 150 149
148 150 149 148 150 149 148 150 149 148 150 149 148 150 149
148 150 149 148 150 149 151 153 152 150 152 151 148 150 149
147 149 148 147 149 148 147 149 148 147 149 148 147 149 148
157 157 157 146 146 146 142 142 142 149 149 149 150 150 150
141 141 141 137 137 137 141 141 141 131 131 131 148 148 148
186 186 186 227 227 227 248 248 248 248 248 248 248 248 248
252 252 252 253 253 253 253 253 253 254 254 254 254 254 254
254 254 254 253 253 253 252 252 252 252 252 252 254 254 254
254 254 254 254 254 254 254 254 254 254 254 254 254 254 254
254 254 254 254 254 254 254 254 254 254 254 254 254 254 254
254 254 254 254 254 254 254 254 254 254 254 254 254 254 254
254 254 254 254 254 254 254 254 254 254 254 254 254 254 254
254 254 254 254 254 254 254 254 254 254 254 254 254 254 254
254 254 254 254 254 254 254 254 254 254 254 254 254 254 254
254 254 254 254 254 254 254 254 254 254 254 254 254 254 254
254 254 254 254 254 254 254 254 254 254 254 254 254 254 254
254 254 254 254 254 254 254 254 254 254 254 254 254 254 254
254 254 254 254 254 254 254 254 254 254 254 254 253 253 253
252 252 252 251 251 251 251 251 251 250 250 250 249 249 249
245 247 246 246 248 247 244 246 245 246 248 247 252 254 253
243 245 244 203 205 204 161 163 162 134 136 135 137 139 138
140 142 141 138 140 139 132 134 133 127 129 128 125 127 126
126 128 127 131 133 132 127 129 128 126 128 127 131 133 132
140 142 141 141 143 142 127 129 128 111 113 112 116 118 117
122 124 123 131 133 132 138 140 139 141 143 142 139 141 140
136 138 137 134 136 135 131 135 136 131 135 136 132 136 137
133 137 138 133 137 138 133 137 138 133 137 138 132 136 137
130 134 135 131 135 136 132 136 137 132 136 137 130 134 135
130 134 135 131 135 136 132 136 137 131 135 136 131 135 136
131 135 136 131 135 136 131 135 136 131 135 136 133 134 136
133 134 136 133 134 136 133 134 136 134 134 136 134 134 136
134 134 136 134 134 136 134 134 136 133 134 136 134 135 139
131 134 139 133 134 138 141 142 146 162 161 166 176 176 178
171 171 173 156 156 158 173 171 174 171 171 173 171 169 172
168 168 170 168 168 170 169 169 171 169 170 174 169 173 174
163 172 171 161 171 170 160 170 171 160 170 172 162 170 173
163 170 176 164 169 175 163 168 174 165 168 175 165 168 173
169 170 174 170 171 173 171 171 171 170 170 168 168 169 164
167 168 163 169 170 165 169 170 165 169 169 167 168 169 164
168 168 166 168 169 164 167 167 165 167 168 163 168 168 166
167 168 163 165 165 163 162 163 158 159 159 157 156 157 152
154 154 152 153 153 151 152 154 153 153 155 154 155 157 156
158 160 159 160 162 161 162 164 163 163 165 164 163 165 164
163 165 164 163 165 164 163 165 164 163 165 164 163 165 164
163 165 164 163 165 164 163 165 164 167 169 168 166 168 167
164 166 165 161 163 162 158 160 159 155 157 156 153 155 154
151 153 152 144 146 145 145 147 146 147 149 148 149 151 150
151 153 152 153 155 154 155 157 156 156 158 157 163 163 161
166 166 164 170 170 168 172 172 170 170 172 169 166 168 165
161 163 162 157 159 158 162 164 163 163 165 164 164 168 169
167 171 172 169 173 174 171 175 176 172 176 177 172 176 175
167 172 166 167 172 165 167 172 166 167 172 166 167 172 166
166 172 168 166 172 170 165 171 169 164 170 168 165 171 169
166 172 170 168 172 171 167 171 170 166 170 169 164 169 165
165 167 164 169 171 170 166 166 166 163 163 165 164 164 166
169 168 173 172 171 176 171 170 176 168 167 173 172 171 176
169 168 173 161 160 165 151 151 153 141 141 143 134 134 134
131 131 131 130 130 130 134 135 137 134 135 137 134 135 137
134 135 137 134 135 137 134 135 137 134 135 137 134 135 137
133 134 136 133 134 136 133 134 136 133 134 136 133 134 136
133 134 136 133 134 136 133 134 136 133 134 136 132 133 135
132 133 135 133 134 136 135 136 138 135 136 138 133 134 136
131 132 134 132 133 135 132 133 135 132 133 135 132 133 135
132 133 135 132 133 135 132 133 135 132 133 135 130 134 135
134 138 139 133 137 138 128 132 133 128 132 133 135 139 140
137 141 142 133 137 138 133 137 138 127 131 132 121 125 126
121 125 126 128 132 133 135 139 140 133 137 138 128 132 133
133 135 134 138 140 139 143 145 144 141 143 142 134 136 135
129 131 130 129 131 130 131 133 132 131 133 132 132 134 133
136 138 137 142 144 143 148 150 149 151 153 152 151 153 152
150 152 151 148 150 149 148 150 149 148 150 149 148 150 149
148 150 149 148 150 149 148 150 149 148 150 149 148 150 149
148 150 149 148 150 149 148 150 149 148 150 149 148 150 149
148 150 149 148 150 149 148 150 149 148 150 149 148 150 149
148 150 149 148 150 149 148 150 149 148 150 149 148 150 149
148 150 149 148 150 149 148 150 149 148 150 149 148 150 149
148 150 149 148 150 149 148 150 149 148 150 149 148 150 149
148 150 149 148 150 149 148 150 149 148 150 149 148 150 149
148 150 149 148 150 149 148 150 149 148 150 149 148 150 149
148 150 149 148 150 149 148 150 149 148 150 149 148 150 149
146 148 147 145 147 146 148 150 149 151 153 152 150 152 151
143 145 144 137 139 138 133 135 134 139 141 140 150 152 151
175 177 176 215 217 216 249 251 250 254 255 255 242 244 243
245 245 245 250 250 250 254 254 254 254 254 254 251 251 251
251 251 251 253 253 253 254 254 254 251 251 251 253 253 253
254 254 254 254 254 254 252 252 252 252 252 252 253 253 253
255 255 255 254 254 254 254 254 254 254 254 254 254 254 254
254 254 254 254 254 254 254 254 254 254 254 254 254 254 254
254 254 254 254 254 254 254 254 254 254 254 254 254 254 254
254 254 254 254 254 254 254 254 254 254 254 254 254 254 254
254 254 254 254 254 254 254 254 254 254 254 254 254 254 254
254 254 254 254 254 254 254 254 254 254 254 254 254 254 254
254 254 254 254 254 254 254 254 254 254 254 254 254 254 254
254 254 254 254 254 254 254 254 254 254 254 254 254 254 254
254 254 254 254 254 254 254 254 254 253 253 253 253 253 253
252 252 252 251 251 251 250 250 250 250 250 250 247 249 248
248 250 249 246 248 247 248 250 249 254 255 255 252 254 253
223 225 224 191 193 192 149 151 150 139 141 140 129 131 130
127 129 128 133 135 134 139 141 140 139 141 140 136 138 137
131 133 132 129 131 130 130 132 131 136 138 137 138 140 139
132 134 133 121 123 122 112 114 113 118 120 119 126 128 127
136 138 137 139 141 140 137 139 138 133 135 134 133 135 134
135 137 136 136 140 141 135 139 140 132 136 137 130 134 135
129 133 134 129 133 134 130 134 135 130 134 135 130 134 135
131 135 136 132 136 137 131 135 136 131 135 136 130 134 135
131 135 136 132 136 137 130 136 136 130 136 136 131 135 136
131 135 136 131 135 136 131 135 136 133 134 136 133 134 136
133 134 136 133 134 136 134 134 136 134 134 136 134 134 136
134 134 136 134 134 136 133 134 138 134 135 140 131 134 139
131 132 137 135 136 140 152 151 156 168 167 172 173 171 174
167 165 168 170 168 171 170 168 171 170 168 171 171 169 172
171 170 175 171 170 175 169 170 174 166 170 171 164 174 173
162 174 170 163 173 174 163 173 174 165 172 178 165 172 178
166 170 179 166 170 179 165 168 175 168 169 174 170 169 174
171 171 171 173 172 170 172 171 167 171 170 165 170 169 164
168 169 164 167 168 163 167 168 163 166 167 162 166 167 162
165 166 161 165 166 161 164 165 160 155 156 151 156 157 152
156 157 152 157 158 153 158 159 154 158 159 154 159 160 155
159 159 157 163 165 164 164 166 165 165 167 166 167 169 168
168 170 169 168 170 169 168 170 169 168 170 169 171 173 172
171 173 172 171 173 172 171 173 172 171 173 172 171 173 172
171 173 172 171 173 172 170 172 171 169 171 170 169 171 170
169 171 170 169 171 170 169 171 170 168 170 169 168 170 169
165 167 166 165 167 166 164 166 165 162 164 163 161 163 162
160 162 161 159 161 160 158 160 159 158 158 156 160 160 158
162 162 160 164 164 162 165 167 164 165 167 164 165 167 166
164 166 165 168 170 169 169 171 170 167 171 172 168 172 173
168 172 173 167 171 172 166 170 171 166 170 169 171 173 168
171 174 167 170 172 167 168 173 167 168 173 169 168 173 169
167 173 171 167 173 171 164 170 168 165 171 169 166 170 169
166 170 169 167 169 168 167 169 168 166 168 165 165 167 164
167 167 167 167 167 169 167 166 171 168 167 172 169 168 174
170 169 175 170 169 177 171 170 178 170 169 175 164 163 169
154 153 158 144 144 146 137 137 139 134 134 134 133 133 131
133 133 131 133 134 136 133 134 136 133 134 136 133 134 136
133 134 136 133 134 136 133 134 136 133 134 136 133 134 136
133 134 136 133 134 136 133 134 136 133 134 136 133 134 136
133 134 136 133 134 136 133 134 136 132 133 135 132 133 135
133 134 136 135 136 138 135 136 138 133 134 136 131 132 134
131 132 134 131 132 134 132 133 135 132 133 135 132 133 135
132 133 135 132 133 135 132 133 135 128 132 133 132 136 137
131 135 136 127 131 132 129 133 134 135 139 140 138 142 143
136 140 141 132 136 137 128 132 133 122 126 127 119 123 124
122 126 127 127 131 132 130 134 135 129 133 134 135 137 136
137 139 138 138 140 139 136 138 137 132 134 133 130 132 131
131 133 132 133 135 134 137 139 138 140 142 141 143 145 144
147 149 148 149 151 150 149 151 150 149 151 150 149 151 150
148 150 149 148 150 149 148 150 149 148 150 149 148 150 149
148 150 149 148 150 149 148 150 149 148 150 149 148 150 149
148 150 149 148 150 149 148 150 149 148 150 149 148 150 149
148 150 149 148 150 149 148 150 149 148 150 149 148 150 149
148 150 149 148 150 149 148 150 149 148 150 149 148 150 149
148 150 149 148 150 149 148 150 149 148 150 149 148 150 149
148 150 149 148 150 149 148 150 149 148 150 149 148 150 149
148 150 149 148 150 149 148 150 149 148 150 149 148 150 149
148 150 149 148 150 149 148 150 149 148 150 149 148 150 149
148 150 149 148 150 149 148 150 149 148 150 149 146 148 147
145 147 146 148 150 149 151 153 152 150 152 151 144 146 145
138 140 139 129 131 130 134 136 135 142 144 143 157 159 158
183 185 184 216 218 217 242 244 243 253 255 254 251 251 251
254 254 254 255 255 255 253 253 253 252 252 252 253 253 253
254 254 254 254 254 254 253 253 253 254 254 254 255 255 255
255 255 255 253 253 253 253 253 253 254 254 254 255 255 255
254 254 254 254 254 254 254 254 254 254 254 254 254 254 254
254 254 254 254 254 254 254 254 254 254 254 254 254 254 254
254 254 254 254 254 254 254 254 254 254 254 254 254 254 254
254 254 254 254 254 254 254 254 254 254 254 254 254 254 254
254 254 254 254 254 254 254 254 254 254 254 254 254 254 254
254 254 254 254 254 254 254 254 254 254 254 254 254 254 254
254 254 254 254 254 254 254 254 254 254 254 254 254 254 254
254 254 254 254 254 254 254 254 254 254 254 254 254 254 254
254 254 254 254 254 254 253 253 253 253 253 253 252 252 252
251 251 251 251 251 251 251 251 251 251 253 252 251 253 252
249 251 250 248 250 249 254 255 255 254 255 255 243 245 244
223 225 224 173 175 174 150 152 151 126 128 127 120 122 121
131 133 132 142 144 143 141 143 142 135 137 136 130 132 131
130 132 131 134 136 135 137 139 138 129 131 130 115 117 116
111 113 112 115 117 116 123 125 124 131 133 132 140 142 141
139 141 140 133 135 134 128 130 129 130 132 131 135 137 136
137 141 142 134 138 139 131 135 136 128 132 133 127 131 132
127 131 132 129 133 134 131 135 136 131 135 136 131 135 136
131 135 136 131 135 136 131 135 136 131 135 136 131 135 136
131 135 136 130 136 136 130 136 136 131 135 136 131 135 136
131 135 136 131 135 136 133 134 136 133 134 136 133 134 136
133 134 136 134 134 136 134 134 136 134 134 136 134 134 136
134 134 136 133 134 136 134 135 139 131 135 138 130 131 135
129 130 134 139 138 143 157 157 159 173 171 174 180 178 181
168 166 169 167 165 168 169 167 170 172 170 173 175 174 179
174 173 178 170 169 174 165 166 168 165 171 167 163 173 165
165 171 169 165 171 169 166 170 173 166 170 173 168 169 174
168 169 174 169 168 173 170 170 172 172 170 171 173 172 170
175 171 168 175 172 165 175 172 165 175 172 165 167 166 162
166 166 164 165 165 163 164 164 162 163 163 161 162 162 160
162 162 160 161 161 159 157 157 155 158 158 156 160 160 158
163 163 161 165 165 163 168 168 166 170 170 168 171 171 169
170 172 171 170 172 171 171 173 172 171 173 172 170 172 171
169 171 170 169 171 170 168 170 169 171 173 172 171 173 172
171 173 172 171 173 172 171 173 172 171 173 172 171 173 172
171 173 172 168 170 169 168 170 169 169 171 170 170 172 171
171 173 172 173 175 174 173 175 174 174 176 175 178 180 179
177 179 178 175 177 176 172 174 173 169 171 170 166 168 167
164 166 165 163 165 164 159 159 157 158 158 156 157 159 156
157 159 156 159 161 160 162 164 163 165 167 166 168 170 169
170 172 171 170 172 171 168 172 171 168 172 171 167 171 172
166 170 171 164 168 169 166 168 167 169 169 169 169 169 167
169 169 167 169 169 167 170 170 170 169 171 170 169 170 172
169 170 172 168 169 171 168 169 171 167 169 168 166 168 167
167 167 167 167 167 167 167 167 165 167 167 165 169 169 169
172 172 172 174 174 176 173 172 177 169 168 174 166 165 171
166 165 171 167 166 172 165 164 170 156 155 161 143 142 147
135 135 137 133 133 135 134 134 134 135 135 133 136 136 134
133 134 136 133 134 136 133 134 136 133 134 136 133 134 136
133 134 136 133 134 136 133 134 136 133 134 136 133 134 136
133 134 136 133 134 136 133 134 136 133 134 136 133 134 136
133 134 136 133 134 136 132 133 135 132 133 135 133 134 136
135 136 138 135 136 138 133 134 136 131 132 134 129 130 132
130 131 133 131 132 134 132 133 135 133 134 136 133 134 136
133 134 136 132 133 135 128 132 133 130 134 135 130 134 135
127 131 132 129 133 134 135 139 140 139 143 144 138 142 143
132 136 137 130 134 135 125 129 130 119 123 124 115 119 120
117 121 122 125 129 130 131 135 136 138 140 139 136 138 137
133 135 134 130 132 131 130 132 131 132 134 133 135 137 136
137 139 138 145 147 146 149 151 150 152 154 153 152 154 153
149 151 150 147 149 148 148 150 149 149 151 150 148 150 149
148 150 149 148 150 149 148 150 149 148 150 149 148 150 149
148 150 149 148 150 149 148 150 149 148 150 149 148 150 149
148 150 149 148 150 149 148 150 149 148 150 149 148 150 149
148 150 149 148 150 149 148 150 149 148 150 149 148 150 149
148 150 149 148 150 149 148 150 149 148 150 149 148 150 149
148 150 149 148 150 149 148 150 149 148 150 149 148 150 149
148 150 149 148 150 149 148 150 149 148 150 149 148 150 149
148 150 149 148 150 149 148 150 149 148 150 149 148 150 149
148 150 149 148 150 149 148 150 149 148 150 149 148 150 149
148 150 149 148 150 149 148 150 149 146 148 147 146 148 147
148 150 149 150 152 151 149 151 150 144 146 145 140 142 141
135 137 136 134 136 135 135 137 136 137 139 138 146 148 147
173 175 174 216 218 217 251 253 252 252 252 252 254 254 254
253 253 253 250 250 250 251 251 251 255 255 255 255 255 255
254 254 254 254 254 254 255 255 255 255 255 255 255 255 255
254 254 254 253 253 253 254 254 254 255 255 255 254 254 254
254 254 254 254 254 254 254 254 254 254 254 254 254 254 254
254 254 254 254 254 254 254 254 254 254 254 254 254 254 254
254 254 254 254 254 254 254 254 254 254 254 254 254 254 254
254 254 254 254 254 254 254 254 254 254 254 254 254 254 254
254 254 254 254 254 254 254 254 254 254 254 254 254 254 254
254 254 254 254 254 254 254 254 254 254 254 254 254 254 254
254 254 254 254 254 254 254 254 254 254 254 254 254 254 254
254 254 254 254 254 254 254 254 254 254 254 254 254 254 254
254 254 254 254 254 254 253 253 253 253 253 253 252 252 252
252 252 252 251 251 251 254 255 255 254 255 255 251 253 252
248 250 249 252 254 253 254 255 255 249 251 250 239 241 240
209 211 210 183 185 184 150 152 151 130 132 131 128 130 129
133 135 134 134 136 135 131 133 132 130 132 131 130 132 131
134 136 135 133 135 134 118 120 119 101 103 102 105 107 106
120 122 121 128 130 129 133 135 134 137 139 138 136 138 137
132 134 133 129 131 130 131 133 132 135 137 136 131 135 136
130 134 135 129 133 134 128 132 133 128 132 133 130 134 135
131 135 136 132 136 137 132 136 137 131 135 136 130 134 135
130 134 135 132 136 137 132 136 137 131 135 136 130 134 135
130 136 136 130 136 136 131 135 136 131 135 136 131 135 136
131 135 136 133 134 136 133 134 136 133 134 136 133 134 136
134 134 136 134 134 136 134 134 136 134 134 136 134 134 136
134 134 136 132 133 135 131 135 136 131 132 134 128 129 131
133 133 135 148 148 150 170 168 171 185 183 186 168 166 169
166 164 167 167 165 168 171 169 172 174 173 178 175 174 179
171 170 175 166 166 168 168 170 165 167 172 165 170 172 167
169 171 166 169 169 169 169 169 169 170 170 172 172 170 173
169 167 168 172 168 169 173 169 168 174 170 167 175 170 164
176 172 163 176 172 163 175 172 165 168 167 163 166 166 164
165 165 163 164 164 162 163 163 161 162 162 160 161 161 159
161 161 159 170 170 168 170 170 168 171 171 169 172 172 170
173 173 171 174 174 172 175 175 173 176 176 174 171 173 172
171 173 172 172 174 173 172 174 173 171 173 172 170 172 171
169 171 170 168 170 169 168 170 169 168 170 169 168 170 169
168 170 169 168 170 169 168 170 169 168 170 169 168 170 169
169 171 170 169 171 170 169 171 170 168 170 169 168 170 169
168 170 169 168 170 169 168 170 169 172 174 173 171 173 172
171 173 172 170 172 171 169 171 170 168 170 169 167 169 168
167 169 168 166 166 164 164 164 162 161 163 160 159 161 158
159 161 160 160 162 161 163 165 164 164 166 165 165 167 166
166 168 167 165 169 168 167 171 170 167 171 172 168 172 173
168 172 173 169 170 172 171 169 172 171 169 172 171 169 172
172 170 173 172 170 173 172 170 173 172 170 173 172 170 173
173 171 174 171 169 172 170 168 169 168 166 167 168 166 167
169 167 168 170 169 167 171 170 168 175 175 175 176 176 176
176 176 178 175 175 177 172 171 176 167 166 172 161 160 166
157 156 162 155 154 160 146 145 151 135 134 139 130 130 132
132 132 134 136 136 136 136 136 134 135 135 133 132 133 135
132 133 135 132 133 135 132 133 135 132 133 135 132 133 135
132 133 135 132 133 135 133 134 136 133 134 136 133 134 136
133 134 136 133 134 136 133 134 136 133 134 136 133 134 136
133 134 136 132 133 135 132 133 135 133 134 136 135 136 138
135 136 138 133 134 136 131 132 134 127 128 130 129 130 132
130 131 133 132 133 135 133 134 136 133 134 136 133 134 136
132 133 135 131 135 136 131 135 136 129 133 134 128 132 133
129 133 134 133 137 138 137 141 142 138 142 143 134 138 139
132 136 137 128 132 133 121 125 126 113 117 118 111 115 116
121 125 126 132 136 137 141 143 142 136 138 137 130 132 131
128 130 129 131 133 132 136 138 137 141 143 142 143 145 144
149 151 150 154 156 155 157 159 158 155 157 156 149 151 150
145 147 146 147 149 148 150 152 151 148 150 149 148 150 149
148 150 149 148 150 149 148 150 149 148 150 149 148 150 149
148 150 149 148 150 149 148 150 149 148 150 149 148 150 149
148 150 149 148 150 149 148 150 149 148 150 149 148 150 149
148 150 149 148 150 149 148 150 149 148 150 149 148 150 149
148 150 149 148 150 149 148 150 149 148 150 149 148 150 149
148 150 149 148 150 149 148 150 149 148 150 149 148 150 149
148 150 149 148 150 149 148 150 149 148 150 149 148 150 149
148 150 149 148 150 149 148 150 149 148 150 149 148 150 149
148 150 149 148 150 149 148 150 149 148 150 149 148 150 149
148 150 149 148 150 149 147 149 148 146 148 147 148 150 149
150 152 151 149 151 150 145 147 146 142 144 143 147 149 148
138 140 139 131 133 132 128 130 129 127 129 128 143 145 144
182 184 183 221 223 222 243 243 243 249 249 249 250 250 250
248 248 248 250 250 250 255 255 255 255 255 255 253 253 253
253 253 253 255 255 255 255 255 255 255 255 255 253 253 253
252 252 252 253 253 253 254 254 254 254 254 254 254 254 254
254 254 254 254 254 254 254 254 254 254 254 254 254 254 254
254 254 254 254 254 254 254 254 254 254 254 254 254 254 254
254 254 254 254 254 254 254 254 254 254 254 254 254 254 254
254 254 254 254 254 254 254 254 254 254 254 254 254 254 254
254 254 254 254 254 254 254 254 254 254 254 254 254 254 254
254 254 254 254 254 254 254 254 254 254 254 254 254 254 254
254 254 254 254 254 254 254 254 254 254 254 254 254 254 254
254 254 254 254 254 254 254 254 254 254 254 254 254 254 254
254 254 254 253 253 253 253 253 253 253 253 253 253 253 253
252 252 252 252 254 253 253 255 254 252 254 253 250 252 251
251 253 252 253 255 254 250 252 251 246 248 247 248 250 249
225 227 226 188 190 189 151 153 152 128 130 129 124 126 125
131 133 132 140 142 141 133 135 134 132 134 133 132 134 133
126 128 127 111 113 112 101 103 102 112 114 113 130 132 131
133 135 134 132 134 133 132 134 133 132 134 133 134 136 135
135 137 136 134 136 135 133 135 134 127 131 132 128 132 133
130 134 135 131 135 136 132 136 137 131 135 136 130 134 135
129 133 134 133 137 138 131 135 136 129 133 134 130 134 135
132 136 137 133 137 138 131 135 136 129 133 134 130 136 136
130 136 136 131 135 136 131 135 136 131 135 136 131 135 136
133 134 136 133 134 136 133 134 136 133 134 136 134 134 136
134 134 136 134 134 136 134 134 136 134 134 136 134 134 136
130 132 131 132 134 133 133 135 134 131 133 132 132 134 133
141 143 142 162 162 164 179 179 181 168 168 170 166 166 168
166 164 167 169 167 170 172 170 175 174 172 177 172 170 175
170 168 169 171 172 166 173 175 164 174 175 167 173 174 166
172 171 167 172 171 167 173 172 170 177 173 172 171 167 166
172 167 164 172 167 164 173 168 164 175 168 162 176 169 161
177 170 162 175 171 162 169 168 164 168 168 166 167 167 165
166 166 164 165 165 163 164 164 162 164 164 162 163 163 161
174 174 172 174 174 172 173 173 171 173 173 171 172 172 170
172 172 170 171 171 169 171 171 169 171 173 172 172 174 173
173 175 174 173 175 174 173 175 174 173 175 174 172 174 173
172 174 173 170 172 171 170 172 171 170 172 171 170 172 171
170 172 171 170 172 171 170 172 171 170 172 171 172 174 173
172 174 173 171 173 172 170 172 171 170 172 171 169 171 170
168 170 169 168 170 169 164 166 165 165 167 166 166 168 167
167 169 168 168 170 169 169 171 170 170 172 171 171 173 172
170 172 171 169 171 170 168 170 169 166 168 167 165 167 166
164 166 165 163 165 164 163 165 164 163 165 164 164 166 165
166 168 167 168 170 169 169 171 170 170 172 171 171 173 172
171 172 174 173 170 177 176 170 180 176 171 178 177 172 179
177 172 179 178 173 179 178 173 179 178 173 179 177 172 176
176 171 175 174 170 171 173 169 170 172 168 167 173 169 168
174 170 169 173 172 170 176 176 174 172 172 170 171 171 171
174 174 176 176 175 180 172 171 176 160 159 165 149 148 154
144 143 149 137 136 142 131 130 135 130 130 132 134 134 136
137 137 137 136 136 134 133 133 131 132 133 135 132 133 135
132 133 135 132 133 135 132 133 135 132 133 135 132 133 135
132 133 135 133 134 136 133 134 136 133 134 136 133 134 136
133 134 136 133 134 136 133 134 136 133 134 136 133 134 136
132 133 135 132 133 135 133 134 136 135 136 138 135 136 138
133 134 136 131 132 134 125 126 128 127 128 130 130 131 133
132 133 135 133 134 136 134 135 137 133 134 136 133 134 136
135 139 140 133 137 138 130 134 135 129 133 134 129 133 134
130 134 135 133 137 138 137 141 142 136 140 141 134 138 139
131 135 136 127 131 132 117 121 122 111 115 116 118 122 123
130 134 135 139 141 140 135 137 136 131 133 132 131 133 132
135 137 136 141 143 142 146 148 147 149 151 150 149 151 150
153 155 154 156 158 157 153 155 154 148 150 149 144 146 145
146 148 147 150 152 151 148 150 149 148 150 149 148 150 149
148 150 149 148 150 149 148 150 149 148 150 149 148 150 149
148 150 149 148 150 149 148 150 149 148 150 149 148 150 149
148 150 149 148 150 149 148 150 149 148 150 149 148 150 149
148 150 149 148 150 149 148 150 149 148 150 149 148 150 149
148 150 149 148 150 149 148 150 149 148 150 149 148 150 149
148 150 149 148 150 149 148 150 149 148 150 149 148 150 149
148 150 149 148 150 149 148 150 149 148 150 149 148 150 149
148 150 149 148 150 149 148 150 149 148 150 149 148 150 149
148 150 149 148 150 149 148 150 149 148 150 149 148 150 149
147 149 148 147 149 148 147 149 148 148 150 149 149 151 150
148 150 149 146 148 147 144 146 145 151 153 152 138 140 139
128 130 129 126 128 127 126 128 127 132 134 133 153 155 154
175 177 176 227 227 227 242 242 242 253 253 253 252 252 252
252 252 252 255 255 255 255 255 255 249 249 249 252 252 252
254 254 254 254 254 254 253 253 253 251 251 251 250 250 250
251 251 251 252 252 252 254 254 254 254 254 254 254 254 254
254 254 254 254 254 254 254 254 254 254 254 254 254 254 254
254 254 254 254 254 254 254 254 254 254 254 254 254 254 254
254 254 254 254 254 254 254 254 254 254 254 254 254 254 254
254 254 254 254 254 254 254 254 254 254 254 254 254 254 254
254 254 254 254 254 254 254 254 254 254 254 254 254 254 254
254 254 254 254 254 254 254 254 254 254 254 254 254 254 254
254 254 254 254 254 254 254 254 254 254 254 254 254 254 254
254 254 254 254 254 254 254 254 254 254 254 254 254 254 254
254 254 254 254 254 254 253 253 253 253 253 253 253 253 253
250 252 251 251 253 252 252 254 253 254 255 255 254 255 255
254 255 255 254 255 255 253 255 254 254 255 255 247 249 248
215 217 216 174 176 175 140 142 141 126 128 127 134 136 135
146 148 147 133 135 134 133 135 134 128 130 129 119 121 120
111 113 112 114 116 115 126 128 127 138 140 139 135 137 136
131 133 132 129 131 130 131 133 132 136 138 137 138 140 139
136 138 137 133 135 134 130 134 135 132 136 137 134 138 139
135 139 140 133 137 138 130 134 135 127 131 132 124 128 129
133 137 138 130 134 135 128 132 133 129 133 134 133 137 138
134 138 139 132 136 137 129 133 134 130 136 136 130 136 136
131 135 136 131 135 136 131 135 136 131 135 136 133 134 136
133 134 136 133 134 136 133 134 136 134 134 136 134 134 136
134 134 136 134 134 136 134 134 136 134 134 134 130 132 129
130 132 129 133 135 132 135 137 136 134 136 135 137 139 138
150 151 153 164 164 166 166 166 168 167 167 169 169 167 170
169 167 170 170 168 171 172 167 171 173 168 172 173 169 168
169 166 159 170 170 158 172 172 162 171 171 161 170 167 160
169 166 161 171 167 164 174 170 167 173 169 166 172 168 165
173 168 164 172 167 163 172 167 161 172 167 161 173 169 160
173 170 163 170 169 165 169 169 167 169 169 167 169 169 167
168 168 166 168 168 166 168 168 166 168 168 166 171 171 169
171 171 169 171 171 169 171 171 169 172 172 170 172 172 170
172 172 170 172 172 170 167 169 168 167 169 168 169 171 170
170 172 171 170 172 171 171 173 172 170 172 171 170 172 171
170 172 171 170 172 171 170 172 171 170 172 171 170 172 171
170 172 171 170 172 171 170 172 171 169 171 170 169 171 170
169 171 170 169 171 170 169 171 170 169 171 170 169 171 170
169 171 170 167 169 168 168 170 169 169 171 170 170 172 171
171 173 172 172 174 173 172 174 173 173 175 174 169 171 170
169 171 170 170 172 171 170 172 171 169 171 170 168 170 169
167 169 168 167 169 168 166 168 167 167 169 168 167 169 168
168 170 169 168 170 169 168 170 169 167 169 168 168 168 170
168 165 174 171 165 177 171 165 177 173 165 176 174 167 175
174 167 175 175 168 175 175 169 173 178 172 176 178 172 174
177 171 173 176 170 170 176 170 170 175 171 168 175 171 170
173 172 168 169 169 167 165 165 163 165 165 163 171 171 171
178 178 180 175 174 179 160 159 165 146 145 151 135 134 140
133 132 138 131 130 135 133 133 135 136 136 138 137 137 137
135 135 133 132 132 130 133 134 136 133 134 136 133 134 136
133 134 136 133 134 136 133 134 136 133 134 136 133 134 136
133 134 136 133 134 136 133 134 136 133 134 136 133 134 136
133 134 136 133 134 136 133 134 136 133 134 136 132 133 135
132 133 135 133 134 136 135 136 138 135 136 138 133 134 136
131 132 134 123 124 126 125 126 128 129 130 132 132 133 135
134 135 137 134 135 137 133 134 136 133 134 136 138 142 143
133 137 138 129 133 134 129 133 134 129 133 134 128 132 133
132 136 137 137 141 142 137 141 142 132 136 137 131 135 136
133 137 138 126 130 131 116 120 121 116 120 121 123 127 128
133 135 134 133 135 134 134 136 135 136 138 137 140 142 141
144 146 145 148 150 149 151 153 152 149 151 150 151 153 152
153 155 154 151 153 152 147 149 148 145 147 146 146 148 147
149 151 150 148 150 149 148 150 149 148 150 149 148 150 149
148 150 149 148 150 149 148 150 149 148 150 149 148 150 149
148 150 149 148 150 149 148 150 149 148 150 149 148 150 149
148 150 149 148 150 149 148 150 149 148 150 149 148 150 149
148 150 149 148 150 149 148 150 149 148 150 149 148 150 149
148 150 149 148 150 149 148 150 149 148 150 149 148 150 149
148 150 149 148 150 149 148 150 149 148 150 149 148 150 149
148 150 149 148 150 149 148 150 149 148 150 149 148 150 149
148 150 149 148 150 149 148 150 149 148 150 149 148 150 149
148 150 149 148 150 149 148 150 149 148 150 149 147 149 148
147 149 148 148 150 149 148 150 149 148 150 149 148 150 149
147 149 148 147 149 148 147 149 148 138 140 139 129 131 130
129 131 130 131 133 132 132 134 133 136 138 137 141 143 142
197 197 197 229 229 229 255 255 255 255 255 255 253 253 253
253 253 253 252 252 252 246 246 246 252 252 252 253 253 253
254 254 254 252 252 252 250 250 250 249 249 249 249 249 249
250 250 250 254 254 254 254 254 254 254 254 254 254 254 254
254 254 254 254 254 254 254 254 254 254 254 254 254 254 254
254 254 254 254 254 254 254 254 254 254 254 254 254 254 254
254 254 254 254 254 254 254 254 254 254 254 254 254 254 254
254 254 254 254 254 254 254 254 254 254 254 254 254 254 254
254 254 254 254 254 254 254 254 254 254 254 254 254 254 254
254 254 254 254 254 254 254 254 254 254 254 254 254 254 254
254 254 254 254 254 254 254 254 254 254 254 254 254 254 254
254 254 254 254 254 254 254 254 254 254 254 254 254 254 254
254 254 254 254 254 254 254 254 254 254 254 254 252 254 253
251 253 252 252 254 253 254 255 255 254 255 255 254 255 255
254 255 255 254 255 255 254 255 255 251 253 252 236 238 237
210 212 211 179 181 180 153 155 154 141 143 142 137 139 138
125 127 126 128 130 129 122 124 123 111 113 112 114 116 115
129 131 130 138 140 139 138 140 139 134 136 135 133 135 134
132 134 133 133 135 134 135 137 136 136 138 137 135 137 136
133 135 134 133 137 138 133 137 138 134 138 139 134 138 139
133 137 138 131 135 136 128 132 133 127 131 132 134 138 139
130 134 135 128 132 133 129 133 134 133 137 138 134 138 139
132 136 137 128 132 133 130 136 136 130 136 136 131 135 136
131 135 136 131 135 136 131 135 136 133 134 136 133 134 136
133 134 136 133 134 136 134 134 136 134 134 136 134 134 136
134 134 136 134 134 136 134 134 134 131 133 128 129 131 126
128 133 127 132 137 133 133 138 134 131 135 134 137 141 142
147 148 150 162 163 165 167 167 169 173 171 174 173 171 174
172 167 171 170 164 166 171 165 167 173 168 165 168 165 156
171 169 157 174 171 162 172 169 160 168 165 158 167 164 157
168 167 162 171 170 165 174 173 169 173 172 168 173 169 166
172 168 165 171 168 163 171 168 163 172 169 164 170 169 165
169 169 167 168 170 169 168 170 169 169 171 170 169 171 170
169 171 170 170 172 171 170 172 171 167 169 168 167 169 168
168 170 169 169 171 170 170 172 171 171 173 172 172 174 173
172 174 173 165 167 166 166 168 167 166 168 167 167 169 168
168 170 169 168 170 169 167 169 168 167 169 168 168 170 169
168 170 169 168 170 169 168 170 169 168 170 169 168 170 169
168 170 169 168 170 169 166 168 167 167 169 168 167 169 168
167 169 168 168 170 169 168 170 169 168 170 169 168 170 169
170 172 171 170 172 171 170 172 171 171 173 172 171 173 172
171 173 172 172 174 173 172 174 173 166 170 171 166 170 171
166 170 171 166 170 171 167 171 172 167 171 172 169 171 170
169 171 170 168 170 169 168 170 169 168 170 167 168 170 167
169 169 167 168 168 166 166 166 164 166 166 168 163 161 172
165 161 175 165 162 173 168 162 172 169 164 171 170 165 171
171 165 169 172 166 168 176 170 170 177 172 169 176 172 169
176 172 169 175 171 168 173 172 167 172 171 167 170 171 165
165 166 161 164 165 160 166 166 164 172 172 172 175 175 177
169 169 171 154 153 158 141 140 145 132 131 136 132 131 136
133 132 137 134 134 136 135 135 137 135 135 135 135 135 133
134 134 132 133 134 136 133 134 136 133 134 136 133 134 136
133 134 136 133 134 136 133 134 136 133 134 136 133 134 136
133 134 136 133 134 136 133 134 136 133 134 136 133 134 136
133 134 136 133 134 136 133 134 136 132 133 135 132 133 135
133 134 136 135 136 138 135 136 138 133 134 136 131 132 134
122 123 125 124 125 127 128 129 131 132 133 135 134 135 137
135 136 138 134 135 137 133 134 136 138 142 143 131 135 136
128 132 133 129 133 134 130 134 135 128 132 133 132 136 137
139 143 144 136 140 141 128 132 133 129 133 134 137 141 142
136 140 141 122 126 127 113 117 118 113 117 118 124 126 125
130 132 131 137 139 138 142 144 143 143 145 144 145 147 146
148 150 149 151 153 152 152 154 153 152 154 153 150 152 151
149 151 150 147 149 148 146 148 147 146 148 147 146 148 147
148 150 149 148 150 149 148 150 149 148 150 149 148 150 149
148 150 149 148 150 149 148 150 149 148 150 149 148 150 149
148 150 149 148 150 149 148 150 149 148 150 149 148 150 149
148 150 149 148 150 149 148 150 149 148 150 149 148 150 149
148 150 149 148 150 149 148 150 149 148 150 149 148 150 149
148 150 149 148 150 149 148 150 149 148 150 149 148 150 149
148 150 149 148 150 149 148 150 149 148 150 149 148 150 149
148 150 149 148 150 149 148 150 149 148 150 149 148 150 149
148 150 149 148 150 149 148 150 149 148 150 149 148 150 149
148 150 149 148 150 149 148 150 149 147 149 148 148 150 149
149 151 150 148 150 149 148 150 149 147 149 148 148 150 149
148 150 149 146 148 147 146 148 147 141 143 142 134 136 135
131 133 132 132 134 133 131 133 132 128 130 129 152 152 152
201 201 201 246 246 246 255 255 255 250 250 250 249 249 249
250 250 250 247 247 247 253 253 253 254 254 254 255 255 255
253 253 253 251 251 251 249 249 249 250 250 250 251 251 251
254 254 254 254 254 254 254 254 254 254 254 254 254 254 254
254 254 254 254 254 254 254 254 254 254 254 254 254 254 254
254 254 254 254 254 254 254 254 254 254 254 254 254 254 254
254 254 254 254 254 254 254 254 254 254 254 254 254 254 254
254 254 254 254 254 254 254 254 254 254 254 254 254 254 254
254 254 254 254 254 254 254 254 254 254 254 254 254 254 254
254 254 254 254 254 254 254 254 254 254 254 254 254 254 254
254 254 254 254 254 254 254 254 254 254 254 254 254 254 254
254 254 254 254 254 254 254 254 254 254 254 254 254 254 254
254 254 254 254 254 254 254 254 254 254 255 255 253 255 254
252 254 253 254 255 255 254 255 255 252 254 253 250 252 251
251 253 252 248 250 249 253 255 254 254 255 255 249 251 250
224 226 225 187 189 188 150 152 151 126 128 127 116 118 117
121 123 122 115 117 116 105 107 106 115 117 116 137 139 138
143 145 144 133 135 134 132 134 133 135 137 136 137 139 138
136 138 137 134 136 135 132 134 133 132 134 133 134 136 135
132 136 137 132 136 137 131 135 136 131 135 136 132 136 137
132 136 137 133 137 138 134 138 139 134 138 139 130 134 135
127 131 132 129 133 134 133 137 138 135 139 140 132 136 137
128 132 133 130 136 136 130 136 136 131 135 136 131 135 136
131 135 136 131 135 136 133 134 136 133 134 136 133 134 136
133 134 136 134 134 136 134 134 136 134 134 136 134 134 136
134 134 136 134 134 134 133 135 130 127 130 123 125 130 124
130 135 129 132 137 133 128 132 131 129 133 134 135 139 140
158 159 161 166 167 169 176 176 178 179 175 176 174 168 168
171 162 163 170 162 160 172 164 161 175 171 162 178 176 164
181 178 169 180 177 168 175 172 165 172 172 164 175 174 169
179 178 173 177 176 172 174 175 170 172 173 168 170 170 168
169 169 167 169 169 167 169 169 167 170 170 168 167 169 168
168 170 169 168 170 169 169 171 170 170 172 171 170 172 171
171 173 172 171 173 172 163 165 164 163 165 164 164 166 165
165 167 166 166 168 167 167 169 168 168 170 169 168 170 169
171 173 172 171 173 172 172 174 173 172 174 173 172 174 173
171 173 172 170 172 171 169 171 170 170 172 171 170 172 171
170 172 171 170 172 171 170 172 171 170 172 171 170 172 171
170 172 171 171 173 172 171 173 172 171 173 172 170 172 171
170 172 171 169 171 170 169 171 170 169 171 170 167 169 168
167 169 168 168 170 169 168 170 169 169 171 170 169 171 170
170 172 171 170 172 171 169 173 174 167 171 172 165 169 170
164 168 169 163 167 168 164 168 169 167 169 168 168 170 169
166 168 167 167 169 168 168 170 167 168 170 167 169 169 167
168 168 166 167 167 165 167 167 169 168 167 175 168 166 177
169 167 178 171 168 175 172 170 175 175 170 174 176 170 170
177 172 169 174 169 165 174 171 164 175 172 165 174 174 166
174 174 166 171 172 164 169 170 162 167 170 161 165 166 160
168 169 163 172 173 168 174 174 172 171 171 171 161 161 163
146 146 148 135 134 139 132 131 136 134 133 138 135 134 139
134 133 138 133 133 135 133 133 133 135 135 135 137 137 137
134 135 137 134 135 137 134 135 137 134 135 137 134 135 137
134 135 137 134 135 137 134 135 137 133 134 136 133 134 136
133 134 136 133 134 136 133 134 136 133 134 136 133 134 136
133 134 136 133 134 136 132 133 135 132 133 135 133 134 136
135 136 138 135 136 138 133 134 136 131 132 134 121 122 124
124 125 127 128 129 131 132 133 135 134 135 137 135 136 138
134 135 137 133 134 136 137 141 142 129 133 134 126 130 131
129 133 134 130 134 135 129 133 134 134 138 139 142 146 147
134 138 139 125 129 130 126 130 131 139 143 144 141 145 146
126 130 131 111 115 116 106 110 111 117 119 118 127 129 128
138 140 139 145 147 146 145 147 146 145 147 146 147 149 148
150 152 151 155 157 156 153 155 154 150 152 151 148 150 149
148 150 149 147 149 148 146 148 147 144 146 145 148 150 149
148 150 149 148 150 149 148 150 149 148 150 149 148 150 149
148 150 149 148 150 149 148 150 149 148 150 149 148 150 149
148 150 149 148 150 149 148 150 149 148 150 149 148 150 149
148 150 149 148 150 149 148 150 149 148 150 149 148 150 149
148 150 149 148 150 149 148 150 149 148 150 149 148 150 149
148 150 149 148 150 149 148 150 149 148 150 149 148 150 149
148 150 149 148 150 149 148 150 149 148 150 149 148 150 149
148 150 149 148 150 149 148 150 149 148 150 149 148 150 149
148 150 149 148 150 149 148 150 149 148 150 149 148 150 149
148 150 149 148 150 149 147 149 148 148 150 149 149 151 150
149 151 150 148 150 149 147 149 148 148 150 149 149 151 150
151 153 152 158 160 159 156 158 157 140 142 141 129 131 130
130 132 131 131 133 132 129 131 130 113 113 113 174 174 174
233 233 233 251 251 251 246 246 246 246 246 246 250 250 250
250 250 250 254 254 254 255 255 255 255 255 255 254 254 254
252 252 252 250 250 250 251 251 251 252 252 252 254 254 254
254 254 254 254 254 254 254 254 254 254 254 254 254 254 254
254 254 254 254 254 254 254 254 254 254 254 254 254 254 254
254 254 254 254 254 254 254 254 254 254 254 254 254 254 254
254 254 254 254 254 254 254 254 254 254 254 254 254 254 254
254 254 254 254 254 254 254 254 254 254 254 254 254 254 254
254 254 254 254 254 254 254 254 254 254 254 254 254 254 254
254 254 254 254 254 254 254 254 254 254 254 254 254 254 254
254 254 254 254 254 254 254 254 254 254 254 254 254 254 254
254 254 254 254 254 254 254 254 254 254 254 254 254 254 254
254 254 254 254 254 254 253 255 254 253 255 254 253 255 254
253 255 254 253 255 254 253 255 254 253 255 254 253 255 254
253 255 254 252 254 253 247 249 248 247 249 248 250 252 251
233 235 234 183 185 184 132 134 133 120 122 121 100 102 101 98 100 99
121 123 122 139 141 140 135 137 136 131 133 132 136 138 137
135 137 136 136 138 137 136 138 137 136 138 137 134 136 135
134 136 135 135 137 136 136 138 137 130 134 135 133 137 138
136 140 141 135 139 140 133 137 138 131 135 136 132 136 137
134 138 139 134 138 139 127 131 132 120 124 125 119 123 124
127 131 132 135 139 140 134 138 139 129 133 134 130 136 136
130 136 136 131 135 136 131 135 136 131 135 136 131 135 136
133 134 136 133 134 136 133 134 136 133 134 136 134 134 136
134 134 136 134 134 136 134 134 136 134 134 136 134 134 134
133 135 130 131 134 127 129 134 128 131 136 130 132 138 134
130 136 134 125 131 131 120 126 126 147 151 152 165 166 168
176 176 176 175 171 170 173 168 165 178 170 167 179 170 165
175 166 159 173 169 160 173 171 159 175 173 161 178 176 164
178 178 168 178 178 168 178 178 170 177 178 172 172 173 168
172 174 169 170 172 169 166 168 167 166 168 167 170 172 171
168 172 173 165 169 170 170 172 171 170 172 171 170 172 171
170 172 171 170 172 171 170 172 171 170 172 171 170 172 171
166 168 167 166 168 167 167 169 168 168 170 169 169 171 170
169 171 170 170 172 171 170 172 171 171 173 172 172 174 173
173 175 174 173 175 174 174 176 175 173 175 174 173 175 174
172 174 173 171 173 172 171 173 172 171 173 172 171 173 172
171 173 172 171 173 172 171 173 172 171 173 172 173 175 174
171 173 172 171 173 172 171 173 172 172 174 173 171 173 172
169 171 170 167 169 168 166 168 167 167 169 168 169 171 170
170 172 171 170 172 171 169 171 170 168 170 169 167 169 168
170 174 175 166 171 174 163 168 171 164 169 172 169 173 174
171 175 176 169 173 172 167 171 170 166 168 167 170 172 171
173 173 171 171 171 169 170 169 165 171 170 166 171 170 166
170 170 170 169 170 175 167 170 175 170 171 176 171 171 173
171 170 168 170 169 165 171 168 161 170 167 158 175 173 161
173 171 158 172 170 157 168 169 155 163 165 152 161 165 151
164 170 156 171 177 165 175 178 169 175 176 170 171 172 166
163 164 159 153 153 151 145 145 145 138 138 140 135 135 137
134 133 138 134 133 138 134 133 138 134 133 138 134 134 136
134 134 134 134 134 134 134 134 134 133 134 136 133 134 136
133 134 136 133 134 136 133 134 136 133 134 136 133 134 136
133 134 136 133 134 136 133 134 136 133 134 136 133 134 136
133 134 136 133 134 136 133 134 136 133 134 136 132 133 135
134 135 137 134 135 137 133 134 136 134 135 137 136 137 139
133 134 136 128 129 131 119 120 122 117 118 120 122 123 125
134 135 137 137 138 140 131 132 134 130 131 133 135 136 138
133 137 138 129 133 134 128 132 133 130 134 135 131 135 136
129 133 134 131 135 136 135 139 140 126 130 131 124 128 129
125 129 130 132 136 137 137 141 142 134 138 139 120 124 125
107 111 112 113 115 114 130 132 131 145 147 146 146 148 147
145 147 146 148 150 149 152 154 153 152 154 153 148 150 149
148 150 149 148 150 149 148 150 149 148 150 149 148 150 149
148 150 149 148 150 149 148 150 149 148 150 149 148 150 149
148 150 149 148 150 149 148 150 149 148 150 149 148 150 149
148 150 149 148 150 149 148 150 149 148 150 149 148 150 149
148 150 149 148 150 149 148 150 149 148 150 149 148 150 149
148 150 149 148 150 149 148 150 149 148 150 149 148 150 149
148 150 149 148 150 149 148 150 149 148 150 149 148 150 149
148 150 149 148 150 149 148 150 149 148 150 149 148 150 149
148 150 149 148 150 149 148 150 149 148 150 149 148 150 149
148 150 149 148 150 149 148 150 149 148 150 149 148 150 149
148 150 149 148 150 149 148 150 149 148 150 149 148 150 149
150 152 151 147 149 148 145 147 146 147 149 148 152 154 153
154 156 155 151 153 152 146 148 147 151 153 152 153 155 154
150 152 151 141 143 142 130 132 131 125 127 126 128 130 129
134 136 135 124 124 124 143 143 143 181 181 181 222 222 222
245 245 245 247 247 247 244 244 244 245 245 245 255 255 255
255 255 255 254 254 254 248 248 248 247 247 247 251 251 251
252 252 252 251 251 251 252 252 252 253 253 253 254 254 254
255 255 255 255 255 255 255 255 255 255 255 255 254 254 254
254 254 254 254 254 254 254 254 254 254 254 254 254 254 254
254 254 254 254 254 254 254 254 254 254 254 254 254 254 254
254 254 254 254 254 254 254 254 254 254 254 254 254 254 254
254 254 254 254 254 254 254 254 254 254 254 254 254 254 254
254 254 254 254 254 254 254 254 254 254 254 254 254 254 254
254 254 254 254 254 254 254 254 254 254 254 254 254 254 254
254 254 254 254 254 254 254 254 254 254 254 254 254 254 254
254 254 254 254 254 254 254 254 254 254 254 254 254 254 254
253 255 254 253 255 254 253 255 254 253 255 254 253 255 254
253 255 254 253 255 254 253 255 254 250 252 251 252 254 253
250 252 251 248 250 249 251 253 252 244 246 245 215 217 216
184 186 185 149 151 150 121 123 122 105 107 106 120 122 121
137 139 138 137 139 138 134 136 135 136 138 137 133 135 134
133 135 134 134 136 135 135 137 136 134 136 135 135 137 136
135 137 136 136 138 137 131 135 136 133 137 138 134 138 139
133 137 138 131 135 136 130 134 135 132 136 137 134 138 139
136 140 141 127 131 132 117 121 122 116 120 121 124 128 129
134 138 139 135 139 140 132 136 137 130 136 136 130 136 136
131 135 136 131 135 136 131 135 136 131 135 136 133 134 136
133 134 136 133 134 136 133 134 136 134 134 136 134 134 136
134 134 136 134 134 136 134 134 136 134 134 134 134 136 131
132 134 129 128 133 127 129 134 130 130 136 134 130 136 134
128 134 134 125 131 131 137 143 143 149 151 150 160 160 158
168 165 160 174 169 163 181 172 163 184 174 165 182 172 162
172 166 154 168 164 152 165 161 149 165 161 149 167 163 152
169 167 155 170 170 160 171 171 161 164 165 157 170 173 166
173 175 170 170 172 169 165 169 168 167 171 172 169 173 176
169 173 176 168 172 173 170 172 171 170 172 171 170 172 171
170 172 171 170 172 171 170 172 171 170 172 171 171 173 172
171 173 172 171 173 172 171 173 172 170 172 171 170 172 171
170 172 171 170 172 171 172 174 173 172 174 173 171 173 172
171 173 172 170 172 171 169 171 170 169 171 170 169 171 170
172 174 173 172 174 173 172 174 173 172 174 173 172 174 173
172 174 173 172 174 173 172 174 173 172 174 173 170 172 171
169 171 170 169 171 170 169 171 170 168 170 169 166 168 167
163 165 164 164 166 165 165 167 166 166 168 167 168 170 169
170 172 171 170 172 171 171 173 172 169 173 174 167 172 175
165 170 173 164 169 172 165 170 173 168 172 175 169 173 174
169 173 174 169 173 172 168 170 169 170 172 169 172 172 170
171 172 167 172 171 167 172 171 167 173 172 168 171 172 167
165 169 168 166 170 169 168 170 167 170 171 166 170 170 162
172 170 158 172 169 154 171 168 151 167 164 145 168 165 146
169 168 148 168 170 149 165 168 149 164 168 151 165 172 154
169 176 160 180 183 172 176 177 169 165 166 158 150 151 145
136 137 132 131 131 129 134 134 134 138 138 140 134 133 138
134 133 138 134 133 138 134 133 138 134 134 136 134 134 136
134 134 134 134 134 134 133 134 136 133 134 136 133 134 136
133 134 136 133 134 136 133 134 136 133 134 136 133 134 136
133 134 136 133 134 136 133 134 136 133 134 136 133 134 136
133 134 136 133 134 136 133 134 136 132 133 135 134 135 137
134 135 137 133 134 136 134 135 137 136 137 139 133 134 136
128 129 131 121 122 124 118 119 121 123 124 126 134 135 137
136 137 139 130 131 133 129 130 132 133 134 136 131 135 136
128 132 133 128 132 133 131 135 136 131 135 136 129 133 134
130 134 135 134 138 139 134 138 139 130 134 135 128 132 133
130 134 135 134 138 139 133 137 138 126 130 131 119 123 124
126 128 127 139 141 140 149 151 150 149 151 150 147 149 148
149 151 150 151 153 152 150 152 151 148 150 149 148 150 149
148 150 149 148 150 149 148 150 149 148 150 149 148 150 149
148 150 149 148 150 149 148 150 149 148 150 149 148 150 149
148 150 149 148 150 149 148 150 149 148 150 149 148 150 149
148 150 149 148 150 149 148 150 149 148 150 149 148 150 149
148 150 149 148 150 149 148 150 149 148 150 149 148 150 149
148 150 149 148 150 149 148 150 149 148 150 149 148 150 149
148 150 149 148 150 149 148 150 149 148 150 149 148 150 149
148 150 149 148 150 149 148 150 149 148 150 149 148 150 149
148 150 149 148 150 149 148 150 149 148 150 149 148 150 149
148 150 149 148 150 149 148 150 149 148 150 149 148 150 149
148 150 149 148 150 149 148 150 149 148 150 149 150 152 151
147 149 148 145 147 146 148 150 149 152 154 153 153 155 154
150 152 151 146 148 147 148 150 149 150 152 151 149 151 150
144 146 145 135 137 136 130 132 131 129 131 130 130 132 131
130 130 130 134 134 134 152 152 152 186 186 186 222 222 222
244 244 244 251 251 251 251 251 251 254 254 254 255 255 255
253 253 253 248 248 248 248 248 248 252 252 252 254 254 254
253 253 253 252 252 252 253 253 253 254 254 254 255 255 255
255 255 255 255 255 255 255 255 255 254 254 254 254 254 254
254 254 254 254 254 254 254 254 254 254 254 254 254 254 254
254 254 254 254 254 254 254 254 254 254 254 254 254 254 254
254 254 254 254 254 254 254 254 254 254 254 254 254 254 254
254 254 254 254 254 254 254 254 254 254 254 254 254 254 254
254 254 254 254 254 254 254 254 254 254 254 254 254 254 254
254 254 254 254 254 254 254 254 254 254 254 254 254 254 254
254 254 254 254 254 254 254 254 254 254 254 254 254 254 254
254 254 254 254 254 254 254 254 254 254 254 254 253 255 254
253 255 254 253 255 254 253 255 254 253 255 254 253 255 254
253 255 254 253 255 254 248 250 249 254 255 255 254 255 255
248 250 249 247 249 248 250 252 251 246 248 247 237 239 238
193 195 194 156 158 157 123 125 124 118 120 119 127 129 128
132 134 133 135 137 136 140 142 141 134 136 135 134 136 135
134 136 135 134 136 135 134 136 135 134 136 135 134 136 135
133 135 134 132 136 137 133 137 138 133 137 138 132 136 137
131 135 136 131 135 136 132 136 137 134 138 139 137 141 142
125 129 130 113 117 118 113 117 118 123 127 128 133 137 138
136 140 141 135 139 140 130 136 136 130 136 136 131 135 136
131 135 136 131 135 136 131 135 136 133 134 136 133 134 136
133 134 136 133 134 136 134 134 136 134 134 136 134 134 136
134 134 136 134 134 136 134 134 134 136 138 135 134 136 131
130 135 131 130 134 133 131 137 135 131 140 139 131 139 141
131 140 139 128 134 134 130 135 131 141 142 137 158 155 148
172 166 154 179 171 158 187 175 161 192 180 164 198 186 170
193 184 167 188 179 162 182 175 157 178 171 155 173 167 151
166 163 148 162 158 146 163 161 149 171 171 161 177 177 169
173 174 169 168 170 167 169 170 172 172 173 177 171 175 178
168 172 173 168 172 173 168 172 173 168 172 173 168 172 173
168 172 173 168 172 173 168 172 173 172 176 177 171 175 176
170 174 175 169 173 174 167 171 172 166 170 171 165 169 170
164 168 169 164 166 165 162 164 163 160 162 161 158 160 159
157 159 158 157 159 158 157 159 158 158 160 159 159 161 160
159 161 160 159 161 160 159 161 160 159 161 160 159 161 160
159 161 160 159 161 160 156 158 157 157 159 158 158 160 159
162 164 163 166 168 167 169 171 170 169 171 170 168 170 169
169 171 170 169 171 170 168 170 169 168 170 169 168 170 169
168 170 169 168 170 169 167 171 172 165 170 173 164 172 175
165 173 176 165 173 175 166 171 174 166 172 172 169 173 174
170 174 173 171 173 172 170 172 169 170 170 168 172 171 167
173 172 168 173 172 167 174 171 166 171 170 165 167 170 163
169 172 163 172 172 160 176 174 161 179 176 159 182 177 157
183 177 153 184 177 151 182 175 149 184 179 150 186 182 155
186 184 159 185 185 161 181 183 161 175 180 157 172 177 157
173 175 161 167 169 158 155 156 148 139 140 134 126 127 122
123 123 121 129 129 129 137 137 139 134 133 138 134 133 138
134 133 138 134 133 138 134 134 136 134 134 136 134 134 134
134 134 134 133 134 136 133 134 136 133 134 136 133 134 136
133 134 136 133 134 136 133 134 136 133 134 136 133 134 136
133 134 136 133 134 136 133 134 136 133 134 136 133 134 136
133 134 136 133 134 136 132 133 135 134 135 137 134 135 137
133 134 136 134 135 137 136 137 139 133 134 136 128 129 131
121 122 124 118 119 121 123 124 126 134 135 137 136 137 139
130 131 133 128 129 131 132 133 135 130 134 135 128 132 133
128 132 133 132 136 137 133 137 138 130 134 135 129 133 134
132 136 137 139 143 144 135 139 140 131 135 136 129 133 134
130 134 135 133 137 138 134 138 139 135 139 140 143 145 144
149 151 150 153 155 154 151 153 152 150 152 151 151 153 152
150 152 151 148 150 149 148 150 149 148 150 149 148 150 149
148 150 149 148 150 149 148 150 149 148 150 149 148 150 149
148 150 149 148 150 149 148 150 149 148 150 149 148 150 149
148 150 149 148 150 149 148 150 149 148 150 149 148 150 149
148 150 149 148 150 149 148 150 149 148 150 149 148 150 149
148 150 149 148 150 149 148 150 149 148 150 149 148 150 149
148 150 149 148 150 149 148 150 149 148 150 149 148 150 149
148 150 149 148 150 149 148 150 149 148 150 149 148 150 149
148 150 149 148 150 149 148 150 149 148 150 149 148 150 149
148 150 149 148 150 149 148 150 149 148 150 149 148 150 149
148 150 149 148 150 149 148 150 149 148 150 149 148 150 149
148 150 149 148 150 149 148 150 149 149 151 150 147 149 148
146 148 147 148 150 149 151 153 152 152 154 153 149 151 150
146 148 147 145 147 146 146 148 147 147 149 148 146 148 147
142 144 143 136 138 137 131 133 132 127 129 128 139 139 139
131 131 131 131 131 131 156 156 156 201 201 201 242 242 242
255 255 255 255 255 255 251 251 251 253 253 253 252 252 252
248 248 248 249 249 249 253 253 253 255 255 255 253 253 253
252 252 252 253 253 253 254 254 254 255 255 255 255 255 255
255 255 255 255 255 255 254 254 254 254 254 254 254 254 254
254 254 254 254 254 254 254 254 254 254 254 254 254 254 254
254 254 254 254 254 254 254 254 254 254 254 254 254 254 254
254 254 254 254 254 254 254 254 254 254 254 254 254 254 254
254 254 254 254 254 254 254 254 254 254 254 254 254 254 254
254 254 254 254 254 254 254 254 254 254 254 254 254 254 254
254 254 254 254 254 254 254 254 254 254 254 254 254 254 254
254 254 254 254 254 254 254 254 254 254 254 254 254 254 254
254 254 254 254 254 254 254 254 254 253 255 254 253 255 254
253 255 254 253 255 254 253 255 254 253 255 254 253 255 254
253 255 254 251 253 252 254 255 255 254 255 255 247 249 248
243 245 244 247 249 248 252 254 253 254 255 255 236 238 237
202 204 203 162 164 163 137 139 138 127 129 128 125 127 126
133 135 134 144 146 145 136 138 137 135 137 136 133 135 134
133 135 134 133 135 134 132 134 133 131 133 132 130 132 131
132 136 137 133 137 138 134 138 139 135 139 140 134 138 139
133 137 138 133 137 138 133 137 138 133 137 138 120 124 125
110 114 115 113 117 118 125 129 130 133 137 138 135 139 140
135 139 140 130 136 136 130 136 136 131 135 136 131 135 136
131 135 136 131 135 136 133 134 136 133 134 136 133 134 136
133 134 136 134 134 136 134 134 136 134 134 136 134 134 136
134 134 136 134 134 134 136 138 135 136 138 135 134 138 137
134 140 140 133 142 141 134 144 145 134 144 145 135 145 146
124 133 130 123 128 124 131 132 124 148 146 134 160 154 138
168 160 141 185 172 153 204 189 168 224 207 187 223 206 186
222 205 185 218 203 182 212 197 176 198 186 164 182 171 151
169 161 142 174 167 149 179 173 157 179 175 163 173 170 161
169 168 163 171 170 168 173 171 172 172 172 172 169 170 172
167 171 172 167 171 172 167 171 172 167 171 172 167 171 172
167 171 172 167 171 172 168 172 173 167 171 172 166 170 171
165 169 170 163 167 168 162 166 167 161 165 166 160 164 165
157 159 158 156 158 157 153 155 154 151 153 152 150 152 151
151 153 152 153 155 154 154 156 155 153 155 154 153 155 154
153 155 154 153 155 154 153 155 154 153 155 154 153 155 154
153 155 154 150 152 151 150 152 151 152 154 153 157 159 158
162 164 163 165 167 166 166 168 167 165 167 166 165 167 166
164 166 165 164 166 165 164 166 165 165 167 166 168 170 169
170 172 171 170 174 175 166 171 174 167 175 178 169 177 180
168 176 179 167 172 175 165 170 173 168 172 173 170 174 173
175 177 176 171 171 169 170 169 165 171 170 166 172 171 166
171 170 165 171 168 163 171 168 159 171 172 158 175 174 156
180 178 157 188 182 160 194 187 161 201 190 162 205 192 160
207 194 160 212 197 164 214 201 167 214 203 171 211 205 173
208 203 174 198 197 169 183 183 155 169 171 147 154 157 140
150 152 139 144 146 135 136 137 129 131 132 126 129 130 125
129 129 127 131 131 131 134 134 136 134 133 138 134 133 138
134 133 138 134 134 136 134 134 136 134 134 134 134 134 134
133 134 136 133 134 136 133 134 136 133 134 136 133 134 136
133 134 136 133 134 136 133 134 136 133 134 136 133 134 136
133 134 136 133 134 136 133 134 136 133 134 136 133 134 136
133 134 136 132 133 135 134 135 137 134 135 137 133 134 136
134 135 137 136 137 139 133 134 136 128 129 131 118 119 121
115 116 118 121 122 124 133 134 136 136 137 139 131 132 134
130 131 133 134 135 137 130 134 135 128 132 133 130 134 135
134 138 139 135 139 140 131 135 136 130 134 135 132 136 137
137 141 142 134 138 139 131 135 136 128 132 133 129 133 134
134 138 139 141 145 146 146 150 151 154 156 155 154 156 155
153 155 154 152 154 153 152 154 153 152 154 153 150 152 151
147 149 148 148 150 149 148 150 149 148 150 149 148 150 149
148 150 149 148 150 149 148 150 149 148 150 149 148 150 149
148 150 149 148 150 149 148 150 149 148 150 149 148 150 149
148 150 149 148 150 149 148 150 149 148 150 149 148 150 149
148 150 149 148 150 149 148 150 149 148 150 149 148 150 149
148 150 149 148 150 149 148 150 149 148 150 149 148 150 149
148 150 149 148 150 149 148 150 149 148 150 149 148 150 149
148 150 149 148 150 149 148 150 149 148 150 149 148 150 149
148 150 149 148 150 149 148 150 149 148 150 149 148 150 149
148 150 149 148 150 149 148 150 149 148 150 149 148 150 149
148 150 149 148 150 149 148 150 149 148 150 149 148 150 149
148 150 149 148 150 149 149 151 150 147 149 148 147 149 148
148 150 149 150 152 151 151 153 152 149 151 150 146 148 147
145 147 146 145 147 146 145 147 146 146 148 147 146 148 147
142 144 143 134 136 135 128 130 129 137 137 137 132 132 132
129 129 129 144 144 144 183 183 183 226 226 226 250 250 250
253 253 253 251 251 251 254 254 254 253 253 253 250 250 250
250 250 250 253 253 253 254 254 254 251 251 251 252 252 252
253 253 253 254 254 254 255 255 255 255 255 255 255 255 255
255 255 255 254 254 254 254 254 254 254 254 254 254 254 254
254 254 254 254 254 254 254 254 254 254 254 254 254 254 254
254 254 254 254 254 254 254 254 254 254 254 254 254 254 254
254 254 254 254 254 254 254 254 254 254 254 254 254 254 254
254 254 254 254 254 254 254 254 254 254 254 254 254 254 254
254 254 254 254 254 254 254 254 254 254 254 254 254 254 254
254 254 254 254 254 254 254 254 254 254 254 254 254 254 254
254 254 254 254 254 254 254 254 254 254 254 254 254 254 254
254 254 254 254 254 254 253 255 254 253 255 254 253 255 254
253 255 254 253 255 254 253 255 254 253 255 254 253 255 254
252 254 253 254 255 255 254 255 255 248 250 249 244 246 245
244 246 245 246 248 247 247 249 248 254 255 255 242 244 243
215 217 216 181 183 182 149 151 150 130 132 131 127 129 128
132 134 133 134 136 135 132 134 133 131 133 132 132 134 133
134 136 135 135 137 136 134 136 135 132 134 133 131 135 136
133 137 138 136 140 141 138 142 143 139 143 144 137 141 142
133 137 138 131 135 136 127 131 132 114 118 119 107 111 112
117 121 122 131 135 136 135 139 140 133 137 138 131 135 136
130 136 136 130 136 136 131 135 136 131 135 136 131 135 136
131 135 136 133 134 136 133 134 136 133 134 136 133 134 136
134 134 136 134 134 136 134 134 136 134 134 136 134 134 136
134 134 136 132 134 133 135 137 136 135 139 140 136 141 144
134 142 144 132 142 144 131 141 143 131 141 142 129 138 135
127 134 127 132 134 123 140 138 123 147 140 121 157 146 124
185 171 145 213 196 170 226 202 176 228 202 175 230 204 177
232 208 180 231 210 181 223 204 174 210 193 165 199 184 155
197 183 157 192 180 158 183 172 154 174 165 150 174 166 155
178 169 162 177 170 164 171 166 163 170 170 170 167 171 172
167 171 172 167 171 172 167 171 172 167 171 172 167 171 172
167 171 172 163 167 168 163 167 168 162 166 167 162 166 167
161 165 166 161 165 166 160 164 165 160 164 165 162 164 163
161 163 162 159 161 160 158 160 159 159 161 160 161 163 162
163 165 164 165 167 166 166 168 167 166 168 167 166 168 167
166 168 167 166 168 167 166 168 167 166 168 167 166 168 167
164 166 165 162 164 163 161 163 162 161 163 162 161 163 162
160 162 161 157 159 158 155 157 156 151 153 152 152 154 153
154 156 155 157 159 158 162 164 163 167 169 168 172 174 173
173 177 178 165 173 176 167 176 181 171 179 182 170 178 181
168 173 176 165 170 173 167 171 172 169 173 172 176 178 177
171 171 169 169 168 164 172 171 167 173 170 165 168 165 160
169 164 158 172 168 157 178 173 153 184 177 151 191 182 153
202 188 159 211 195 162 219 201 165 227 205 166 229 207 166
229 206 165 231 209 170 227 209 171 223 207 173 219 206 174
207 198 167 184 177 148 162 158 131 148 149 131 142 144 131
137 139 128 135 136 128 136 137 131 136 137 132 132 132 130
128 128 128 134 134 136 134 134 136 134 133 138 134 133 138
134 134 136 134 134 136 134 134 136 134 134 136 133 134 136
133 134 136 133 134 136 133 134 136 133 134 136 133 134 136
133 134 136 133 134 136 133 134 136 133 134 136 133 134 136
133 134 136 133 134 136 133 134 136 133 134 136 133 134 136
132 133 135 134 135 137 134 135 137 133 134 136 134 135 137
136 137 139 133 134 136 128 129 131 113 114 116 112 113 115
118 119 121 131 132 134 136 137 139 133 134 136 133 134 136
138 139 141 132 136 137 130 134 135 131 135 136 136 140 141
136 140 141 133 137 138 132 136 137 134 138 139 129 133 134
130 134 135 130 134 135 130 134 135 132 136 137 136 140 141
144 148 149 149 153 154 156 158 157 153 155 154 150 152 151
150 152 151 151 153 152 151 153 152 149 151 150 148 150 149
148 150 149 148 150 149 148 150 149 148 150 149 148 150 149
148 150 149 148 150 149 148 150 149 148 150 149 148 150 149
148 150 149 148 150 149 148 150 149 148 150 149 148 150 149
148 150 149 148 150 149 148 150 149 148 150 149 148 150 149
148 150 149 148 150 149 148 150 149 148 150 149 148 150 149
148 150 149 148 150 149 148 150 149 148 150 149 148 150 149
148 150 149 148 150 149 148 150 149 148 150 149 148 150 149
148 150 149 148 150 149 148 150 149 148 150 149 148 150 149
148 150 149 148 150 149 148 150 149 148 150 149 148 150 149
148 150 149 148 150 149 148 150 149 148 150 149 148 150 149
148 150 149 148 150 149 148 150 149 148 150 149 148 150 149
148 150 149 148 150 149 148 150 149 147 149 148 148 150 149
149 151 150 149 151 150 147 149 148 146 148 147 148 150 149
145 147 146 143 145 144 144 146 145 146 148 147 144 146 145
138 140 139 133 135 134 128 128 128 130 130 130 132 132 132
137 137 137 158 158 158 194 194 194 230 230 230 252 252 252
252 252 252 255 255 255 255 255 255 252 252 252 251 251 251
252 252 252 251 251 251 248 248 248 252 252 252 253 253 253
254 254 254 255 255 255 255 255 255 255 255 255 255 255 255
254 254 254 254 254 254 254 254 254 254 254 254 254 254 254
254 254 254 254 254 254 254 254 254 254 254 254 254 254 254
254 254 254 254 254 254 254 254 254 254 254 254 254 254 254
254 254 254 254 254 254 254 254 254 254 254 254 254 254 254
254 254 254 254 254 254 254 254 254 254 254 254 254 254 254
254 254 254 254 254 254 254 254 254 254 254 254 254 254 254
254 254 254 254 254 254 254 254 254 254 254 254 254 254 254
254 254 254 254 254 254 254 254 254 254 254 254 254 254 254
254 254 254 253 255 254 253 255 254 253 255 254 253 255 254
253 255 254 253 255 254 253 255 254 253 255 254 251 253 252
252 254 253 252 254 253 251 253 252 250 252 251 247 249 248
245 247 246 243 245 244 251 253 252 254 255 255 247 249 248
220 222 221 184 186 185 151 153 152 129 131 130 117 119 118
130 132 131 128 130 129 127 129 128 131 133 132 136 138 137
140 142 141 139 141 140 137 139 138 132 136 137 133 137 138
135 139 140 138 142 143 139 143 144 138 142 143 133 137 138
130 134 135 121 125 126 108 112 113 105 109 110 120 124 125
135 139 140 137 141 142 132 136 137 128 132 133 130 136 136
130 136 136 131 135 136 131 135 136 131 135 136 131 135 136
133 134 136 133 134 136 133 134 136 133 134 136 134 134 136
134 134 136 134 134 136 134 134 136 134 134 136 134 134 136
129 130 132 131 135 136 134 138 141 132 140 142 131 139 142
127 137 139 124 135 137 123 135 135 133 142 139 134 141 133
136 138 125 135 134 116 139 133 111 155 145 118 189 175 146
221 200 169 234 203 172 232 197 165 229 195 160 230 197 162
233 203 167 234 206 169 229 203 168 223 200 166 217 197 164
208 189 159 192 174 150 182 165 145 182 166 150 184 170 157
182 168 159 172 163 156 169 169 167 166 170 171 166 170 171
166 170 171 166 170 171 166 170 171 166 170 171 166 170 171
163 167 168 163 167 168 163 167 168 163 167 168 163 167 168
164 168 169 164 168 169 164 168 169 166 168 167 165 167 166
165 167 166 165 167 166 166 168 167 168 170 169 171 173 172
172 174 173 171 173 172 171 173 172 171 173 172 171 173 172
171 173 172 171 173 172 171 173 172 171 173 172 170 172 171
169 171 170 168 170 169 167 169 168 167 169 168 166 168 167
164 166 165 161 163 162 156 158 157 156 158 157 156 158 157
156 158 157 157 159 158 159 161 160 160 162 161 159 163 164
162 170 173 163 172 177 167 175 178 167 175 178 168 173 176
167 172 175 167 171 172 167 171 170 176 176 176 170 170 168
170 169 165 174 173 169 173 170 165 166 163 158 169 164 158
179 173 161 190 178 154 196 181 150 202 186 152 212 192 155
222 198 160 231 203 163 236 207 163 240 209 165 234 203 159
234 205 163 232 204 164 227 203 165 225 205 170 216 200 167
192 177 146 162 152 125 157 156 136 146 148 134 138 140 127
133 135 124 133 134 126 134 135 130 133 133 131 130 130 130
134 134 136 134 134 136 134 133 138 134 133 138 134 134 136
134 134 136 134 134 136 134 134 136 133 134 136 133 134 136
133 134 136 133 134 136 133 134 136 133 134 136 133 134 136
133 134 136 133 134 136 133 134 136 133 134 136 133 134 136
133 134 136 133 134 136 133 134 136 133 134 136 132 133 135
134 135 137 134 135 137 133 134 136 134 135 137 136 137 139
133 134 136 128 129 131 110 111 113 109 110 112 117 118 120
130 131 133 136 137 139 134 135 137 134 135 137 140 141 143
132 136 137 130 134 135 131 135 136 135 139 140 135 139 140
132 136 137 132 136 137 135 139 140 126 130 131 129 133 134
132 136 137 135 139 140 138 142 143 141 145 146 145 149 150
148 152 153 154 156 155 149 151 150 147 149 148 149 151 150
150 152 151 148 150 149 148 150 149 150 152 151 148 150 149
148 150 149 148 150 149 148 150 149 148 150 149 148 150 149
148 150 149 148 150 149 148 150 149 148 150 149 148 150 149
148 150 149 148 150 149 148 150 149 148 150 149 148 150 149
148 150 149 148 150 149 148 150 149 148 150 149 148 150 149
148 150 149 148 150 149 148 150 149 148 150 149 148 150 149
148 150 149 148 150 149 148 150 149 148 150 149 148 150 149
148 150 149 148 150 149 148 150 149 148 150 149 148 150 149
148 150 149 148 150 149 148 150 149 148 150 149 148 150 149
148 150 149 148 150 149 148 150 149 148 150 149 148 150 149
148 150 149 148 150 149 148 150 149 148 150 149 148 150 149
148 150 149 148 150 149 148 150 149 148 150 149 148 150 149
147 149 148 148 150 149 148 150 149 148 150 149 148 150 149
147 149 148 146 148 147 146 148 147 149 151 150 147 149 148
144 146 145 144 146 145 145 147 146 144 146 145 140 142 141
137 139 138 131 131 131 133 133 133 134 134 134 134 134 134
139 139 139 165 165 165 213 213 213 253 253 253 252 252 252
255 255 255 255 255 255 253 253 253 252 252 252 252 252 252
250 250 250 245 245 245 252 252 252 253 253 253 254 254 254
255 255 255 255 255 255 255 255 255 255 255 255 254 254 254
254 254 254 254 254 254 254 254 254 254 254 254 254 254 254
254 254 254 254 254 254 254 254 254 254 254 254 254 254 254
254 254 254 254 254 254 254 254 254 254 254 254 254 254 254
254 254 254 254 254 254 254 254 254 254 254 254 254 254 254
254 254 254 254 254 254 254 254 254 254 254 254 254 254 254
254 254 254 254 254 254 254 254 254 254 254 254 254 254 254
254 254 254 254 254 254 254 254 254 254 254 254 254 254 254
254 254 254 254 254 254 254 254 254 254 254 254 254 254 254
253 255 254 253 255 254 253 255 254 253 255 254 253 255 254
253 255 254 253 255 254 253 255 254 249 251 250 250 252 251
252 254 253 254 255 255 253 255 254 250 252 251 249 251 250
249 251 250 247 249 248 253 255 254 253 255 254 241 243 242
222 224 223 197 199 198 164 166 165 137 139 138 133 135 134
130 132 131 128 130 129 132 134 133 137 139 138 140 142 141
139 141 140 136 138 137 134 138 139 132 136 137 131 135 136
132 136 137 135 139 140 135 139 140 133 137 138 130 134 135
120 124 125 105 109 110 102 106 107 119 123 124 136 140 141
137 141 142 131 135 136 128 132 133 130 136 136 130 136 136
131 135 136 131 135 136 131 135 136 131 135 136 133 134 136
133 134 136 133 134 136 133 134 136 134 134 136 134 134 136
134 134 136 134 134 136 134 134 136 134 134 136 133 134 136
133 137 140 135 139 142 131 139 142 127 134 140 123 132 137
122 133 135 122 134 134 130 139 136 135 142 134 136 138 124
133 132 112 141 135 109 167 156 128 201 186 153 227 205 168
245 210 172 243 201 161 236 194 154 233 194 153 237 200 156
237 202 160 234 201 160 227 198 158 229 201 162 222 196 161
209 184 154 197 173 147 191 169 148 192 171 152 190 168 154
179 165 156 170 169 167 165 170 173 165 170 173 165 170 173
165 170 173 165 170 173 165 170 173 165 170 173 164 169 172
164 169 172 164 169 172 164 169 172 164 169 172 164 169 172
164 169 172 165 169 170 166 168 167 166 168 167 167 169 168
167 169 168 168 170 169 169 171 170 169 171 170 169 171 170
167 169 168 167 169 168 167 169 168 167 169 168 167 169 168
167 169 168 167 169 168 167 169 168 167 169 168 167 169 168
167 169 168 170 172 171 173 175 174 175 177 176 174 176 175
172 174 173 170 172 171 169 171 170 167 169 168 164 166 165
160 162 161 157 159 158 153 155 154 150 154 155 155 163 166
155 164 169 157 166 171 161 171 173 165 173 175 169 174 177
168 172 173 167 171 170 172 172 172 169 169 167 172 171 167
177 176 172 174 171 166 167 164 157 174 169 163 191 183 170
207 190 162 213 191 154 218 194 156 224 196 156 231 199 158
235 201 156 239 203 155 241 203 156 239 201 154 239 202 157
235 200 158 232 200 161 234 206 169 230 206 172 205 182 150
172 156 130 158 156 135 151 153 139 146 148 135 138 140 129
132 133 125 129 130 125 131 131 129 134 134 134 134 134 136
134 134 136 134 133 138 134 133 138 134 134 136 134 134 136
134 134 136 134 134 136 133 134 136 133 134 136 133 134 136
133 134 136 133 134 136 133 134 136 133 134 136 133 134 136
133 134 136 133 134 136 133 134 136 133 134 136 133 134 136
133 134 136 133 134 136 133 134 136 132 133 135 134 135 137
134 135 137 133 134 136 134 135 137 136 137 139 133 134 136
128 129 131 111 112 114 109 110 112 117 118 120 130 131 133
136 137 139 133 134 136 134 135 137 140 141 143 132 136 137
129 133 134 128 132 133 131 135 136 132 136 137 130 134 135
130 134 135 134 138 139 133 137 138 134 138 139 137 141 142
140 144 145 144 148 149 146 150 151 146 150 151 146 150 151
151 153 152 147 149 148 147 149 148 150 152 151 149 151 150
145 147 146 146 148 147 150 152 151 148 150 149 148 150 149
148 150 149 148 150 149 148 150 149 148 150 149 148 150 149
148 150 149 148 150 149 148 150 149 148 150 149 148 150 149
148 150 149 148 150 149 148 150 149 148 150 149 148 150 149
148 150 149 148 150 149 148 150 149 148 150 149 148 150 149
148 150 149 148 150 149 148 150 149 148 150 149 148 150 149
148 150 149 148 150 149 148 150 149 148 150 149 148 150 149
148 150 149 148 150 149 148 150 149 148 150 149 148 150 149
148 150 149 148 150 149 148 150 149 148 150 149 148 150 149
148 150 149 148 150 149 148 150 149 148 150 149 148 150 149
148 150 149 148 150 149 148 150 149 148 150 149 148 150 149
148 150 149 148 150 149 148 150 149 148 150 149 147 149 148
148 150 149 149 151 150 149 151 150 147 149 148 146 148 147
146 148 147 146 148 147 148 150 149 147 149 148 147 149 148
147 149 148 146 148 147 144 146 145 141 143 142 138 140 139
139 139 139 135 135 135 135 135 135 135 135 135 132 132 132
144 144 144 189 189 189 236 236 236 249 249 249 254 254 254
255 255 255 253 253 253 253 253 253 254 254 254 251 251 251
246 246 246 252 252 252 253 253 253 254 254 254 255 255 255
255 255 255 255 255 255 255 255 255 254 254 254 254 254 254
254 254 254 254 254 254 254 254 254 254 254 254 254 254 254
254 254 254 254 254 254 254 254 254 254 254 254 254 254 254
254 254 254 254 254 254 254 254 254 254 254 254 254 254 254
254 254 254 254 254 254 254 254 254 254 254 254 254 254 254
254 254 254 254 254 254 254 254 254 254 254 254 254 254 254
254 254 254 254 254 254 254 254 254 254 254 254 254 254 254
254 254 254 254 254 254 254 254 254 254 254 254 254 254 254
254 254 254 254 254 254 254 254 254 254 254 254 253 255 254
253 255 254 253 255 254 253 255 254 253 255 254 253 255 254
253 255 254 253 255 254 249 251 250 250 252 251 252 254 253
254 255 255 252 254 253 250 252 251 251 253 252 254 255 255
254 255 255 254 255 255 252 254 253 250 252 251 252 254 253
243 245 244 211 213 212 177 179 178 140 142 141 135 137 136
132 134 133 133 135 134 137 139 138 138 140 139 135 137 136
131 133 132 136 140 141 132 136 137 127 131 132 126 130 131
129 133 134 132 136 137 133 137 138 132 136 137 120 124 125
103 107 108 100 104 105 118 122 123 136 140 141 137 141 142
132 136 137 130 134 135 130 136 134 130 136 134 131 135 134
131 135 134 131 136 132 131 136 132 131 136 132 131 136 132
133 135 132 133 135 132 133 135 134 133 135 134 133 135 134
133 134 136 133 134 136 133 134 136 140 141 143 139 143 146
137 142 145 133 138 142 126 133 139 123 132 137 124 134 136
128 136 138 127 133 131 133 138 131 135 136 122 132 130 109
147 140 114 181 168 136 212 196 162 231 207 169 242 205 163
242 198 153 238 194 149 240 196 151 244 202 154 244 204 155
236 198 151 228 191 146 235 201 156 232 200 159 222 192 156
208 181 151 199 173 146 196 172 148 193 171 150 185 169 154
172 169 162 166 171 167 166 171 167 165 171 169 165 171 169
165 171 171 165 171 171 163 171 173 164 169 172 164 169 172
164 169 172 163 168 171 163 168 171 163 167 168 163 167 168
163 167 168 168 170 169 169 171 170 169 171 170 170 172 171
170 172 171 169 171 170 168 170 169 168 170 169 170 172 171
170 172 171 170 172 171 170 172 171 170 172 171 170 172 171
170 172 171 170 172 171 170 172 171 169 171 170 169 171 170
170 172 171 172 174 173 173 175 174 171 173 172 169 171 170
171 173 172 171 173 172 171 173 172 171 173 172 169 171 170
167 169 168 164 166 165 161 165 166 149 157 159 148 158 159
150 160 161 156 166 167 165 174 173 168 177 174 170 174 173
169 171 168 169 170 165 168 167 162 175 172 165 182 178 169
179 172 162 173 165 154 182 174 163 206 191 172 225 200 169
229 200 160 233 200 157 235 201 156 238 200 153 240 198 148
240 197 146 240 197 144 243 200 149 243 201 151 236 198 151
232 197 155 238 206 167 235 207 170 210 184 151 175 158 130
151 146 124 152 153 135 154 157 140 147 149 136 133 136 127
126 129 122 127 132 128 133 137 136 131 135 136 131 135 136
133 134 138 133 134 136 134 134 136 134 134 134 135 133 134
134 134 134 134 134 136 133 134 136 133 134 136 133 134 136
133 134 136 133 134 136 133 134 136 133 134 136 133 134 136
133 134 136 133 134 136 133 135 134 133 134 136 133 135 134
133 134 136 133 134 136 132 133 135 134 135 137 134 135 137
133 134 136 134 135 137 136 137 139 133 134 136 128 129 131
112 113 115 110 111 113 117 118 120 130 131 133 136 137 139
132 133 135 132 133 135 138 139 141 131 135 136 127 131 132
126 130 131 128 132 133 129 133 134 127 131 132 129 133 134
133 137 138 140 144 145 140 144 145 141 145 146 144 148 149
148 152 153 149 153 154 147 151 152 145 149 150 149 151 150
146 148 147 147 149 148 151 153 152 149 151 150 143 145 144
144 146 145 151 153 152 148 150 149 148 150 149 148 150 149
148 150 149 148 150 149 148 150 149 148 150 149 148 150 149
148 150 149 148 150 149 148 150 149 148 150 149 148 150 149
148 150 149 148 150 149 148 150 149 148 150 149 148 150 149
148 150 149 148 150 149 148 150 149 148 150 149 148 150 149
148 150 149 148 150 149 148 150 149 148 150 149 148 150 149
148 150 149 148 150 149 148 150 149 148 150 149 148 150 149
148 150 149 148 150 149 148 150 149 148 150 149 148 150 149
148 150 149 148 150 149 148 150 149 148 150 149 148 150 149
148 150 149 148 150 149 148 150 149 148 150 149 148 150 149
148 150 149 148 150 149 148 150 149 148 150 149 148 150 149
148 150 149 148 150 149 148 150 149 147 149 148 148 150 149
149 151 150 149 151 150 147 149 148 145 147 146 145 147 146
146 148 147 146 148 147 148 150 149 150 152 151 150 152 151
148 150 149 144 146 145 140 142 141 137 139 138 141 141 141
131 131 131 130 130 130 135 135 135 129 129 129 130 130 130
163 163 163 207 207 207 247 247 247 252 252 252 254 254 254
254 254 254 254 254 254 255 255 255 253 253 253 248 248 248
252 252 252 253 253 253 254 254 254 255 255 255 255 255 255
255 255 255 255 255 255 254 254 254 254 254 254 254 254 254
254 254 254 254 254 254 254 254 254 254 254 254 254 254 254
254 254 254 254 254 254 254 254 254 254 254 254 254 254 254
254 254 254 254 254 254 254 254 254 254 254 254 254 254 254
254 254 254 254 254 254 254 254 254 254 254 254 254 254 254
254 254 254 254 254 254 254 254 254 254 254 254 254 254 254
254 254 254 254 254 254 254 254 254 254 254 254 254 254 254
254 254 254 254 254 254 254 254 254 254 254 254 254 254 254
254 254 254 254 254 254 254 254 254 254 254 254 254 254 254
254 254 254 254 254 254 254 254 254 254 254 254 254 254 254
254 254 254 252 252 252 254 254 254 255 255 255 255 255 255
255 255 255 253 253 253 250 250 250 247 247 247 248 248 248
249 249 249 252 252 252 255 255 255 255 255 255 254 254 254
248 248 248 244 244 244 201 201 201 171 171 171 136 136 136
123 123 123 131 131 131 140 140 140 137 137 137 128 130 129
126 130 129 125 131 129 126 132 130 126 132 130 127 133 131
130 136 134 133 139 137 136 142 140 115 121 119 104 110 108
104 110 108 122 128 126 133 139 137 130 136 134 128 134 132
132 138 136 131 137 133 131 138 131 131 138 131 130 137 129
130 138 127 129 137 126 129 137 124 129 137 124 129 135 125
130 136 126 130 135 128 130 135 129 130 135 131 130 134 133
130 134 135 130 134 135 126 130 131 127 131 132 127 132 135
130 135 139 132 137 143 132 137 143 131 136 142 130 133 138
128 130 129 140 139 134 142 138 127 140 133 115 160 148 122
197 182 151 224 205 172 232 209 168 238 204 159 241 201 152
241 199 149 240 196 147 242 196 146 242 196 144 242 199 146
241 200 148 245 205 154 241 205 157 233 200 157 223 193 155
209 185 151 198 177 146 191 171 144 183 171 147 172 169 152
162 164 150 161 165 151 167 173 161 170 177 169 166 173 166
162 171 168 163 173 172 162 171 170 162 171 170 164 170 170
164 170 170 165 169 170 167 169 168 168 168 166 168 168 166
169 171 170 170 172 171 170 172 171 171 173 172 171 173 172
170 172 171 169 171 170 169 171 170 170 172 171 170 172 171
170 172 171 170 172 171 170 172 171 170 172 171 170 172 171
170 172 171 169 171 170 169 171 170 168 170 169 168 170 169
168 170 169 167 169 168 167 169 168 167 169 168 175 177 176
176 178 177 177 179 178 177 179 178 175 177 176 172 174 173
169 171 170 164 168 167 161 172 166 157 170 163 153 164 158
152 163 157 156 166 158 161 171 163 168 173 166 173 176 167
179 179 167 174 172 159 174 166 153 178 169 152 182 166 150
186 169 149 204 186 166 230 206 180 242 208 170 243 205 160
242 202 153 242 199 148 244 199 144 246 200 141 248 199 140
247 198 139 245 199 140 241 196 139 236 195 143 236 200 152
242 209 168 237 207 171 215 189 156 189 170 140 160 154 128
154 154 130 153 155 134 151 155 138 141 147 133 127 137 128
126 137 131 133 144 140 132 142 141 130 140 141 130 136 136
130 134 135 134 134 132 136 135 131 137 133 130 136 132 129
134 134 134 133 134 136 133 134 136 132 133 135 132 133 135
131 132 134 131 133 132 131 133 132 133 135 134 133 135 134
133 135 134 133 135 132 133 135 134 133 135 132 133 135 134
133 135 134 134 136 135 134 136 135 133 135 134 131 133 132
134 136 135 138 140 139 135 137 136 128 130 129 111 113 112
105 107 106 113 115 114 134 136 135 140 142 141 131 133 132
129 131 130 137 139 138 135 137 136 134 136 135 132 134 133
132 134 133 132 134 133 133 135 134 135 137 136 136 138 137
145 147 146 147 149 148 149 151 150 151 153 152 152 154 153
151 153 152 150 152 151 148 150 149 148 150 149 148 150 149
148 150 149 148 150 149 148 150 149 148 150 149 148 150 149
148 150 149 148 150 149 148 150 149 148 150 149 148 150 149
148 150 149 148 150 149 148 150 149 148 150 149 148 150 149
148 150 149 148 150 149 148 150 149 148 150 149 148 150 149
148 150 149 148 150 149 148 150 149 148 150 149 148 150 149
148 150 149 148 150 149 148 150 149 148 150 149 148 150 149
148 150 149 148 150 149 148 150 149 148 150 149 148 150 149
148 150 149 148 150 149 148 150 149 148 150 149 148 150 149
148 150 149 148 150 149 148 150 149 148 150 149 148 150 149
148 150 149 148 150 149 148 150 149 148 150 149 148 150 149
148 150 149 148 150 149 148 150 149 148 150 149 148 150 149
148 150 149 148 150 149 148 150 149 148 150 149 148 150 149
148 150 149 148 150 149 148 150 149 148 150 149 148 150 149
148 150 149 148 150 149 148 150 149 148 150 149 148 150 149
149 151 150 148 150 149 147 149 148 148 150 149 147 149 148
145 147 146 140 142 141 136 138 137 134 134 134 135 135 135
136 136 136 133 133 133 129 129 129 132 132 132 149 149 149
167 167 167 221 221 221 246 246 246 255 255 255 250 250 250
242 242 242 248 248 248 254 254 254 251 251 251 252 252 252
253 253 253 254 254 254 255 255 255 255 255 255 255 255 255
255 255 255 254 254 254 254 254 254 254 254 254 254 254 254
254 254 254 254 254 254 254 254 254 254 254 254 254 254 254
254 254 254 254 254 254 254 254 254 254 254 254 254 254 254
254 254 254 254 254 254 254 254 254 254 254 254 254 254 254
254 254 254 254 254 254 254 254 254 254 254 254 254 254 254
254 254 254 254 254 254 254 254 254 254 254 254 254 254 254
254 254 254 254 254 254 254 254 254 254 254 254 254 254 254
254 254 254 254 254 254 254 254 254 254 254 254 254 254 254
254 254 254 254 254 254 254 254 254 254 254 254 254 254 254
254 254 254 254 254 254 254 254 254 254 254 254 254 254 254
252 252 252 252 252 252 253 253 253 254 254 254 253 253 253
251 251 251 249 249 249 247 247 247 249 249 249 249 249 249
251 251 251 253 253 253 254 254 254 252 252 252 248 248 248
244 244 244 244 244 244 224 224 224 190 190 190 155 155 155
133 133 133 129 129 129 141 141 141 152 154 153 130 134 133
123 129 127 118 124 122 122 128 126 130 136 134 134 140 138
130 136 134 124 130 128 117 123 121 104 110 108 104 110 108
121 127 125 132 138 136 129 135 133 127 133 131 131 137 135
130 136 132 130 137 130 130 137 129 131 139 128 131 139 126
131 139 124 131 139 124 131 139 124 130 138 123 130 138 125
129 137 126 130 137 129 131 137 133 132 138 136 134 140 140
135 141 141 137 141 142 132 138 138 126 131 134 123 128 131
122 127 131 124 129 135 128 131 136 131 132 136 130 128 129
133 128 122 138 130 119 148 137 119 170 154 129 193 177 144
215 195 160 229 204 163 240 206 160 244 204 153 244 203 151
243 200 147 244 199 144 243 196 142 242 195 139 241 196 141
237 194 143 240 200 151 239 205 160 233 204 164 220 196 160
205 185 152 191 174 144 180 168 142 170 168 147 163 164 146
163 166 149 170 174 159 171 177 165 166 173 165 161 170 165
160 171 167 162 172 171 164 173 172 166 172 172 167 171 172
169 171 170 170 170 170 172 171 169 172 171 169 167 167 167
167 169 168 168 170 169 168 170 169 169 171 170 168 170 169
168 170 169 168 170 169 168 170 169 168 170 169 168 170 169
167 169 168 167 169 168 167 169 168 167 169 168 167 169 168
167 169 168 167 169 168 168 170 169 169 171 170 170 172 171
171 173 172 171 173 172 172 174 173 172 174 173 172 174 173
173 175 174 173 175 174 172 174 173 170 172 171 169 171 170
165 170 166 162 172 164 158 170 160 157 167 158 158 168 159
163 170 162 166 173 165 170 173 164 169 171 158 168 166 153
168 162 146 174 162 146 185 170 151 197 179 157 208 186 163
219 195 171 231 202 172 242 204 165 245 203 155 245 202 151
246 201 146 248 199 141 249 199 138 247 197 134 246 196 133
246 198 134 242 196 136 236 193 138 235 198 146 239 205 160
238 206 167 223 194 160 202 182 149 173 164 135 159 158 130
151 150 129 144 147 128 136 143 127 129 139 128 132 143 137
138 150 146 128 140 138 127 139 139 128 137 136 131 135 136
136 136 134 137 136 132 138 133 129 136 131 128 134 134 134
133 134 136 133 134 136 132 133 135 132 133 135 132 133 135
132 134 133 132 134 133 133 135 134 133 135 134 133 135 132
133 135 132 133 135 132 133 135 132 133 135 132 133 135 132
134 136 135 135 137 136 133 135 134 131 133 132 133 135 134
135 137 136 131 133 132 124 126 125 112 114 113 106 108 107
114 116 115 133 135 134 140 142 141 134 136 135 135 137 136
145 147 146 130 132 131 131 133 132 132 134 133 134 136 135
137 139 138 139 141 140 142 144 143 143 145 144 146 148 147
147 149 148 149 151 150 151 153 152 151 153 152 150 152 151
148 150 149 147 149 148 148 150 149 148 150 149 148 150 149
148 150 149 148 150 149 148 150 149 148 150 149 148 150 149
148 150 149 148 150 149 148 150 149 148 150 149 148 150 149
148 150 149 148 150 149 148 150 149 148 150 149 148 150 149
148 150 149 148 150 149 148 150 149 148 150 149 148 150 149
148 150 149 148 150 149 148 150 149 148 150 149 148 150 149
148 150 149 148 150 149 148 150 149 148 150 149 148 150 149
148 150 149 148 150 149 148 150 149 148 150 149 148 150 149
148 150 149 148 150 149 148 150 149 148 150 149 148 150 149
148 150 149 148 150 149 148 150 149 148 150 149 148 150 149
148 150 149 148 150 149 148 150 149 148 150 149 148 150 149
148 150 149 148 150 149 148 150 149 148 150 149 148 150 149
148 150 149 148 150 149 148 150 149 148 150 149 148 150 149
148 150 149 148 150 149 148 150 149 148 150 149 148 150 149
148 150 149 148 150 149 148 150 149 148 150 149 148 150 149
148 150 149 147 149 148 148 150 149 147 149 148 145 147 146
141 143 142 137 139 138 134 134 134 135 135 135 137 137 137
137 137 137 133 133 133 133 133 133 142 142 142 154 154 154
211 211 211 236 236 236 252 252 252 247 247 247 242 242 242
248 248 248 253 253 253 249 249 249 252 252 252 253 253 253
254 254 254 255 255 255 255 255 255 255 255 255 255 255 255
254 254 254 254 254 254 254 254 254 254 254 254 254 254 254
254 254 254 254 254 254 254 254 254 254 254 254 254 254 254
254 254 254 254 254 254 254 254 254 254 254 254 254 254 254
254 254 254 254 254 254 254 254 254 254 254 254 254 254 254
254 254 254 254 254 254 254 254 254 254 254 254 254 254 254
254 254 254 254 254 254 254 254 254 254 254 254 254 254 254
254 254 254 254 254 254 254 254 254 254 254 254 254 254 254
254 254 254 254 254 254 254 254 254 254 254 254 254 254 254
254 254 254 254 254 254 254 254 254 254 254 254 254 254 254
254 254 254 254 254 254 254 254 254 254 254 254 251 251 251
251 251 251 251 251 251 250 250 250 250 250 250 249 249 249
248 248 248 248 248 248 250 250 250 249 249 249 250 250 250
251 251 251 252 252 252 251 251 251 248 248 248 246 246 246
255 255 255 255 255 255 241 241 241 210 210 210 170 170 170
141 141 141 129 129 129 128 130 129 130 134 133 138 142 141
145 149 148 144 148 147 136 140 139 131 135 134 133 137 136
138 142 141 114 118 117 102 106 105 102 106 105 119 123 122
131 135 134 129 133 132 128 132 131 133 137 136 127 132 128
127 132 126 128 133 127 129 134 127 129 135 125 130 136 124
131 137 125 131 137 125 134 140 128 133 139 127 131 136 129
130 135 129 129 134 130 130 134 133 131 135 136 132 136 137
131 137 137 133 139 139 134 139 142 132 140 142 132 137 141
128 133 137 125 129 132 125 125 125 129 125 122 138 131 123
161 151 139 192 180 158 213 196 168 217 197 162 219 195 157
226 199 156 236 200 152 240 200 149 242 201 149 244 201 148
245 200 145 244 197 143 241 194 140 238 193 138 241 198 147
243 203 154 242 208 163 238 209 169 226 202 166 209 188 157
191 174 146 177 165 139 171 166 146 164 165 147 165 168 151
170 174 160 171 177 167 166 173 165 161 170 165 160 169 166
164 173 172 164 173 172 167 173 173 168 172 173 171 173 172
172 172 172 174 173 171 174 173 171 169 169 169 169 171 170
170 172 171 171 173 172 171 173 172 171 173 172 171 173 172
171 173 172 170 172 171 170 172 171 170 172 171 169 171 170
169 171 170 168 170 169 168 170 169 167 169 168 172 174 173
172 174 173 171 173 172 170 172 171 169 171 170 168 170 169
167 169 168 167 169 168 169 171 170 169 171 170 169 171 170
169 171 170 169 171 170 169 171 170 169 171 170 169 171 168
166 171 165 163 168 162 163 168 162 166 171 165 173 176 169
174 177 170 171 171 163 168 165 156 165 158 148 168 158 146
176 162 149 190 173 157 211 190 171 229 204 182 232 204 182
229 198 169 235 200 160 238 200 153 242 200 150 244 201 148
247 200 144 248 199 140 249 199 138 248 198 135 245 197 133
242 196 136 237 195 137 235 195 143 237 201 153 238 205 162
231 202 162 218 196 159 181 168 136 163 158 129 151 146 124
144 143 123 141 145 130 139 147 134 138 148 140 139 150 146
129 139 138 128 138 139 128 136 138 132 136 137 135 137 136
137 136 134 138 132 132 135 131 130 133 133 133 132 133 135
133 134 136 133 134 136 133 135 134 133 135 134 133 135 134
133 135 134 133 135 134 133 135 134 133 135 134 133 135 134
133 135 132 133 135 132 133 135 132 133 135 132 133 135 134
134 136 135 133 135 134 132 134 133 134 136 135 136 138 137
131 133 132 123 125 124 110 112 111 106 108 107 113 115 114
129 131 130 136 138 137 131 133 132 133 135 134 143 145 144
128 130 129 130 132 131 134 136 135 139 141 140 143 145 144
147 149 148 149 151 150 151 153 152 146 148 147 147 149 148
149 151 150 149 151 150 149 151 150 148 150 149 146 148 147
145 147 146 148 150 149 148 150 149 148 150 149 148 150 149
148 150 149 148 150 149 148 150 149 148 150 149 148 150 149
148 150 149 148 150 149 148 150 149 148 150 149 148 150 149
148 150 149 148 150 149 148 150 149 148 150 149 148 150 149
148 150 149 148 150 149 148 150 149 148 150 149 148 150 149
148 150 149 148 150 149 148 150 149 148 150 149 148 150 149
148 150 149 148 150 149 148 150 149 148 150 149 148 150 149
148 150 149 148 150 149 148 150 149 148 150 149 148 150 149
148 150 149 148 150 149 148 150 149 148 150 149 148 150 149
148 150 149 148 150 149 148 150 149 148 150 149 148 150 149
148 150 149 148 150 149 148 150 149 148 150 149 148 150 149
148 150 149 148 150 149 148 150 149 148 150 149 148 150 149
148 150 149 148 150 149 148 150 149 148 150 149 148 150 149
148 150 149 148 150 149 148 150 149 148 150 149 148 150 149
148 150 149 148 150 149 148 150 149 148 150 149 147 149 148
147 149 148 148 150 149 148 150 149 146 148 147 142 144 143
138 140 139 135 135 135 135 135 135 137 137 137 140 140 140
139 139 139 134 134 134 135 135 135 138 138 138 191 191 191
221 221 221 245 245 245 247 247 247 244 244 244 248 248 248
251 251 251 248 248 248 252 252 252 253 253 253 254 254 254
255 255 255 255 255 255 255 255 255 255 255 255 254 254 254
254 254 254 254 254 254 254 254 254 254 254 254 254 254 254
254 254 254 254 254 254 254 254 254 254 254 254 254 254 254
254 254 254 254 254 254 254 254 254 254 254 254 254 254 254
254 254 254 254 254 254 254 254 254 254 254 254 254 254 254
254 254 254 254 254 254 254 254 254 254 254 254 254 254 254
254 254 254 254 254 254 254 254 254 254 254 254 254 254 254
254 254 254 254 254 254 254 254 254 254 254 254 254 254 254
254 254 254 254 254 254 254 254 254 254 254 254 254 254 254
254 254 254 254 254 254 254 254 254 254 254 254 254 254 254
254 254 254 254 254 254 254 254 254 253 253 253 252 252 252
250 250 250 249 249 249 248 248 248 249 249 249 249 249 249
250 250 250 253 253 253 251 251 251 250 250 250 251 251 251
252 252 252 252 252 252 250 250 250 248 248 248 246 246 246
249 249 249 251 251 251 246 246 246 227 227 227 193 193 193
154 154 154 127 129 128 121 123 122 127 131 130 134 138 137
134 138 137 128 132 131 125 129 128 129 133 132 134 138 137
113 117 116 101 105 104 102 106 105 121 125 124 134 138 137
133 137 136 133 137 136 138 142 141 129 134 130 129 134 130
129 134 130 129 134 128 130 135 128 130 136 126 130 136 126
130 136 126 131 137 127 131 137 127 131 136 130 132 137 133
132 136 135 132 136 137 132 136 139 132 136 139 131 136 139
130 139 138 132 140 142 132 140 142 132 137 140 132 136 139
133 134 136 135 134 132 166 161 155 185 177 166 212 199 182
234 218 193 241 220 189 235 211 175 226 201 160 227 196 150
231 195 145 238 197 145 243 200 147 246 203 150 250 205 150
250 203 149 247 200 146 245 199 147 245 203 153 239 201 154
234 201 158 231 203 164 228 204 170 217 196 165 200 183 157
184 172 148 174 169 150 170 168 153 169 170 156 171 173 160
171 174 165 168 173 166 165 171 167 165 171 167 164 170 168
164 170 170 166 170 171 169 170 172 170 170 170 172 170 171
175 171 170 173 172 170 170 170 170 169 171 170 171 173 172
172 174 173 172 174 173 173 175 174 173 175 174 172 174 173
171 173 172 171 173 172 170 172 171 170 172 171 169 171 170
168 170 169 168 170 169 167 169 168 169 171 170 169 171 170
169 171 170 169 171 170 168 170 169 168 170 169 167 169 168
167 169 168 167 169 168 167 169 168 167 169 168 167 169 168
168 170 169 169 171 170 171 173 172 171 173 170 172 172 170
169 170 165 167 168 163 171 172 167 178 177 172 178 177 172
174 171 166 169 164 158 175 165 156 180 167 158 183 167 154
189 170 155 209 186 168 232 205 186 239 208 188 232 201 173
231 197 159 235 198 153 237 199 152 240 199 147 241 198 143
245 199 140 249 201 139 250 202 138 244 196 132 244 198 136
243 198 139 238 197 143 236 199 147 238 204 158 237 204 161
230 202 163 182 166 133 166 157 128 154 147 121 151 146 124
153 151 136 150 154 140 144 149 142 137 143 139 135 144 143
132 140 142 131 136 139 131 135 138 134 135 137 135 135 135
136 132 133 133 131 132 134 134 136 133 134 136 133 134 136
133 134 136 134 136 135 134 136 135 134 136 135 134 136 135
133 135 134 133 135 134 133 135 134 133 135 134 133 135 132
133 135 132 133 135 132 133 135 132 132 134 133 134 136 135
134 136 135 133 135 134 136 138 137 137 139 138 131 133 132
123 125 124 110 112 111 109 111 110 117 119 118 131 133 132
135 137 136 129 131 130 129 131 130 135 137 136 133 135 134
136 138 137 140 142 141 144 146 145 148 150 149 151 153 152
152 154 153 153 155 154 147 149 148 148 150 149 148 150 149
148 150 149 148 150 149 146 148 147 145 147 146 144 146 145
148 150 149 148 150 149 148 150 149 148 150 149 148 150 149
148 150 149 148 150 149 148 150 149 148 150 149 148 150 149
148 150 149 148 150 149 148 150 149 148 150 149 148 150 149
148 150 149 148 150 149 148 150 149 148 150 149 148 150 149
148 150 149 148 150 149 148 150 149 148 150 149 148 150 149
148 150 149 148 150 149 148 150 149 148 150 149 148 150 149
148 150 149 148 150 149 148 150 149 148 150 149 148 150 149
148 150 149 148 150 149 148 150 149 148 150 149 148 150 149
148 150 149 148 150 149 148 150 149 148 150 149 148 150 149
148 150 149 148 150 149 148 150 149 148 150 149 148 150 149
148 150 149 148 150 149 148 150 149 148 150 149 148 150 149
148 150 149 148 150 149 148 150 149 148 150 149 148 150 149
148 150 149 148 150 149 148 150 149 148 150 149 148 150 149
148 150 149 148 150 149 148 150 149 148 150 149 148 150 149
148 150 149 148 150 149 147 149 148 147 149 148 147 149 148
148 150 149 148 150 149 147 149 148 143 145 144 140 142 141
137 137 137 133 133 133 134 134 134 140 140 140 141 141 141
136 136 136 131 131 131 130 130 130 166 166 166 204 204 204
241 241 241 253 253 253 249 249 249 249 249 249 251 251 251
250 250 250 252 252 252 253 253 253 254 254 254 255 255 255
255 255 255 255 255 255 255 255 255 254 254 254 254 254 254
254 254 254 254 254 254 254 254 254 254 254 254 254 254 254
254 254 254 254 254 254 254 254 254 254 254 254 254 254 254
254 254 254 254 254 254 254 254 254 254 254 254 254 254 254
254 254 254 254 254 254 254 254 254 254 254 254 254 254 254
254 254 254 254 254 254 254 254 254 254 254 254 254 254 254
254 254 254 254 254 254 254 254 254 254 254 254 254 254 254
254 254 254 254 254 254 254 254 254 254 254 254 254 254 254
254 254 254 254 254 254 254 254 254 254 254 254 254 254 254
254 254 254 254 254 254 254 254 254 254 254 254 254 254 254
254 254 254 254 254 254 255 255 255 253 253 253 251 251 251
250 250 250 250 250 250 250 250 250 252 252 252 253 253 253
255 255 255 254 254 254 252 252 252 252 252 252 253 253 253
254 254 254 253 253 253 251 251 251 251 251 251 245 245 245
242 242 242 247 247 247 251 251 251 242 242 242 220 220 220
199 201 200 160 162 161 135 139 138 113 117 116 113 117 116
131 135 134 143 147 146 136 140 139 123 127 126 116 120 119
105 109 108 106 110 109 125 129 128 137 141 140 135 139 138
133 137 136 137 141 140 135 139 138 135 140 136 134 139 135
133 138 132 132 137 131 131 136 129 131 136 129 130 135 128
127 132 125 129 134 128 133 138 134 137 141 140 138 142 143
138 142 145 137 141 144 135 140 143 130 138 140 126 134 136
120 128 130 117 125 127 125 130 133 143 147 148 167 167 165
185 182 177 231 224 214 249 237 221 254 238 215 238 218 191
226 202 168 226 198 159 228 199 155 228 196 149 237 200 148
242 201 149 247 204 151 250 207 154 254 208 156 253 207 155
252 206 154 248 205 154 236 196 147 228 191 147 222 188 150
225 196 162 229 204 173 223 204 174 205 189 164 187 175 153
176 170 154 174 172 159 173 171 159 170 170 160 169 170 162
170 173 166 173 175 172 171 176 172 163 167 166 166 168 167
166 168 167 167 167 167 169 167 168 171 167 168 172 168 167
172 168 167 168 168 168 168 170 169 169 171 170 170 172 171
170 172 171 170 172 171 170 172 171 170 172 171 168 170 169
168 170 169 168 170 169 167 169 168 167 169 168 166 168 167
166 168 167 166 168 167 163 165 164 164 166 165 166 168 167
168 170 169 171 173 172 174 176 175 176 178 177 177 179 178
168 170 169 168 170 169 168 170 169 168 170 169 169 171 170
170 172 171 172 174 173 173 173 171 174 173 171 171 170 166
169 168 164 171 170 166 177 173 170 180 175 171 176 171 167
174 167 161 183 170 164 185 170 163 182 164 154 179 157 144
192 166 151 215 188 171 233 202 184 235 203 180 234 201 166
235 202 159 235 201 155 234 198 148 234 195 140 236 194 136
242 198 137 246 200 138 245 197 133 249 201 139 248 202 142
244 199 142 240 199 145 242 202 151 240 202 155 234 201 158
195 173 136 178 163 132 165 151 124 155 148 122 157 152 133
157 155 140 150 152 141 142 144 139 146 150 149 141 146 149
135 139 142 131 135 138 133 134 138 134 134 136 135 135 137
135 135 137 134 135 137 134 136 135 134 136 135 134 136 135
134 136 135 135 137 136 135 137 136 135 137 136 133 135 134
133 135 134 133 135 134 133 135 134 133 135 134 133 135 134
133 135 134 133 135 134 133 135 134 135 137 136 134 136 135
133 135 134 133 135 134 132 134 133 124 126 125 115 117 116
106 108 107 110 112 111 123 125 124 137 139 138 140 142 141
133 135 134 131 133 132 134 136 135 143 145 144 145 147 146
147 149 148 149 151 150 150 152 151 150 152 151 150 152 151
149 151 150 148 150 149 148 150 149 148 150 149 148 150 149
147 149 148 146 148 147 145 147 146 145 147 146 148 150 149
148 150 149 148 150 149 148 150 149 148 150 149 148 150 149
148 150 149 148 150 149 148 150 149 148 150 149 148 150 149
148 150 149 148 150 149 148 150 149 148 150 149 148 150 149
148 150 149 148 150 149 148 150 149 148 150 149 148 150 149
148 150 149 148 150 149 148 150 149 148 150 149 148 150 149
148 150 149 148 150 149 148 150 149 148 150 149 148 150 149
148 150 149 148 150 149 148 150 149 148 150 149 148 150 149
148 150 149 148 150 149 148 150 149 148 150 149 148 150 149
148 150 149 148 150 149 148 150 149 148 150 149 148 150 149
148 150 149 148 150 149 148 150 149 148 150 149 148 150 149
148 150 149 148 150 149 148 150 149 148 150 149 148 150 149
148 150 149 148 150 149 148 150 149 148 150 149 148 150 149
148 150 149 148 150 149 148 150 149 148 150 149 148 150 149
148 150 149 148 150 149 148 150 149 148 150 149 148 150 149
148 150 149 146 148 147 146 148 147 147 149 148 148 150 149
149 151 150 148 150 149 144 146 145 141 143 142 138 138 138
132 132 132 130 130 130 136 136 136 140 140 140 137 137 137
133 133 133 131 131 131 142 142 142 188 188 188 238 238 238
255 255 255 255 255 255 251 251 251 251 251 251 253 253 253
252 252 252 253 253 253 254 254 254 255 255 255 255 255 255
255 255 255 255 255 255 254 254 254 254 254 254 254 254 254
254 254 254 254 254 254 254 254 254 254 254 254 254 254 254
254 254 254 254 254 254 254 254 254 254 254 254 254 254 254
254 254 254 254 254 254 254 254 254 254 254 254 254 254 254
254 254 254 254 254 254 254 254 254 254 254 254 254 254 254
254 254 254 254 254 254 254 254 254 254 254 254 254 254 254
254 254 254 254 254 254 254 254 254 254 254 254 254 254 254
254 254 254 254 254 254 254 254 254 254 254 254 254 254 254
254 254 254 254 254 254 254 254 254 254 254 254 254 254 254
254 254 254 254 254 254 254 254 254 254 254 254 254 254 254
254 254 254 255 255 255 254 254 254 253 253 253 252 252 252
252 252 252 253 253 253 254 254 254 255 255 255 255 255 255
255 255 255 254 254 254 254 254 254 255 255 255 255 255 255
254 254 254 252 252 252 254 254 254 250 250 250 245 245 245
243 243 243 245 245 245 247 247 247 247 247 247 246 246 246
223 225 224 191 195 194 155 159 158 138 142 141 139 143 142
141 145 144 133 137 136 123 127 126 113 117 116 102 106 105
104 108 107 123 127 126 133 137 136 128 132 131 123 127 126
126 130 129 133 137 136 132 136 135 131 135 134 129 134 130
128 133 129 126 131 127 125 130 126 125 130 126 132 137 133
133 138 134 135 139 138 135 139 140 133 137 140 129 133 136
125 128 133 122 127 131 116 124 126 121 131 132 133 141 143
149 155 155 169 173 172 195 197 194 223 222 217 242 238 227
252 243 228 255 253 232 255 248 221 241 218 186 223 195 156
228 196 155 233 201 154 233 197 147 241 201 150 242 201 149
243 200 147 243 200 147 243 200 147 243 200 149 242 198 149
241 199 151 236 198 153 229 194 152 226 193 158 223 197 164
221 197 169 207 187 162 182 166 143 160 149 131 173 167 153
175 171 160 174 171 162 171 168 161 169 168 163 173 174 169
176 176 174 175 177 174 168 168 168 168 168 168 168 168 168
169 167 168 171 167 168 171 167 168 172 166 166 171 167 166
171 171 171 171 173 172 171 173 172 172 174 173 172 174 173
171 173 172 170 172 171 170 172 171 169 171 170 169 171 170
169 171 170 169 171 170 169 171 170 169 171 170 169 171 170
169 171 170 171 173 172 171 173 172 171 173 172 172 174 173
172 174 173 172 174 173 173 175 174 173 175 174 170 172 171
170 172 171 170 172 171 170 172 171 170 172 171 170 172 171
170 172 171 171 171 171 172 171 169 172 168 165 171 167 164
172 168 165 174 170 167 175 171 168 176 171 168 178 170 167
178 167 163 177 162 157 168 151 143 162 142 131 170 147 133
191 165 150 214 185 169 225 197 175 232 203 171 233 205 165
233 204 160 232 200 153 229 193 141 231 192 135 234 194 133
241 197 134 245 199 137 249 203 141 250 204 142 246 201 142
241 199 141 243 200 147 241 200 148 235 198 153 216 191 151
201 181 148 179 162 132 161 147 120 155 144 124 157 150 132
156 154 142 152 152 144 153 155 152 148 149 151 139 143 146
135 139 142 136 137 141 136 137 141 138 137 142 138 137 142
136 138 137 136 138 137 136 138 137 135 137 136 135 137 136
134 136 135 134 136 135 134 136 135 133 135 134 133 135 134
133 135 134 133 135 134 133 135 134 133 135 134 133 135 134
133 135 134 134 136 135 136 138 137 135 137 136 131 133 132
129 131 130 125 127 126 114 116 115 103 105 104 96 98 97 105 107 106
122 124 123 137 139 138 141 143 142 136 138 137 134 136 135
136 138 137 151 153 152 151 153 152 151 153 152 151 153 152
150 152 151 149 151 150 147 149 148 147 149 148 148 150 149
148 150 149 148 150 149 148 150 149 147 149 148 147 149 148
147 149 148 147 149 148 148 150 149 148 150 149 148 150 149
148 150 149 148 150 149 148 150 149 148 150 149 148 150 149
148 150 149 148 150 149 148 150 149 148 150 149 148 150 149
148 150 149 148 150 149 148 150 149 148 150 149 148 150 149
148 150 149 148 150 149 148 150 149 148 150 149 148 150 149
148 150 149 148 150 149 148 150 149 148 150 149 148 150 149
148 150 149 148 150 149 148 150 149 148 150 149 148 150 149
148 150 149 148 150 149 148 150 149 148 150 149 148 150 149
148 150 149 148 150 149 148 150 149 148 150 149 148 150 149
148 150 149 148 150 149 148 150 149 148 150 149 148 150 149
148 150 149 148 150 149 148 150 149 148 150 149 148 150 149
148 150 149 148 150 149 148 150 149 148 150 149 148 150 149
148 150 149 148 150 149 148 150 149 148 150 149 148 150 149
148 150 149 148 150 149 148 150 149 148 150 149 148 150 149
148 150 149 148 150 149 148 150 149 148 150 149 146 148 147
146 148 147 146 148 147 148 150 149 150 152 151 149 151 150
145 147 146 143 145 144 138 138 138 131 131 131 128 128 128
133 133 133 138 138 138 137 137 137 135 135 135 134 134 134
128 128 128 173 173 173 225 225 225 253 253 253 255 255 255
253 253 253 252 252 252 252 252 252 252 252 252 253 253 253
254 254 254 255 255 255 255 255 255 255 255 255 255 255 255
254 254 254 254 254 254 254 254 254 254 254 254 254 254 254
254 254 254 254 254 254 254 254 254 254 254 254 254 254 254
254 254 254 254 254 254 254 254 254 254 254 254 254 254 254
254 254 254 254 254 254 254 254 254 254 254 254 254 254 254
254 254 254 254 254 254 254 254 254 254 254 254 254 254 254
254 254 254 254 254 254 254 254 254 254 254 254 254 254 254
254 254 254 254 254 254 254 254 254 254 254 254 254 254 254
254 254 254 254 254 254 254 254 254 254 254 254 254 254 254
254 254 254 254 254 254 254 254 254 254 254 254 254 254 254
254 254 254 254 254 254 254 254 254 254 254 254 254 254 254
254 254 254 253 253 253 253 253 253 253 253 253 253 253 253
254 254 254 254 254 254 255 255 255 254 254 254 254 254 254
254 254 254 255 255 255 255 255 255 253 253 253 251 251 251
248 248 248 252 252 252 254 254 254 250 250 250 244 244 244
240 240 240 242 242 242 245 245 245 243 245 244 234 236 235
215 217 216 188 190 189 160 162 161 139 141 140 127 129 128
124 126 125 110 112 111 101 103 102 106 108 107 126 128 127
138 140 139 132 134 133 126 128 127 127 129 128 131 132 134
130 131 133 129 130 132 128 130 129 127 129 128 126 128 127
126 128 127 125 127 126 135 137 136 134 135 137 133 134 136
132 133 137 131 132 136 130 131 136 129 129 137 126 129 134
136 144 146 154 164 165 184 193 192 212 218 216 233 235 232
245 244 239 255 251 240 255 255 239 250 238 216 255 242 216
255 236 204 245 219 182 236 204 163 235 201 155 236 200 152
235 198 146 240 199 147 240 197 146 237 194 143 235 192 141
234 191 140 234 192 142 236 194 146 237 196 152 242 205 163
237 205 166 230 201 169 217 192 162 198 176 152 174 156 134
153 138 119 139 127 113 165 158 148 171 166 160 175 172 165
173 170 165 172 169 164 174 173 169 176 175 173 172 172 170
174 172 173 173 171 172 173 171 172 174 170 171 174 170 171
173 169 170 173 167 169 172 168 169 170 170 170 169 171 170
169 171 170 169 171 170 168 170 169 167 169 168 166 168 167
165 167 166 165 167 166 166 168 167 166 168 167 167 169 168
167 169 168 168 170 169 169 171 170 169 171 170 174 176 175
173 175 174 172 174 173 171 173 172 169 171 170 168 170 169
167 169 168 166 168 167 171 173 172 171 173 172 172 174 173
172 174 173 171 173 172 169 171 170 167 169 168 167 167 167
166 165 163 168 167 165 170 169 167 171 170 168 170 169 167
170 169 167 174 170 169 177 172 169 171 163 160 163 152 148
155 142 134 155 138 128 159 141 127 171 149 135 187 164 150
201 179 158 218 195 164 222 200 163 228 203 163 230 203 158
229 199 149 229 196 142 235 196 139 239 199 138 247 203 140
250 204 142 249 203 141 244 198 138 242 197 138 245 200 143
245 200 145 238 198 147 238 206 165 225 199 164 203 180 148
176 157 127 160 144 121 158 145 126 158 150 137 155 151 140
152 151 146 149 149 147 145 146 148 144 145 149 144 145 149
143 144 149 141 142 147 140 141 145 139 141 140 138 140 137
137 139 136 136 138 135 135 137 134 134 136 133 133 135 134
133 135 134 133 135 134 133 135 134 133 134 136 133 134 136
133 134 136 133 134 136 133 134 136 133 134 136 134 136 135
136 138 137 135 137 136 132 134 133 130 132 131 125 127 126
114 116 115 102 104 103 97 99 98 108 110 109 125 127 126 139 141 140
143 145 144 140 142 141 140 142 141 142 144 143 154 156 155
153 155 154 151 153 152 150 152 151 149 151 150 148 150 149
148 150 149 148 150 149 148 150 149 148 150 149 148 150 149
148 150 149 148 150 149 149 151 150 149 151 150 150 152 151
148 150 149 148 150 149 148 150 149 148 150 149 148 150 149
148 150 149 148 150 149 148 150 149 148 150 149 148 150 149
148 150 149 148 150 149 148 150 149 148 150 149 148 150 149
148 150 149 148 150 149 148 150 149 148 150 149 148 150 149
148 150 149 148 150 149 148 150 149 148 150 149 148 150 149
148 150 149 148 150 149 148 150 149 148 150 149 148 150 149
148 150 149 148 150 149 148 150 149 148 150 149 148 150 149
148 150 149 148 150 149 148 150 149 148 150 149 148 150 149
148 150 149 148 150 149 148 150 149 148 150 149 148 150 149
148 150 149 148 150 149 148 150 149 148 150 149 148 150 149
148 150 149 148 150 149 148 150 149 148 150 149 148 150 149
148 150 149 148 150 149 148 150 149 148 150 149 148 150 149
148 150 149 148 150 149 148 150 149 148 150 149 148 150 149
148 150 149 148 150 149 148 150 149 148 150 149 148 150 149
148 150 149 148 150 149 145 147 146 145 147 146 146 148 147
148 150 149 150 152 151 149 151 150 146 148 147 144 146 145
137 137 137 131 131 131 129 129 129 134 134 134 138 138 138
137 137 137 135 135 135 135 135 135 125 125 125 159 159 159
205 205 205 238 238 238 253 253 253 255 255 255 251 251 251
247 247 247 252 252 252 253 253 253 254 254 254 255 255 255
255 255 255 255 255 255 255 255 255 254 254 254 254 254 254
254 254 254 254 254 254 254 254 254 254 254 254 254 254 254
254 254 254 254 254 254 254 254 254 254 254 254 254 254 254
254 254 254 254 254 254 254 254 254 254 254 254 254 254 254
254 254 254 254 254 254 254 254 254 254 254 254 254 254 254
254 254 254 254 254 254 254 254 254 254 254 254 254 254 254
254 254 254 254 254 254 254 254 254 254 254 254 254 254 254
254 254 254 254 254 254 254 254 254 254 254 254 254 254 254
254 254 254 254 254 254 254 254 254 254 254 254 254 254 254
254 254 254 254 254 254 254 254 254 254 254 254 254 254 254
254 254 254 254 254 254 253 253 253 253 253 253 253 253 253
253 253 253 253 253 253 253 253 253 253 253 253 253 253 253
254 254 254 253 253 253 253 253 253 254 254 254 255 255 255
255 255 255 252 252 252 249 249 249 250 250 250 252 252 252
255 255 255 255 255 255 252 252 252 251 251 251 252 252 252
254 254 254 250 252 251 250 252 251 246 248 247 234 236 235
213 215 214 183 185 184 154 156 155 136 138 137 112 114 113
105 107 106 113 115 114 136 138 137 150 152 151 146 148 147
141 143 142 142 144 143 134 135 137 134 135 137 134 135 137
133 134 136 133 134 136 133 134 136 133 134 136 133 134 136
124 125 129 125 126 130 127 128 132 131 132 136 138 139 144
147 148 153 155 155 163 158 161 166 193 201 203 210 219 218
233 239 237 249 254 250 255 255 250 253 251 239 251 244 228
251 240 218 255 253 227 255 235 204 242 216 179 234 205 163
228 195 150 225 189 141 229 192 140 239 199 147 242 201 149
240 197 146 237 194 143 234 192 142 234 192 144 237 196 150
240 202 157 242 205 163 236 202 164 234 204 170 225 200 170
203 181 157 175 157 135 153 138 119 144 131 115 141 131 121
158 151 143 166 163 158 174 171 166 174 170 167 174 170 167
177 173 170 176 172 171 169 168 166 180 176 177 180 176 177
179 175 176 178 174 175 177 173 174 176 172 173 175 171 172
174 170 171 160 160 160 159 161 160 159 161 160 159 161 160
157 159 158 156 158 157 154 156 155 153 155 154 154 156 155
155 157 156 155 157 156 157 159 158 158 160 159 159 161 160
160 162 161 160 162 161 159 161 160 160 162 161 162 164 163
164 166 165 167 169 168 170 172 171 171 173 172 173 175 174
171 173 172 172 174 173 172 174 173 172 174 173 171 173 172
168 170 169 164 166 165 162 164 163 159 159 157 165 165 163
169 171 168 170 172 169 167 169 166 166 168 165 168 170 167
173 173 171 167 163 160 154 149 145 148 141 133 152 142 133
157 145 133 158 145 129 166 150 135 178 161 141 198 181 153
207 191 157 220 200 163 228 205 164 231 204 159 233 203 153
238 203 149 244 205 148 247 207 146 247 206 144 245 201 140
241 195 135 241 195 135 246 200 141 247 201 142 242 199 148
248 211 167 239 209 171 223 194 160 194 169 138 170 149 122
161 143 121 157 144 127 152 144 131 151 147 138 150 146 143
148 148 146 150 150 152 150 151 155 149 150 155 145 146 151
141 142 146 140 142 141 140 142 139 138 140 137 137 139 136
135 137 134 134 136 133 133 135 134 132 134 133 133 135 134
133 135 134 133 134 136 133 134 136 133 134 136 133 134 136
133 134 136 133 134 136 131 133 132 134 136 135 135 137 136
135 137 136 135 137 136 132 134 133 121 123 122 110 112 111
112 114 113 122 124 123 137 139 138 148 150 149 150 152 151
149 151 150 149 151 150 152 154 153 152 154 153 151 153 152
150 152 151 148 150 149 148 150 149 149 151 150 150 152 151
151 153 152 148 150 149 148 150 149 148 150 149 148 150 149
149 151 150 150 152 151 151 153 152 152 154 153 148 150 149
148 150 149 148 150 149 148 150 149 148 150 149 148 150 149
148 150 149 148 150 149 148 150 149 148 150 149 148 150 149
148 150 149 148 150 149 148 150 149 148 150 149 148 150 149
148 150 149 148 150 149 148 150 149 148 150 149 148 150 149
148 150 149 148 150 149 148 150 149 148 150 149 148 150 149
148 150 149 148 150 149 148 150 149 148 150 149 148 150 149
148 150 149 148 150 149 148 150 149 148 150 149 148 150 149
148 150 149 148 150 149 148 150 149 148 150 149 148 150 149
148 150 149 148 150 149 148 150 149 148 150 149 148 150 149
148 150 149 148 150 149 148 150 149 148 150 149 148 150 149
148 150 149 148 150 149 148 150 149 148 150 149 148 150 149
148 150 149 148 150 149 148 150 149 148 150 149 148 150 149
148 150 149 148 150 149 148 150 149 148 150 149 148 150 149
148 150 149 148 150 149 148 150 149 148 150 149 148 150 149
148 150 149 145 147 146 145 147 146 146 148 147 149 151 150
150 152 151 150 152 151 147 149 148 144 146 145 137 137 137
132 132 132 132 132 132 136 136 136 139 139 139 136 136 136
134 134 134 134 134 134 127 127 127 151 151 151 188 188 188
224 224 224 249 249 249 255 255 255 251 251 251 242 242 242
252 252 252 253 253 253 254 254 254 255 255 255 255 255 255
255 255 255 255 255 255 254 254 254 254 254 254 254 254 254
254 254 254 254 254 254 254 254 254 254 254 254 254 254 254
254 254 254 254 254 254 254 254 254 254 254 254 254 254 254
254 254 254 254 254 254 254 254 254 254 254 254 254 254 254
254 254 254 254 254 254 254 254 254 254 254 254 254 254 254
254 254 254 254 254 254 254 254 254 254 254 254 254 254 254
254 254 254 254 254 254 254 254 254 254 254 254 254 254 254
254 254 254 254 254 254 254 254 254 254 254 254 254 254 254
254 254 254 254 254 254 254 254 254 254 254 254 254 254 254
254 254 254 254 254 254 254 254 254 254 254 254 254 254 254
254 254 254 254 254 254 254 254 254 254 254 254 254 254 254
254 254 254 254 254 254 254 254 254 254 254 254 254 254 254
254 254 254 254 254 254 254 254 254 254 254 254 254 254 254
254 254 254 254 254 254 248 248 248 249 249 249 250 250 250
251 251 251 252 252 252 252 252 252 252 252 252 252 252 252
254 255 255 253 255 254 250 252 251 252 254 253 254 255 255
248 250 249 233 235 234 219 221 220 182 184 183 151 153 152
124 126 125 121 123 122 127 129 128 130 132 131 135 137 136
142 144 143 138 140 139 140 142 141 143 144 146 145 146 148
145 146 150 142 143 147 139 140 144 137 138 142 118 119 124
122 123 128 131 132 137 148 149 154 172 173 178 198 199 204
221 222 227 233 236 241 240 245 248 248 254 252 251 255 252
247 248 242 247 245 233 253 247 231 255 249 227 255 248 221
255 235 204 242 218 180 227 198 158 224 191 146 228 192 144
232 195 143 238 198 146 244 203 151 247 206 154 233 191 141
239 197 147 244 204 155 231 193 146 237 200 156 249 214 174
242 210 172 241 211 177 225 198 169 199 177 153 170 152 132
149 133 117 139 127 113 141 131 121 147 138 131 156 151 147
167 163 160 174 170 167 170 166 163 170 166 163 177 173 170
175 171 168 166 162 159 166 160 160 165 161 160 165 161 162
165 161 162 165 161 162 165 161 162 165 160 164 163 161 164
154 154 154 153 155 154 153 155 154 153 155 154 153 155 154
153 155 154 153 155 154 153 155 154 158 160 159 157 159 158
156 158 157 154 156 155 152 154 153 150 152 151 149 151 150
148 150 149 146 148 147 147 149 148 149 151 150 151 153 152
153 155 154 156 158 157 157 159 158 158 160 159 168 170 169
168 170 169 168 170 169 169 171 170 169 171 170 170 172 171
170 172 171 170 172 171 167 171 170 169 175 173 168 174 172
162 168 166 158 167 164 162 171 168 164 173 170 166 172 168
156 161 157 155 157 152 154 155 147 157 154 145 160 156 144
161 155 141 159 152 136 156 148 129 171 159 133 186 172 143
206 190 157 221 203 167 230 208 167 232 208 162 237 207 157
239 206 152 236 200 142 237 197 138 237 195 135 239 194 135
241 195 136 246 200 141 253 204 146 253 207 155 244 203 159
236 201 163 238 204 167 233 203 169 204 177 148 166 144 120
154 136 116 162 149 133 162 152 142 157 150 142 153 149 146
152 151 149 154 154 156 154 153 158 149 150 154 145 146 148
142 144 141 142 144 139 143 145 140 142 144 139 141 143 140
140 142 139 138 140 139 137 139 138 139 141 140 139 141 140
139 140 142 139 140 142 139 140 144 139 140 144 139 140 144
139 140 142 134 136 135 134 136 135 135 137 136 136 138 137
137 139 138 138 140 139 138 140 139 139 141 140 136 138 137
141 143 142 148 150 149 154 156 155 156 158 157 155 157 156
152 154 153 149 151 150 148 150 149 148 150 149 148 150 149
148 150 149 148 150 149 148 150 149 148 150 149 148 150 149
148 150 149 148 150 149 148 150 149 148 150 149 148 150 149
148 150 149 148 150 149 148 150 149 148 150 149 148 150 149
148 150 149 148 150 149 148 150 149 148 150 149 148 150 149
148 150 149 148 150 149 148 150 149 148 150 149 148 150 149
148 150 149 148 150 149 148 150 149 148 150 149 148 150 149
148 150 149 148 150 149 148 150 149 148 150 149 148 150 149
148 150 149 148 150 149 148 150 149 148 150 149 148 150 149
148 150 149 148 150 149 148 150 149 148 150 149 148 150 149
148 150 149 148 150 149 148 150 149 148 150 149 148 150 149
148 150 149 148 150 149 148 150 149 148 150 149 148 150 149
148 150 149 148 150 149 148 150 149 148 150 149 148 150 149
148 150 149 148 150 149 148 150 149 148 150 149 148 150 149
148 150 149 148 150 149 148 150 149 148 150 149 148 150 149
148 150 149 148 150 149 148 150 149 148 150 149 148 150 149
148 150 149 148 150 149 151 153 152 149 151 150 147 149 148
147 149 148 149 151 150 150 152 151 150 152 151 149 151 150
146 148 147 147 149 148 148 150 149 150 152 151 151 153 152
149 151 150 145 147 146 141 143 142 137 137 137 134 134 134
131 131 131 133 133 133 138 138 138 139 139 139 136 136 136
132 132 132 124 124 124 138 138 138 157 157 157 201 201 201
252 252 252 255 255 255 245 245 245 252 252 252 252 252 252
253 253 253 254 254 254 255 255 255 255 255 255 255 255 255
255 255 255 254 254 254 254 254 254 254 254 254 254 254 254
254 254 254 254 254 254 254 254 254 254 254 254 254 254 254
254 254 254 254 254 254 254 254 254 254 254 254 254 254 254
254 254 254 254 254 254 254 254 254 254 254 254 254 254 254
254 254 254 254 254 254 254 254 254 254 254 254 254 254 254
254 254 254 254 254 254 254 254 254 254 254 254 254 254 254
254 254 254 254 254 254 254 254 254 254 254 254 254 254 254
254 254 254 254 254 254 254 254 254 254 254 254 254 254 254
254 254 254 254 254 254 254 254 254 254 254 254 254 254 254
254 254 254 254 254 254 254 254 254 254 254 254 254 254 254
254 254 254 254 254 254 254 254 254 254 254 254 254 254 254
254 254 254 254 254 254 254 254 254 254 254 254 254 254 254
254 254 254 254 254 254 254 254 254 254 254 254 254 254 254
254 254 254 252 252 252 252 252 252 251 251 251 250 250 250
249 249 249 249 249 249 248 248 248 248 248 248 253 255 254
251 253 252 251 253 252 254 255 255 254 255 255 254 255 255
244 246 245 236 238 237 241 243 242 220 222 221 201 203 202
190 192 191 175 177 176 154 156 155 140 142 141 138 140 139
125 127 126 126 128 127 129 131 130 131 132 134 134 135 139
137 138 142 139 140 145 140 141 146 168 169 174 177 178 183
193 194 199 211 212 217 228 229 234 242 243 248 251 252 255
254 255 255 244 248 249 248 253 249 252 253 247 249 249 237
254 248 232 255 250 229 255 245 218 255 238 206 242 218 180
234 207 164 228 197 151 230 196 148 236 198 149 238 198 146
240 199 145 241 200 148 247 205 155 236 196 147 243 203 154
244 206 161 234 197 153 236 203 162 239 207 169 223 194 162
210 185 155 193 171 147 170 152 132 153 137 122 143 131 119
139 130 121 141 132 127 140 135 131 147 146 144 161 159 160
170 169 167 170 166 165 170 166 165 175 171 168 175 170 167
168 163 160 169 163 163 169 163 163 168 164 165 168 164 165
168 164 165 166 164 165 166 164 167 165 165 167 167 169 168
167 169 168 167 169 168 167 169 168 167 169 168 167 169 168
167 169 168 167 169 168 169 171 170 168 170 169 168 170 169
167 169 168 167 169 168 166 168 167 166 168 167 166 168 167
161 163 162 161 163 162 160 162 161 159 161 160 158 160 159
157 159 158 156 158 157 155 157 156 162 164 163 163 165 164
165 167 166 168 170 169 171 173 172 173 175 174 175 177 176
174 178 177 170 176 174 171 180 177 171 180 177 164 175 171
160 170 169 159 171 169 159 171 169 158 169 165 149 158 155
147 156 151 147 154 146 149 155 145 153 155 142 154 155 141
153 151 136 151 148 129 156 150 128 167 157 132 181 170 142
199 184 153 214 196 160 225 203 162 229 205 159 233 203 153
232 199 146 234 197 142 235 196 139 238 196 138 243 198 141
245 198 142 243 196 140 240 194 142 245 202 157 239 200 159
240 202 165 237 203 166 220 189 158 192 165 136 173 151 127
168 150 130 166 153 137 162 152 142 159 152 144 155 152 147
151 150 148 151 151 151 153 153 155 154 156 155 147 149 146
146 148 143 144 146 141 143 145 140 142 144 141 142 144 141
143 145 144 143 145 144 142 144 143 142 144 143 142 143 145
142 143 145 142 143 147 142 143 147 142 143 147 142 143 147
141 142 144 142 144 143 142 144 143 143 145 144 144 146 145
145 147 146 145 147 146 146 148 147 149 151 150 150 152 151
152 154 153 153 155 154 153 155 154 152 154 153 150 152 151
148 150 149 148 150 149 148 150 149 148 150 149 148 150 149
148 150 149 148 150 149 148 150 149 148 150 149 148 150 149
148 150 149 148 150 149 148 150 149 148 150 149 148 150 149
148 150 149 148 150 149 148 150 149 148 150 149 148 150 149
148 150 149 148 150 149 148 150 149 148 150 149 148 150 149
148 150 149 148 150 149 148 150 149 148 150 149 148 150 149
148 150 149 148 150 149 148 150 149 148 150 149 148 150 149
148 150 149 148 150 149 148 150 149 148 150 149 148 150 149
148 150 149 148 150 149 148 150 149 148 150 149 148 150 149
148 150 149 148 150 149 148 150 149 148 150 149 148 150 149
148 150 149 148 150 149 148 150 149 148 150 149 148 150 149
148 150 149 148 150 149 148 150 149 148 150 149 148 150 149
148 150 149 148 150 149 148 150 149 148 150 149 148 150 149
148 150 149 148 150 149 148 150 149 148 150 149 148 150 149
148 150 149 148 150 149 148 150 149 148 150 149 148 150 149
148 150 149 148 150 149 148 150 149 148 150 149 148 150 149
148 150 149 150 152 151 149 151 150 147 149 148 148 150 149
149 151 150 150 152 151 150 152 151 148 150 149 143 145 144
144 146 145 146 148 147 150 152 151 152 154 153 151 153 152
148 150 149 145 147 146 134 134 134 131 131 131 128 128 128
130 130 130 136 136 136 141 141 141 141 141 141 139 139 139
128 128 128 132 132 132 145 145 145 190 190 190 243 243 243
254 254 254 246 246 246 255 255 255 252 252 252 253 253 253
254 254 254 255 255 255 255 255 255 255 255 255 255 255 255
254 254 254 254 254 254 254 254 254 254 254 254 254 254 254
254 254 254 254 254 254 254 254 254 254 254 254 254 254 254
254 254 254 254 254 254 254 254 254 254 254 254 254 254 254
254 254 254 254 254 254 254 254 254 254 254 254 254 254 254
254 254 254 254 254 254 254 254 254 254 254 254 254 254 254
254 254 254 254 254 254 254 254 254 254 254 254 254 254 254
254 254 254 254 254 254 254 254 254 254 254 254 254 254 254
254 254 254 254 254 254 254 254 254 254 254 254 254 254 254
254 254 254 254 254 254 254 254 254 254 254 254 254 254 254
254 254 254 254 254 254 254 254 254 254 254 254 254 254 254
254 254 254 254 254 254 254 254 254 254 254 254 254 254 254
254 254 254 254 254 254 254 254 254 254 254 254 254 254 254
254 254 254 254 254 254 254 254 254 254 254 254 254 254 254
253 253 253 252 252 252 250 250 250 248 248 248 248 248 248
248 248 248 249 249 249 249 249 249 247 247 247 248 248 248
250 250 250 253 253 253 255 255 255 254 254 254 250 250 250
246 246 246 255 255 255 255 255 255 253 253 253 248 248 248
232 232 232 209 209 209 195 195 195 194 194 194 180 180 178
180 180 178 180 180 180 182 182 184 186 185 190 191 190 195
196 195 201 200 199 205 225 224 232 233 232 240 244 243 249
254 253 255 255 254 255 255 254 255 252 251 255 248 248 250
248 248 246 249 250 244 252 249 240 253 250 235 255 251 230
255 249 223 255 239 206 250 228 191 234 207 164 230 199 153
228 194 146 234 198 148 239 202 150 242 202 150 244 203 149
246 205 153 244 204 155 236 198 151 237 200 155 235 201 156
232 199 158 237 207 169 232 206 173 210 186 158 176 156 132
159 142 124 142 128 115 134 124 114 139 130 123 140 135 131
139 133 133 131 129 130 139 139 141 154 154 156 166 166 166
168 167 165 169 165 164 173 169 168 174 169 166 169 164 161
172 167 164 172 167 164 171 167 166 171 167 168 169 167 168
168 168 170 168 167 172 167 168 170 172 174 173 172 174 173
172 174 173 172 174 173 172 174 173 172 174 173 172 174 173
172 174 173 170 172 171 170 172 171 170 172 171 171 173 172
172 174 173 173 175 174 173 175 174 174 176 175 174 176 175
173 175 174 170 172 171 167 169 168 164 166 165 161 163 162
159 161 160 158 160 159 156 158 157 157 159 158 160 162 161
163 165 164 166 168 167 169 171 170 171 173 172 170 174 173
169 178 175 172 183 179 173 183 182 166 178 176 159 171 171
154 168 168 149 163 163 144 159 156 141 153 151 140 152 148
140 151 143 142 152 143 147 153 143 147 153 141 147 151 137
147 150 133 147 144 125 149 142 123 153 145 122 166 156 129
188 174 145 207 191 157 222 203 163 231 207 163 231 203 156
232 200 151 235 199 147 240 200 148 245 202 149 248 202 150
245 199 147 242 196 146 244 201 156 241 200 156 239 200 159
240 202 165 236 202 167 222 191 160 198 172 145 179 157 134
159 141 121 161 145 130 158 148 136 154 147 137 149 144 138
148 144 141 150 149 147 153 153 151 151 153 148 149 152 145
146 149 142 144 147 140 144 146 141 146 148 143 148 150 147
150 152 151 146 148 147 146 147 149 146 147 151 146 147 151
146 147 152 146 147 152 146 147 152 146 147 151 147 148 150
148 150 149 148 150 149 149 151 150 150 152 151 150 152 151
151 153 152 151 153 152 156 158 157 155 157 156 152 154 153
150 152 151 148 150 149 148 150 149 148 150 149 148 150 149
148 150 149 148 150 149 148 150 149 148 150 149 148 150 149
148 150 149 148 150 149 148 150 149 148 150 149 148 150 149
148 150 149 148 150 149 148 150 149 148 150 149 148 150 149
148 150 149 148 150 149 148 150 149 148 150 149 148 150 149
148 150 149 148 150 149 148 150 149 148 150 149 148 150 149
148 150 149 148 150 149 148 150 149 148 150 149 148 150 149
148 150 149 148 150 149 148 150 149 148 150 149 148 150 149
148 150 149 148 150 149 148 150 149 148 150 149 148 150 149
148 150 149 148 150 149 148 150 149 148 150 149 148 150 149
148 150 149 148 150 149 148 150 149 148 150 149 148 150 149
148 150 149 148 150 149 148 150 149 148 150 149 148 150 149
148 150 149 148 150 149 148 150 149 148 150 149 148 150 149
148 150 149 148 150 149 148 150 149 148 150 149 148 150 149
148 150 149 148 150 149 148 150 149 148 150 149 148 150 149
148 150 149 148 150 149 148 150 149 148 150 149 148 150 149
148 150 149 148 150 149 148 150 149 148 150 149 148 150 149
150 152 151 149 151 150 147 149 148 148 150 149 149 151 150
150 152 151 149 151 150 147 149 148 144 146 145 145 147 146
147 149 148 151 153 152 153 155 154 152 154 153 148 150 149
145 147 146 135 135 135 131 131 131 127 127 127 129 129 129
134 134 134 139 139 139 141 141 141 141 141 141 133 133 133
125 125 125 133 133 133 178 178 178 232 232 232 249 249 249
247 247 247 255 255 255 252 252 252 253 253 253 254 254 254
255 255 255 255 255 255 255 255 255 255 255 255 254 254 254
254 254 254 254 254 254 254 254 254 254 254 254 254 254 254
254 254 254 254 254 254 254 254 254 254 254 254 254 254 254
254 254 254 254 254 254 254 254 254 254 254 254 254 254 254
254 254 254 254 254 254 254 254 254 254 254 254 254 254 254
254 254 254 254 254 254 254 254 254 254 254 254 254 254 254
254 254 254 254 254 254 254 254 254 254 254 254 254 254 254
254 254 254 254 254 254 254 254 254 254 254 254 254 254 254
254 254 254 254 254 254 254 254 254 254 254 254 254 254 254
254 254 254 254 254 254 254 254 254 254 254 254 254 254 254
254 254 254 254 254 254 254 254 254 254 254 254 254 254 254
254 254 254 254 254 254 254 254 254 254 254 254 254 254 254
254 254 254 254 254 254 254 254 254 254 254 254 254 254 254
254 254 254 254 254 254 254 254 254 254 254 254 252 252 252
250 250 250 249 249 249 248 248 248 249 249 249 251 251 251
254 254 254 255 255 255 249 249 249 251 251 251 252 252 252
253 253 253 252 252 252 250 250 250 250 250 250 250 250 250
249 249 249 250 250 250 255 255 255 255 255 255 255 255 255
251 251 251 252 252 252 255 255 253 250 251 246 249 250 245
247 247 245 247 247 247 248 248 250 251 250 255 254 253 255
255 254 255 252 251 255 252 251 255 253 252 255 252 251 255
249 248 253 246 246 248 242 242 244 240 240 238 247 246 241
251 248 239 253 249 237 255 250 232 255 247 223 255 240 209
250 228 191 243 218 177 237 209 162 232 200 149 231 195 143
233 196 143 237 197 145 240 200 148 247 206 154 252 212 160
249 211 164 243 206 161 232 198 153 223 191 150 223 193 155
228 202 169 217 193 165 193 173 149 155 138 120 142 128 115
131 121 112 131 124 118 137 131 131 140 138 139 136 134 139
129 128 133 132 133 137 148 149 153 162 163 165 167 167 167
169 168 166 173 169 168 173 169 166 172 167 164 174 169 166
173 169 166 173 169 168 171 170 168 170 170 172 169 170 172
169 170 174 167 171 172 168 169 171 168 170 169 168 170 169
168 170 169 168 170 169 168 170 169 168 170 169 168 170 169
165 167 166 166 168 167 166 168 167 167 169 168 168 170 169
169 171 170 170 172 171 170 172 171 173 175 174 172 174 173
172 174 173 170 172 171 169 171 170 168 170 169 167 169 168
167 169 168 162 164 163 162 164 163 162 164 163 163 165 164
164 166 165 165 167 166 165 167 166 163 167 166 167 173 171
169 180 176 171 181 180 165 177 175 157 169 169 149 163 163
142 156 156 135 149 149 135 149 149 137 149 147 138 151 144
140 151 143 143 153 144 145 153 142 146 152 140 147 151 137
149 150 136 145 142 125 141 136 117 145 139 117 162 152 127
187 173 144 208 192 158 223 204 164 232 207 166 235 206 162
238 206 159 241 205 157 242 202 153 241 199 149 241 197 148
242 198 151 241 197 150 242 199 154 240 197 155 237 198 157
241 206 168 240 207 172 220 191 161 196 170 143 162 140 117
162 144 124 159 146 129 156 147 132 152 143 134 148 144 135
148 145 138 148 147 142 152 153 147 150 153 146 148 151 144
147 150 143 147 149 144 149 151 146 151 153 150 152 154 151
148 149 151 148 149 151 148 149 153 148 149 153 148 149 154
148 149 154 148 149 154 148 149 153 148 149 151 148 150 149
148 150 149 149 151 150 149 151 150 150 152 151 150 152 151
150 152 151 151 153 152 149 151 150 148 150 149 146 148 147
146 148 147 147 149 148 148 150 149 149 151 150 148 150 149
148 150 149 148 150 149 148 150 149 148 150 149 148 150 149
148 150 149 148 150 149 148 150 149 148 150 149 148 150 149
148 150 149 148 150 149 148 150 149 148 150 149 148 150 149
148 150 149 148 150 149 148 150 149 148 150 149 148 150 149
148 150 149 148 150 149 148 150 149 148 150 149 148 150 149
148 150 149 148 150 149 148 150 149 148 150 149 148 150 149
148 150 149 148 150 149 148 150 149 148 150 149 148 150 149
148 150 149 148 150 149 148 150 149 148 150 149 148 150 149
148 150 149 148 150 149 148 150 149 148 150 149 148 150 149
148 150 149 148 150 149 148 150 149 148 150 149 148 150 149
148 150 149 148 150 149 148 150 149 148 150 149 148 150 149
148 150 149 148 150 149 148 150 149 148 150 149 148 150 149
148 150 149 148 150 149 148 150 149 148 150 149 148 150 149
148 150 149 148 150 149 148 150 149 148 150 149 148 150 149
148 150 149 148 150 149 148 150 149 148 150 149 148 150 149
148 150 149 148 150 149 148 150 149 148 150 149 150 152 151
148 150 149 147 149 148 148 150 149 149 151 150 149 151 150
148 150 149 146 148 147 148 150 149 148 150 149 150 152 151
153 155 154 153 155 154 150 152 151 144 146 145 140 142 141
138 138 138 135 135 135 132 132 132 132 132 132 133 133 133
135 135 135 134 134 134 133 133 133 137 137 137 123 123 123
129 129 129 173 173 173 223 223 223 245 245 245 247 247 247
250 250 250 252 252 252 253 253 253 254 254 254 255 255 255
255 255 255 255 255 255 255 255 255 254 254 254 254 254 254
254 254 254 254 254 254 254 254 254 254 254 254 254 254 254
254 254 254 254 254 254 254 254 254 254 254 254 254 254 254
254 254 254 254 254 254 254 254 254 254 254 254 254 254 254
254 254 254 254 254 254 254 254 254 254 254 254 254 254 254
254 254 254 254 254 254 254 254 254 254 254 254 254 254 254
254 254 254 254 254 254 254 254 254 254 254 254 254 254 254
254 254 254 254 254 254 254 254 254 254 254 254 254 254 254
254 254 254 254 254 254 254 254 254 254 254 254 254 254 254
254 254 254 254 254 254 254 254 254 254 254 254 254 254 254
254 254 254 254 254 254 254 254 254 254 254 254 254 254 254
254 254 254 254 254 254 254 254 254 254 254 254 254 254 254
254 254 254 254 254 254 254 254 254 254 254 254 254 254 254
254 254 254 254 254 254 254 254 254 254 254 254 253 253 253
251 251 251 250 250 250 251 251 251 253 253 253 255 255 255
255 255 255 255 255 255 255 255 255 255 255 255 255 255 255
254 254 254 253 253 253 254 254 254 255 255 255 254 254 254
251 251 251 251 251 251 254 254 254 255 255 255 255 255 255
255 255 255 255 255 253 255 255 250 255 255 250 255 255 251
255 255 253 255 255 255 255 254 255 254 253 255 254 253 255
253 252 255 252 251 255 249 248 254 248 247 253 248 247 252
251 251 253 254 254 254 255 255 251 252 249 240 255 250 238
255 251 233 255 246 224 250 235 206 240 222 186 236 211 170
235 207 160 238 206 155 234 201 148 234 199 145 235 198 143
236 197 142 235 195 143 240 200 148 246 206 155 250 213 168
245 211 166 231 199 158 221 191 153 223 194 160 214 189 159
185 165 140 159 142 122 141 129 115 135 126 117 130 125 121
132 128 127 136 134 139 137 138 143 135 135 143 130 133 140
128 133 139 141 146 150 157 161 164 166 167 169 169 169 169
172 171 169 175 171 168 174 170 167 173 170 165 173 169 166
171 170 168 170 170 168 169 170 172 167 171 172 166 171 174
166 172 172 167 171 172 169 171 170 169 171 170 169 171 170
169 171 170 169 171 170 169 171 170 169 171 170 168 170 169
168 170 169 168 170 169 169 171 170 169 171 170 169 171 170
169 171 170 169 171 170 168 170 169 168 170 169 168 170 169
169 171 170 170 172 171 170 172 171 171 173 172 171 173 172
172 174 173 172 174 173 171 173 172 171 173 172 170 172 171
169 171 170 169 171 170 169 171 170 164 168 169 169 175 175
172 177 180 165 173 175 157 167 169 150 161 163 142 153 155
135 147 147 136 148 148 137 149 147 140 151 147 143 152 147
145 152 145 146 153 145 147 153 143 150 153 142 153 153 141
152 150 137 148 146 131 147 141 125 150 143 124 163 153 128
180 166 139 192 176 143 213 193 158 224 201 160 237 208 166
242 209 166 239 202 158 234 196 151 234 193 149 235 192 147
238 194 149 242 199 154 240 197 152 236 194 152 238 201 159
244 209 171 234 201 166 215 186 154 194 170 142 184 164 139
171 155 132 160 147 128 154 145 130 153 145 132 152 145 135
148 145 136 149 150 142 148 151 142 149 152 145 150 153 146
150 152 147 150 152 147 149 151 148 149 151 148 148 149 151
148 149 151 148 149 153 148 149 153 148 149 154 148 149 154
148 148 156 148 149 154 147 148 150 147 149 148 147 149 148
147 149 148 148 150 149 148 150 149 148 150 149 148 150 149
146 148 147 147 149 148 147 149 148 148 150 149 148 150 149
148 150 149 149 151 150 149 151 150 148 150 149 148 150 149
148 150 149 148 150 149 148 150 149 148 150 149 148 150 149
148 150 149 148 150 149 148 150 149 148 150 149 148 150 149
148 150 149 148 150 149 148 150 149 148 150 149 148 150 149
148 150 149 148 150 149 148 150 149 148 150 149 148 150 149
148 150 149 148 150 149 148 150 149 148 150 149 148 150 149
148 150 149 148 150 149 148 150 149 148 150 149 148 150 149
148 150 149 148 150 149 148 150 149 148 150 149 148 150 149
148 150 149 148 150 149 148 150 149 148 150 149 148 150 149
148 150 149 148 150 149 148 150 149 148 150 149 148 150 149
148 150 149 148 150 149 148 150 149 148 150 149 148 150 149
148 150 149 148 150 149 148 150 149 148 150 149 148 150 149
148 150 149 148 150 149 148 150 149 148 150 149 148 150 149
148 150 149 148 150 149 148 150 149 148 150 149 148 150 149
148 150 149 148 150 149 148 150 149 148 150 149 148 150 149
148 150 149 148 150 149 148 150 149 148 150 149 148 150 149
148 150 149 148 150 149 148 150 149 149 151 150 148 150 149
148 150 149 148 150 149 149 151 150 149 151 150 146 148 147
144 146 145 147 149 148 148 150 149 151 153 152 153 155 154
153 155 154 150 152 151 143 145 144 138 140 139 137 137 137
136 136 136 136 136 136 136 136 136 135 135 135 133 133 133
130 130 130 127 127 127 140 140 140 127 127 127 134 134 134
170 170 170 211 211 211 240 240 240 248 248 248 243 243 243
252 252 252 253 253 253 254 254 254 255 255 255 255 255 255
255 255 255 255 255 255 254 254 254 254 254 254 254 254 254
254 254 254 254 254 254 254 254 254 254 254 254 254 254 254
254 254 254 254 254 254 254 254 254 254 254 254 254 254 254
254 254 254 254 254 254 254 254 254 254 254 254 254 254 254
254 254 254 254 254 254 254 254 254 254 254 254 254 254 254
254 254 254 254 254 254 254 254 254 254 254 254 254 254 254
254 254 254 254 254 254 254 254 254 254 254 254 254 254 254
254 254 254 254 254 254 254 254 254 254 254 254 254 254 254
254 254 254 254 254 254 254 254 254 254 254 254 254 254 254
254 254 254 254 254 254 254 254 254 254 254 254 254 254 254
254 254 254 254 254 254 254 254 254 254 254 254 254 254 254
254 254 254 254 254 254 254 254 254 254 254 254 254 254 254
254 254 254 254 254 254 254 254 254 254 254 254 254 254 254
254 254 254 254 254 254 255 255 255 255 255 255 255 255 255
253 253 253 253 253 253 253 253 253 253 253 253 254 254 254
252 252 252 254 254 254 255 255 255 255 255 255 254 254 254
254 254 254 255 255 255 255 255 255 255 255 255 254 254 254
252 252 252 253 253 253 255 255 255 255 255 255 251 251 251
247 247 245 251 252 246 252 253 245 253 254 248 253 254 249
252 252 252 251 251 253 249 248 253 247 246 252 251 250 255
251 250 255 251 250 255 252 251 255 253 253 255 254 254 254
255 255 253 255 255 250 255 252 242 255 251 235 255 246 228
251 237 211 239 220 188 226 204 165 223 196 151 227 197 147
231 198 145 234 199 143 238 201 146 241 204 149 238 199 144
232 192 140 231 191 140 234 196 147 231 197 151 235 202 159
229 200 160 233 205 168 237 212 181 211 190 163 166 148 126
138 125 108 134 124 114 131 126 120 130 129 127 132 131 136
134 134 142 133 136 145 133 137 148 131 138 148 127 134 142
136 143 149 150 155 159 161 165 166 169 171 170 172 172 170
173 172 168 175 171 168 173 170 165 171 170 165 170 170 168
169 171 168 167 171 172 166 172 172 164 172 174 166 171 174
168 172 173 170 172 171 170 172 171 170 172 171 170 172 171
170 172 171 170 172 171 170 172 171 171 173 172 170 172 171
170 172 171 170 172 171 170 172 171 169 171 170 169 171 170
169 171 170 167 169 168 167 169 168 168 170 169 168 170 169
168 170 169 168 170 169 169 171 170 169 171 170 171 173 172
171 173 172 171 173 172 171 173 172 171 173 172 171 173 172
171 173 172 171 173 172 167 168 170 172 173 175 172 176 179
167 171 174 159 164 168 152 160 163 145 155 157 139 149 151
137 147 149 140 150 151 143 152 151 147 153 151 147 152 148
148 153 147 151 154 147 153 154 146 150 151 143 154 154 144
159 157 145 156 154 141 152 146 130 149 142 123 152 142 117
158 144 117 175 159 126 194 174 139 218 192 155 235 205 167
241 207 169 242 204 165 243 204 163 245 203 161 239 196 151
244 200 153 242 199 154 236 195 149 236 197 154 239 204 162
238 204 166 228 198 162 229 202 172 211 187 159 187 167 142
166 151 128 157 144 125 153 144 127 152 145 129 148 144 132
148 150 139 148 151 142 149 152 145 150 153 146 150 152 147
149 151 146 147 149 146 146 148 145 148 149 151 148 149 151
148 149 153 148 149 153 148 149 154 148 149 154 148 148 156
148 149 154 148 149 151 148 150 149 148 150 149 148 150 149
148 150 149 148 150 149 148 150 149 148 150 149 149 151 150
150 152 151 151 153 152 151 153 152 151 153 152 150 152 151
148 150 149 147 149 148 148 150 149 148 150 149 148 150 149
148 150 149 148 150 149 148 150 149 148 150 149 148 150 149
148 150 149 148 150 149 148 150 149 148 150 149 148 150 149
148 150 149 148 150 149 148 150 149 148 150 149 148 150 149
148 150 149 148 150 149 148 150 149 148 150 149 148 150 149
148 150 149 148 150 149 148 150 149 148 150 149 148 150 149
148 150 149 148 150 149 148 150 149 148 150 149 148 150 149
148 150 149 148 150 149 148 150 149 148 150 149 148 150 149
148 150 149 148 150 149 148 150 149 148 150 149 148 150 149
148 150 149 148 150 149 148 150 149 148 150 149 148 150 149
148 150 149 148 150 149 148 150 149 148 150 149 148 150 149
148 150 149 148 150 149 148 150 149 148 150 149 148 150 149
148 150 149 148 150 149 148 150 149 148 150 149 148 150 149
148 150 149 148 150 149 148 150 149 148 150 149 148 150 149
148 150 149 148 150 149 148 150 149 148 150 149 148 150 149
148 150 149 148 150 149 148 150 149 148 150 149 148 150 149
148 150 149 148 150 149 149 151 150 148 150 149 148 150 149
149 151 150 150 152 151 148 150 149 145 147 146 143 145 144
142 144 143 144 146 145 148 150 149 152 154 153 153 155 154
151 153 152 145 147 146 140 142 141 131 131 131 133 133 133
135 135 135 137 137 137 137 137 137 134 134 134 131 131 131
129 129 129 140 140 140 133 133 133 141 141 141 161 161 161
190 190 190 230 230 230 250 250 250 241 241 241 252 252 252
253 253 253 254 254 254 255 255 255 255 255 255 255 255 255
255 255 255 254 254 254 254 254 254 254 254 254 254 254 254
254 254 254 254 254 254 254 254 254 254 254 254 254 254 254
254 254 254 254 254 254 254 254 254 254 254 254 254 254 254
254 254 254 254 254 254 254 254 254 254 254 254 254 254 254
254 254 254 254 254 254 254 254 254 254 254 254 254 254 254
254 254 254 254 254 254 254 254 254 254 254 254 254 254 254
254 254 254 254 254 254 254 254 254 254 254 254 254 254 254
254 254 254 254 254 254 254 254 254 254 254 254 254 254 254
254 254 254 254 254 254 254 254 254 254 254 254 254 254 254
254 254 254 254 254 254 254 254 254 254 254 254 254 254 254
254 254 254 254 254 254 254 254 254 254 254 254 254 254 254
254 254 254 254 254 254 254 254 254 254 254 254 254 254 254
254 254 254 254 254 254 254 254 254 254 254 254 254 254 254
254 254 254 255 255 255 255 255 255 255 255 255 254 254 254
253 253 253 253 253 253 252 252 252 252 252 252 250 250 250
250 250 250 251 251 251 252 252 252 253 253 253 254 254 254
253 253 253 253 253 253 249 249 249 251 251 251 253 253 253
254 254 254 255 255 255 255 255 255 255 255 255 252 252 250
255 255 248 255 255 248 255 255 250 255 255 251 255 255 255
255 255 255 255 254 255 255 254 255 252 251 255 252 251 255
253 252 255 253 252 255 252 252 254 250 250 250 247 247 245
248 245 240 255 250 239 252 240 224 245 230 209 238 222 196
231 211 178 222 197 157 221 193 146 226 194 143 232 197 143
235 199 141 240 204 146 245 206 151 238 201 146 231 194 141
232 195 143 237 201 153 229 196 151 235 203 162 237 207 169
249 223 188 255 233 202 213 196 170 159 144 125 135 126 111
138 131 123 135 131 128 132 132 134 132 133 138 130 134 143
129 135 147 128 134 148 126 134 145 128 137 146 132 139 145
143 148 152 156 160 163 168 169 171 172 172 170 172 171 167
171 170 165 170 169 164 170 169 164 169 169 167 168 170 167
166 170 171 165 171 171 163 171 173 163 171 173 167 171 172
169 171 170 169 171 170 169 171 170 169 171 170 169 171 170
169 171 170 169 171 170 168 170 169 168 170 169 168 170 169
169 171 170 169 171 170 169 171 170 169 171 170 169 171 170
169 171 170 169 171 170 169 171 170 168 170 169 168 170 169
167 169 168 167 169 168 166 168 167 167 169 168 167 169 168
167 169 168 168 170 169 168 170 169 168 170 169 169 171 170
170 170 170 170 168 171 174 172 175 173 172 177 166 165 170
158 159 164 153 156 161 148 153 159 143 148 152 141 146 150
144 149 152 148 152 153 149 153 152 150 152 149 150 151 146
152 153 147 154 155 149 148 149 143 150 151 145 154 154 146
156 154 142 154 151 136 152 147 128 151 143 122 152 140 116
157 142 113 168 149 117 186 161 130 206 177 143 224 191 156
236 202 165 245 207 170 249 210 169 246 203 158 247 203 154
244 202 154 240 199 153 238 200 155 239 202 158 238 203 163
235 203 165 238 209 175 225 200 169 207 186 159 187 171 146
173 158 137 162 151 131 155 147 128 151 145 129 152 152 142
150 153 144 149 152 143 148 151 144 148 150 145 147 149 144
147 149 146 147 149 146 148 149 151 148 149 151 148 149 153
148 149 153 148 149 154 148 148 156 148 148 156 148 149 154
148 149 151 148 150 149 148 150 149 148 150 149 148 150 149
148 150 149 148 150 149 148 150 149 151 153 152 151 153 152
151 153 152 150 152 151 150 152 151 148 150 149 147 149 148
147 149 148 148 150 149 148 150 149 148 150 149 148 150 149
148 150 149 148 150 149 148 150 149 148 150 149 148 150 149
148 150 149 148 150 149 148 150 149 148 150 149 148 150 149
148 150 149 148 150 149 148 150 149 148 150 149 148 150 149
148 150 149 148 150 149 148 150 149 148 150 149 148 150 149
148 150 149 148 150 149 148 150 149 148 150 149 148 150 149
148 150 149 148 150 149 148 150 149 148 150 149 148 150 149
148 150 149 148 150 149 148 150 149 148 150 149 148 150 149
148 150 149 148 150 149 148 150 149 148 150 149 148 150 149
148 150 149 148 150 149 148 150 149 148 150 149 148 150 149
148 150 149 148 150 149 148 150 149 148 150 149 148 150 149
148 150 149 148 150 149 148 150 149 148 150 149 148 150 149
148 150 149 148 150 149 148 150 149 148 150 149 148 150 149
148 150 149 148 150 149 148 150 149 148 150 149 148 150 149
148 150 149 148 150 149 148 150 149 148 150 149 148 150 149
148 150 149 148 150 149 148 150 149 148 150 149 148 150 149
148 150 149 148 150 149 148 150 149 148 150 149 149 151 150
150 152 151 148 150 149 145 147 146 142 144 143 141 143 142
143 145 144 147 149 148 151 153 152 153 155 154 149 151 150
143 145 144 138 140 139 129 129 129 131 131 131 133 133 133
135 135 135 135 135 135 134 134 134 134 134 134 134 134 134
140 140 140 138 138 138 142 142 142 143 143 143 162 162 162
218 218 218 255 255 255 247 247 247 252 252 252 253 253 253
254 254 254 255 255 255 255 255 255 255 255 255 255 255 255
254 254 254 254 254 254 254 254 254 254 254 254 254 254 254
254 254 254 254 254 254 254 254 254 254 254 254 254 254 254
254 254 254 254 254 254 254 254 254 254 254 254 254 254 254
254 254 254 254 254 254 254 254 254 254 254 254 254 254 254
254 254 254 254 254 254 254 254 254 254 254 254 254 254 254
254 254 254 254 254 254 254 254 254 254 254 254 254 254 254
254 254 254 254 254 254 254 254 254 254 254 254 254 254 254
254 254 254 254 254 254 254 254 254 254 254 254 254 254 254
254 254 254 254 254 254 254 254 254 254 254 254 254 254 254
254 254 254 254 254 254 254 254 254 254 254 254 254 254 254
254 254 254 254 254 254 254 254 254 254 254 254 254 254 254
254 254 254 254 254 254 254 254 254 254 254 254 254 254 254
254 254 254 254 254 254 254 254 254 254 254 254 254 254 254
250 250 250 251 251 251 252 252 252 254 254 254 254 254 254
255 255 255 254 254 254 254 254 254 255 255 255 255 255 255
254 254 254 255 255 255 255 255 255 255 255 255 254 254 254
252 252 252 255 255 255 255 255 255 255 255 255 254 254 254
251 251 251 253 253 253 254 254 254 254 254 252 250 251 246
250 251 246 251 250 246 250 250 248 252 250 251 251 251 253
253 251 254 252 251 255 254 252 255 253 253 255 254 252 255
253 253 253 254 253 251 253 254 249 254 253 248 255 252 243
253 244 229 242 229 210 231 215 192 230 211 181 229 206 172
226 198 159 227 196 150 232 198 150 238 202 150 238 202 150
240 204 152 239 203 153 232 198 150 230 198 151 237 204 159
245 216 174 247 223 185 246 226 191 244 225 192 255 239 209
255 244 218 206 195 173 146 139 121 132 126 114 146 143 136
139 139 137 133 134 136 131 134 141 131 135 144 129 135 147
125 131 145 121 127 139 130 137 145 132 137 141 138 143 147
153 157 160 166 167 169 171 171 169 170 171 166 169 168 164
171 170 166 170 171 166 170 170 168 169 171 170 167 171 170
166 172 172 166 171 174 166 171 174 168 172 173 170 172 171
170 172 171 170 172 171 170 172 171 170 172 171 170 172 171
170 172 171 168 170 169 168 170 169 169 171 170 169 171 170
170 172 171 171 173 172 171 173 172 171 173 172 170 172 171
170 172 171 169 171 170 169 171 170 168 170 169 168 170 169
168 170 169 168 170 169 170 172 171 170 172 171 170 172 171
169 171 170 169 171 170 169 171 170 169 171 170 169 169 169
170 168 171 175 170 174 170 168 171 161 160 165 154 153 158
150 151 155 147 148 153 141 144 149 142 146 149 145 149 152
151 152 154 151 153 152 150 150 150 149 149 147 151 152 147
154 155 150 150 151 146 146 147 141 142 143 135 145 145 135
153 151 139 159 156 141 164 159 140 165 157 136 161 150 128
157 143 117 155 138 112 166 145 116 185 162 131 206 179 149
219 190 160 226 193 158 246 211 169 244 207 162 241 204 159
242 205 160 242 205 161 238 204 159 236 203 160 236 204 165
231 203 166 230 206 172 227 206 177 214 198 172 195 183 159
177 166 146 162 155 136 153 150 135 155 157 146 152 155 148
149 152 145 146 149 142 145 147 144 146 148 145 148 150 149
149 151 150 149 150 152 149 150 154 149 150 154 149 150 154
149 150 155 149 150 155 149 150 155 149 150 154 147 149 148
147 149 146 147 149 146 147 149 146 147 149 148 146 148 147
146 148 147 146 148 147 148 150 149 147 149 148 146 148 147
146 148 147 146 148 147 146 148 147 148 150 149 148 150 149
148 150 149 148 150 149 148 150 149 148 150 149 148 150 149
148 150 149 148 150 149 148 150 149 148 150 149 148 150 149
148 150 149 148 150 149 148 150 149 148 150 149 148 150 149
148 150 149 148 150 149 148 150 149 148 150 149 148 150 149
148 150 149 148 150 149 148 150 149 148 150 149 148 150 149
148 150 149 148 150 149 148 150 149 148 150 149 148 150 149
148 150 149 148 150 149 148 150 149 148 150 149 148 150 149
148 150 149 148 150 149 148 150 149 148 150 149 148 150 149
148 150 149 148 150 149 148 150 149 148 150 149 148 150 149
148 150 149 148 150 149 148 150 149 148 150 149 148 150 149
148 150 149 148 150 149 148 150 149 148 150 149 148 150 149
148 150 149 148 150 149 148 150 149 148 150 149 148 150 149
148 150 149 148 150 149 148 150 149 148 150 149 148 150 149
148 150 149 148 150 149 148 150 149 148 150 149 148 150 149
148 150 149 148 150 149 148 150 149 148 150 149 148 150 149
148 150 149 148 150 149 148 150 149 148 150 149 148 150 149
148 150 149 148 150 149 148 150 149 149 151 150 150 152 151
148 150 149 144 146 145 141 143 142 144 146 145 146 148 147
149 151 150 151 153 152 151 153 152 146 148 147 139 141 140
133 135 134 132 132 132 132 132 132 133 133 133 133 133 133
132 132 132 132 132 132 134 134 134 135 135 135 140 140 140
141 141 141 140 140 140 129 129 129 142 142 142 209 209 209
255 255 255 253 253 253 252 252 252 253 253 253 254 254 254
255 255 255 255 255 255 255 255 255 255 255 255 254 254 254
254 254 254 254 254 254 254 254 254 254 254 254 254 254 254
254 254 254 254 254 254 254 254 254 254 254 254 254 254 254
254 254 254 254 254 254 254 254 254 254 254 254 254 254 254
254 254 254 254 254 254 254 254 254 254 254 254 254 254 254
254 254 254 254 254 254 254 254 254 254 254 254 254 254 254
254 254 254 254 254 254 254 254 254 254 254 254 254 254 254
254 254 254 254 254 254 254 254 254 254 254 254 254 254 254
254 254 254 254 254 254 254 254 254 254 254 254 254 254 254
254 254 254 254 254 254 254 254 254 254 254 254 254 254 254
254 254 254 254 254 254 254 254 254 254 254 254 254 254 254
254 254 254 254 254 254 254 254 254 254 254 254 254 254 254
254 254 254 254 254 254 254 254 254 254 254 254 254 254 254
254 254 254 254 254 254 254 254 254 254 254 254 254 254 254
254 254 254 254 254 254 254 254 254 254 254 254 254 254 254
254 254 254 254 254 254 254 254 254 254 254 254 254 254 254
254 254 254 254 254 254 254 254 254 254 254 254 254 254 254
254 254 254 254 254 254 254 254 254 254 254 254 254 254 254
254 254 254 254 254 254 254 254 255 254 252 255 254 252 255
255 251 255 254 252 255 255 251 255 254 252 255 255 251 255
254 252 253 254 250 251 255 255 253 255 253 250 249 248 243
253 250 243 255 255 246 252 249 240 239 236 221 229 218 198
227 212 189 222 205 179 221 200 169 223 199 165 228 200 163
232 200 161 234 201 158 232 197 155 232 199 156 232 200 159
231 201 163 231 205 168 236 213 179 245 225 192 248 233 202
252 247 218 251 251 225 247 247 223 246 245 224 239 240 222
204 207 190 159 161 148 135 138 129 136 138 133 139 144 140
140 144 145 133 138 142 128 133 139 128 132 141 130 134 145
129 133 142 129 133 136 132 133 135 137 138 140 151 152 154
167 167 167 176 176 176 174 174 172 170 170 168 173 173 171
173 173 171 173 173 173 172 172 172 170 172 171 170 172 171
169 170 172 169 170 172 169 171 170 169 171 170 169 171 170
168 170 169 168 170 169 168 170 169 168 170 169 168 170 169
169 171 170 169 171 170 169 171 170 169 171 170 169 171 170
169 171 170 169 171 170 169 171 170 166 168 167 169 171 170
172 174 173 171 173 172 168 170 169 166 168 167 167 169 168
169 171 170 167 169 168 166 168 167 165 167 166 167 169 168
169 171 170 171 173 172 170 172 171 169 171 170 171 171 171
167 167 167 161 161 161 155 156 158 152 153 155 149 150 152
146 147 149 143 144 146 146 147 149 147 148 150 149 151 150
150 152 151 150 152 151 149 151 150 147 149 146 146 148 145
147 149 144 147 150 143 147 150 141 148 149 141 148 150 139
149 149 137 151 149 136 152 149 134 144 138 122 146 141 122
150 142 123 150 142 123 153 142 122 162 150 128 176 161 140
188 171 145 222 200 163 226 201 160 229 204 163 233 206 163
234 205 163 232 203 159 232 200 159 228 199 159 225 197 158
228 204 168 230 211 179 227 213 186 214 203 181 193 186 167
169 166 149 153 153 141 142 143 137 144 146 141 147 149 146
151 153 150 152 153 155 151 152 154 150 151 155 148 149 153
148 149 153 148 149 153 148 149 153 148 149 153 148 149 151
148 149 151 148 150 149 148 150 149 148 150 145 148 150 145
148 150 145 148 150 145 148 150 147 148 150 147 148 150 147
148 150 147 148 150 147 148 150 147 148 150 149 148 150 149
148 150 149 148 150 149 148 150 149 148 150 149 148 150 149
148 150 149 148 150 149 148 150 149 148 150 149 148 150 149
148 150 149 148 150 149 148 150 149 148 150 149 148 150 149
148 150 149 148 150 149 148 150 149 148 150 149 148 150 149
148 150 149 148 150 149 148 150 149 148 150 149 148 150 149
148 150 149 148 150 149 148 150 149 148 150 149 148 150 149
148 150 149 148 150 149 148 150 149 148 150 149 148 150 149
148 150 149 148 150 149 148 150 149 148 150 149 148 150 149
148 150 149 148 150 149 148 150 149 148 150 149 148 150 149
148 150 149 148 150 149 148 150 149 148 150 149 148 150 149
148 150 149 148 150 149 148 150 149 148 150 149 148 150 149
148 150 149 148 150 149 148 150 149 148 150 149 148 150 149
148 150 149 148 150 149 148 150 149 148 150 149 148 150 149
148 150 149 148 150 149 148 150 149 148 150 149 148 150 149
148 150 149 148 150 149 148 150 149 148 150 149 148 150 149
148 150 149 148 150 149 148 150 149 148 150 149 148 150 149
148 150 149 148 150 149 148 150 149 148 150 149 150 152 151
149 151 150 148 150 149 146 148 147 145 147 146 145 147 146
145 147 146 145 147 146 147 149 148 156 158 157 151 153 152
156 158 157 150 152 151 139 141 140 149 151 150 146 148 147
133 133 133 129 129 129 135 135 135 138 138 138 134 134 134
137 137 137 141 141 141 134 134 134 140 140 140 138 138 138
138 138 138 126 126 126 135 135 135 196 196 196 249 249 249
250 250 250 255 255 255 255 255 255 255 255 255 254 254 254
254 254 254 253 253 253 253 253 253 253 253 253 254 254 254
254 254 254 254 254 254 254 254 254 254 254 254 254 254 254
254 254 254 254 254 254 254 254 254 254 254 254 254 254 254
254 254 254 254 254 254 254 254 254 254 254 254 254 254 254
254 254 254 254 254 254 254 254 254 254 254 254 254 254 254
254 254 254 254 254 254 254 254 254 254 254 254 254 254 254
254 254 254 254 254 254 254 254 254 254 254 254 254 254 254
254 254 254 254 254 254 254 254 254 254 254 254 254 254 254
254 254 254 254 254 254 254 254 254 254 254 254 254 254 254
254 254 254 254 254 254 254 254 254 254 254 254 254 254 254
254 254 254 254 254 254 254 254 254 254 254 254 254 254 254
254 254 254 254 254 254 254 254 254 254 254 254 254 254 254
254 254 254 254 254 254 254 254 254 254 254 254 254 254 254
254 254 254 254 254 254 254 254 254 254 254 254 254 254 254
254 254 254 254 254 254 254 254 254 254 254 254 254 254 254
254 254 254 254 254 254 254 254 254 254 254 254 254 254 254
254 254 254 254 254 254 254 254 254 254 254 254 254 254 254
254 254 254 254 254 254 254 254 254 254 254 254 254 254 254
254 254 254 254 254 255 254 251 255 255 250 255 255 250 255
255 251 255 255 251 255 255 251 255 255 252 253 255 252 251
254 250 249 255 254 251 255 254 249 252 249 242 254 251 242
255 255 244 252 250 238 240 237 222 212 204 185 212 200 176
211 195 170 211 194 166 218 195 164 224 198 165 228 199 165
230 200 164 232 202 166 235 206 172 238 212 179 241 218 187
241 224 196 245 231 205 251 239 215 253 247 225 250 253 234
250 255 240 246 255 238 245 254 237 240 248 233 207 215 202
160 167 159 135 142 135 126 132 128 134 140 138 137 143 143
134 139 142 129 134 140 128 133 139 127 131 140 126 129 136
132 133 135 133 133 133 137 137 137 149 149 149 165 165 165
174 174 174 174 174 174 170 170 170 168 168 168 169 169 169
169 169 169 170 170 170 170 170 170 171 171 171 171 171 171
171 171 171 170 172 171 170 172 171 171 173 172 171 173 172
172 174 173 172 174 173 173 175 174 173 175 174 170 172 171
170 172 171 170 172 171 169 171 170 169 171 170 169 171 170
168 170 169 168 170 169 162 164 163 165 167 166 168 170 169
168 170 169 167 169 168 167 169 168 170 172 171 172 174 173
169 171 170 167 169 168 167 169 168 167 169 168 169 171 170
170 172 171 169 171 170 168 170 169 169 171 170 165 167 166
159 161 160 154 156 155 151 153 152 149 151 150 146 148 147
144 146 145 146 148 147 147 149 148 149 151 150 150 152 151
150 152 151 149 151 150 147 149 148 146 148 145 147 149 144
147 150 143 147 150 141 147 150 141 148 149 141 148 149 141
149 149 139 149 149 137 151 149 137 152 150 137 153 149 137
149 146 131 147 144 129 151 145 131 159 153 139 168 160 141
183 169 140 190 171 138 196 176 141 205 183 146 215 191 153
224 199 159 232 204 165 236 208 171 230 204 169 231 208 176
228 211 183 222 208 182 204 196 177 183 177 161 161 159 146
145 147 136 146 147 142 147 149 146 149 151 150 151 153 152
151 152 156 149 150 154 147 148 153 145 146 151 148 149 154
148 149 154 148 149 153 148 149 151 148 149 151 148 150 149
148 150 147 148 150 145 148 150 145 148 151 144 148 150 145
148 150 145 148 150 145 148 150 145 148 150 147 148 150 147
148 150 147 148 150 147 148 150 149 148 150 149 148 150 149
148 150 149 148 150 149 148 150 149 148 150 149 148 150 149
148 150 149 148 150 149 148 150 149 148 150 149 148 150 149
148 150 149 148 150 149 148 150 149 148 150 149 148 150 149
148 150 149 148 150 149 148 150 149 148 150 149 148 150 149
148 150 149 148 150 149 148 150 149 148 150 149 148 150 149
148 150 149 148 150 149 148 150 149 148 150 149 148 150 149
148 150 149 148 150 149 148 150 149 148 150 149 148 150 149
148 150 149 148 150 149 148 150 149 148 150 149 148 150 149
148 150 149 148 150 149 148 150 149 148 150 149 148 150 149
148 150 149 148 150 149 148 150 149 148 150 149 148 150 149
148 150 149 148 150 149 148 150 149 148 150 149 148 150 149
148 150 149 148 150 149 148 150 149 148 150 149 148 150 149
148 150 149 148 150 149 148 150 149 148 150 149 148 150 149
148 150 149 148 150 149 148 150 149 148 150 149 148 150 149
148 150 149 148 150 149 148 150 149 148 150 149 148 150 149
148 150 149 148 150 149 148 150 149 148 150 149 148 150 149
148 150 149 148 150 149 148 150 149 148 150 149 148 150 149
148 150 149 148 150 149 149 151 150 151 153 152 152 154 153
153 155 154 147 149 148 151 153 152 148 150 149 152 154 153
143 145 144 146 148 147 166 168 167 155 157 156 133 133 133
128 128 128 135 135 135 141 141 141 136 136 136 137 137 137
139 139 139 131 131 131 135 135 135 137 137 137 139 139 139
129 129 129 135 135 135 189 189 189 239 239 239 244 244 244
255 255 255 255 255 255 255 255 255 254 254 254 254 254 254
253 253 253 253 253 253 253 253 253 254 254 254 254 254 254
254 254 254 254 254 254 254 254 254 254 254 254 254 254 254
254 254 254 254 254 254 254 254 254 254 254 254 254 254 254
254 254 254 254 254 254 254 254 254 254 254 254 254 254 254
254 254 254 254 254 254 254 254 254 254 254 254 254 254 254
254 254 254 254 254 254 254 254 254 254 254 254 254 254 254
254 254 254 254 254 254 254 254 254 254 254 254 254 254 254
254 254 254 254 254 254 254 254 254 254 254 254 254 254 254
254 254 254 254 254 254 254 254 254 254 254 254 254 254 254
254 254 254 254 254 254 254 254 254 254 254 254 254 254 254
254 254 254 254 254 254 254 254 254 254 254 254 254 254 254
254 254 254 254 254 254 254 254 254 254 254 254 254 254 254
254 254 254 254 254 254 254 254 254 254 254 254 254 254 254
254 254 254 254 254 254 254 254 254 254 254 254 254 254 254
254 254 254 254 254 254 254 254 254 254 254 254 254 254 254
254 254 254 254 254 254 254 254 254 254 254 254 254 254 254
254 254 254 254 254 254 254 254 254 254 254 254 254 254 254
254 254 254 254 254 254 254 254 254 254 254 254 254 254 254
254 254 255 254 252 255 254 251 255 254 251 255 254 252 255
254 252 255 254 252 255 254 252 253 254 253 251 252 251 249
255 255 251 255 254 249 251 251 243 252 252 244 255 255 246
251 251 241 242 240 228 218 215 200 218 213 194 219 211 192
223 211 189 230 214 189 236 216 189 239 218 189 241 218 187
241 218 187 244 223 194 250 230 203 254 238 213 255 244 222
255 248 229 255 252 234 255 255 240 250 254 239 251 255 242
247 253 239 246 252 240 242 248 236 210 216 206 161 166 159
133 138 132 120 125 121 129 133 132 136 140 141 136 140 143
132 135 142 130 133 140 126 129 136 122 125 130 133 134 136
132 132 132 135 135 135 146 146 146 162 162 162 172 172 172
173 173 173 170 170 170 171 171 171 171 171 171 172 172 172
172 172 172 172 172 172 172 172 172 172 172 172 172 172 172
170 172 171 170 172 171 170 172 171 170 172 171 170 172 171
170 172 171 169 171 170 169 171 170 167 169 168 167 169 168
168 170 169 168 170 169 169 171 170 170 172 171 170 172 171
170 172 171 173 175 174 173 175 174 173 175 174 171 173 172
168 170 169 167 169 168 168 170 169 169 171 170 171 173 172
170 172 171 168 170 169 168 170 169 170 172 171 170 172 171
169 171 170 167 169 168 167 169 168 162 164 163 156 158 157
151 153 152 149 151 150 148 150 149 147 149 148 146 148 147
146 148 147 147 149 148 149 151 150 150 152 151 150 152 151
149 151 150 147 149 148 146 148 145 147 149 144 148 149 143
148 149 143 148 149 143 149 149 141 149 149 141 149 149 141
149 149 139 158 155 146 158 156 144 157 155 143 152 150 138
147 145 133 146 142 130 149 145 133 156 149 133 165 153 131
169 153 128 172 155 129 178 158 131 187 166 135 198 175 144
207 182 151 213 188 158 215 191 163 214 193 166 209 193 170
201 188 171 187 178 163 171 164 154 154 151 144 142 143 137
149 150 145 149 151 148 151 153 152 151 153 152 150 151 155
147 148 152 145 146 151 143 144 149 148 149 154 148 149 154
148 149 153 148 149 151 148 149 151 148 150 149 148 150 147
148 150 145 148 150 145 148 151 144 148 150 145 148 150 145
148 150 145 148 150 145 148 150 147 148 150 147 148 150 147
148 150 147 148 150 149 148 150 149 148 150 149 148 150 149
148 150 149 148 150 149 148 150 149 148 150 149 148 150 149
148 150 149 148 150 149 148 150 149 148 150 149 148 150 149
148 150 149 148 150 149 148 150 149 148 150 149 148 150 149
148 150 149 148 150 149 148 150 149 148 150 149 148 150 149
148 150 149 148 150 149 148 150 149 148 150 149 148 150 149
148 150 149 148 150 149 148 150 149 148 150 149 148 150 149
148 150 149 148 150 149 148 150 149 148 150 149 148 150 149
148 150 149 148 150 149 148 150 149 148 150 149 148 150 149
148 150 149 148 150 149 148 150 149 148 150 149 148 150 149
148 150 149 148 150 149 148 150 149 148 150 149 148 150 149
148 150 149 148 150 149 148 150 149 148 150 149 148 150 149
148 150 149 148 150 149 148 150 149 148 150 149 148 150 149
148 150 149 148 150 149 148 150 149 148 150 149 148 150 149
148 150 149 148 150 149 148 150 149 148 150 149 148 150 149
148 150 149 148 150 149 148 150 149 148 150 149 148 150 149
148 150 149 148 150 149 148 150 149 148 150 149 148 150 149
148 150 149 148 150 149 148 150 149 148 150 149 148 150 149
149 151 150 150 152 151 152 154 153 154 156 155 155 157 156
148 150 149 146 148 147 147 149 148 149 151 150 135 137 136
155 157 156 192 194 193 173 175 174 138 138 138 129 129 129
134 134 134 142 142 142 138 138 138 136 136 136 136 136 136
130 130 130 129 129 129 135 135 135 139 139 139 131 131 131
135 135 135 179 179 179 226 226 226 239 239 239 255 255 255
255 255 255 254 254 254 254 254 254 254 254 254 254 254 254
253 253 253 253 253 253 254 254 254 254 254 254 254 254 254
254 254 254 254 254 254 254 254 254 254 254 254 254 254 254
254 254 254 254 254 254 254 254 254 254 254 254 254 254 254
254 254 254 254 254 254 254 254 254 254 254 254 254 254 254
254 254 254 254 254 254 254 254 254 254 254 254 254 254 254
254 254 254 254 254 254 254 254 254 254 254 254 254 254 254
254 254 254 254 254 254 254 254 254 254 254 254 254 254 254
254 254 254 254 254 254 254 254 254 254 254 254 254 254 254
254 254 254 254 254 254 254 254 254 254 254 254 254 254 254
254 254 254 254 254 254 254 254 254 254 254 254 254 254 254
254 254 254 254 254 254 254 254 254 254 254 254 254 254 254
254 254 254 254 254 254 254 254 254 254 254 254 254 254 254
254 254 254 254 254 254 254 254 254 254 254 254 254 254 254
254 254 254 254 254 254 254 254 254 254 254 254 254 254 254
254 254 254 254 254 254 254 254 254 254 254 254 254 254 254
254 254 254 254 254 254 254 254 254 254 254 254 254 254 254
254 254 254 254 254 254 254 254 254 254 254 254 254 254 254
254 254 254 254 254 254 254 254 254 254 254 254 254 254 254
253 253 255 253 253 255 254 252 255 253 253 255 254 252 255
253 253 253 254 252 253 253 253 251 253 252 250 255 255 251
255 254 250 251 252 246 253 252 247 255 255 250 252 252 244
243 244 236 243 245 234 243 243 231 245 241 229 248 242 226
252 244 225 255 243 224 255 242 219 255 241 216 254 238 215
255 241 218 255 246 227 255 252 233 255 254 238 255 255 242
255 255 243 254 255 245 249 252 241 251 255 245 246 252 242
244 250 240 244 249 242 214 219 212 163 168 162 131 136 132
117 121 120 127 131 132 135 139 142 135 139 142 132 135 140
130 133 140 128 131 138 124 127 132 135 135 137 132 132 132
134 134 134 144 144 144 159 159 159 170 170 170 172 172 172
170 170 170 173 173 173 172 172 172 171 171 171 170 170 170
168 168 168 167 167 167 166 166 166 165 165 165 161 163 162
161 163 162 160 162 161 158 160 159 157 159 158 156 158 157
155 157 156 155 157 156 156 158 157 157 159 158 158 160 159
160 162 161 162 164 163 164 166 165 165 167 166 166 168 167
171 173 172 170 172 171 169 171 170 167 169 168 166 168 167
166 168 167 167 169 168 168 170 169 172 174 173 171 173 172
170 172 171 170 172 171 170 172 171 170 172 171 167 169 168
165 167 166 163 165 164 159 161 160 153 155 154 149 151 150
148 150 149 148 150 149 148 150 149 148 150 149 147 149 148
148 150 149 148 150 149 149 151 150 149 151 150 148 150 149
148 150 149 147 149 146 149 150 145 149 150 144 150 149 144
150 149 144 150 150 142 150 150 142 150 150 142 150 150 142
155 152 145 156 153 146 156 153 146 151 151 143 150 147 138
148 145 136 149 146 137 151 147 136 162 152 140 162 150 134
163 147 131 163 146 128 165 147 127 170 150 126 175 153 130
178 156 133 181 159 138 179 161 141 178 160 146 174 160 149
167 157 148 160 153 147 152 148 145 147 146 144 150 150 148
150 152 149 150 152 151 151 153 152 149 150 154 147 148 152
145 146 151 143 144 149 148 149 154 148 149 154 148 149 153
148 149 151 148 149 151 148 150 149 148 150 147 148 150 145
148 150 145 148 151 144 148 150 145 148 150 145 148 150 145
148 150 145 148 150 147 148 150 147 148 150 147 148 150 147
148 150 149 148 150 149 148 150 149 148 150 149 148 150 149
148 150 149 148 150 149 148 150 149 148 150 149 148 150 149
148 150 149 148 150 149 148 150 149 148 150 149 148 150 149
148 150 149 148 150 149 148 150 149 148 150 149 148 150 149
148 150 149 148 150 149 148 150 149 148 150 149 148 150 149
148 150 149 148 150 149 148 150 149 148 150 149 148 150 149
148 150 149 148 150 149 148 150 149 148 150 149 148 150 149
148 150 149 148 150 149 148 150 149 148 150 149 148 150 149
148 150 149 148 150 149 148 150 149 148 150 149 148 150 149
148 150 149 148 150 149 148 150 149 148 150 149 148 150 149
148 150 149 148 150 149 148 150 149 148 150 149 148 150 149
148 150 149 148 150 149 148 150 149 148 150 149 148 150 149
148 150 149 148 150 149 148 150 149 148 150 149 148 150 149
148 150 149 148 150 149 148 150 149 148 150 149 148 150 149
148 150 149 148 150 149 148 150 149 148 150 149 148 150 149
148 150 149 148 150 149 148 150 149 148 150 149 148 150 149
148 150 149 148 150 149 148 150 149 148 150 149 148 150 149
148 150 149 149 151 150 149 151 150 148 150 149 148 150 149
148 150 149 149 151 150 150 152 151 151 153 152 150 152 151
146 148 147 151 153 152 150 152 151 131 133 132 165 167 166
218 220 219 197 199 198 154 154 154 134 134 134 131 131 131
140 140 140 137 137 137 134 134 134 135 135 135 132 132 132
125 125 125 134 134 134 138 138 138 131 131 131 135 135 135
169 169 169 214 214 214 240 240 240 254 254 254 254 254 254
254 254 254 254 254 254 254 254 254 254 254 254 254 254 254
254 254 254 254 254 254 254 254 254 254 254 254 254 254 254
254 254 254 254 254 254 254 254 254 254 254 254 254 254 254
254 254 254 254 254 254 254 254 254 254 254 254 254 254 254
254 254 254 254 254 254 254 254 254 254 254 254 254 254 254
254 254 254 254 254 254 254 254 254 254 254 254 254 254 254
254 254 254 254 254 254 254 254 254 254 254 254 254 254 254
254 254 254 254 254 254 254 254 254 254 254 254 254 254 254
254 254 254 254 254 254 254 254 254 254 254 254 254 254 254
254 254 254 254 254 254 254 254 254 254 254 254 254 254 254
254 254 254 254 254 254 254 254 254 254 254 254 254 254 254
254 254 254 254 254 254 254 254 254 254 254 254 254 254 254
254 254 254 254 254 254 254 254 254 254 254 254 254 254 254
254 254 254 254 254 254 254 254 254 254 254 254 254 254 254
254 254 254 254 254 254 254 254 254 254 254 254 254 254 254
254 254 254 254 254 254 254 254 254 254 254 254 254 254 254
254 254 254 254 254 254 254 254 254 254 254 254 254 254 254
254 254 254 254 254 254 254 254 254 254 254 254 254 254 254
254 254 254 254 254 254 254 254 254 254 254 254 253 253 253
252 254 253 253 253 253 252 254 253 253 253 253 252 254 251
253 253 251 252 254 251 252 252 250 253 255 252 254 254 252
251 253 248 253 254 249 253 255 250 252 253 248 247 249 244
251 255 253 251 255 251 253 255 249 255 255 245 255 255 244
255 255 241 255 253 237 255 251 233 255 251 235 255 251 235
255 252 238 255 254 242 254 254 244 253 255 249 250 255 249
248 254 250 250 255 249 252 255 251 248 253 247 246 251 245
248 253 249 223 228 224 172 177 173 137 141 140 120 124 123
128 132 133 134 138 141 133 137 140 130 134 137 131 134 139
131 134 139 129 133 136 136 136 138 133 133 133 133 133 133
143 143 143 158 158 158 169 169 169 172 172 172 170 170 170
164 164 164 163 163 163 162 162 162 161 161 161 160 160 160
159 159 159 158 158 158 157 157 157 154 156 155 154 156 155
154 156 155 154 156 155 153 155 154 153 155 154 153 155 154
153 155 154 153 155 154 153 155 154 154 156 155 155 157 156
155 157 156 156 158 157 157 159 158 157 159 158 150 152 151
151 153 152 153 155 154 157 159 158 161 163 162 166 168 167
169 171 170 170 172 171 171 173 172 170 172 171 170 172 171
171 173 172 172 174 173 170 172 171 166 168 167 162 164 163
158 160 159 154 156 155 150 152 151 147 149 148 147 149 148
148 150 149 149 151 150 148 150 149 148 150 149 148 150 149
148 150 149 148 150 149 148 150 149 148 150 149 148 150 149
149 149 147 150 149 145 150 149 144 152 149 144 152 149 144
152 149 144 152 149 144 150 149 144 150 149 144 148 147 142
150 149 144 151 150 146 150 151 146 150 149 145 149 148 144
150 149 145 152 149 144 153 148 144 155 146 141 155 144 138
156 143 134 159 142 132 161 143 131 163 143 132 163 144 130
160 140 129 159 141 131 159 142 134 157 144 138 155 145 143
155 146 147 153 149 150 151 149 150 148 148 148 148 150 147
149 151 150 149 151 150 149 150 154 148 149 153 147 148 153
146 147 152 148 149 154 148 149 154 148 149 153 148 149 151
148 149 151 148 150 149 148 150 147 148 150 145 148 150 145
148 151 144 148 150 145 148 150 145 148 150 145 148 150 145
148 150 147 148 150 147 148 150 147 148 150 147 148 150 149
148 150 149 148 150 149 148 150 149 148 150 149 148 150 149
148 150 149 148 150 149 148 150 149 148 150 149 148 150 149
148 150 149 148 150 149 148 150 149 148 150 149 148 150 149
148 150 149 148 150 149 148 150 149 148 150 149 148 150 149
148 150 149 148 150 149 148 150 149 148 150 149 148 150 149
148 150 149 148 150 149 148 150 149 148 150 149 148 150 149
148 150 149 148 150 149 148 150 149 148 150 149 148 150 149
148 150 149 148 150 149 148 150 149 148 150 149 148 150 149
148 150 149 148 150 149 148 150 149 148 150 149 148 150 149
148 150 149 148 150 149 148 150 149 148 150 149 148 150 149
148 150 149 148 150 149 148 150 149 148 150 149 148 150 149
148 150 149 148 150 149 148 150 149 148 150 149 148 150 149
148 150 149 148 150 149 148 150 149 148 150 149 148 150 149
148 150 149 148 150 149 148 150 149 148 150 149 148 150 149
148 150 149 148 150 149 148 150 149 148 150 149 148 150 149
148 150 149 148 150 149 148 150 149 148 150 149 148 150 149
148 150 149 148 150 149 148 150 149 148 150 149 148 150 149
149 151 150 149 151 150 148 150 149 148 150 149 148 150 149
149 151 150 150 152 151 151 153 152 151 153 152 149 151 150
156 158 157 156 158 157 137 139 138 176 178 177 236 238 237
221 223 222 180 180 180 144 144 144 128 128 128 134 134 134
134 134 134 132 132 132 135 135 135 136 136 136 126 126 126
134 134 134 135 135 135 130 130 130 136 136 136 161 161 161
205 205 205 243 243 243 254 254 254 254 254 254 254 254 254
254 254 254 254 254 254 254 254 254 254 254 254 254 254 254
254 254 254 254 254 254 254 254 254 254 254 254 254 254 254
254 254 254 254 254 254 254 254 254 254 254 254 254 254 254
254 254 254 254 254 254 254 254 254 254 254 254 254 254 254
254 254 254 254 254 254 254 254 254 254 254 254 254 254 254
254 254 254 254 254 254 254 254 254 254 254 254 254 254 254
254 254 254 254 254 254 254 254 254 254 254 254 254 254 254
254 254 254 254 254 254 254 254 254 254 254 254 254 254 254
254 254 254 254 254 254 254 254 254 254 254 254 254 254 254
254 254 254 254 254 254 254 254 254 254 254 254 254 254 254
254 254 254 254 254 254 254 254 254 254 254 254 254 254 254
254 254 254 254 254 254 254 254 254 254 254 254 254 254 254
254 254 254 254 254 254 254 254 254 254 254 254 254 254 254
254 254 254 254 254 254 254 254 254 254 254 254 254 254 254
254 254 254 254 254 254 254 254 254 254 254 254 254 254 254
254 254 254 254 254 254 254 254 254 254 254 254 254 254 254
254 254 254 254 254 254 254 254 254 254 254 254 254 254 254
254 254 254 254 254 254 254 254 254 254 254 254 254 254 254
254 254 254 254 254 254 254 254 254 252 254 251 252 254 249
252 254 249 252 254 249 252 254 251 252 254 251 252 254 251
252 254 251 252 254 251 252 254 251 253 255 252 253 255 252
253 255 252 252 254 253 252 254 253 249 253 252 248 255 255
245 255 254 247 253 249 249 254 248 254 255 249 255 255 247
255 253 244 255 253 241 255 253 241 253 250 241 250 250 242
250 251 245 249 254 248 249 255 251 246 255 255 247 255 255
248 254 252 252 255 255 244 248 247 242 246 245 248 252 253
228 232 233 178 182 183 141 145 146 123 127 128 130 134 135
134 138 141 131 135 138 129 133 136 131 135 138 132 136 139
134 135 139 136 136 138 133 133 133 134 134 134 144 144 144
158 158 158 169 169 169 171 171 171 169 169 169 159 159 159
160 160 160 160 160 160 161 161 161 162 162 162 163 163 163
163 163 163 163 163 163 164 166 165 164 166 165 165 167 166
167 169 168 168 170 169 170 172 171 171 173 172 172 174 173
167 169 168 167 169 168 165 167 166 164 166 165 162 164 163
161 163 162 159 161 160 159 161 160 152 154 153 153 155 154
155 157 156 159 161 160 163 165 164 166 168 167 166 168 167
165 167 166 166 168 167 168 170 169 170 172 171 173 175 174
173 175 174 170 172 171 164 166 165 159 161 160 152 154 153
150 152 151 147 149 148 147 149 148 148 150 149 149 151 150
149 151 150 148 150 149 148 150 149 148 150 149 148 150 149
148 150 149 148 150 149 148 150 149 148 150 149 149 149 147
151 150 146 153 150 145 153 150 145 153 150 145 153 150 145
153 149 146 151 150 146 151 150 148 149 148 146 149 149 147
149 149 149 150 150 150 150 150 150 148 150 149 148 150 149
148 148 148 149 147 148 151 147 148 153 147 147 155 147 145
157 146 142 158 145 139 158 143 138 159 142 135 162 145 138
162 144 140 159 144 141 155 143 143 154 144 145 154 145 148
153 146 153 150 148 151 147 147 147 146 148 145 147 149 148
148 150 149 149 150 154 149 150 154 149 150 155 149 150 155
148 149 154 148 149 154 148 149 153 148 149 151 148 149 151
148 150 149 148 150 147 148 150 145 148 150 145 148 151 144
148 150 145 148 150 145 148 150 145 148 150 145 148 150 147
148 150 147 148 150 147 148 150 147 148 150 149 148 150 149
148 150 149 148 150 149 148 150 149 148 150 149 148 150 149
148 150 149 148 150 149 148 150 149 148 150 149 148 150 149
148 150 149 148 150 149 148 150 149 148 150 149 148 150 149
148 150 149 148 150 149 148 150 149 148 150 149 148 150 149
148 150 149 148 150 149 148 150 149 148 150 149 148 150 149
148 150 149 148 150 149 148 150 149 148 150 149 148 150 149
148 150 149 148 150 149 148 150 149 148 150 149 148 150 149
148 150 149 148 150 149 148 150 149 148 150 149 148 150 149
148 150 149 148 150 149 148 150 149 148 150 149 148 150 149
148 150 149 148 150 149 148 150 149 148 150 149 148 150 149
148 150 149 148 150 149 148 150 149 148 150 149 148 150 149
148 150 149 148 150 149 148 150 149 148 150 149 148 150 149
148 150 149 148 150 149 148 150 149 148 150 149 148 150 149
148 150 149 148 150 149 148 150 149 148 150 149 148 150 149
148 150 149 148 150 149 148 150 149 148 150 149 148 150 149
148 150 149 148 150 149 148 150 149 148 150 149 148 150 149
148 150 149 148 150 149 148 150 149 148 150 149 148 150 149
148 150 149 148 150 149 149 151 150 150 152 151 152 154 153
154 156 155 155 157 156 151 153 152 150 152 151 153 155 154
159 161 160 155 157 156 191 193 192 246 248 247 238 240 239
209 209 209 157 157 157 125 125 125 129 129 129 132 132 132
132 132 132 136 136 136 139 139 139 129 129 129 136 136 136
133 133 133 130 130 130 139 139 139 155 155 155 194 194 194
241 241 241 253 253 253 253 253 253 254 254 254 254 254 254
254 254 254 254 254 254 255 255 255 255 255 255 254 254 254
254 254 254 254 254 254 254 254 254 254 254 254 254 254 254
254 254 254 254 254 254 254 254 254 254 254 254 254 254 254
254 254 254 254 254 254 254 254 254 254 254 254 254 254 254
254 254 254 254 254 254 254 254 254 254 254 254 254 254 254
254 254 254 254 254 254 254 254 254 254 254 254 254 254 254
254 254 254 254 254 254 254 254 254 254 254 254 254 254 254
254 254 254 254 254 254 254 254 254 254 254 254 254 254 254
254 254 254 254 254 254 254 254 254 254 254 254 254 254 254
254 254 254 254 254 254 254 254 254 254 254 254 254 254 254
254 254 254 254 254 254 254 254 254 254 254 254 254 254 254
254 254 254 254 254 254 254 254 254 254 254 254 254 254 254
254 254 254 254 254 254 254 254 254 254 254 254 254 254 254
254 254 254 254 254 254 254 254 254 254 254 254 254 254 254
254 254 254 254 254 254 254 254 254 254 254 254 254 254 254
254 254 254 254 254 254 254 254 254 254 254 254 254 254 254
254 254 254 254 254 254 254 254 254 254 254 254 254 254 254
254 254 254 254 254 254 254 254 254 254 254 254 254 254 254
254 254 254 254 254 252 252 254 249 250 255 248 250 255 248
250 255 248 250 255 249 250 255 249 250 255 249 250 255 249
250 255 251 250 255 251 251 255 254 252 255 255 251 255 254
250 254 255 250 254 255 251 255 255 247 255 255 245 255 255
244 253 252 247 253 251 249 254 250 253 255 250 254 255 249
253 254 248 251 252 246 249 250 244 247 249 244 247 252 248
249 255 253 249 255 255 247 255 255 245 255 255 246 250 253
252 253 255 243 244 248 240 241 245 250 251 255 234 235 239
186 187 191 148 149 153 124 125 129 132 133 137 136 137 139
134 135 137 131 132 134 132 133 135 133 134 136 132 133 135
137 137 137 134 134 134 135 135 135 146 146 146 160 160 160
170 170 170 171 171 171 168 168 168 165 165 165 166 166 166
167 167 167 168 168 168 170 170 170 171 171 171 172 172 172
173 173 173 175 177 176 175 177 176 176 178 177 177 179 178
178 180 179 178 180 179 179 181 180 179 181 180 176 178 177
176 178 177 175 177 176 173 175 174 171 173 172 170 172 171
169 171 170 168 170 169 169 171 170 168 170 169 168 170 169
169 171 170 170 172 171 168 170 169 163 165 164 158 160 159
161 163 162 164 166 165 169 171 170 174 176 175 175 177 176
170 172 171 162 164 163 156 158 157 147 149 148 146 148 147
146 148 147 147 149 148 149 151 150 150 152 151 148 150 149
147 149 148 149 151 150 148 150 149 148 150 149 147 149 148
147 149 148 148 150 149 148 150 149 150 150 148 153 149 146
154 149 145 154 149 146 154 149 146 153 149 146 153 149 146
151 150 148 151 149 150 150 150 150 149 149 149 149 149 151
148 149 151 149 150 154 147 151 154 146 150 153 145 149 152
149 152 157 150 151 155 151 151 153 151 149 150 153 147 147
154 146 144 155 144 142 154 143 141 164 150 147 163 149 148
160 148 148 158 148 149 155 146 149 155 146 149 152 145 152
151 146 150 148 148 148 147 149 146 148 150 149 148 150 149
149 150 154 149 150 154 149 150 155 149 150 155 148 149 154
148 149 154 148 149 153 148 149 151 148 149 151 148 150 149
148 150 147 148 150 145 148 150 145 148 151 144 148 150 145
148 150 145 148 150 145 148 150 145 148 150 147 148 150 147
148 150 147 148 150 147 148 150 149 148 150 149 148 150 149
148 150 149 148 150 149 148 150 149 148 150 149 148 150 149
148 150 149 148 150 149 148 150 149 148 150 149 148 150 149
148 150 149 148 150 149 148 150 149 148 150 149 148 150 149
148 150 149 148 150 149 148 150 149 148 150 149 148 150 149
148 150 149 148 150 149 148 150 149 148 150 149 148 150 149
148 150 149 148 150 149 148 150 149 148 150 149 148 150 149
148 150 149 148 150 149 148 150 149 148 150 149 148 150 149
148 150 149 148 150 149 148 150 149 148 150 149 148 150 149
148 150 149 148 150 149 148 150 149 148 150 149 148 150 149
148 150 149 148 150 149 148 150 149 148 150 149 148 150 149
148 150 149 148 150 149 148 150 149 148 150 149 148 150 149
148 150 149 148 150 149 148 150 149 148 150 149 148 150 149
148 150 149 148 150 149 148 150 149 148 150 149 148 150 149
148 150 149 148 150 149 148 150 149 148 150 149 148 150 149
148 150 149 148 150 149 148 150 149 148 150 149 148 150 149
148 150 149 148 150 149 148 150 149 148 150 149 148 150 149
148 150 149 148 150 149 148 150 149 148 150 149 148 150 149
148 150 149 148 150 149 149 151 150 151 153 152 152 154 153
153 155 154 150 152 151 146 148 147 141 143 142 159 161 160
178 180 179 210 212 211 250 252 251 247 249 248 232 232 232
167 167 167 124 124 124 127 127 127 134 134 134 134 134 134
136 136 136 138 138 138 131 131 131 137 137 137 132 132 132
132 132 132 143 143 143 150 150 150 181 181 181 231 231 231
253 253 253 253 253 253 253 253 253 254 254 254 254 254 254
255 255 255 255 255 255 255 255 255 254 254 254 254 254 254
254 254 254 254 254 254 254 254 254 254 254 254 254 254 254
254 254 254 254 254 254 254 254 254 254 254 254 254 254 254
254 254 254 254 254 254 254 254 254 254 254 254 254 254 254
254 254 254 254 254 254 254 254 254 254 254 254 254 254 254
254 254 254 254 254 254 254 254 254 254 254 254 254 254 254
254 254 254 254 254 254 254 254 254 254 254 254 254 254 254
254 254 254 254 254 254 254 254 254 254 254 254 254 254 254
254 254 254 254 254 254 254 254 254 254 254 254 254 254 254
254 254 254 254 254 254 254 254 254 254 254 254 254 254 254
254 254 254 254 254 254 254 254 254 254 254 254 254 254 254
254 254 254 254 254 254 254 254 254 254 254 254 254 254 254
254 254 254 254 254 254 254 254 254 254 254 254 254 254 254
254 254 254 254 254 254 254 254 254 254 254 254 254 254 254
254 254 254 254 254 254 254 254 254 254 254 254 254 254 254
254 254 254 254 254 254 254 254 254 254 254 254 254 254 254
254 254 254 254 254 254 254 254 254 254 254 254 254 254 254
254 254 254 254 254 254 254 254 254 254 254 254 254 254 254
253 255 252 252 255 248 250 255 246 250 255 248 250 255 248
250 255 248 250 255 248 250 255 249 250 255 249 250 255 251
250 255 251 251 255 254 252 255 255 252 255 255 250 254 255
251 255 255 251 255 255 249 255 255 248 255 255 246 255 254
247 253 251 249 254 250 252 254 249 252 254 249 251 253 248
252 253 248 250 252 247 250 252 249 250 255 251 251 255 255
249 255 255 245 255 255 243 251 253 250 253 255 254 255 255
246 247 252 243 244 249 254 255 255 241 242 247 195 196 200
157 158 162 122 123 127 130 131 135 136 137 139 135 136 138
132 133 135 132 133 135 132 133 135 130 131 133 136 136 136
134 134 134 136 136 136 147 147 147 161 161 161 171 171 171
171 171 171 168 168 168 170 170 170 170 170 170 171 171 171
171 171 171 171 171 171 172 172 172 172 172 172 172 172 172
174 176 175 173 175 174 172 174 173 171 173 172 170 172 171
168 170 169 167 169 168 167 169 168 170 172 171 170 172 171
170 172 171 170 172 171 170 172 171 171 173 172 171 173 172
171 173 172 169 171 170 169 171 170 169 171 170 172 174 173
173 175 174 170 172 171 164 166 165 159 161 160 158 160 159
162 164 163 169 171 170 175 177 176 176 178 177 171 173 172
161 163 162 154 156 155 144 146 145 144 146 145 145 147 146
147 149 148 150 152 151 150 152 151 148 150 149 146 148 147
149 151 150 148 150 149 148 150 149 147 149 148 147 149 148
148 150 149 148 150 149 150 150 148 153 149 146 154 149 145
154 149 146 153 149 146 153 149 146 151 150 148 151 149 150
150 150 150 149 149 151 147 148 150 146 147 151 145 149 152
147 150 155 148 151 156 146 151 155 145 150 154 145 150 156
144 149 153 145 149 152 147 148 150 150 148 149 153 149 148
156 151 148 159 151 149 156 146 144 156 146 144 156 146 145
155 146 147 155 146 147 155 146 149 153 147 151 151 147 148
149 149 149 148 150 147 148 150 149 148 150 149 148 149 153
148 149 153 148 149 154 148 149 154 148 149 154 148 149 154
148 149 153 148 149 151 148 149 151 148 150 149 148 150 147
148 150 145 148 150 145 148 151 144 148 150 145 148 150 145
148 150 145 148 150 145 148 150 147 148 150 147 148 150 147
148 150 147 148 150 149 148 150 149 148 150 149 148 150 149
148 150 149 148 150 149 148 150 149 148 150 149 148 150 149
148 150 149 148 150 149 148 150 149 148 150 149 148 150 149
148 150 149 148 150 149 148 150 149 148 150 149 148 150 149
148 150 149 148 150 149 148 150 149 148 150 149 148 150 149
148 150 149 148 150 149 148 150 149 148 150 149 148 150 149
148 150 149 148 150 149 148 150 149 148 150 149 148 150 149
148 150 149 148 150 149 148 150 149 148 150 149 148 150 149
148 150 149 148 150 149 148 150 149 148 150 149 148 150 149
148 150 149 148 150 149 148 150 149 148 150 149 148 150 149
148 150 149 148 150 149 148 150 149 148 150 149 148 150 149
148 150 149 148 150 149 148 150 149 148 150 149 148 150 149
148 150 149 148 150 149 148 150 149 148 150 149 148 150 149
148 150 149 148 150 149 148 150 149 148 150 149 148 150 149
148 150 149 148 150 149 148 150 149 148 150 149 148 150 149
148 150 149 148 150 149 148 150 149 148 150 149 148 150 149
148 150 149 148 150 149 148 150 149 148 150 149 148 150 149
148 150 149 148 150 149 150 152 151 149 151 150 148 150 149
146 148 147 145 147 146 145 147 146 145 147 146 145 147 146
149 151 150 142 144 143 130 132 131 156 158 157 193 195 194
222 224 223 251 253 252 250 252 251 245 245 245 173 173 173
124 124 124 127 127 127 136 136 136 136 136 136 136 136 136
136 136 136 132 132 132 138 138 138 132 132 132 135 135 135
146 146 146 146 146 146 171 171 171 222 222 222 253 253 253
253 253 253 253 253 253 254 254 254 254 254 254 255 255 255
255 255 255 255 255 255 254 254 254 254 254 254 254 254 254
254 254 254 254 254 254 254 254 254 254 254 254 254 254 254
254 254 254 254 254 254 254 254 254 254 254 254 254 254 254
254 254 254 254 254 254 254 254 254 254 254 254 254 254 254
254 254 254 254 254 254 254 254 254 254 254 254 254 254 254
254 254 254 254 254 254 254 254 254 254 254 254 254 254 254
254 254 254 254 254 254 254 254 254 254 254 254 254 254 254
254 254 254 254 254 254 254 254 254 254 254 254 254 254 254
254 254 254 254 254 254 254 254 254 254 254 254 254 254 254
254 254 254 254 254 254 254 254 254 254 254 254 254 254 254
254 254 254 254 254 254 254 254 254 254 254 254 254 254 254
254 254 254 254 254 254 254 254 254 254 254 254 254 254 254
254 254 254 254 254 254 254 254 254 254 254 254 254 254 254
254 254 254 254 254 254 254 254 254 254 254 254 254 254 254
254 254 254 254 254 254 254 254 254 254 254 254 254 254 254
254 254 254 254 254 254 254 254 254 254 254 254 254 254 254
254 254 254 254 254 254 254 254 254 254 254 254 254 254 254
254 254 254 254 254 254 254 254 254 254 254 254 253 255 252
253 255 247 251 255 245 251 255 247 251 255 247 251 255 249
251 255 249 251 255 250 251 255 250 251 255 252 251 255 254
251 255 255 251 255 255 251 255 255 251 255 255 251 254 255
251 255 255 250 255 255 250 255 254 251 255 254 253 255 252
253 255 252 254 255 250 254 255 250 254 255 249 255 254 249
254 255 249 254 255 250 253 255 252 253 255 252 251 255 254
250 255 254 250 255 255 250 251 255 254 254 255 245 245 253
249 249 255 247 248 253 239 240 245 214 215 219 157 158 162
130 131 135 131 132 136 131 132 134 132 133 135 132 134 133
131 133 132 130 132 131 128 130 129 137 137 137 134 134 134
134 134 134 145 145 145 160 160 160 169 169 169 168 168 168
163 163 163 170 170 170 170 170 170 170 170 170 169 169 169
169 169 169 168 168 168 168 168 168 168 168 168 163 165 164
163 165 164 164 166 165 164 166 165 164 166 165 164 166 165
164 166 165 164 166 165 166 168 167 166 168 167 166 168 167
165 167 166 165 167 166 164 166 165 164 166 165 164 166 165
168 170 169 166 168 167 165 167 166 166 168 167 167 169 168
167 169 168 165 167 166 163 165 164 168 170 169 167 169 168
166 168 167 168 170 169 169 171 170 165 167 166 158 160 159
152 154 153 146 148 147 147 149 148 147 149 148 148 150 149
148 150 149 149 151 150 149 151 150 150 152 151 148 150 149
148 150 149 148 150 149 148 150 149 148 150 149 148 150 149
148 150 149 149 149 147 152 148 145 153 148 145 152 148 147
152 148 147 152 148 147 150 148 149 150 148 149 149 149 151
149 148 153 148 149 153 148 149 154 146 149 154 146 149 156
145 150 156 145 150 156 145 150 156 143 151 154 143 151 153
145 150 153 146 150 151 148 150 149 149 149 147 150 149 145
152 148 145 153 148 144 153 148 144 153 148 144 153 148 145
153 148 145 153 148 145 153 147 147 152 148 147 149 149 147
148 150 147 148 150 149 148 150 149 148 149 153 148 149 153
148 149 154 148 149 154 148 149 154 147 148 153 146 147 151
147 148 150 149 150 152 150 152 151 149 151 148 148 150 145
147 149 144 147 150 143 148 150 145 149 151 146 149 151 146
149 151 146 148 150 147 148 150 147 148 150 147 148 150 147
148 150 149 148 150 149 148 150 149 148 150 149 148 150 149
148 150 149 148 150 149 148 150 149 148 150 149 148 150 149
148 150 149 148 150 149 148 150 149 148 150 149 148 150 149
148 150 149 148 150 149 148 150 149 148 150 149 148 150 149
148 150 149 148 150 149 148 150 149 148 150 149 148 150 149
148 150 149 148 150 149 148 150 149 148 150 149 148 150 149
148 150 149 148 150 149 148 150 149 148 150 149 148 150 149
148 150 149 148 150 149 148 150 149 148 150 149 148 150 149
148 150 149 148 150 149 148 150 149 148 150 149 148 150 149
148 150 149 148 150 149 148 150 149 148 150 149 148 150 149
148 150 149 148 150 149 148 150 149 148 150 149 148 150 149
148 150 149 148 150 149 148 150 149 148 150 149 148 150 149
148 150 149 148 150 149 148 150 149 148 150 149 148 150 149
148 150 149 148 150 149 148 150 149 148 150 149 148 150 149
148 150 149 148 150 149 148 150 149 148 150 149 148 150 149
148 150 149 148 150 149 148 150 149 148 150 149 148 150 149
148 150 149 148 150 149 148 150 149 148 150 149 148 150 149
148 150 149 151 153 152 149 151 150 147 149 148 147 149 148
147 149 148 147 149 148 144 146 145 142 144 143 141 143 142
144 146 145 139 141 140 160 162 161 207 209 208 230 232 231
237 239 238 254 255 255 245 245 245 206 206 206 157 157 157
129 129 129 129 129 129 139 139 139 141 141 141 136 136 136
136 136 136 135 135 135 133 133 133 136 136 136 137 137 137
136 136 136 165 165 165 213 213 213 238 238 238 254 254 254
255 255 255 249 249 249 255 255 255 255 255 255 253 253 253
253 253 253 254 254 254 254 254 254 254 254 254 254 254 254
254 254 254 254 254 254 254 254 254 254 254 254 254 254 254
254 254 254 254 254 254 254 254 254 254 254 254 254 254 254
254 254 254 254 254 254 254 254 254 254 254 254 254 254 254
254 254 254 254 254 254 254 254 254 254 254 254 254 254 254
254 254 254 254 254 254 254 254 254 254 254 254 254 254 254
254 254 254 254 254 254 254 254 254 254 254 254 254 254 254
254 254 254 254 254 254 254 254 254 254 254 254 254 254 254
254 254 254 254 254 254 254 254 254 254 254 254 254 254 254
254 254 254 254 254 254 254 254 254 254 254 254 254 254 254
254 254 254 254 254 254 254 254 254 254 254 254 254 254 254
254 254 254 254 254 254 254 254 254 254 254 254 254 254 254
254 254 254 254 254 254 254 254 254 254 254 254 254 254 254
254 254 254 254 254 254 254 254 254 254 254 254 254 254 254
254 254 254 254 254 254 254 254 254 254 254 254 254 254 254
254 254 254 254 254 254 254 254 254 254 254 254 254 254 254
254 254 254 254 254 254 254 254 254 254 254 254 254 254 254
254 254 254 254 254 254 254 254 254 254 254 252 253 255 247
251 255 245 251 255 247 251 255 247 251 255 249 251 255 249
251 255 250 251 255 250 251 255 252 251 255 254 251 255 255
251 255 255 251 255 255 251 255 255 251 254 255 251 255 255
253 255 254 253 255 252 254 254 252 254 255 250 254 255 250
255 254 250 255 254 249 255 254 249 255 254 249 255 254 249
255 254 250 254 255 250 254 255 250 254 254 252 253 255 252
253 255 254 250 251 255 254 255 255 245 245 253 250 251 255
249 250 255 242 243 247 218 219 223 162 163 167 128 129 133
130 131 133 133 134 136 135 136 138 134 136 135 133 135 134
133 135 134 133 135 134 137 137 137 135 135 135 136 136 136
145 145 145 159 159 159 168 168 168 170 170 170 167 167 167
172 172 172 172 172 172 173 173 173 173 173 173 173 173 173
173 173 173 173 173 173 173 173 173 169 171 170 168 170 169
168 170 169 168 170 169 168 170 169 170 172 171 171 173 172
172 174 173 169 171 170 169 171 170 170 172 171 171 173 172
171 173 172 172 174 173 172 174 173 173 175 174 174 176 175
171 173 172 169 171 170 169 171 170 170 172 171 171 173 172
170 172 171 169 171 170 167 169 168 167 169 168 167 169 168
166 168 167 165 167 166 161 163 162 155 157 156 150 152 151
147 149 148 147 149 148 148 150 149 148 150 149 148 150 149
148 150 149 149 151 150 149 151 150 148 150 149 148 150 149
148 150 149 148 150 149 148 150 149 148 150 149 148 150 149
149 149 149 150 149 147 152 148 147 152 148 147 150 149 147
150 148 149 149 149 149 149 149 151 149 149 151 148 149 153
148 149 153 146 149 154 146 149 154 145 150 156 145 150 156
145 150 156 145 150 156 143 151 153 143 152 151 145 151 151
145 151 149 146 151 147 148 150 145 149 150 145 150 149 145
150 149 144 152 149 144 152 149 144 152 149 144 153 148 144
153 148 144 153 148 144 152 148 145 149 149 147 148 150 147
148 150 149 148 150 149 148 149 153 148 149 153 148 149 154
148 149 154 148 149 154 147 148 153 147 148 152 148 149 151
150 151 153 151 153 152 150 152 149 148 150 145 146 148 143
147 150 143 148 150 145 149 151 146 149 151 146 149 151 146
148 150 147 148 150 147 148 150 147 148 150 147 148 150 149
148 150 149 148 150 149 148 150 149 148 150 149 148 150 149
148 150 149 148 150 149 148 150 149 148 150 149 148 150 149
148 150 149 148 150 149 148 150 149 148 150 149 148 150 149
148 150 149 148 150 149 148 150 149 148 150 149 148 150 149
148 150 149 148 150 149 148 150 149 148 150 149 148 150 149
148 150 149 148 150 149 148 150 149 148 150 149 148 150 149
148 150 149 148 150 149 148 150 149 148 150 149 148 150 149
148 150 149 148 150 149 148 150 149 148 150 149 148 150 149
148 150 149 148 150 149 148 150 149 148 150 149 148 150 149
148 150 149 148 150 149 148 150 149 148 150 149 148 150 149
148 150 149 148 150 149 148 150 149 148 150 149 148 150 149
148 150 149 148 150 149 148 150 149 148 150 149 148 150 149
148 150 149 148 150 149 148 150 149 148 150 149 148 150 149
148 150 149 148 150 149 148 150 149 148 150 149 148 150 149
148 150 149 148 150 149 148 150 149 149 151 150 149 151 150
149 151 150 149 151 150 148 150 149 148 150 149 148 150 149
148 150 149 148 150 149 148 150 149 148 150 149 148 150 149
150 152 151 149 151 150 148 150 149 147 149 148 147 149 148
147 149 148 147 149 148 146 148 147 144 146 145 147 149 148
146 148 147 173 175 174 221 223 222 241 243 242 240 242 241
249 251 250 249 249 249 222 222 222 179 179 179 143 143 143
131 131 131 137 137 137 141 141 141 138 138 138 136 136 136
134 134 134 134 134 134 140 140 140 138 138 138 132 132 132
160 160 160 210 210 210 238 238 238 255 255 255 255 255 255
250 250 250 255 255 255 255 255 255 252 252 252 253 253 253
254 254 254 254 254 254 254 254 254 254 254 254 254 254 254
254 254 254 254 254 254 254 254 254 254 254 254 254 254 254
254 254 254 254 254 254 254 254 254 254 254 254 254 254 254
254 254 254 254 254 254 254 254 254 254 254 254 254 254 254
254 254 254 254 254 254 254 254 254 254 254 254 254 254 254
254 254 254 254 254 254 254 254 254 254 254 254 254 254 254
254 254 254 254 254 254 254 254 254 254 254 254 254 254 254
254 254 254 254 254 254 254 254 254 254 254 254 254 254 254
254 254 254 254 254 254 254 254 254 254 254 254 254 254 254
254 254 254 254 254 254 254 254 254 254 254 254 254 254 254
254 254 254 254 254 254 254 254 254 254 254 254 254 254 254
254 254 254 254 254 254 254 254 254 254 254 254 254 254 254
254 254 254 254 254 254 254 254 254 254 254 254 254 254 254
254 254 254 254 254 254 254 254 254 254 254 254 254 254 254
254 254 254 254 254 254 254 254 254 254 254 254 254 254 254
254 254 254 254 254 254 254 254 254 254 254 254 254 254 254
254 254 254 254 254 254 254 254 254 254 254 254 254 254 254
254 254 254 254 254 254 254 254 252 253 255 249 253 255 247
253 255 247 253 255 247 253 255 249 253 255 249 253 255 250
253 255 250 253 255 252 253 255 252 253 255 254 253 255 254
253 254 255 253 254 255 253 254 255 253 254 255 254 254 252
255 254 250 255 254 250 255 254 249 255 254 249 255 254 249
255 254 249 255 254 249 255 254 249 255 254 249 255 254 249
255 254 249 255 254 249 255 254 250 255 254 250 255 254 252
252 251 255 255 254 255 247 246 252 251 250 255 252 251 255
246 245 250 224 223 228 169 169 171 124 124 126 129 129 131
133 133 135 134 134 134 132 132 132 130 130 130 130 130 130
132 132 132 134 134 134 133 133 133 136 136 136 144 144 144
156 156 156 166 166 166 172 172 172 173 173 173 169 169 169
169 169 169 169 169 169 169 169 169 169 169 169 169 169 169
169 169 169 169 169 169 169 171 170 168 170 169 166 168 167
165 167 166 165 167 166 166 168 167 167 169 168 168 170 169
163 165 164 164 166 165 165 167 166 166 168 167 167 169 168
169 171 170 170 172 171 170 172 171 172 174 173 170 172 171
168 170 169 168 170 169 169 171 170 170 172 171 169 171 170
168 170 169 166 168 167 167 169 168 167 169 168 165 167 166
160 162 161 154 156 155 150 152 151 149 151 150 149 151 150
149 151 150 148 150 149 148 150 149 148 150 149 148 150 149
147 149 148 147 149 148 148 150 149 148 150 149 148 150 149
148 150 149 148 150 149 148 150 149 148 150 149 148 150 149
149 149 149 150 148 149 150 148 149 149 149 149 149 149 151
149 149 151 149 149 151 148 149 151 148 149 153 148 149 153
146 150 153 146 150 153 146 149 154 146 149 154 146 149 154
145 150 154 143 152 151 143 152 149 145 151 149 145 151 147
146 151 147 148 150 145 148 150 145 149 150 144 149 150 144
150 149 144 150 149 144 150 149 144 152 149 142 152 149 142
152 149 142 150 149 144 149 150 145 148 150 147 148 150 149
148 150 149 148 149 153 148 149 153 148 149 154 148 149 154
149 150 155 148 149 154 148 149 153 149 150 152 151 152 154
152 154 153 150 152 149 149 151 146 146 148 143 146 149 142
147 149 144 148 150 145 149 151 146 149 151 146 148 150 147
148 150 147 148 150 147 148 150 147 148 150 149 148 150 149
148 150 149 148 150 149 148 150 149 148 150 149 148 150 149
148 150 149 148 150 149 148 150 149 148 150 149 148 150 149
148 150 149 148 150 149 148 150 149 148 150 149 148 150 149
148 150 149 148 150 149 148 150 149 148 150 149 148 150 149
148 150 149 148 150 149 148 150 149 148 150 149 148 150 149
148 150 149 148 150 149 148 150 149 148 150 149 148 150 149
148 150 149 148 150 149 148 150 149 148 150 149 148 150 149
148 150 149 148 150 149 148 150 149 148 150 149 148 150 149
148 150 149 148 150 149 148 150 149 148 150 149 148 150 149
148 150 149 148 150 149 148 150 149 148 150 149 148 150 149
148 150 149 148 150 149 148 150 149 148 150 149 148 150 149
148 150 149 148 150 149 148 150 149 148 150 149 148 150 149
148 150 149 148 150 149 148 150 149 148 150 149 148 150 149
148 150 149 148 150 149 148 150 149 148 150 149 148 150 149
148 150 149 149 151 150 149 151 150 150 152 151 150 152 151
150 152 151 148 150 149 148 150 149 148 150 149 148 150 149
148 150 149 148 150 149 148 150 149 148 150 149 148 150 149
148 150 149 148 150 149 147 149 148 147 149 148 147 149 148
150 152 151 152 154 153 151 153 152 149 151 150 151 153 152
181 183 182 229 231 230 250 252 251 246 248 247 246 248 247
250 250 250 237 237 237 201 201 201 156 156 156 131 131 131
133 133 133 140 140 140 141 141 141 135 135 135 132 132 132
135 135 135 145 145 145 141 141 141 127 127 127 153 153 153
208 208 208 237 237 237 255 255 255 255 255 255 251 251 251
255 255 255 255 255 255 251 251 251 252 252 252 254 254 254
254 254 254 254 254 254 254 254 254 254 254 254 254 254 254
254 254 254 254 254 254 254 254 254 254 254 254 254 254 254
254 254 254 254 254 254 254 254 254 254 254 254 254 254 254
254 254 254 254 254 254 254 254 254 254 254 254 254 254 254
254 254 254 254 254 254 254 254 254 254 254 254 254 254 254
254 254 254 254 254 254 254 254 254 254 254 254 254 254 254
254 254 254 254 254 254 254 254 254 254 254 254 254 254 254
254 254 254 254 254 254 254 254 254 254 254 254 254 254 254
254 254 254 254 254 254 254 254 254 254 254 254 254 254 254
254 254 254 254 254 254 254 254 254 254 254 254 254 254 254
254 254 254 254 254 254 254 254 254 254 254 254 254 254 254
254 254 254 254 254 254 254 254 254 254 254 254 254 254 254
254 254 254 254 254 254 254 254 254 254 254 254 254 254 254
254 254 254 254 254 254 254 254 254 254 254 254 254 254 254
254 254 254 254 254 254 254 254 254 254 254 254 254 254 254
254 254 254 254 254 254 254 254 254 254 254 254 254 254 254
254 254 254 254 254 254 254 254 254 254 254 254 254 254 254
254 254 254 254 254 252 254 255 249 253 255 247 254 255 249
253 255 249 254 255 249 253 255 249 254 255 250 253 255 250
254 254 252 253 255 252 254 254 254 253 255 254 254 254 255
253 254 255 254 254 255 254 254 255 255 254 252 255 253 250
255 253 250 255 253 250 255 253 250 255 254 250 255 253 250
255 254 250 255 253 250 255 254 250 255 253 250 255 253 250
255 253 250 255 253 250 255 253 250 255 254 252 253 253 255
255 255 255 247 247 249 251 251 253 252 252 254 247 247 249
226 226 228 172 172 172 127 127 129 132 132 132 136 136 136
136 136 136 132 132 132 129 129 129 130 130 130 131 131 131
132 132 132 133 133 133 136 136 136 143 143 143 152 152 152
162 162 162 168 168 168 171 171 171 172 172 172 172 172 172
172 172 172 172 172 172 172 172 172 172 172 172 172 172 172
172 172 172 168 170 169 168 170 169 167 169 168 166 168 167
165 167 166 164 166 165 163 165 164 162 164 163 171 173 172
171 173 172 172 174 173 172 174 173 172 174 173 172 174 173
173 175 174 173 175 174 168 170 169 168 170 169 168 170 169
169 171 170 170 172 171 169 171 170 166 168 167 164 166 165
165 167 166 167 169 168 168 170 169 163 165 164 156 158 157
150 152 151 148 150 149 148 150 149 150 152 151 149 151 150
149 151 150 148 150 149 148 150 149 147 149 148 147 149 148
146 148 147 148 150 149 148 150 149 148 150 149 148 150 149
148 150 149 148 150 149 148 150 149 148 150 149 148 150 149
148 150 149 148 149 151 148 149 151 149 149 151 148 149 151
148 149 151 148 149 151 148 149 151 148 149 151 146 150 153
146 150 153 146 150 153 146 150 153 148 149 153 146 150 151
145 151 149 145 151 147 145 151 147 145 151 147 146 151 147
146 151 145 148 150 145 148 150 145 148 150 145 149 150 145
149 150 145 150 149 145 150 149 144 150 149 144 152 149 144
150 149 144 149 149 147 148 150 147 148 150 149 148 150 149
148 149 153 148 149 153 148 149 154 148 149 154 149 150 155
148 149 154 149 150 154 150 151 153 152 153 155 153 155 154
151 153 150 149 151 146 145 147 142 145 148 141 147 149 144
148 150 145 148 150 145 149 151 146 148 150 147 148 150 147
148 150 147 148 150 147 148 150 149 148 150 149 148 150 149
148 150 149 148 150 149 148 150 149 148 150 149 148 150 149
148 150 149 148 150 149 148 150 149 148 150 149 148 150 149
148 150 149 148 150 149 148 150 149 148 150 149 148 150 149
148 150 149 148 150 149 148 150 149 148 150 149 148 150 149
148 150 149 148 150 149 148 150 149 148 150 149 148 150 149
148 150 149 148 150 149 148 150 149 148 150 149 148 150 149
148 150 149 148 150 149 148 150 149 148 150 149 148 150 149
148 150 149 148 150 149 148 150 149 148 150 149 148 150 149
148 150 149 148 150 149 148 150 149 148 150 149 148 150 149
148 150 149 148 150 149 148 150 149 148 150 149 148 150 149
148 150 149 148 150 149 148 150 149 148 150 149 148 150 149
148 150 149 148 150 149 148 150 149 148 150 149 148 150 149
148 150 149 148 150 149 148 150 149 148 150 149 148 150 149
148 150 149 148 150 149 148 150 149 148 150 149 149 151 150
149 151 150 150 152 151 150 152 151 150 152 151 150 152 151
147 149 148 147 149 148 147 149 148 147 149 148 147 149 148
147 149 148 147 149 148 147 149 148 146 148 147 148 150 149
148 150 149 148 150 149 147 149 148 148 150 149 152 154 153
156 158 157 157 159 158 150 152 151 153 155 154 185 187 186
229 231 230 252 254 253 253 255 254 249 251 250 248 248 248
243 243 243 213 213 213 163 163 163 131 131 131 131 131 131
139 139 139 141 141 141 135 135 135 131 131 131 136 136 136
149 149 149 144 144 144 125 125 125 150 150 150 207 207 207
235 235 235 254 254 254 255 255 255 251 251 251 254 254 254
255 255 255 251 251 251 252 252 252 254 254 254 254 254 254
254 254 254 254 254 254 254 254 254 254 254 254 254 254 254
254 254 254 254 254 254 254 254 254 254 254 254 254 254 254
254 254 254 254 254 254 254 254 254 254 254 254 254 254 254
254 254 254 254 254 254 254 254 254 254 254 254 254 254 254
254 254 254 254 254 254 254 254 254 254 254 254 254 254 254
254 254 254 254 254 254 254 254 254 254 254 254 254 254 254
254 254 254 254 254 254 254 254 254 254 254 254 254 254 254
254 254 254 254 254 254 254 254 254 254 254 254 254 254 254
254 254 254 254 254 254 254 254 254 254 254 254 254 254 254
254 254 254 254 254 254 254 254 254 254 254 254 254 254 254
254 254 254 254 254 254 254 254 254 254 254 254 254 254 254
254 254 254 254 254 254 254 254 254 254 254 254 254 254 254
254 254 254 254 254 254 254 254 254 254 254 254 254 254 254
254 254 254 254 254 254 254 254 254 254 254 254 254 254 254
254 254 254 254 254 254 254 254 254 254 254 254 254 254 254
254 254 254 254 254 254 254 254 254 254 254 254 254 254 254
254 254 254 254 254 254 254 254 254 254 254 254 254 254 254
254 254 252 254 255 250 254 255 249 255 254 250 254 255 250
255 254 250 254 255 250 255 254 252 254 254 252 255 254 252
254 254 252 255 254 252 254 254 252 255 253 254 254 254 254
255 253 254 255 253 254 255 254 252 255 254 252 255 254 252
255 254 252 255 254 252 254 254 252 255 254 252 254 254 252
255 254 252 254 254 252 255 254 252 255 254 252 255 254 252
255 254 252 255 254 252 255 254 252 254 254 254 255 255 255
246 246 246 250 250 250 251 251 251 247 247 247 227 227 227
173 173 171 134 134 134 137 137 137 140 140 140 141 141 141
139 139 139 138 138 138 139 139 139 141 141 141 136 136 136
137 137 137 139 139 139 144 144 144 151 151 151 156 156 156
158 158 158 159 159 159 169 169 169 169 169 169 170 170 170
172 172 172 173 173 173 174 174 174 175 175 175 176 176 176
169 171 170 171 173 172 173 175 174 175 177 176 175 177 176
174 176 175 171 173 172 170 172 171 171 173 172 170 172 171
169 171 170 168 170 169 167 169 168 166 168 167 165 167 166
165 167 166 167 169 168 169 171 170 172 174 173 175 177 176
176 178 177 173 175 174 168 170 169 163 165 164 165 167 166
167 169 168 166 168 167 161 163 162 154 156 155 149 151 150
148 150 149 150 152 151 150 152 151 149 151 150 149 151 150
148 150 149 148 150 149 147 149 148 147 149 148 146 148 147
148 150 149 148 150 149 148 150 149 148 150 149 148 150 149
148 150 149 148 150 149 148 150 149 146 150 151 146 150 151
146 150 153 146 150 151 148 149 151 146 150 151 146 150 151
146 150 151 148 149 151 148 150 149 148 149 151 148 149 151
148 149 151 148 149 151 149 149 149 148 150 149 148 150 147
146 151 145 146 151 147 146 151 147 146 151 147 146 151 147
146 151 147 146 151 147 146 150 149 148 150 149 148 150 147
149 149 147 149 149 147 149 149 147 150 149 147 150 149 147
149 149 147 148 150 147 148 150 149 148 150 149 148 149 153
148 149 153 148 149 154 148 149 154 148 149 154 148 149 154
149 150 154 151 152 154 153 154 156 153 155 154 151 153 150
148 150 145 144 146 141 144 147 140 146 148 143 147 149 144
148 150 145 148 150 145 148 150 147 148 150 147 148 150 147
148 150 147 148 150 149 148 150 149 148 150 149 148 150 149
148 150 149 148 150 149 148 150 149 148 150 149 148 150 149
148 150 149 148 150 149 148 150 149 148 150 149 148 150 149
148 150 149 148 150 149 148 150 149 148 150 149 148 150 149
148 150 149 148 150 149 148 150 149 148 150 149 148 150 149
148 150 149 148 150 149 148 150 149 148 150 149 148 150 149
148 150 149 148 150 149 148 150 149 148 150 149 148 150 149
148 150 149 148 150 149 148 150 149 148 150 149 148 150 149
148 150 149 148 150 149 148 150 149 148 150 149 148 150 149
148 150 149 148 150 149 148 150 149 148 150 149 148 150 149
148 150 149 148 150 149 148 150 149 148 150 149 148 150 149
148 150 149 148 150 149 148 150 149 148 150 149 148 150 149
148 150 149 148 150 149 148 150 149 148 150 149 148 150 149
148 150 149 148 150 149 148 150 149 148 150 149 148 150 149
148 150 149 149 151 150 149 151 150 149 151 150 149 151 150
149 151 150 149 151 150 149 151 150 149 151 150 147 149 148
147 149 148 147 149 148 147 149 148 147 149 148 147 149 148
147 149 148 147 149 148 147 149 148 147 149 148 148 150 149
148 150 149 148 150 149 150 152 151 152 154 153 154 156 155
154 156 155 150 152 151 166 168 167 201 203 202 235 237 236
254 255 255 254 255 255 249 251 250 252 252 252 249 249 249
222 222 222 174 174 174 138 138 138 130 130 130 135 135 135
137 137 137 135 135 135 132 132 132 136 136 136 148 148 148
143 143 143 127 127 127 151 151 151 205 205 205 232 232 232
253 253 253 255 255 255 252 252 252 254 254 254 254 254 254
251 251 251 253 253 253 254 254 254 254 254 254 254 254 254
254 254 254 254 254 254 254 254 254 254 254 254 254 254 254
254 254 254 254 254 254 254 254 254 254 254 254 254 254 254
254 254 254 254 254 254 254 254 254 254 254 254 254 254 254
254 254 254 254 254 254 254 254 254 254 254 254 254 254 254
254 254 254 254 254 254 254 254 254 254 254 254 254 254 254
254 254 254 254 254 254 254 254 254 254 254 254 254 254 254
254 254 254 254 254 254 254 254 254 254 254 254 254 254 254
254 254 254 254 254 254 254 254 254 254 254 254 254 254 254
254 254 254 254 254 254 254 254 254 254 254 254 254 254 254
254 254 254 254 254 254 254 254 254 254 254 254 254 254 254
254 254 254 254 254 254 254 254 254 254 254 254 254 254 254
254 254 254 254 254 254 254 254 254 254 254 254 254 254 254
254 254 254 254 254 254 254 254 254 254 254 254 254 254 254
254 254 254 254 254 254 254 254 254 254 254 254 254 254 254
254 254 254 254 254 254 254 254 254 254 254 254 254 254 254
254 254 254 254 254 254 254 254 254 254 254 254 254 254 254
254 254 254 254 254 254 254 254 254 254 254 254 254 254 254
255 254 252 255 254 250 255 254 250 255 254 250 255 254 250
255 254 250 255 254 252 255 254 252 255 254 252 255 254 252
255 254 252 255 254 252 255 254 252 255 254 252 255 253 254
255 253 254 255 253 254 254 254 254 254 254 254 254 254 254
254 254 255 253 254 255 253 254 255 253 254 255 253 254 255
253 254 255 253 254 255 253 255 254 254 254 254 254 254 254
254 254 254 254 254 252 254 254 252 255 255 251 245 246 241
249 250 245 251 252 247 249 249 247 231 231 229 178 178 176
134 134 132 134 134 132 135 135 135 136 136 136 139 139 139
142 142 142 144 144 144 145 145 145 141 141 141 141 141 141
144 144 144 150 150 150 156 156 156 158 158 158 154 154 154
150 150 150 143 143 143 144 144 144 146 146 146 148 148 148
150 150 150 152 152 152 153 153 153 154 154 154 159 161 160
162 164 163 167 169 168 171 173 172 174 176 175 175 177 176
174 176 175 173 175 174 165 167 166 165 167 166 164 166 165
164 166 165 163 165 164 162 164 163 162 164 163 161 163 162
165 167 166 167 169 168 170 172 171 174 176 175 175 177 176
172 174 173 166 168 167 161 163 162 164 166 165 163 165 164
161 163 162 157 159 158 153 155 154 150 152 151 150 152 151
150 152 151 149 151 150 149 151 150 148 150 149 148 150 149
148 150 149 148 150 149 147 149 148 147 149 148 148 150 149
148 150 149 148 150 149 148 150 149 148 150 149 148 150 149
148 150 149 146 150 151 145 150 153 145 150 153 145 150 153
146 150 153 146 150 153 146 150 151 146 150 151 146 150 151
148 150 149 148 150 149 148 150 149 148 150 147 149 149 147
149 149 147 149 149 147 149 150 145 149 149 147 148 150 147
148 150 147 146 150 149 146 150 149 146 150 151 146 150 151
146 150 151 146 150 153 146 150 153 148 149 151 148 149 151
149 149 151 149 149 151 150 148 151 149 149 149 148 150 149
148 150 147 148 150 149 148 150 149 148 149 153 148 149 153
148 149 154 148 149 154 147 148 153 147 148 153 149 150 154
151 152 154 153 154 156 152 154 153 150 152 149 147 149 144
143 145 140 144 147 140 145 147 142 147 149 144 148 150 145
148 150 145 149 151 148 148 150 147 148 150 147 148 150 147
148 150 149 148 150 149 148 150 149 148 150 149 148 150 149
148 150 149 148 150 149 148 150 149 148 150 149 148 150 149
148 150 149 148 150 149 148 150 149 148 150 149 148 150 149
148 150 149 148 150 149 148 150 149 148 150 149 148 150 149
148 150 149 148 150 149 148 150 149 148 150 149 148 150 149
148 150 149 148 150 149 148 150 149 148 150 149 148 150 149
148 150 149 148 150 149 148 150 149 148 150 149 148 150 149
148 150 149 148 150 149 148 150 149 148 150 149 148 150 149
148 150 149 148 150 149 148 150 149 148 150 149 148 150 149
148 150 149 148 150 149 148 150 149 148 150 149 148 150 149
148 150 149 148 150 149 148 150 149 148 150 149 148 150 149
148 150 149 148 150 149 148 150 149 148 150 149 148 150 149
148 150 149 148 150 149 148 150 149 148 150 149 148 150 149
148 150 149 148 150 149 148 150 149 148 150 149 148 150 149
150 152 151 150 152 151 149 151 150 148 150 149 147 149 148
147 149 148 146 148 147 146 148 147 146 148 147 146 148 147
146 148 147 146 148 147 146 148 147 146 148 147 146 148 147
146 148 147 148 150 149 147 149 148 146 148 147 148 150 149
150 152 151 151 153 152 150 152 151 148 150 149 146 148 147
155 157 156 191 193 192 230 232 231 247 249 248 254 255 255
254 255 255 246 248 247 255 255 255 255 255 255 236 236 236
195 195 195 153 153 153 131 131 131 129 129 129 133 133 133
137 137 137 137 137 137 136 136 136 141 141 141 138 138 138
129 129 129 152 152 152 198 198 198 229 229 229 250 250 250
255 255 255 252 252 252 254 254 254 255 255 255 252 252 252
255 255 255 254 254 254 254 254 254 254 254 254 254 254 254
254 254 254 254 254 254 254 254 254 254 254 254 254 254 254
254 254 254 254 254 254 254 254 254 254 254 254 254 254 254
254 254 254 254 254 254 254 254 254 254 254 254 254 254 254
254 254 254 254 254 254 254 254 254 254 254 254 254 254 254
254 254 254 254 254 254 254 254 254 254 254 254 254 254 254
254 254 254 254 254 254 254 254 254 254 254 254 254 254 254
254 254 254 254 254 254 254 254 254 254 254 254 254 254 254
254 254 254 254 254 254 254 254 254 254 254 254 254 254 254
254 254 254 254 254 254 254 254 254 254 254 254 254 254 254
254 254 254 254 254 254 254 254 254 254 254 254 254 254 254
254 254 254 254 254 254 254 254 254 254 254 254 254 254 254
254 254 254 254 254 254 254 254 254 254 254 254 254 254 254
254 254 254 254 254 254 254 254 254 254 254 254 254 254 254
254 254 254 254 254 254 254 254 254 254 254 254 254 254 254
254 254 254 254 254 254 254 254 254 254 254 254 254 254 254
254 254 254 254 254 254 254 254 254 254 254 254 254 254 254
254 254 254 254 254 254 254 254 254 254 254 254 255 254 252
255 253 252 255 253 252 255 253 252 255 253 252 255 253 252
255 253 252 255 253 252 255 253 252 255 253 252 255 253 252
255 253 252 255 253 252 255 253 250 255 253 252 255 254 252
254 254 255 253 254 255 253 254 255 251 255 255 251 255 255
251 255 255 251 254 255 251 254 255 251 254 255 251 254 255
251 255 255 251 255 255 253 254 255 253 254 255 253 254 255
254 254 254 252 253 248 254 255 249 244 245 239 250 251 245
254 255 249 253 254 249 237 238 233 186 187 182 137 138 133
132 133 128 128 128 126 128 128 126 133 133 133 137 137 137
138 138 138 137 137 137 137 137 137 138 138 138 144 144 144
157 157 157 168 168 168 171 171 171 165 165 165 157 157 157
142 142 142 141 141 141 141 141 141 140 140 140 138 138 138
138 138 138 137 137 137 136 136 136 144 146 145 145 147 146
147 149 148 150 152 151 153 155 154 156 158 157 158 160 159
159 161 160 167 169 168 167 169 168 169 171 170 171 173 172
173 175 174 174 176 175 176 178 177 177 179 178 167 169 168
167 169 168 168 170 169 170 172 171 171 173 172 170 172 171
166 168 167 163 165 164 161 163 162 158 160 159 155 157 156
152 154 153 152 154 153 152 154 153 151 153 152 150 152 151
147 149 148 147 149 148 148 150 149 148 150 149 148 150 149
148 150 149 149 151 150 149 151 150 148 150 149 148 150 149
148 150 149 148 150 149 148 150 149 148 150 149 148 150 149
146 150 151 143 151 153 143 151 154 143 151 154 145 150 153
145 150 153 145 150 153 146 150 151 146 150 151 148 150 149
148 150 147 149 149 147 149 150 145 150 149 145 150 149 145
150 149 145 150 149 145 150 149 147 149 149 149 149 149 149
148 149 151 148 149 151 148 149 153 146 149 154 146 149 154
146 149 156 146 149 156 146 149 156 146 149 156 148 149 154
148 149 154 149 148 154 149 148 153 148 150 149 148 150 147
148 150 149 148 150 149 148 149 153 148 149 153 148 149 154
148 149 154 146 147 152 146 147 152 148 149 153 151 152 154
153 154 156 152 154 153 148 150 147 145 147 142 142 144 139
143 146 139 145 147 142 146 148 143 148 150 145 148 150 145
149 151 148 149 151 148 148 150 147 148 150 147 148 150 149
148 150 149 148 150 149 148 150 149 148 150 149 148 150 149
148 150 149 148 150 149 148 150 149 148 150 149 148 150 149
148 150 149 148 150 149 148 150 149 148 150 149 148 150 149
148 150 149 148 150 149 148 150 149 148 150 149 148 150 149
148 150 149 148 150 149 148 150 149 148 150 149 148 150 149
148 150 149 148 150 149 148 150 149 148 150 149 148 150 149
148 150 149 148 150 149 148 150 149 148 150 149 148 150 149
148 150 149 148 150 149 148 150 149 148 150 149 148 150 149
148 150 149 148 150 149 148 150 149 148 150 149 148 150 149
148 150 149 148 150 149 148 150 149 148 150 149 148 150 149
148 150 149 148 150 149 148 150 149 148 150 149 148 150 149
148 150 149 148 150 149 148 150 149 148 150 149 148 150 149
148 150 149 148 150 149 148 150 149 148 150 149 148 150 149
148 150 149 148 150 149 148 150 149 148 150 149 151 153 152
150 152 151 149 151 150 147 149 148 146 148 147 144 146 145
143 145 144 142 144 143 146 148 147 146 148 147 146 148 147
146 148 147 146 148 147 146 148 147 146 148 147 146 148 147
151 153 152 147 149 148 145 147 146 147 149 148 152 154 153
152 154 153 146 148 147 140 142 141 144 146 145 163 165 164
213 215 214 250 252 251 250 252 251 249 251 250 254 255 255
247 249 248 255 255 255 255 255 255 249 249 249 219 219 219
171 171 171 133 133 133 125 125 125 134 134 134 142 142 142
142 142 142 136 136 136 131 131 131 129 129 129 129 129 129
150 150 150 187 187 187 225 225 225 248 248 248 255 255 255
252 252 252 255 255 255 255 255 255 253 253 253 255 255 255
254 254 254 254 254 254 254 254 254 254 254 254 254 254 254
254 254 254 254 254 254 254 254 254 254 254 254 254 254 254
254 254 254 254 254 254 254 254 254 254 254 254 254 254 254
254 254 254 254 254 254 254 254 254 254 254 254 254 254 254
254 254 254 254 254 254 254 254 254 254 254 254 254 254 254
254 254 254 254 254 254 254 254 254 254 254 254 254 254 254
254 254 254 254 254 254 254 254 254 254 254 254 254 254 254
254 254 254 254 254 254 254 254 254 254 254 254 254 254 254
254 254 254 254 254 254 254 254 254 254 254 254 254 254 254
254 254 254 254 254 254 254 254 254 254 254 254 254 254 254
254 254 254 254 254 254 254 254 254 254 254 254 254 254 254
254 254 254 254 254 254 254 254 254 254 254 254 254 254 254
254 254 254 254 254 254 254 254 254 254 254 254 254 254 254
254 254 254 254 254 254 254 254 254 254 254 254 254 254 254
254 254 254 254 254 254 254 254 254 254 254 254 254 254 254
254 254 254 254 254 254 254 254 254 254 254 254 254 254 254
254 254 254 254 254 254 254 254 254 254 254 254 254 254 254
254 254 254 254 254 254 254 254 254 255 254 252 255 254 252
255 253 252 255 254 252 255 253 252 255 254 252 255 253 252
255 254 252 255 253 252 255 254 252 255 253 252 255 254 252
255 253 252 255 254 250 255 253 252 255 254 252 254 254 255
253 254 255 253 254 255 251 255 255 251 255 255 251 255 255
251 254 255 251 254 255 251 254 255 251 254 255 251 255 255
251 255 255 251 255 255 253 254 255 253 254 255 253 255 254
250 251 246 252 253 247 244 245 239 250 251 245 255 255 251
255 255 251 243 244 239 193 194 189 148 148 146 139 139 137
129 129 127 127 127 125 131 131 131 135 135 135 133 133 133
130 130 130 128 128 128 131 131 131 142 142 142 161 161 161
179 179 179 186 186 186 179 179 179 170 170 170 176 176 176
173 173 173 169 169 169 164 164 164 159 159 159 153 153 153
149 149 149 147 147 147 138 140 139 136 138 137 134 136 135
133 135 134 134 136 135 137 139 138 141 143 142 144 146 145
147 149 148 149 151 150 152 154 153 156 158 157 161 163 162
165 167 166 169 171 170 170 172 171 175 177 176 173 175 174
171 173 172 171 173 172 172 174 173 173 175 174 172 174 173
171 173 172 159 161 160 154 156 155 150 152 151 148 150 149
150 152 151 152 154 153 151 153 152 149 151 150 146 148 147
147 149 148 147 149 148 148 150 149 148 150 149 149 151 150
149 151 150 150 152 151 148 150 149 148 150 149 148 150 149
148 150 149 148 150 149 148 150 149 148 150 149 146 150 151
145 150 153 143 151 153 145 150 153 145 150 153 145 150 153
146 150 151 146 150 151 146 150 149 148 150 149 148 150 147
149 149 147 149 150 145 149 150 145 150 149 145 150 149 145
150 149 145 150 149 147 149 149 149 149 149 151 149 149 151
148 149 151 148 149 153 146 149 154 146 149 154 146 149 156
146 149 156 146 149 156 146 149 156 148 149 154 148 149 154
149 148 154 149 148 153 148 150 149 148 150 147 148 150 149
148 150 149 148 149 151 148 149 153 148 149 153 148 149 153
145 146 150 145 146 150 147 148 152 150 151 153 152 154 153
151 153 152 148 150 147 144 146 143 142 144 139 143 145 140
144 146 141 146 148 143 147 149 146 148 150 147 149 151 148
149 151 148 148 150 147 148 150 147 148 150 149 148 150 149
148 150 149 148 150 149 148 150 149 148 150 149 148 150 149
148 150 149 148 150 149 148 150 149 148 150 149 148 150 149
148 150 149 148 150 149 148 150 149 148 150 149 148 150 149
148 150 149 148 150 149 148 150 149 148 150 149 148 150 149
148 150 149 148 150 149 148 150 149 148 150 149 148 150 149
148 150 149 148 150 149 148 150 149 148 150 149 148 150 149
148 150 149 148 150 149 148 150 149 148 150 149 148 150 149
148 150 149 148 150 149 148 150 149 148 150 149 148 150 149
148 150 149 148 150 149 148 150 149 148 150 149 148 150 149
148 150 149 148 150 149 148 150 149 148 150 149 148 150 149
148 150 149 148 150 149 148 150 149 148 150 149 148 150 149
148 150 149 148 150 149 148 150 149 148 150 149 148 150 149
148 150 149 148 150 149 148 150 149 148 150 149 148 150 149
148 150 149 148 150 149 148 150 149 151 153 152 150 152 151
149 151 150 147 149 148 145 147 146 143 145 144 141 143 142
140 142 141 146 148 147 146 148 147 146 148 147 146 148 147
146 148 147 146 148 147 146 148 147 146 148 147 152 154 153
147 149 148 144 146 145 147 149 148 153 155 154 153 155 154
144 146 145 135 137 136 148 150 149 170 172 171 223 225 224
254 255 255 242 244 243 239 241 240 252 254 253 251 253 252
245 245 245 252 252 252 255 255 255 234 234 234 183 183 183
134 134 134 124 124 124 138 138 138 145 145 145 146 146 146
135 135 135 124 124 124 123 123 123 127 127 127 148 148 148
178 178 178 223 223 223 247 247 247 255 255 255 252 252 252
255 255 255 255 255 255 254 254 254 255 255 255 254 254 254
254 254 254 254 254 254 254 254 254 254 254 254 254 254 254
254 254 254 254 254 254 254 254 254 254 254 254 254 254 254
254 254 254 254 254 254 254 254 254 254 254 254 254 254 254
254 254 254 254 254 254 254 254 254 254 254 254 254 254 254
254 254 254 254 254 254 254 254 254 254 254 254 254 254 254
254 254 254 254 254 254 254 254 254 254 254 254 254 254 254
254 254 254 254 254 254 254 254 254 254 254 254 254 254 254
254 254 254 254 254 254 254 254 254 254 254 254 254 254 254
254 254 254 254 254 254 254 254 254 254 254 254 254 254 254
254 254 254 254 254 254 254 254 254 254 254 254 254 254 254
254 254 254 254 254 254 254 254 254 254 254 254 254 254 254
254 254 254 254 254 254 254 254 254 254 254 254 254 254 254
254 254 254 254 254 254 254 254 254 254 254 254 254 254 254
254 254 254 254 254 254 254 254 254 254 254 254 254 254 254
254 254 254 254 254 254 254 254 254 254 254 254 254 254 254
254 254 254 254 254 254 254 254 254 254 254 254 254 254 254
254 254 254 254 254 254 254 254 254 254 254 254 254 254 254
254 254 254 254 254 254 254 254 254 254 254 254 255 253 254
254 254 254 255 253 254 254 254 254 255 253 254 254 254 254
255 253 254 254 254 254 255 253 254 254 254 254 255 253 254
254 254 252 255 253 254 254 254 254 254 254 254 254 254 254
254 254 255 253 254 255 253 254 255 253 254 255 253 254 255
253 254 255 253 254 255 253 254 255 253 254 255 253 254 255
253 254 255 254 254 254 254 254 255 254 254 254 255 255 253
249 249 247 246 246 244 246 246 244 253 253 251 255 255 253
244 244 242 203 203 201 151 151 151 134 134 134 134 134 134
143 143 143 137 137 137 133 133 133 136 136 136 136 136 136
136 138 137 141 143 142 151 153 152 162 164 163 171 173 172
175 177 176 173 175 174 171 173 172 172 174 173 172 174 173
172 174 173 171 173 172 171 173 172 170 172 171 170 172 171
170 172 171 165 167 166 163 165 164 160 162 161 158 160 159
157 159 158 157 159 158 158 160 159 159 161 160 158 160 159
157 159 158 155 157 156 154 156 155 153 155 154 153 155 154
154 156 155 155 157 156 162 164 163 164 166 165 167 169 168
170 172 171 171 173 172 171 173 172 170 172 171 169 171 170
160 162 161 153 155 154 145 147 146 143 145 144 147 149 148
151 153 152 152 154 153 150 152 151 148 150 149 148 150 149
148 150 149 148 150 149 148 150 149 148 150 149 148 150 149
148 150 149 148 150 149 148 150 149 148 150 149 148 150 149
148 150 149 148 150 149 148 150 149 148 150 149 146 150 151
146 150 151 146 150 151 146 150 151 146 150 151 148 150 149
148 150 149 148 150 149 148 150 149 148 150 149 148 150 149
148 150 147 148 150 147 149 149 147 149 149 147 149 149 147
149 149 149 148 150 149 148 150 149 148 150 149 148 150 149
148 149 151 148 149 151 148 149 151 148 149 151 148 149 151
148 149 151 148 149 151 148 149 151 148 149 151 148 149 151
148 149 151 148 150 149 148 150 149 148 150 149 148 150 149
148 150 149 148 149 151 148 149 151 148 149 151 145 146 148
145 146 148 146 147 149 150 152 151 154 156 155 153 155 154
149 151 150 144 146 145 142 144 141 141 143 140 141 143 140
144 146 143 148 150 149 150 152 151 149 151 150 146 148 147
148 150 149 148 150 149 148 150 149 148 150 149 148 150 149
148 150 149 148 150 149 148 150 149 148 150 149 148 150 149
148 150 149 148 150 149 148 150 149 148 150 149 148 150 149
148 150 149 148 150 149 148 150 149 148 150 149 148 150 149
148 150 149 148 150 149 148 150 149 148 150 149 148 150 149
148 150 149 148 150 149 148 150 149 148 150 149 148 150 149
148 150 149 148 150 149 148 150 149 148 150 149 148 150 149
148 150 149 148 150 149 148 150 149 148 150 149 148 150 149
148 150 149 148 150 149 148 150 149 148 150 149 148 150 149
148 150 149 148 150 149 148 150 149 148 150 149 148 150 149
148 150 149 148 150 149 148 150 149 148 150 149 148 150 149
148 150 149 148 150 149 148 150 149 148 150 149 148 150 149
148 150 149 148 150 149 148 150 149 148 150 149 147 149 148
146 148 147 144 146 145 145 147 146 148 150 149 151 153 152
152 154 153 152 154 153 156 156 156 154 154 154 150 150 150
146 146 146 142 142 142 139 139 139 138 138 138 137 137 137
144 144 144 146 146 146 147 147 147 147 147 147 147 147 147
147 147 147 148 148 148 150 150 150 144 144 144 151 151 151
147 147 147 144 144 144 150 150 150 147 147 147 140 140 140
144 144 144 161 161 161 210 210 210 243 243 243 246 246 246
247 247 247 248 248 248 248 248 248 252 252 252 250 250 250
247 247 247 252 252 252 245 245 245 200 200 200 142 142 142
125 125 125 142 142 142 138 138 138 137 137 137 130 130 130
128 128 128 129 129 129 127 127 127 143 143 143 174 174 174
211 211 211 252 252 252 253 253 253 253 253 253 255 255 255
250 250 250 252 252 252 255 255 255 254 254 254 254 254 254
254 254 254 254 254 254 254 254 254 254 254 254 254 254 254
254 254 254 254 254 254 254 254 254 254 254 254 254 254 254
254 254 254 254 254 254 254 254 254 254 254 254 254 254 254
254 254 254 254 254 254 254 254 254 254 254 254 254 254 254
254 254 254 254 254 254 254 254 254 254 254 254 254 254 254
254 254 254 254 254 254 254 254 254 254 254 254 254 254 254
254 254 254 254 254 254 254 254 254 254 254 254 254 254 254
254 254 254 254 254 254 254 254 254 254 254 254 254 254 254
254 254 254 254 254 254 254 254 254 254 254 254 254 254 254
254 254 254 254 254 254 254 254 254 254 254 254 254 254 254
254 254 254 254 254 254 254 254 254 254 254 254 254 254 254
254 254 254 254 254 254 254 254 254 254 254 254 254 254 254
254 254 254 254 254 254 254 254 254 254 254 254 254 254 254
254 254 254 254 254 254 254 254 254 254 254 254 254 254 254
254 254 254 254 254 254 254 254 254 254 254 254 254 254 254
254 254 254 254 254 254 254 254 254 254 254 254 254 254 254
254 254 254 254 254 254 254 254 254 254 254 254 254 254 254
254 254 254 254 254 254 254 254 254 254 254 254 254 254 254
254 254 254 254 254 254 254 254 254 254 254 254 254 254 254
254 254 254 254 254 254 254 254 254 254 254 254 254 254 254
254 254 254 254 254 254 254 254 254 254 254 254 254 254 254
254 254 254 254 254 254 254 254 254 254 254 254 254 254 254
254 254 254 254 254 254 254 254 254 254 254 254 254 254 254
254 254 254 254 254 254 254 254 254 255 255 255 250 250 250
248 248 248 247 247 247 251 251 251 255 255 255 244 244 244
208 208 208 158 158 158 136 136 136 131 131 131 138 138 138
134 134 134 130 130 130 132 132 132 131 131 131 136 138 137
147 149 148 162 164 163 174 176 175 178 180 179 174 176 175
166 168 167 160 162 161 167 169 168 167 169 168 168 170 169
168 170 169 169 171 170 170 172 171 170 172 171 171 173 172
179 181 180 178 180 179 176 178 177 175 177 176 174 176 175
174 176 175 175 177 176 176 178 177 171 173 172 170 172 171
169 171 170 168 170 169 168 170 169 168 170 169 169 171 170
170 172 171 161 163 162 163 165 164 165 167 166 166 168 167
166 168 167 166 168 167 164 166 165 163 165 164 158 160 159
152 154 153 145 147 146 143 145 144 146 148 147 150 152 151
151 153 152 150 152 151 148 150 149 148 150 149 148 150 149
148 150 149 148 150 149 148 150 149 148 150 149 148 150 149
148 150 149 148 150 149 148 150 149 148 150 149 148 150 149
148 150 149 148 150 149 148 150 149 148 150 149 148 150 149
148 150 149 148 150 149 148 150 149 148 150 149 148 150 149
148 150 149 148 150 149 148 150 149 148 150 149 148 150 149
148 150 149 148 150 149 148 150 149 148 150 149 148 150 149
148 150 149 148 150 149 148 150 149 148 150 149 148 150 149
148 150 149 148 150 149 148 150 149 148 150 149 148 150 149
148 150 149 148 150 149 148 150 149 148 150 149 148 150 149
148 150 149 148 150 149 148 150 149 148 150 149 148 150 149
148 150 149 148 150 149 148 150 149 144 146 145 145 147 146
147 149 148 151 153 152 153 155 154 151 153 152 146 148 147
141 143 142 140 142 141 140 142 141 141 143 142 145 147 146
149 151 150 151 153 152 149 151 150 146 148 147 148 150 149
148 150 149 148 150 149 148 150 149 148 150 149 148 150 149
148 150 149 148 150 149 148 150 149 148 150 149 148 150 149
148 150 149 148 150 149 148 150 149 148 150 149 148 150 149
148 150 149 148 150 149 148 150 149 148 150 149 148 150 149
148 150 149 148 150 149 148 150 149 148 150 149 148 150 149
148 150 149 148 150 149 148 150 149 148 150 149 148 150 149
148 150 149 148 150 149 148 150 149 148 150 149 148 150 149
148 150 149 148 150 149 148 150 149 148 150 149 148 150 149
148 150 149 148 150 149 148 150 149 148 150 149 148 150 149
148 150 149 148 150 149 148 150 149 148 150 149 148 150 149
148 150 149 148 150 149 148 150 149 148 150 149 148 150 149
148 150 149 148 150 149 148 150 149 148 150 149 148 150 149
148 150 149 148 150 149 148 150 149 148 150 149 146 148 147
145 147 146 146 148 147 148 150 149 151 153 152 151 153 152
151 153 152 154 154 154 152 152 152 148 148 148 144 144 144
141 141 141 139 139 139 139 139 139 139 139 139 148 148 148
148 148 148 147 147 147 147 147 147 148 148 148 147 147 147
147 147 147 147 147 147 147 147 147 150 150 150 147 147 147
148 148 148 154 154 154 147 147 147 140 140 140 148 148 148
181 181 181 226 226 226 254 254 254 255 255 255 255 255 255
255 255 255 252 252 252 255 255 255 251 251 251 249 249 249
254 254 254 249 249 249 207 207 207 153 153 153 132 132 132
143 143 143 132 132 132 135 135 135 133 133 133 132 132 132
132 132 132 126 126 126 138 138 138 165 165 165 209 209 209
252 252 252 253 253 253 253 253 253 255 255 255 250 250 250
252 252 252 254 254 254 254 254 254 254 254 254 254 254 254
254 254 254 254 254 254 254 254 254 254 254 254 254 254 254
254 254 254 254 254 254 254 254 254 254 254 254 254 254 254
254 254 254 254 254 254 254 254 254 254 254 254 254 254 254
254 254 254 254 254 254 254 254 254 254 254 254 254 254 254
254 254 254 254 254 254 254 254 254 254 254 254 254 254 254
254 254 254 254 254 254 254 254 254 254 254 254 254 254 254
254 254 254 254 254 254 254 254 254 254 254 254 254 254 254
254 254 254 254 254 254 254 254 254 254 254 254 254 254 254
254 254 254 254 254 254 254 254 254 254 254 254 254 254 254
254 254 254 254 254 254 254 254 254 254 254 254 254 254 254
254 254 254 254 254 254 254 254 254 254 254 254 254 254 254
254 254 254 254 254 254 254 254 254 254 254 254 254 254 254
254 254 254 254 254 254 254 254 254 254 254 254 254 254 254
254 254 254 254 254 254 254 254 254 254 254 254 254 254 254
254 254 254 254 254 254 254 254 254 254 254 254 254 254 254
254 254 254 254 254 254 254 254 254 254 254 254 254 254 254
254 254 254 254 254 254 254 254 254 254 254 254 254 254 254
254 254 254 254 254 254 254 254 254 254 254 254 254 254 254
254 254 254 254 254 254 254 254 254 254 254 254 254 254 254
254 254 254 254 254 254 254 254 254 254 254 254 254 254 254
254 254 254 254 254 254 254 254 254 254 254 254 254 254 254
254 254 254 254 254 254 254 254 254 254 254 254 254 254 254
254 254 254 254 254 254 254 254 254 254 254 254 254 254 254
254 254 254 254 254 254 253 253 253 251 251 251 252 252 252
250 250 250 249 249 249 255 255 255 244 244 244 215 215 215
169 169 169 140 140 140 129 129 129 137 137 137 136 136 136
133 133 133 133 133 133 131 131 131 149 151 150 157 159 158
168 170 169 174 176 175 174 176 175 171 173 172 168 170 169
167 169 168 164 166 165 164 166 165 165 167 166 167 169 168
168 170 169 169 171 170 170 172 171 171 173 172 167 169 168
167 169 168 167 169 168 166 168 167 166 168 167 166 168 167
166 168 167 166 168 167 173 175 174 173 175 174 172 174 173
172 174 173 172 174 173 173 175 174 174 176 175 175 177 176
167 169 168 168 170 169 169 171 170 168 170 169 167 169 168
165 167 166 163 165 164 161 163 162 155 157 156 150 152 151
144 146 145 143 145 144 145 147 146 149 151 150 150 152 151
149 151 150 148 150 149 148 150 149 148 150 149 148 150 149
148 150 149 148 150 149 148 150 149 148 150 149 148 150 149
148 150 149 148 150 149 148 150 149 148 150 149 148 150 149
148 150 149 148 150 149 148 150 149 148 150 149 148 150 149
148 150 149 148 150 149 148 150 149 148 150 149 148 150 149
148 150 149 148 150 149 148 150 149 148 150 149 148 150 149
148 150 149 148 150 149 148 150 149 148 150 149 148 150 149
148 150 149 148 150 149 148 150 149 148 150 149 148 150 149
148 150 149 148 150 149 148 150 149 148 150 149 148 150 149
148 150 149 148 150 149 148 150 149 148 150 149 148 150 149
148 150 149 148 150 149 148 150 149 148 150 149 148 150 149
148 150 149 148 150 149 144 146 145 145 147 146 148 150 149
151 153 152 152 154 153 148 150 149 142 144 143 137 139 138
138 140 139 139 141 140 142 144 143 147 149 148 150 152 151
151 153 152 149 151 150 147 149 148 148 150 149 148 150 149
148 150 149 148 150 149 148 150 149 148 150 149 148 150 149
148 150 149 148 150 149 148 150 149 148 150 149 148 150 149
148 150 149 148 150 149 148 150 149 148 150 149 148 150 149
148 150 149 148 150 149 148 150 149 148 150 149 148 150 149
148 150 149 148 150 149 148 150 149 148 150 149 148 150 149
148 150 149 148 150 149 148 150 149 148 150 149 148 150 149
148 150 149 148 150 149 148 150 149 148 150 149 148 150 149
148 150 149 148 150 149 148 150 149 148 150 149 148 150 149
148 150 149 148 150 149 148 150 149 148 150 149 148 150 149
148 150 149 148 150 149 148 150 149 148 150 149 148 150 149
148 150 149 148 150 149 148 150 149 148 150 149 148 150 149
148 150 149 148 150 149 148 150 149 148 150 149 148 150 149
148 150 149 148 150 149 149 151 150 147 149 148 146 148 147
146 148 147 148 150 149 150 152 151 150 152 151 149 151 150
150 150 150 147 147 147 144 144 144 141 141 141 140 140 140
140 140 140 142 142 142 144 144 144 154 154 154 151 151 151
148 148 148 149 149 149 151 151 151 151 151 151 148 148 148
145 145 145 147 147 147 147 147 147 146 146 146 152 152 152
157 157 157 146 146 146 144 144 144 163 163 163 201 201 201
238 238 238 255 255 255 255 255 255 255 255 255 253 253 253
249 249 249 251 251 251 252 252 252 251 251 251 255 255 255
252 252 252 218 218 218 169 169 169 142 142 142 141 141 141
126 126 126 135 135 135 138 138 138 138 138 138 135 135 135
126 126 126 132 132 132 155 155 155 205 205 205 251 251 251
254 254 254 253 253 253 255 255 255 251 251 251 253 253 253
254 254 254 254 254 254 254 254 254 254 254 254 254 254 254
254 254 254 254 254 254 254 254 254 254 254 254 254 254 254
254 254 254 254 254 254 254 254 254 254 254 254 254 254 254
254 254 254 254 254 254 254 254 254 254 254 254 254 254 254
254 254 254 254 254 254 254 254 254 254 254 254 254 254 254
254 254 254 254 254 254 254 254 254 254 254 254 254 254 254
254 254 254 254 254 254 254 254 254 254 254 254 254 254 254
254 254 254 254 254 254 254 254 254 254 254 254 254 254 254
254 254 254 254 254 254 254 254 254 254 254 254 254 254 254
254 254 254 254 254 254 254 254 254 254 254 254 254 254 254
254 254 254 254 254 254 254 254 254 254 254 254 254 254 254
254 254 254 254 254 254 254 254 254 254 254 254 254 254 254
254 254 254 254 254 254 254 254 254 254 254 254 254 254 254
254 254 254 254 254 254 254 254 254 254 254 254 254 254 254
254 254 254 254 254 254 254 254 254 254 254 254 254 254 254
254 254 254 254 254 254 254 254 254 254 254 254 254 254 254
254 254 254 254 254 254 254 254 254 254 254 254 254 254 254
254 254 254 254 254 254 254 254 254 254 254 254 254 254 254
254 254 254 254 254 254 254 254 254 254 254 254 254 254 254
254 254 254 254 254 254 254 254 254 254 254 254 254 254 254
254 254 254 254 254 254 254 254 254 254 254 254 254 254 254
254 254 254 254 254 254 254 254 254 254 254 254 254 254 254
254 254 254 254 254 254 254 254 254 254 254 254 254 254 254
254 254 254 254 254 254 254 254 254 254 254 254 254 254 254
254 254 254 253 253 253 251 251 251 255 255 255 252 252 252
247 247 247 252 252 252 245 245 245 224 224 224 181 181 181
145 145 145 130 130 130 140 140 140 142 142 142 139 139 139
138 138 138 135 135 135 145 147 146 156 158 157 168 170 169
174 176 175 173 175 174 171 173 172 171 173 172 172 174 173
167 169 168 168 170 169 168 170 169 168 170 169 168 170 169
169 171 170 169 171 170 169 171 170 168 170 169 169 171 170
170 172 171 171 173 172 171 173 172 171 173 172 170 172 171
169 171 170 168 170 169 168 170 169 168 170 169 168 170 169
169 171 170 170 172 171 170 172 171 171 173 172 173 175 174
172 174 173 172 174 173 170 172 171 167 169 168 164 166 165
161 163 162 160 162 161 153 155 154 148 150 149 144 146 145
142 144 143 144 146 145 147 149 148 149 151 150 149 151 150
148 150 149 148 150 149 148 150 149 148 150 149 148 150 149
148 150 149 148 150 149 148 150 149 148 150 149 148 150 149
148 150 149 148 150 149 148 150 149 148 150 149 148 150 149
148 150 149 148 150 149 148 150 149 148 150 149 148 150 149
148 150 149 148 150 149 148 150 149 148 150 149 148 150 149
148 150 149 148 150 149 148 150 149 148 150 149 148 150 149
148 150 149 148 150 149 148 150 149 148 150 149 148 150 149
148 150 149 148 150 149 148 150 149 148 150 149 148 150 149
148 150 149 148 150 149 148 150 149 148 150 149 148 150 149
148 150 149 148 150 149 148 150 149 148 150 149 148 150 149
148 150 149 148 150 149 148 150 149 148 150 149 148 150 149
148 150 149 143 145 144 146 148 147 149 151 150 151 153 152
150 152 151 145 147 146 138 140 139 133 135 134 136 138 137
139 141 140 144 146 145 148 150 149 151 153 152 151 153 152
149 151 150 147 149 148 148 150 149 148 150 149 148 150 149
148 150 149 148 150 149 148 150 149 148 150 149 148 150 149
148 150 149 148 150 149 148 150 149 148 150 149 148 150 149
148 150 149 148 150 149 148 150 149 148 150 149 148 150 149
148 150 149 148 150 149 148 150 149 148 150 149 148 150 149
148 150 149 148 150 149 148 150 149 148 150 149 148 150 149
148 150 149 148 150 149 148 150 149 148 150 149 148 150 149
148 150 149 148 150 149 148 150 149 148 150 149 148 150 149
148 150 149 148 150 149 148 150 149 148 150 149 148 150 149
148 150 149 148 150 149 148 150 149 148 150 149 148 150 149
148 150 149 148 150 149 148 150 149 148 150 149 148 150 149
148 150 149 148 150 149 148 150 149 147 149 148 147 149 148
147 149 148 147 149 148 147 149 148 147 149 148 147 149 148
147 149 148 149 151 150 148 150 149 146 148 147 147 149 148
148 150 149 149 151 150 148 150 149 147 149 148 143 143 143
141 141 141 139 139 139 138 138 138 140 140 140 144 144 144
148 148 148 150 150 150 156 156 156 151 151 151 148 148 148
149 149 149 153 153 153 155 155 155 151 151 151 147 147 147
146 146 146 146 146 146 147 147 147 153 153 153 153 153 153
141 141 141 152 152 152 186 186 186 220 220 220 246 246 246
255 255 255 250 250 250 250 250 250 249 249 249 246 246 246
249 249 249 252 252 252 252 252 252 255 255 255 252 252 252
227 227 227 185 185 185 150 150 150 134 134 134 125 125 125
137 137 137 141 141 141 140 140 140 136 136 136 126 126 126
129 129 129 148 148 148 200 200 200 249 249 249 254 254 254
252 252 252 255 255 255 251 251 251 253 253 253 253 253 253
254 254 254 254 254 254 254 254 254 254 254 254 254 254 254
254 254 254 254 254 254 254 254 254 254 254 254 254 254 254
254 254 254 254 254 254 254 254 254 254 254 254 254 254 254
254 254 254 254 254 254 254 254 254 254 254 254 254 254 254
254 254 254 254 254 254 254 254 254 254 254 254 254 254 254
254 254 254 254 254 254 254 254 254 254 254 254 254 254 254
254 254 254 254 254 254 254 254 254 254 254 254 254 254 254
254 254 254 254 254 254 254 254 254 254 254 254 254 254 254
254 254 254 254 254 254 254 254 254 254 254 254 254 254 254
254 254 254 254 254 254 254 254 254 254 254 254 254 254 254
254 254 254 254 254 254 254 254 254 254 254 254 254 254 254
254 254 254 254 254 254 254 254 254 254 254 254 254 254 254
254 254 254 254 254 254 254 254 254 254 254 254 254 254 254
254 254 254 254 254 254 254 254 254 254 254 254 254 254 254
254 254 254 254 254 254 254 254 254 254 254 254 254 254 254
254 254 254 254 254 254 254 254 254 254 254 254 254 254 254
254 254 254 254 254 254 254 254 254 254 254 254 254 254 254
254 254 254 254 254 254 254 254 254 254 254 254 254 254 254
254 254 254 254 254 254 254 254 254 254 254 254 254 254 254
254 254 254 254 254 254 254 254 254 254 254 254 254 254 254
254 254 254 254 254 254 254 254 254 254 254 254 254 254 254
254 254 254 254 254 254 254 254 254 254 254 254 254 254 254
254 254 254 254 254 254 254 254 254 254 254 254 254 254 254
254 254 254 254 254 254 254 254 254 254 254 254 254 254 254
253 253 253 252 252 252 255 255 255 254 254 254 246 246 246
249 249 249 247 247 247 231 231 231 191 191 191 150 150 150
130 130 130 139 139 139 141 141 141 137 137 137 135 135 135
132 132 132 130 132 131 143 145 144 161 163 162 172 174 173
173 175 174 170 172 171 168 170 169 167 169 168 173 175 174
173 175 174 172 174 173 171 173 172 170 172 171 168 170 169
168 170 169 167 169 168 173 175 174 173 175 174 174 176 175
175 177 176 175 177 176 175 177 176 174 176 175 174 176 175
168 170 169 168 170 169 169 171 170 170 172 171 170 172 171
171 173 172 171 173 172 171 173 172 171 173 172 170 172 171
168 170 169 165 167 166 162 164 163 159 161 160 156 158 157
155 157 156 150 152 151 147 149 148 144 146 145 143 145 144
144 146 145 147 149 148 148 150 149 149 151 150 148 150 149
148 150 149 148 150 149 148 150 149 148 150 149 148 150 149
148 150 149 148 150 149 148 150 149 148 150 149 148 150 149
148 150 149 148 150 149 148 150 149 148 150 149 148 150 149
148 150 149 148 150 149 148 150 149 148 150 149 148 150 149
148 150 149 148 150 149 148 150 149 148 150 149 148 150 149
148 150 149 148 150 149 148 150 149 148 150 149 148 150 149
148 150 149 148 150 149 148 150 149 148 150 149 148 150 149
148 150 149 148 150 149 148 150 149 148 150 149 148 150 149
148 150 149 148 150 149 148 150 149 148 150 149 148 150 149
148 150 149 148 150 149 148 150 149 148 150 149 148 150 149
148 150 149 148 150 149 148 150 149 148 150 149 148 150 149
144 146 145 147 149 148 150 152 151 150 152 151 147 149 148
141 143 142 135 137 136 132 134 133 136 138 137 140 142 141
145 147 146 150 152 151 151 153 152 151 153 152 149 151 150
148 150 149 148 150 149 148 150 149 148 150 149 148 150 149
148 150 149 148 150 149 148 150 149 148 150 149 148 150 149
148 150 149 148 150 149 148 150 149 148 150 149 148 150 149
148 150 149 148 150 149 148 150 149 148 150 149 148 150 149
148 150 149 148 150 149 148 150 149 148 150 149 148 150 149
148 150 149 148 150 149 148 150 149 148 150 149 148 150 149
148 150 149 148 150 149 148 150 149 148 150 149 148 150 149
148 150 149 148 150 149 148 150 149 148 150 149 148 150 149
148 150 149 148 150 149 148 150 149 148 150 149 148 150 149
148 150 149 148 150 149 148 150 149 148 150 149 148 150 149
148 150 149 148 150 149 148 150 149 148 150 149 148 150 149
148 150 149 148 150 149 147 149 148 147 149 148 147 149 148
147 149 148 147 149 148 147 149 148 147 149 148 147 149 148
149 151 150 148 150 149 146 148 147 146 148 147 147 149 148
147 149 148 145 147 146 143 145 144 136 136 136 136 136 136
136 136 136 138 138 138 142 142 142 147 147 147 152 152 152
156 156 156 151 151 151 147 147 147 144 144 144 146 146 146
152 152 152 154 154 154 151 151 151 147 147 147 148 148 148
151 151 151 150 150 150 151 151 151 145 145 145 137 137 137
162 162 162 207 207 207 240 240 240 255 255 255 255 255 255
247 247 247 250 250 250 252 252 252 251 251 251 255 255 255
251 251 251 251 251 251 251 251 251 249 249 249 234 234 234
200 200 200 157 157 157 127 127 127 130 130 130 141 141 141
142 142 142 138 138 138 136 136 136 128 128 128 130 130 130
145 145 145 194 194 194 247 247 247 255 255 255 252 252 252
255 255 255 252 252 252 254 254 254 253 253 253 254 254 254
254 254 254 254 254 254 254 254 254 254 254 254 254 254 254
254 254 254 254 254 254 254 254 254 254 254 254 254 254 254
254 254 254 254 254 254 254 254 254 254 254 254 254 254 254
254 254 254 254 254 254 254 254 254 254 254 254 254 254 254
254 254 254 254 254 254 254 254 254 254 254 254 254 254 254
254 254 254 254 254 254 254 254 254 254 254 254 254 254 254
254 254 254 254 254 254 254 254 254 254 254 254 254 254 254
254 254 254 254 254 254 254 254 254 254 254 254 254 254 254
254 254 254 254 254 254 254 254 254 254 254 254 254 254 254
254 254 254 254 254 254 254 254 254 254 254 254 254 254 254
254 254 254 254 254 254 254 254 254 254 254 254 254 254 254
254 254 254 254 254 254 254 254 254 254 254 254 254 254 254
254 254 254 254 254 254 254 254 254 254 254 254 254 254 254
254 254 254 254 254 254 254 254 254 254 254 254 254 254 254
254 254 254 254 254 254 254 254 254 254 254 254 254 254 254
254 254 254 254 254 254 254 254 254 254 254 254 254 254 254
254 254 254 254 254 254 254 254 254 254 254 254 254 254 254
254 254 254 254 254 254 254 254 254 254 254 254 254 254 254
254 254 254 254 254 254 254 254 254 254 254 254 254 254 254
254 254 254 254 254 254 254 254 254 254 254 254 254 254 254
254 254 254 254 254 254 254 254 254 254 254 254 254 254 254
254 254 254 254 254 254 254 254 254 254 254 254 254 254 254
254 254 254 254 254 254 254 254 254 254 254 254 254 254 254
254 254 254 254 254 254 254 254 254 254 254 254 255 255 255
252 252 252 255 255 255 255 255 255 246 246 246 248 248 248
249 249 249 237 237 237 202 202 202 154 154 154 128 128 128
134 134 134 135 135 135 130 130 130 131 131 131 132 132 132
146 148 147 147 149 148 148 150 149 148 150 149 150 152 151
155 157 156 165 167 166 172 174 173 172 174 173 171 173 172
171 173 172 170 172 171 169 171 170 169 171 170 168 170 169
168 170 169 164 166 165 164 166 165 163 165 164 163 165 164
163 165 164 163 165 164 163 165 164 163 165 164 169 171 170
169 171 170 170 172 171 171 173 172 171 173 172 171 173 172
170 172 171 170 172 171 170 172 171 169 171 170 166 168 167
163 165 164 160 162 161 157 159 158 155 157 156 154 156 155
149 151 150 147 149 148 145 147 146 144 146 145 145 147 146
146 148 147 149 151 150 150 152 151 148 150 149 148 150 149
148 150 149 148 150 149 148 150 149 148 150 149 148 150 149
148 150 149 148 150 149 148 150 149 148 150 149 148 150 149
148 150 149 148 150 149 148 150 149 148 150 149 148 150 149
148 150 149 148 150 149 148 150 149 148 150 149 148 150 149
148 150 149 148 150 149 148 150 149 148 150 149 148 150 149
148 150 149 148 150 149 148 150 149 148 150 149 148 150 149
148 150 149 148 150 149 148 150 149 148 150 149 148 150 149
148 150 149 148 150 149 148 150 149 148 150 149 148 150 149
148 150 149 148 150 149 148 150 149 148 150 149 148 150 149
148 150 149 148 150 149 148 150 149 148 150 149 148 150 149
148 150 149 148 150 149 148 150 149 148 150 149 146 148 147
148 150 149 150 152 151 149 151 150 145 147 146 139 141 140
135 137 136 133 135 134 138 140 139 142 144 143 147 149 148
150 152 151 150 152 151 149 151 150 148 150 149 149 151 150
148 150 149 148 150 149 148 150 149 148 150 149 148 150 149
148 150 149 148 150 149 148 150 149 148 150 149 148 150 149
148 150 149 148 150 149 148 150 149 148 150 149 148 150 149
148 150 149 148 150 149 148 150 149 148 150 149 148 150 149
148 150 149 148 150 149 148 150 149 148 150 149 148 150 149
148 150 149 148 150 149 148 150 149 148 150 149 148 150 149
148 150 149 148 150 149 148 150 149 148 150 149 148 150 149
148 150 149 148 150 149 148 150 149 148 150 149 148 150 149
148 150 149 148 150 149 148 150 149 148 150 149 148 150 149
148 150 149 148 150 149 148 150 149 148 150 149 148 150 149
148 150 149 148 150 149 148 150 149 148 150 149 148 150 149
148 150 149 146 148 147 146 148 147 146 148 147 146 148 147
146 148 147 146 148 147 146 148 147 146 148 147 149 151 150
147 149 148 146 148 147 146 148 147 146 148 147 144 146 145
142 144 143 139 141 140 134 134 134 135 135 135 137 137 137
140 140 140 144 144 144 149 149 149 154 154 154 156 156 156
146 146 146 144 144 144 142 142 142 144 144 144 148 148 148
150 150 150 148 148 148 146 146 146 151 151 151 155 155 155
152 152 152 147 147 147 144 144 144 146 146 146 177 177 177
224 224 224 250 250 250 255 255 255 251 251 251 244 244 244
251 251 251 254 254 254 252 252 252 255 255 255 249 249 249
249 249 249 247 247 247 246 246 246 241 241 241 217 217 217
169 169 169 125 125 125 135 135 135 143 143 143 140 140 140
135 135 135 136 136 136 132 132 132 131 131 131 142 142 142
189 189 189 246 246 246 255 255 255 252 252 252 255 255 255
253 253 253 255 255 255 252 252 252 254 254 254 254 254 254
254 254 254 254 254 254 254 254 254 254 254 254 254 254 254
254 254 254 254 254 254 254 254 254 254 254 254 254 254 254
254 254 254 254 254 254 254 254 254 254 254 254 254 254 254
254 254 254 254 254 254 254 254 254 254 254 254 254 254 254
254 254 254 254 254 254 254 254 254 254 254 254 254 254 254
254 254 254 254 254 254 254 254 254 254 254 254 254 254 254
254 254 254 254 254 254 254 254 254 254 254 254 254 254 254
254 254 254 254 254 254 254 254 254 254 254 254 254 254 254
254 254 254 254 254 254 254 254 254 254 254 254 254 254 254
254 254 254 254 254 254 254 254 254 254 254 254 254 254 254
254 254 254 254 254 254 254 254 254 254 254 254 254 254 254
254 254 254 254 254 254 254 254 254 254 254 254 254 254 254
254 254 254 254 254 254 254 254 254 254 254 254 254 254 254
254 254 254 254 254 254 254 254 254 254 254 254 254 254 254
254 254 254 254 254 254 254 254 254 254 254 254 254 254 254
254 254 254 254 254 254 254 254 254 254 254 254 254 254 254
254 254 254 254 254 254 254 254 254 254 254 254 254 254 254
254 254 254 254 254 254 254 254 254 254 254 254 254 254 254
254 254 254 254 254 254 254 254 254 254 254 254 254 254 254
254 254 254 254 254 254 254 254 254 254 254 254 254 254 254
254 254 254 254 254 254 254 254 254 254 254 254 254 254 254
254 254 254 254 254 254 254 254 254 254 254 254 254 254 254
254 254 254 254 254 254 254 254 254 254 254 254 254 254 254
254 254 254 254 254 254 254 254 254 255 255 255 252 252 252
255 255 255 255 255 255 247 247 247 248 248 248 250 250 250
240 240 240 213 213 213 161 161 161 129 129 129 132 132 132
133 133 133 132 132 132 142 142 142 151 151 151 174 176 175
164 166 165 150 152 151 138 140 139 136 138 137 144 146 145
157 159 158 166 168 167 161 163 162 162 164 163 163 165 164
165 167 166 167 169 168 169 171 170 170 172 171 171 173 172
170 172 171 169 171 170 167 169 168 165 167 166 165 167 166
165 167 166 166 168 167 166 168 167 168 170 169 169 171 170
170 172 171 170 172 171 170 172 171 169 171 170 168 170 169
167 169 168 167 169 168 166 168 167 163 165 164 161 163 162
158 160 159 156 158 157 155 157 156 154 156 155 148 150 149
147 149 148 147 149 148 146 148 147 146 148 147 147 149 148
149 151 150 151 153 152 148 150 149 148 150 149 148 150 149
148 150 149 148 150 149 148 150 149 148 150 149 148 150 149
148 150 149 148 150 149 148 150 149 148 150 149 148 150 149
148 150 149 148 150 149 148 150 149 148 150 149 148 150 149
148 150 149 148 150 149 148 150 149 148 150 149 148 150 149
148 150 149 148 150 149 148 150 149 148 150 149 148 150 149
148 150 149 148 150 149 148 150 149 148 150 149 148 150 149
148 150 149 148 150 149 148 150 149 148 150 149 148 150 149
148 150 149 148 150 149 148 150 149 148 150 149 148 150 149
148 150 149 148 150 149 148 150 149 148 150 149 148 150 149
148 150 149 148 150 149 148 150 149 148 150 149 148 150 149
148 150 149 148 150 149 148 150 149 147 149 148 149 151 150
151 153 152 148 150 149 143 145 144 138 140 139 136 138 137
136 138 137 141 143 142 145 147 146 148 150 149 149 151 150
148 150 149 147 149 148 148 150 149 149 151 150 148 150 149
148 150 149 148 150 149 148 150 149 148 150 149 148 150 149
148 150 149 148 150 149 148 150 149 148 150 149 148 150 149
148 150 149 148 150 149 148 150 149 148 150 149 148 150 149
148 150 149 148 150 149 148 150 149 148 150 149 148 150 149
148 150 149 148 150 149 148 150 149 148 150 149 148 150 149
148 150 149 148 150 149 148 150 149 148 150 149 148 150 149
148 150 149 148 150 149 148 150 149 148 150 149 148 150 149
148 150 149 148 150 149 148 150 149 148 150 149 148 150 149
148 150 149 148 150 149 148 150 149 148 150 149 148 150 149
148 150 149 148 150 149 148 150 149 148 150 149 148 150 149
148 150 149 148 150 149 148 150 149 148 150 149 148 150 149
146 148 147 146 148 147 146 148 147 146 148 147 146 148 147
146 148 147 146 148 147 146 148 147 147 149 148 146 148 147
145 147 146 144 146 145 144 146 145 142 144 143 139 141 140
136 138 137 136 136 136 138 138 138 140 140 140 143 143 143
146 146 146 149 149 149 151 151 151 152 152 152 148 148 148
148 148 148 148 148 148 148 148 148 149 149 149 149 149 149
149 149 149 148 148 148 147 147 147 151 151 151 145 145 145
142 142 142 152 152 152 169 169 169 201 201 201 239 239 239
250 250 250 255 255 255 247 247 247 243 243 243 252 252 252
253 253 253 247 247 247 249 249 249 248 248 248 248 248 248
245 245 245 245 245 245 250 250 250 235 235 235 184 184 184
131 131 131 136 136 136 142 142 142 136 136 136 131 131 131
136 136 136 135 135 135 131 131 131 136 136 136 185 185 185
245 245 245 255 255 255 251 251 251 255 255 255 253 253 253
255 255 255 252 252 252 254 254 254 254 254 254 254 254 254
254 254 254 254 254 254 254 254 254 254 254 254 254 254 254
254 254 254 254 254 254 254 254 254 254 254 254 254 254 254
254 254 254 254 254 254 254 254 254 254 254 254 254 254 254
254 254 254 254 254 254 254 254 254 254 254 254 254 254 254
254 254 254 254 254 254 254 254 254 254 254 254 254 254 254
254 254 254 254 254 254 254 254 254 254 254 254 254 254 254
254 254 254 254 254 254 254 254 254 254 254 254 254 254 254
254 254 254 254 254 254 254 254 254 254 254 254 254 254 254
254 254 254 254 254 254 254 254 254 254 254 254 254 254 254
254 254 254 254 254 254 254 254 254 254 254 254 254 254 254
254 254 254 254 254 254 254 254 254 254 254 254 254 254 254
254 254 254 254 254 254 254 254 254 254 254 254 254 254 254
254 254 254 254 254 254 254 254 254 254 254 254 254 254 254
254 254 254 254 254 254 254 254 254 254 254 254 254 254 254
254 254 254 254 254 254 254 254 254 254 254 254 254 254 254
254 254 254 254 254 254 254 254 254 254 254 254 254 254 254
254 254 254 254 254 254 254 254 254 254 254 254 254 254 254
254 254 254 254 254 254 254 254 254 254 254 254 254 254 254
254 254 254 254 254 254 254 254 254 254 254 254 254 254 254
254 254 254 254 254 254 254 254 254 254 254 254 254 254 254
254 254 254 254 254 254 254 254 254 254 254 254 254 254 254
254 254 254 254 254 254 254 254 254 254 254 254 254 254 254
254 254 254 254 254 254 254 254 254 254 254 254 254 254 254
254 254 254 254 254 254 255 255 255 252 252 252 254 254 254
254 254 254 247 247 247 249 249 249 251 251 251 242 242 242
222 222 222 167 167 167 133 133 133 135 135 135 137 137 137
142 142 142 160 160 160 175 175 175 179 181 180 174 176 175
167 169 168 160 162 161 154 156 155 148 150 149 142 144 143
138 140 139 151 153 152 153 155 154 156 158 157 160 162 161
165 167 166 169 171 170 173 175 174 175 177 176 174 176 175
172 174 173 169 171 170 166 168 167 165 167 166 166 168 167
167 169 168 168 170 169 170 172 171 170 172 171 171 173 172
172 174 173 171 173 172 169 171 170 168 170 169 167 169 168
159 161 160 158 160 159 156 158 157 154 156 155 151 153 152
150 152 151 149 151 150 149 151 150 147 149 148 148 150 149
148 150 149 147 149 148 146 148 147 147 149 148 150 152 151
152 154 153 148 150 149 148 150 149 148 150 149 148 150 149
148 150 149 148 150 149 148 150 149 148 150 149 148 150 149
148 150 149 148 150 149 148 150 149 148 150 149 148 150 149
148 150 149 148 150 149 148 150 149 148 150 149 148 150 149
148 150 149 148 150 149 148 150 149 148 150 149 148 150 149
148 150 149 148 150 149 148 150 149 148 150 149 148 150 149
148 150 149 148 150 149 148 150 149 148 150 149 148 150 149
148 150 149 148 150 149 148 150 149 148 150 149 148 150 149
148 150 149 148 150 149 148 150 149 148 150 149 148 150 149
148 150 149 148 150 149 148 150 149 148 150 149 148 150 149
148 150 149 148 150 149 148 150 149 148 150 149 148 150 149
148 150 149 148 150 149 148 150 149 150 152 151 151 153 152
148 150 149 142 144 143 138 140 139 137 139 138 138 140 139
143 145 144 146 148 147 149 151 150 149 151 150 147 149 148
146 148 147 147 149 148 149 151 150 148 150 149 148 150 149
148 150 149 148 150 149 148 150 149 148 150 149 148 150 149
148 150 149 148 150 149 148 150 149 148 150 149 148 150 149
148 150 149 148 150 149 148 150 149 148 150 149 148 150 149
148 150 149 148 150 149 148 150 149 148 150 149 148 150 149
148 150 149 148 150 149 148 150 149 148 150 149 148 150 149
148 150 149 148 150 149 148 150 149 148 150 149 148 150 149
148 150 149 148 150 149 148 150 149 148 150 149 148 150 149
148 150 149 148 150 149 148 150 149 148 150 149 148 150 149
148 150 149 148 150 149 148 150 149 148 150 149 148 150 149
148 150 149 148 150 149 148 150 149 148 150 149 148 150 149
148 150 149 148 150 149 148 150 149 148 150 149 146 148 147
146 148 147 146 148 147 146 148 147 146 148 147 146 148 147
146 148 147 146 148 147 147 149 148 145 147 146 144 146 145
144 146 145 143 145 144 141 143 142 137 139 138 134 136 135
139 139 139 141 141 141 143 143 143 146 146 146 148 148 148
148 148 148 148 148 148 148 148 148 154 154 154 155 155 155
156 156 156 154 154 154 152 152 152 151 151 151 151 151 151
153 153 153 139 139 139 143 143 143 137 137 137 138 138 138
161 161 161 191 191 191 222 222 222 252 252 252 252 252 252
255 255 255 249 249 249 247 247 247 255 255 255 255 255 255
246 246 246 245 245 245 247 247 247 247 247 247 244 244 244
245 245 245 255 255 255 247 247 247 195 195 195 138 138 138
135 135 135 140 140 140 133 133 133 129 129 129 137 137 137
136 136 136 130 130 130 131 131 131 183 183 183 244 244 244
255 255 255 251 251 251 255 255 255 253 253 253 255 255 255
252 252 252 254 254 254 254 254 254 254 254 254 254 254 254
254 254 254 254 254 254 254 254 254 254 254 254 254 254 254
254 254 254 254 254 254 254 254 254 254 254 254 254 254 254
254 254 254 254 254 254 254 254 254 254 254 254 254 254 254
254 254 254 254 254 254 254 254 254 254 254 254 254 254 254
254 254 254 254 254 254 254 254 254 254 254 254 254 254 254
254 254 254 254 254 254 254 254 254 254 254 254 254 254 254
254 254 254 254 254 254 254 254 254 254 254 254 254 254 254
254 254 254 254 254 254 254 254 254 254 254 254 254 254 254
254 254 254 254 254 254 254 254 254 254 254 254 254 254 254
254 254 254 254 254 254 254 254 254 254 254 254 254 254 254
254 254 254 254 254 254 254 254 254 254 254 254 254 254 254
254 254 254 254 254 254 254 254 254 254 254 254 254 254 254
254 254 254 254 254 254 254 254 254 254 254 254 254 254 254
254 254 254 254 254 254 254 254 254 254 254 254 254 254 254
254 254 254 254 254 254 254 254 254 254 254 254 254 254 254
254 254 254 254 254 254 254 254 254 254 254 254 254 254 254
254 254 254 254 254 254 254 254 254 254 254 254 254 254 254
254 254 254 254 254 254 254 254 254 254 254 254 254 254 254
254 254 254 254 254 254 254 254 254 254 254 254 254 254 254
254 254 254 254 254 254 254 254 254 254 254 254 254 254 254
254 254 254 254 254 254 254 254 254 254 254 254 254 254 254
254 254 254 254 254 254 254 254 254 254 254 254 254 254 254
254 254 254 253 253 253 253 253 253 252 252 252 252 252 252
252 252 252 253 253 253 255 255 255 255 255 255 252 252 252
249 249 249 247 247 247 247 247 247 249 249 249 235 235 235
171 171 171 131 131 131 136 136 136 146 146 146 149 149 149
155 155 155 159 159 159 159 161 160 158 160 159 161 163 162
171 173 172 181 183 182 180 182 181 167 169 168 155 157 156
143 145 144 142 144 143 142 144 143 142 144 143 145 147 146
149 151 150 154 156 155 157 159 158 157 159 158 159 161 160
161 163 162 164 166 165 165 167 166 164 166 165 163 165 164
162 164 163 168 170 169 169 171 170 172 174 173 175 177 176
175 177 176 172 174 173 167 169 168 163 165 164 168 170 169
157 159 158 155 157 156 152 154 153 141 143 142 142 144 143
150 152 151 148 150 149 144 146 145 149 151 150 153 155 154
152 154 153 148 150 149 145 147 146 147 149 148 150 152 151
146 148 147 147 149 148 148 150 149 148 150 149 147 149 148
145 147 146 145 147 146 146 148 147 150 152 151 148 150 149
147 149 148 147 149 148 149 151 150 151 153 152 151 153 152
150 152 151 148 150 149 148 150 149 148 150 149 148 150 149
148 150 149 148 150 149 148 150 149 148 150 149 148 150 149
148 150 149 148 150 149 148 150 149 148 150 149 148 150 149
148 150 149 148 150 149 148 150 149 148 150 149 148 150 149
148 150 149 148 150 149 148 150 149 148 150 149 148 150 149
147 149 148 147 149 148 147 149 148 147 149 148 147 149 148
147 149 148 147 149 148 147 149 148 147 149 148 147 149 148
147 149 148 147 149 148 147 149 148 147 149 148 147 149 148
147 149 148 150 152 151 150 152 151 149 151 150 145 147 146
141 143 142 137 139 138 136 138 137 136 138 137 144 146 145
149 151 150 153 155 154 150 152 151 144 146 145 141 143 142
144 146 145 150 152 151 148 150 149 148 150 149 148 150 149
148 150 149 148 150 149 148 150 149 148 150 149 148 150 149
148 150 149 148 150 149 148 150 149 148 150 149 148 150 149
148 150 149 148 150 149 148 150 149 148 150 149 148 150 149
148 150 149 148 150 149 148 150 149 148 150 149 148 150 149
148 150 149 148 150 149 148 150 149 148 150 149 148 150 149
148 150 149 148 150 149 148 150 149 148 150 149 148 150 149
148 150 149 148 150 149 148 150 149 148 150 149 148 150 149
148 150 149 148 150 149 149 151 150 148 150 149 147 149 148
147 149 148 148 150 149 149 151 150 151 153 152 152 154 153
149 151 150 148 150 149 148 150 149 148 150 149 148 150 149
148 150 149 147 149 148 147 149 148 143 145 144 144 146 145
146 148 147 147 149 148 148 150 149 148 150 149 147 149 148
147 149 148 149 151 150 146 148 147 141 143 142 137 139 138
134 136 135 134 136 135 135 137 136 135 137 136 142 142 142
148 148 148 153 153 153 154 154 154 151 151 151 147 147 147
144 144 144 143 143 143 148 148 148 151 151 151 152 152 152
151 151 151 153 153 153 156 156 156 154 154 154 149 149 149
139 139 139 142 142 142 147 147 147 161 161 161 186 186 186
217 217 217 241 241 241 253 253 253 251 251 251 251 251 251
251 251 251 251 251 251 251 251 251 251 251 251 251 251 251
251 251 251 255 255 255 252 252 252 252 252 252 250 250 250
253 253 253 254 254 254 217 217 217 161 161 161 138 138 138
119 119 119 132 132 132 136 136 136 133 133 133 135 135 135
127 127 127 130 130 130 182 182 182 243 243 243 255 255 255
254 254 254 255 255 255 251 251 251 255 255 255 254 254 254
255 255 255 255 255 255 253 253 253 252 252 252 252 252 252
253 253 253 255 255 255 255 255 255 254 254 254 254 254 254
254 254 254 254 254 254 254 254 254 254 254 254 254 254 254
254 254 254 254 254 254 254 254 254 254 254 254 254 254 254
254 254 254 254 254 254 254 254 254 254 254 254 254 254 254
254 254 254 254 254 254 254 254 254 254 254 254 254 254 254
254 254 254 254 254 254 254 254 254 254 254 254 254 254 254
254 254 254 254 254 254 254 254 254 254 254 254 254 254 254
254 254 254 254 254 254 254 254 254 254 254 254 254 254 254
254 254 254 254 254 254 254 254 254 254 254 254 254 254 254
254 254 254 254 254 254 254 254 254 254 254 254 254 254 254
254 254 254 254 254 254 254 254 254 254 254 254 254 254 254
254 254 254 254 254 254 254 254 254 254 254 254 254 254 254
254 254 254 254 254 254 254 254 254 254 254 254 254 254 254
254 254 254 254 254 254 254 254 254 254 254 254 254 254 254
254 254 254 254 254 254 254 254 254 254 254 254 254 254 254
254 254 254 254 254 254 254 254 254 254 254 254 254 254 254
254 254 254 254 254 254 254 254 254 254 254 254 254 254 254
254 254 254 254 254 254 254 254 254 254 254 254 254 254 254
254 254 254 254 254 254 254 254 254 254 254 254 254 254 254
254 254 254 254 254 254 254 254 254 254 254 254 254 254 254
254 254 254 254 254 254 254 254 254 254 254 254 254 254 254
254 254 254 254 254 254 254 254 254 254 254 254 254 254 254
254 254 254 253 253 253 253 253 253 253 253 253 253 253 253
255 255 255 255 255 255 251 251 251 248 248 248 246 246 246
247 247 247 252 252 252 255 255 255 241 241 241 175 175 175
127 127 127 124 124 124 136 136 136 152 152 152 168 168 168
173 173 173 163 165 164 169 171 170 175 177 176 177 179 178
174 176 175 170 172 171 169 171 170 170 172 171 169 171 170
167 169 168 163 165 164 159 161 160 156 158 157 154 156 155
153 155 154 153 155 154 147 149 148 149 151 150 153 155 154
158 160 159 161 163 162 164 166 165 166 168 167 166 168 167
169 171 170 168 170 169 168 170 169 170 172 171 173 175 174
173 175 174 170 172 171 167 169 168 156 158 157 150 152 151
153 155 154 157 159 158 153 155 154 151 153 152 151 153 152
146 148 147 151 153 152 149 151 150 147 149 148 146 148 147
146 148 147 147 149 148 146 148 147 146 148 147 146 148 147
147 149 148 149 151 150 150 152 151 150 152 151 150 152 151
150 152 151 151 153 152 151 153 152 148 150 149 146 148 147
146 148 147 147 149 148 147 149 148 146 148 147 145 147 146
148 150 149 148 150 149 148 150 149 148 150 149 148 150 149
148 150 149 148 150 149 148 150 149 148 150 149 148 150 149
148 150 149 148 150 149 148 150 149 148 150 149 148 150 149
148 150 149 148 150 149 148 150 149 148 150 149 148 150 149
148 150 149 148 150 149 148 150 149 148 150 149 147 149 148
147 149 148 147 149 148 147 149 148 147 149 148 147 149 148
147 149 148 147 149 148 147 149 148 147 149 148 147 149 148
147 149 148 147 149 148 147 149 148 147 149 148 147 149 148
149 151 150 150 152 151 148 150 149 144 146 145 139 141 140
136 138 137 137 139 138 139 141 140 145 147 146 149 151 150
151 153 152 149 151 150 146 148 147 144 146 145 146 148 147
150 152 151 148 150 149 148 150 149 148 150 149 148 150 149
148 150 149 148 150 149 148 150 149 148 150 149 148 150 149
148 150 149 148 150 149 148 150 149 148 150 149 148 150 149
148 150 149 148 150 149 148 150 149 148 150 149 148 150 149
148 150 149 148 150 149 148 150 149 148 150 149 148 150 149
148 150 149 148 150 149 148 150 149 148 150 149 148 150 149
148 150 149 148 150 149 148 150 149 148 150 149 148 150 149
148 150 149 148 150 149 148 150 149 148 150 149 148 150 149
148 150 149 148 150 149 148 150 149 146 148 147 145 147 146
145 147 146 146 148 147 147 149 148 148 150 149 149 151 150
149 151 150 149 151 150 149 151 150 148 150 149 148 150 149
148 150 149 148 150 149 146 148 147 147 149 148 148 150 149
148 150 149 147 149 148 146 148 147 144 146 145 143 145 144
143 145 144 142 144 143 139 141 140 137 139 138 136 138 137
137 139 138 138 140 139 139 141 140 144 144 144 148 148 148
152 152 152 153 153 153 151 151 151 148 148 148 146 146 146
146 146 146 146 146 146 147 147 147 146 146 146 146 146 146
151 151 151 157 157 157 157 157 157 153 153 153 143 143 143
139 139 139 145 145 145 171 171 171 206 206 206 235 235 235
249 249 249 253 253 253 252 252 252 252 252 252 252 252 252
252 252 252 252 252 252 252 252 252 252 252 252 252 252 252
255 255 255 252 252 252 253 253 253 251 251 251 254 254 254
254 254 254 219 219 219 165 165 165 140 140 140 120 120 120
132 132 132 136 136 136 133 133 133 134 134 134 125 125 125
126 126 126 179 179 179 241 241 241 255 255 255 255 255 255
255 255 255 251 251 251 254 254 254 252 252 252 255 255 255
254 254 254 254 254 254 253 253 253 253 253 253 254 254 254
254 254 254 255 255 255 254 254 254 254 254 254 254 254 254
254 254 254 254 254 254 254 254 254 254 254 254 254 254 254
254 254 254 254 254 254 254 254 254 254 254 254 254 254 254
254 254 254 254 254 254 254 254 254 254 254 254 254 254 254
254 254 254 254 254 254 254 254 254 254 254 254 254 254 254
254 254 254 254 254 254 254 254 254 254 254 254 254 254 254
254 254 254 254 254 254 254 254 254 254 254 254 254 254 254
254 254 254 254 254 254 254 254 254 254 254 254 254 254 254
254 254 254 254 254 254 254 254 254 254 254 254 254 254 254
254 254 254 254 254 254 254 254 254 254 254 254 254 254 254
254 254 254 254 254 254 254 254 254 254 254 254 254 254 254
254 254 254 254 254 254 254 254 254 254 254 254 254 254 254
254 254 254 254 254 254 254 254 254 254 254 254 254 254 254
254 254 254 254 254 254 254 254 254 254 254 254 254 254 254
254 254 254 254 254 254 254 254 254 254 254 254 254 254 254
254 254 254 254 254 254 254 254 254 254 254 254 254 254 254
254 254 254 254 254 254 254 254 254 254 254 254 254 254 254
254 254 254 254 254 254 254 254 254 254 254 254 254 254 254
254 254 254 254 254 254 254 254 254 254 254 254 254 254 254
254 254 254 254 254 254 254 254 254 254 254 254 254 254 254
254 254 254 254 254 254 254 254 254 254 254 254 254 254 254
254 254 254 254 254 254 254 254 254 254 254 254 254 254 254
254 254 254 254 254 254 254 254 254 254 254 254 255 255 255
255 255 255 252 252 252 250 250 250 250 250 250 252 252 252
255 255 255 255 255 255 238 238 238 185 185 185 144 144 144
137 137 137 148 148 148 169 169 169 183 183 183 181 181 181
171 173 172 173 175 174 174 176 175 171 173 172 166 168 167
164 166 165 167 169 168 171 173 172 172 174 173 171 173 172
170 172 171 169 171 170 168 170 169 167 169 168 166 168 167
166 168 167 162 164 163 162 164 163 163 165 164 163 165 164
164 166 165 164 166 165 164 166 165 164 166 165 170 172 171
167 169 168 164 166 165 167 169 168 172 174 173 174 176 175
171 173 172 167 169 168 151 153 152 141 143 142 134 136 135
137 139 138 142 144 143 145 147 146 149 151 150 152 154 153
147 149 148 143 145 144 141 143 142 144 146 145 151 153 152
154 156 155 151 153 152 146 148 147 144 146 145 144 146 145
145 147 146 147 149 148 148 150 149 149 151 150 150 152 151
150 152 151 149 151 150 147 149 148 145 147 146 145 147 146
147 149 148 148 150 149 147 149 148 147 149 148 148 150 149
148 150 149 148 150 149 148 150 149 148 150 149 148 150 149
148 150 149 148 150 149 148 150 149 148 150 149 148 150 149
148 150 149 148 150 149 148 150 149 148 150 149 148 150 149
148 150 149 148 150 149 148 150 149 148 150 149 148 150 149
148 150 149 148 150 149 148 150 149 147 149 148 147 149 148
147 149 148 147 149 148 147 149 148 147 149 148 147 149 148
147 149 148 147 149 148 147 149 148 147 149 148 147 149 148
147 149 148 147 149 148 147 149 148 147 149 148 148 150 149
149 151 150 148 150 149 142 144 143 136 138 137 134 136 135
139 141 140 144 146 145 148 150 149 148 150 149 148 150 149
148 150 149 148 150 149 149 151 150 149 151 150 149 151 150
148 150 149 148 150 149 148 150 149 148 150 149 148 150 149
148 150 149 148 150 149 148 150 149 148 150 149 148 150 149
148 150 149 148 150 149 148 150 149 148 150 149 148 150 149
148 150 149 148 150 149 148 150 149 148 150 149 148 150 149
148 150 149 148 150 149 148 150 149 148 150 149 148 150 149
148 150 149 148 150 149 148 150 149 148 150 149 148 150 149
148 150 149 148 150 149 148 150 149 148 150 149 148 150 149
148 150 149 148 150 149 148 150 149 148 150 149 148 150 149
148 150 149 147 149 148 146 148 147 145 147 146 144 146 145
143 145 144 144 146 145 144 146 145 150 152 151 150 152 151
150 152 151 149 151 150 149 151 150 148 150 149 148 150 149
148 150 149 149 151 150 149 151 150 148 150 149 147 149 148
145 147 146 142 144 143 140 142 141 139 141 140 136 138 137
137 139 138 137 139 138 138 140 139 140 142 141 141 143 142
142 144 143 142 144 143 146 146 146 148 148 148 151 151 151
152 152 152 151 151 151 149 149 149 149 149 149 149 149 149
153 153 153 150 150 150 143 143 143 139 139 139 143 143 143
148 148 148 147 147 147 141 141 141 146 146 146 140 140 140
152 152 152 191 191 191 233 233 233 253 253 253 254 254 254
251 251 251 253 253 253 253 253 253 253 253 253 253 253 253
253 253 253 253 253 253 253 253 253 253 253 253 255 255 255
253 253 253 254 254 254 254 254 254 254 254 254 254 254 254
222 222 222 173 173 173 143 143 143 122 122 122 132 132 132
136 136 136 133 133 133 134 134 134 123 123 123 123 123 123
175 175 175 238 238 238 255 255 255 255 255 255 255 255 255
251 251 251 252 252 252 249 249 249 253 253 253 254 254 254
254 254 254 255 255 255 255 255 255 254 254 254 254 254 254
253 253 253 254 254 254 254 254 254 254 254 254 254 254 254
254 254 254 254 254 254 254 254 254 254 254 254 254 254 254
254 254 254 254 254 254 254 254 254 254 254 254 254 254 254
254 254 254 254 254 254 254 254 254 254 254 254 254 254 254
254 254 254 254 254 254 254 254 254 254 254 254 254 254 254
254 254 254 254 254 254 254 254 254 254 254 254 254 254 254
254 254 254 254 254 254 254 254 254 254 254 254 254 254 254
254 254 254 254 254 254 254 254 254 254 254 254 254 254 254
254 254 254 254 254 254 254 254 254 254 254 254 254 254 254
254 254 254 254 254 254 254 254 254 254 254 254 254 254 254
254 254 254 254 254 254 254 254 254 254 254 254 254 254 254
254 254 254 254 254 254 254 254 254 254 254 254 254 254 254
254 254 254 254 254 254 254 254 254 254 254 254 254 254 254
254 254 254 254 254 254 254 254 254 254 254 254 254 254 254
254 254 254 254 254 254 254 254 254 254 254 254 254 254 254
254 254 254 254 254 254 254 254 254 254 254 254 254 254 254
254 254 254 254 254 254 254 254 254 254 254 254 254 254 254
254 254 254 254 254 254 254 254 254 254 254 254 254 254 254
254 254 254 254 254 254 254 254 254 254 254 254 254 254 254
254 254 254 254 254 254 254 254 254 254 254 254 254 254 254
254 254 254 254 254 254 254 254 254 254 254 254 254 254 254
254 254 254 254 254 254 254 254 254 254 254 254 255 255 255
255 255 255 255 255 255 255 255 255 251 251 251 250 250 250
249 249 249 251 251 251 254 254 254 254 254 254 251 251 251
248 248 248 244 244 244 203 203 203 165 165 165 146 146 146
147 147 147 168 168 168 185 185 185 184 184 184 178 180 179
169 171 170 161 163 162 159 161 160 164 166 165 166 168 167
163 165 164 158 160 159 160 162 161 162 164 163 165 167 166
169 171 170 171 173 172 173 175 174 174 176 175 174 176 175
177 179 178 175 177 176 173 175 174 170 172 171 168 170 169
166 168 167 165 167 166 165 167 166 168 170 169 166 168 167
165 167 166 169 171 170 173 175 174 172 174 173 163 165 164
155 157 156 143 145 144 134 136 135 123 125 124 126 128 127
137 139 138 139 141 140 140 142 141 150 152 151 154 156 155
151 153 152 149 151 150 149 151 150 149 151 150 146 148 147
139 141 140 132 134 133 150 152 151 148 150 149 147 149 148
147 149 148 149 151 150 149 151 150 149 151 150 148 150 149
146 148 147 145 147 146 144 146 145 146 148 147 150 152 151
153 155 154 154 156 155 154 156 155 148 150 149 148 150 149
148 150 149 148 150 149 148 150 149 148 150 149 148 150 149
148 150 149 148 150 149 148 150 149 148 150 149 148 150 149
148 150 149 148 150 149 148 150 149 148 150 149 148 150 149
148 150 149 148 150 149 148 150 149 148 150 149 148 150 149
148 150 149 148 150 149 147 149 148 147 149 148 147 149 148
147 149 148 147 149 148 147 149 148 147 149 148 147 149 148
147 149 148 147 149 148 147 149 148 147 149 148 147 149 148
147 149 148 147 149 148 147 149 148 147 149 148 148 150 149
146 148 147 139 141 140 133 135 134 133 135 134 141 143 142
149 151 150 149 151 150 147 149 148 146 148 147 148 150 149
151 153 152 152 154 153 151 153 152 149 151 150 148 150 149
148 150 149 148 150 149 148 150 149 148 150 149 148 150 149
148 150 149 148 150 149 148 150 149 148 150 149 148 150 149
148 150 149 148 150 149 148 150 149 148 150 149 148 150 149
148 150 149 148 150 149 148 150 149 148 150 149 148 150 149
148 150 149 148 150 149 148 150 149 148 150 149 148 150 149
148 150 149 148 150 149 148 150 149 148 150 149 148 150 149
148 150 149 148 150 149 148 150 149 148 150 149 148 150 149
148 150 149 148 150 149 148 150 149 148 150 149 148 150 149
148 150 149 147 149 148 146 148 147 146 148 147 146 148 147
146 148 147 146 148 147 150 152 151 150 152 151 149 151 150
149 151 150 148 150 149 147 149 148 147 149 148 147 149 148
146 148 147 146 148 147 145 147 146 143 145 144 141 143 142
139 141 140 137 139 138 136 138 137 134 136 135 135 137 136
138 140 139 140 142 141 142 144 143 143 145 144 144 146 145
143 145 144 148 148 148 149 149 149 150 150 150 150 150 150
150 150 150 151 151 151 151 151 151 152 152 152 159 159 159
154 154 154 145 145 145 139 139 139 142 142 142 149 149 149
148 148 148 142 142 142 143 143 143 147 147 147 174 174 174
219 219 219 251 251 251 255 255 255 252 252 252 250 250 250
254 254 254 254 254 254 254 254 254 254 254 254 254 254 254
254 254 254 254 254 254 254 254 254 255 255 255 253 253 253
255 255 255 255 255 255 255 255 255 254 254 254 228 228 228
186 186 186 146 146 146 122 122 122 131 131 131 135 135 135
134 134 134 136 136 136 124 124 124 122 122 122 171 171 171
235 235 235 254 254 254 255 255 255 255 255 255 251 251 251
251 251 251 247 247 247 252 252 252 253 253 253 255 255 255
255 255 255 255 255 255 255 255 255 253 253 253 252 252 252
254 254 254 254 254 254 254 254 254 254 254 254 254 254 254
254 254 254 254 254 254 254 254 254 254 254 254 254 254 254
254 254 254 254 254 254 254 254 254 254 254 254 254 254 254
254 254 254 254 254 254 254 254 254 254 254 254 254 254 254
254 254 254 254 254 254 254 254 254 254 254 254 254 254 254
254 254 254 254 254 254 254 254 254 254 254 254 254 254 254
254 254 254 254 254 254 254 254 254 254 254 254 254 254 254
254 254 254 254 254 254 254 254 254 254 254 254 254 254 254
254 254 254 254 254 254 254 254 254 254 254 254 254 254 254
254 254 254 254 254 254 254 254 254 254 254 254 254 254 254
254 254 254 254 254 254 254 254 254 254 254 254 254 254 254
254 254 254 254 254 254 254 254 254 254 254 254 254 254 254
254 254 254 254 254 254 254 254 254 254 254 254 254 254 254
254 254 254 254 254 254 254 254 254 254 254 254 254 254 254
254 254 254 254 254 254 254 254 254 254 254 254 254 254 254
254 254 254 254 254 254 254 254 254 254 254 254 254 254 254
254 254 254 254 254 254 254 254 254 254 254 254 254 254 254
254 254 254 254 254 254 254 254 254 254 254 254 254 254 254
254 254 254 254 254 254 254 254 254 254 254 254 254 254 254
254 254 254 254 254 254 254 254 254 254 254 254 254 254 254
254 254 254 254 254 254 254 254 254 254 254 254 254 254 254
254 254 254 254 254 254 254 254 254 254 254 254 254 254 254
254 254 254 254 254 254 245 245 245 242 242 242 241 241 241
245 245 245 251 251 251 254 254 254 251 251 251 247 247 247
255 255 255 218 218 218 173 173 173 136 136 136 121 121 121
141 141 141 168 168 168 177 177 177 176 178 177 170 172 171
164 166 165 164 166 165 167 169 168 169 171 170 166 168 167
162 164 163 167 169 168 168 170 169 170 172 171 170 172 171
170 172 171 168 170 169 166 168 167 165 167 166 166 168 167
166 168 167 167 169 168 167 169 168 168 170 169 170 172 171
172 174 173 173 175 174 165 167 166 166 168 167 169 171 170
172 174 173 173 175 174 164 166 165 150 152 151 139 141 140
127 129 128 131 133 132 130 132 131 140 142 141 152 154 153
140 142 141 129 131 130 140 142 141 143 145 144 145 147 146
147 149 148 145 147 146 142 144 143 143 145 144 148 150 149
152 154 153 161 163 162 158 160 159 154 156 155 153 155 154
153 155 154 153 155 154 152 154 153 150 152 151 145 147 146
144 146 145 144 146 145 146 148 147 150 152 151 153 155 154
155 157 156 155 157 156 148 150 149 148 150 149 148 150 149
148 150 149 148 150 149 148 150 149 148 150 149 148 150 149
148 150 149 148 150 149 148 150 149 148 150 149 148 150 149
148 150 149 148 150 149 148 150 149 148 150 149 148 150 149
148 150 149 148 150 149 148 150 149 148 150 149 148 150 149
148 150 149 147 149 148 147 149 148 147 149 148 147 149 148
147 149 148 147 149 148 147 149 148 147 149 148 147 149 148
147 149 148 147 149 148 147 149 148 147 149 148 147 149 148
147 149 148 147 149 148 147 149 148 146 148 147 143 145 144
137 139 138 132 134 133 135 137 136 143 145 144 151 153 152
150 152 151 147 149 148 145 147 146 147 149 148 151 153 152
153 155 154 151 153 152 148 150 149 148 150 149 148 150 149
148 150 149 148 150 149 148 150 149 148 150 149 148 150 149
148 150 149 148 150 149 148 150 149 148 150 149 148 150 149
148 150 149 148 150 149 148 150 149 148 150 149 148 150 149
148 150 149 148 150 149 148 150 149 148 150 149 148 150 149
148 150 149 148 150 149 148 150 149 148 150 149 148 150 149
148 150 149 148 150 149 148 150 149 148 150 149 148 150 149
148 150 149 148 150 149 148 150 149 148 150 149 148 150 149
148 150 149 148 150 149 148 150 149 148 150 149 148 150 149
149 151 150 150 152 151 150 152 151 150 152 151 150 152 151
150 152 151 149 151 150 148 150 149 148 150 149 147 149 148
146 148 147 145 147 146 144 146 145 144 146 145 140 142 141
139 141 140 139 141 140 138 140 139 138 140 139 137 139 138
137 139 138 137 139 138 136 138 137 138 140 139 141 143 142
143 145 144 144 146 145 145 147 146 144 146 145 143 145 144
149 149 149 149 149 149 149 149 149 149 149 149 150 150 150
151 151 151 152 152 152 152 152 152 154 154 154 151 151 151
146 146 146 143 143 143 150 150 150 159 159 159 162 162 162
159 159 159 138 138 138 161 161 161 203 203 203 243 243 243
255 255 255 254 254 254 251 251 251 254 254 254 254 254 254
254 254 254 254 254 254 254 254 254 254 254 254 254 254 254
254 254 254 254 254 254 255 255 255 252 252 252 255 255 255
255 255 255 254 254 254 255 255 255 235 235 235 201 201 201
151 151 151 124 124 124 129 129 129 133 133 133 134 134 134
138 138 138 126 126 126 124 124 124 168 168 168 233 233 233
253 253 253 254 254 254 255 255 255 251 251 251 251 251 251
247 247 247 252 252 252 253 253 253 255 255 255 255 255 255
255 255 255 255 255 255 253 253 253 252 252 252 254 254 254
254 254 254 254 254 254 254 254 254 254 254 254 254 254 254
254 254 254 254 254 254 254 254 254 254 254 254 254 254 254
254 254 254 254 254 254 254 254 254 254 254 254 254 254 254
254 254 254 254 254 254 254 254 254 254 254 254 254 254 254
254 254 254 254 254 254 254 254 254 254 254 254 254 254 254
254 254 254 254 254 254 254 254 254 254 254 254 254 254 254
254 254 254 254 254 254 254 254 254 254 254 254 254 254 254
254 254 254 254 254 254 254 254 254 254 254 254 254 254 254
254 254 254 254 254 254 254 254 254 254 254 254 254 254 254
254 254 254 254 254 254 254 254 254 254 254 254 254 254 254
254 254 254 254 254 254 254 254 254 254 254 254 254 254 254
254 254 254 254 254 254 254 254 254 254 254 254 254 254 254
254 254 254 254 254 254 254 254 254 254 254 254 254 254 254
254 254 254 254 254 254 254 254 254 254 254 254 254 254 254
254 254 254 254 254 254 254 254 254 254 254 254 254 254 254
254 254 254 254 254 254 254 254 254 254 254 254 254 254 254
254 254 254 254 254 254 254 254 254 254 254 254 254 254 254
254 254 254 254 254 254 254 254 254 254 254 254 254 254 254
254 254 254 254 254 254 254 254 254 254 254 254 254 254 254
254 254 254 254 254 254 254 254 254 254 254 254 254 254 254
254 254 254 254 254 254 254 254 254 254 254 254 254 254 254
254 254 254 253 253 253 253 253 253 252 252 252 252 252 252
252 252 252 252 252 252 246 246 246 241 241 241 245 245 245
253 253 253 255 255 255 255 255 255 253 253 253 241 241 241
211 211 211 179 179 179 150 150 150 128 128 128 131 131 131
147 147 147 150 150 150 165 167 166 172 174 173 177 179 178
175 177 176 169 171 170 167 169 168 172 174 173 179 181 180
177 179 178 177 179 178 176 178 177 175 177 176 172 174 173
169 171 170 166 168 167 164 166 165 164 166 165 165 167 166
166 168 167 168 170 169 171 173 172 173 175 174 174 176 175
175 177 176 165 167 166 167 169 168 170 172 171 170 172 171
165 167 166 153 155 154 138 140 139 128 130 129 128 130 129
135 137 136 129 131 130 132 134 133 142 144 143 130 132 131
129 131 130 157 159 158 169 171 170 171 173 172 168 170 169
156 158 157 143 145 144 140 142 141 150 152 151 161 163 162
159 161 160 155 157 156 150 152 151 149 151 150 151 153 152
152 154 153 150 152 151 147 149 148 147 149 148 146 148 147
144 146 145 145 147 146 147 149 148 149 151 150 149 151 150
148 150 149 148 150 149 148 150 149 148 150 149 148 150 149
148 150 149 148 150 149 148 150 149 148 150 149 148 150 149
148 150 149 148 150 149 148 150 149 148 150 149 148 150 149
148 150 149 148 150 149 148 150 149 148 150 149 148 150 149
148 150 149 148 150 149 148 150 149 148 150 149 148 150 149
147 149 148 147 149 148 147 149 148 147 149 148 147 149 148
147 149 148 147 149 148 147 149 148 147 149 148 147 149 148
147 149 148 147 149 148 147 149 148 147 149 148 147 149 148
147 149 148 147 149 148 144 146 145 139 141 140 134 136 135
134 136 135 138 140 139 145 147 146 151 153 152 150 152 151
147 149 148 146 148 147 147 149 148 150 152 151 151 153 152
150 152 151 147 149 148 148 150 149 148 150 149 148 150 149
148 150 149 148 150 149 148 150 149 148 150 149 148 150 149
148 150 149 148 150 149 148 150 149 148 150 149 148 150 149
148 150 149 148 150 149 148 150 149 148 150 149 148 150 149
148 150 149 148 150 149 148 150 149 148 150 149 148 150 149
148 150 149 148 150 149 148 150 149 148 150 149 148 150 149
148 150 149 148 150 149 148 150 149 148 150 149 148 150 149
148 150 149 148 150 149 148 150 149 148 150 149 148 150 149
148 150 149 148 150 149 148 150 149 149 151 150 150 152 151
151 153 152 152 154 153 153 155 154 152 154 153 152 154 153
146 148 147 145 147 146 145 147 146 144 146 145 142 144 143
141 143 142 141 143 142 140 142 141 135 137 136 135 137 136
135 137 136 135 137 136 136 138 137 137 139 138 139 141 140
140 142 141 140 142 141 142 144 143 144 146 145 145 147 146
146 148 147 146 148 147 145 147 146 144 146 145 150 150 150
149 149 149 148 148 148 149 149 149 150 150 150 151 151 151
150 150 150 149 149 149 147 147 147 148 148 148 146 146 146
144 144 144 147 147 147 155 155 155 158 158 158 156 156 156
147 147 147 184 184 184 229 229 229 255 255 255 255 255 255
251 251 251 253 253 253 255 255 255 254 254 254 254 254 254
254 254 254 254 254 254 254 254 254 254 254 254 254 254 254
254 254 254 255 255 255 252 252 252 255 255 255 255 255 255
253 253 253 255 255 255 243 243 243 217 217 217 159 159 159
128 128 128 129 129 129 132 132 132 134 134 134 140 140 140
128 128 128 125 125 125 167 167 167 233 233 233 252 252 252
253 253 253 255 255 255 251 251 251 252 252 252 249 249 249
253 253 253 254 254 254 254 254 254 255 255 255 255 255 255
254 254 254 254 254 254 253 253 253 254 254 254 254 254 254
254 254 254 254 254 254 254 254 254 254 254 254 254 254 254
254 254 254 254 254 254 254 254 254 254 254 254 254 254 254
254 254 254 254 254 254 254 254 254 254 254 254 254 254 254
254 254 254 254 254 254 254 254 254 254 254 254 254 254 254
254 254 254 254 254 254 254 254 254 254 254 254 254 254 254
254 254 254 254 254 254 254 254 254 254 254 254 254 254 254
254 254 254 254 254 254 254 254 254 254 254 254 254 254 254
254 254 254 254 254 254 254 254 254 254 254 254 254 254 254
254 254 254 254 254 254 254 254 254 254 254 254 254 254 254
254 254 254 254 254 254 254 254 254 254 254 254 254 254 254
254 254 254 254 254 254 254 254 254 254 254 254 254 254 254
254 254 254 254 254 254 254 254 254 254 254 254 254 254 254
254 254 254 254 254 254 254 254 254 254 254 254 254 254 254
254 254 254 254 254 254 254 254 254 254 254 254 254 254 254
254 254 254 254 254 254 254 254 254 254 254 254 254 254 254
254 254 254 254 254 254 254 254 254 254 254 254 254 254 254
254 254 254 254 254 254 254 254 254 254 254 254 254 254 254
254 254 254 254 254 254 254 254 254 254 254 254 254 254 254
254 254 254 254 254 254 254 254 254 254 254 254 254 254 254
254 254 254 254 254 254 254 254 254 254 254 254 254 254 254
254 254 254 254 254 254 255 255 255 254 254 254 253 253 253
252 252 252 251 251 251 250 250 250 249 249 249 249 249 249
254 254 254 249 249 249 247 247 247 251 251 251 255 255 255
255 255 255 245 245 245 234 234 234 202 202 202 183 183 183
176 176 176 174 174 174 160 160 160 149 149 149 143 143 143
135 135 135 151 153 152 159 161 160 167 169 168 168 170 169
163 165 164 163 165 164 171 173 172 179 181 180 175 177 176
175 177 176 175 177 176 175 177 176 174 176 175 173 175 174
172 174 173 171 173 172 172 174 173 173 175 174 174 176 175
174 176 175 174 176 175 173 175 174 172 174 173 171 173 172
169 171 170 170 172 171 168 170 169 161 163 162 150 152 151
139 141 140 132 134 133 128 130 129 136 138 137 142 144 143
124 126 125 115 117 116 124 126 125 120 122 121 140 142 141
192 194 193 237 239 238 237 239 238 228 230 229 203 205 204
171 173 172 146 148 147 138 140 139 139 141 140 146 148 147
142 144 143 138 140 139 139 141 140 144 146 145 148 150 149
148 150 149 146 148 147 148 150 149 146 148 147 145 147 146
145 147 146 147 149 148 148 150 149 148 150 149 147 149 148
148 150 149 148 150 149 148 150 149 148 150 149 148 150 149
148 150 149 148 150 149 148 150 149 148 150 149 148 150 149
148 150 149 148 150 149 148 150 149 148 150 149 148 150 149
148 150 149 148 150 149 148 150 149 148 150 149 148 150 149
148 150 149 148 150 149 148 150 149 148 150 149 147 149 148
147 149 148 147 149 148 147 149 148 147 149 148 147 149 148
147 149 148 147 149 148 147 149 148 147 149 148 147 149 148
147 149 148 147 149 148 147 149 148 147 149 148 147 149 148
147 149 148 141 143 142 135 137 136 133 135 134 136 138 137
142 144 143 147 149 148 149 151 150 149 151 150 148 150 149
147 149 148 147 149 148 148 150 149 148 150 149 147 149 148
146 148 147 148 150 149 148 150 149 148 150 149 148 150 149
148 150 149 148 150 149 148 150 149 148 150 149 148 150 149
148 150 149 148 150 149 148 150 149 148 150 149 148 150 149
148 150 149 148 150 149 148 150 149 148 150 149 148 150 149
148 150 149 148 150 149 148 150 149 148 150 149 148 150 149
148 150 149 148 150 149 148 150 149 148 150 149 148 150 149
148 150 149 148 150 149 148 150 149 148 150 149 148 150 149
148 150 149 148 150 149 148 150 149 148 150 149 148 150 149
148 150 149 148 150 149 148 150 149 150 152 151 151 153 152
151 153 152 150 152 151 149 151 150 148 150 149 143 145 144
142 144 143 142 144 143 140 142 141 139 141 140 138 140 139
137 139 138 136 138 137 134 136 135 134 136 135 134 136 135
135 137 136 136 138 137 139 141 140 141 143 142 142 144 143
144 146 145 144 146 145 145 147 146 146 148 147 147 149 148
147 149 148 147 149 148 147 149 148 150 150 150 148 148 148
147 147 147 148 148 148 151 151 151 151 151 151 148 148 148
145 145 145 143 143 143 147 147 147 149 149 149 145 145 145
143 143 143 145 145 145 147 147 147 146 146 146 179 179 179
215 215 215 249 249 249 255 255 255 251 251 251 251 251 251
255 255 255 255 255 255 253 253 253 253 253 253 253 253 253
253 253 253 253 253 253 253 253 253 253 253 253 253 253 253
255 255 255 251 251 251 254 254 254 254 254 254 251 251 251
255 255 255 250 250 250 230 230 230 169 169 169 135 135 135
131 131 131 131 131 131 133 133 133 139 139 139 127 127 127
124 124 124 168 168 168 233 233 233 252 252 252 253 253 253
255 255 255 251 251 251 253 253 253 251 251 251 255 255 255
254 254 254 254 254 254 253 253 253 253 253 253 254 254 254
254 254 254 255 255 255 254 254 254 254 254 254 254 254 254
254 254 254 254 254 254 254 254 254 254 254 254 254 254 254
254 254 254 254 254 254 254 254 254 254 254 254 254 254 254
254 254 254 254 254 254 254 254 254 254 254 254 254 254 254
254 254 254 254 254 254 254 254 254 254 254 254 254 254 254
254 254 254 254 254 254 254 254 254 254 254 254 254 254 254
254 254 254 254 254 254 254 254 254 254 254 254 254 254 254
254 254 254 254 254 254 254 254 254 254 254 254 254 254 254
254 254 254 254 254 254 254 254 254 254 254 254 254 254 254
254 254 254 254 254 254 254 254 254 254 254 254 254 254 254
254 254 254 254 254 254 254 254 254 254 254 254 254 254 254
254 254 254 254 254 254 254 254 254 254 254 254 254 254 254
254 254 254 254 254 254 254 254 254 254 254 254 254 254 254
254 254 254 254 254 254 254 254 254 254 254 254 254 254 254
254 254 254 254 254 254 254 254 254 254 254 254 254 254 254
254 254 254 254 254 254 254 254 254 254 254 254 254 254 254
254 254 254 254 254 254 254 254 254 254 254 254 254 254 254
254 254 254 254 254 254 254 254 254 254 254 254 254 254 254
254 254 254 254 254 254 254 254 254 254 254 254 254 254 254
254 254 254 254 254 254 254 254 254 254 254 254 254 254 254
254 254 254 254 254 254 254 254 254 254 254 254 254 254 254
254 254 254 255 255 255 254 254 254 253 253 253 252 252 252
250 250 250 249 249 249 247 247 247 247 247 247 245 245 245
244 244 244 247 247 247 254 254 254 255 255 255 243 243 243
218 218 218 198 198 198 178 178 178 158 158 158 158 158 158
171 171 171 170 170 170 162 162 162 154 154 154 145 145 145
142 144 143 141 143 142 142 144 143 147 149 148 155 157 156
161 163 162 164 166 165 164 166 165 173 175 174 173 175 174
172 174 173 172 174 173 171 173 172 171 173 172 171 173 172
171 173 172 169 171 170 170 172 171 173 175 174 174 176 175
175 177 176 174 176 175 172 174 173 170 172 171 173 175 174
172 174 173 165 167 166 153 155 154 139 141 140 131 133 132
130 132 131 132 134 133 134 136 135 145 147 146 131 133 132
122 124 123 131 133 132 126 128 127 150 152 151 210 212 211
242 244 243 250 252 251 254 255 255 243 245 244 218 218 218
191 191 191 174 174 174 167 167 167 139 141 140 135 137 136
133 135 134 136 138 137 144 146 145 151 153 152 152 154 153
151 153 152 147 149 148 146 148 147 145 147 146 147 149 148
150 152 151 152 154 153 153 155 154 153 155 154 148 150 149
148 150 149 148 150 149 148 150 149 148 150 149 148 150 149
148 150 149 148 150 149 148 150 149 148 150 149 148 150 149
148 150 149 148 150 149 148 150 149 148 150 149 148 150 149
148 150 149 148 150 149 148 150 149 148 150 149 148 150 149
148 150 149 148 150 149 148 150 149 147 149 148 147 149 148
147 149 148 147 149 148 147 149 148 147 149 148 147 149 148
147 149 148 147 149 148 147 149 148 147 149 148 147 149 148
147 149 148 147 149 148 147 149 148 147 149 148 147 149 148
140 142 141 133 135 134 132 134 133 137 139 138 144 146 145
147 149 148 148 150 149 148 150 149 148 150 149 148 150 149
147 149 148 146 148 147 146 148 147 145 147 146 145 147 146
148 150 149 148 150 149 148 150 149 148 150 149 148 150 149
148 150 149 148 150 149 148 150 149 148 150 149 148 150 149
148 150 149 148 150 149 148 150 149 148 150 149 148 150 149
148 150 149 148 150 149 148 150 149 148 150 149 148 150 149
148 150 149 148 150 149 148 150 149 148 150 149 148 150 149
148 150 149 148 150 149 148 150 149 148 150 149 148 150 149
148 150 149 148 150 149 148 150 149 148 150 149 148 150 149
148 150 149 148 150 149 148 150 149 148 150 149 148 150 149
147 149 148 148 150 149 149 151 150 149 151 150 148 150 149
147 149 148 145 147 146 144 146 145 141 143 142 140 142 141
139 141 140 138 140 139 137 139 138 136 138 137 135 137 136
134 136 135 135 137 136 135 137 136 135 137 136 136 138 137
137 139 138 140 142 141 142 144 143 144 146 145 145 147 146
145 147 146 146 148 147 147 149 148 148 150 149 149 151 150
150 152 151 150 152 151 150 150 150 148 148 148 147 147 147
149 149 149 151 151 151 150 150 150 146 146 146 142 142 142
136 136 136 145 145 145 151 151 151 149 149 149 148 148 148
150 150 150 153 153 153 154 154 154 210 210 210 240 240 240
255 255 255 254 254 254 247 247 247 253 253 253 255 255 255
250 250 250 253 253 253 253 253 253 253 253 253 253 253 253
253 253 253 253 253 253 253 253 253 253 253 253 255 255 255
250 250 250 253 253 253 253 253 253 250 250 250 255 255 255
254 254 254 238 238 238 177 177 177 140 140 140 133 133 133
131 131 131 132 132 132 138 138 138 126 126 126 122 122 122
169 169 169 233 233 233 251 251 251 252 252 252 255 255 255
252 252 252 254 254 254 252 252 252 255 255 255 255 255 255
253 253 253 252 252 252 252 252 252 253 253 253 255 255 255
255 255 255 254 254 254 254 254 254 254 254 254 254 254 254
254 254 254 254 254 254 254 254 254 254 254 254 254 254 254
254 254 254 254 254 254 254 254 254 254 254 254 254 254 254
254 254 254 254 254 254 254 254 254 254 254 254 254 254 254
254 254 254 254 254 254 254 254 254 254 254 254 254 254 254
254 254 254 254 254 254 254 254 254 254 254 254 254 254 254
254 254 254 254 254 254 254 254 254 254 254 254 254 254 254
254 254 254 254 254 254 254 254 254 254 254 254 254 254 254
254 254 254 254 254 254 254 254 254 254 254 254 254 254 254
254 254 254 254 254 254 254 254 254 254 254 254 254 254 254
254 254 254 254 254 254 254 254 254 254 254 254 254 254 254
254 254 254 254 254 254 254 254 254 254 254 254 254 254 254
254 254 254 254 254 254 254 254 254 254 254 254 254 254 254
255 255 255 255 255 255 254 254 254 252 252 252 251 251 251
252 252 252 255 255 255 255 255 255 247 247 247 252 252 252
255 255 255 255 255 255 253 253 253 255 255 255 255 255 255
255 255 255 252 252 252 254 254 254 255 255 255 254 254 254
251 251 251 250 250 250 252 252 252 255 255 255 252 252 252
252 252 252 251 251 251 251 251 251 252 252 252 253 253 253
254 254 254 255 255 255 254 254 254 253 253 253 251 251 251
252 252 252 254 254 254 255 255 255 255 255 255 254 254 254
255 255 255 253 253 253 253 253 253 255 255 255 255 255 255
254 254 254 250 250 250 248 248 248 246 248 247 249 251 250
251 253 252 247 249 248 232 234 233 211 213 212 190 192 191
177 179 178 158 160 159 160 162 161 163 165 164 169 171 170
175 177 176 178 180 179 179 181 180 178 180 179 163 165 164
156 158 157 145 147 146 137 139 138 134 136 135 139 141 140
146 148 147 152 154 153 156 158 157 154 156 155 153 155 154
157 159 158 163 165 164 168 170 169 168 170 169 167 169 168
171 173 172 170 172 171 168 170 169 169 171 170 170 172 171
172 174 173 171 173 172 170 172 171 170 172 171 161 163 162
148 150 149 136 138 137 130 132 131 130 132 131 134 136 135
138 140 139 134 138 137 135 139 138 134 136 135 133 135 134
134 136 135 141 143 142 176 176 176 221 221 221 244 244 244
242 242 242 242 242 242 245 245 245 248 246 247 244 242 243
235 233 234 227 225 226 179 179 179 176 176 176 167 167 167
157 157 157 152 152 152 152 152 152 150 150 150 145 145 145
153 153 153 147 147 147 147 147 147 155 155 155 159 159 159
155 155 155 151 151 151 151 151 151 148 150 149 148 150 149
148 150 149 148 150 149 148 150 149 148 150 149 148 150 149
148 150 149 148 150 149 148 150 149 148 150 149 148 150 149
148 150 149 148 150 149 148 150 149 148 150 149 148 150 149
148 150 149 148 150 149 148 150 149 148 150 149 148 150 149
148 150 149 148 150 149 147 149 148 147 149 148 148 150 149
149 151 150 149 151 150 149 151 150 148 150 149 148 150 149
148 150 149 147 149 148 146 148 147 145 147 146 145 147 146
145 147 146 146 148 147 146 148 147 144 146 145 137 139 138
131 133 132 131 133 132 138 140 139 146 148 147 150 152 151
151 153 152 147 149 148 147 149 148 147 149 148 147 149 148
147 149 148 146 148 147 146 148 147 146 148 147 149 151 150
149 151 150 149 151 150 149 151 150 149 151 150 149 151 150
149 151 150 149 151 150 147 149 148 148 150 149 148 150 149
149 151 150 149 151 150 150 152 151 150 152 151 150 152 151
149 151 150 149 151 150 149 151 150 149 151 150 149 151 150
149 151 150 149 151 150 149 151 150 146 148 147 147 149 148
148 150 149 149 151 150 150 152 151 150 152 151 149 151 150
149 151 150 148 150 149 148 150 149 148 150 149 148 150 149
148 150 149 147 149 148 147 149 148 147 149 148 151 153 152
149 151 150 147 149 148 144 146 145 141 143 142 138 140 139
136 138 137 135 137 136 133 135 134 132 134 133 131 133 132
130 132 131 130 132 131 131 133 132 132 134 133 133 135 134
139 141 140 139 141 140 141 143 142 143 145 144 145 147 146
147 149 148 148 150 149 149 151 150 149 151 150 149 151 150
149 151 150 149 151 150 149 151 150 149 151 150 149 151 150
149 151 150 149 149 149 149 149 149 149 149 149 149 149 149
149 149 149 149 149 149 149 149 149 149 149 149 148 148 148
151 151 151 153 153 153 150 150 150 143 143 143 144 144 144
163 163 163 185 185 185 241 241 241 246 246 246 250 250 250
250 250 250 251 251 251 254 254 254 252 252 252 248 248 248
254 254 254 254 254 254 254 254 254 254 254 254 254 254 254
254 254 254 254 254 254 254 254 254 254 254 254 255 255 255
254 254 254 251 251 251 251 251 251 253 253 253 250 250 250
245 245 245 185 185 185 158 158 158 134 134 134 129 129 129
133 133 133 131 131 131 129 129 129 129 129 129 173 173 173
224 224 224 255 255 255 255 255 255 255 255 255 255 255 255
253 253 253 251 251 251 255 255 255 255 255 255 254 254 254
252 252 252 251 251 251 251 251 251 252 252 252 252 252 252
254 254 254 254 254 254 254 254 254 254 254 254 254 254 254
254 254 254 254 254 254 254 254 254 254 254 254 254 254 254
254 254 254 254 254 254 254 254 254 254 254 254 254 254 254
254 254 254 254 254 254 254 254 254 254 254 254 254 254 254
254 254 254 254 254 254 254 254 254 254 254 254 254 254 254
254 254 254 254 254 254 254 254 254 254 254 254 254 254 254
254 254 254 254 254 254 254 254 254 254 254 254 254 254 254
254 254 254 254 254 254 254 254 254 254 254 254 254 254 254
254 254 254 254 254 254 254 254 254 254 254 254 254 254 254
254 254 254 254 254 254 254 254 254 254 254 254 254 254 254
254 254 254 254 254 254 254 254 254 254 254 254 254 254 254
254 254 254 254 254 254 254 254 254 254 254 254 254 254 254
254 254 254 254 254 254 254 254 254 254 254 254 254 254 254
254 254 254 254 254 254 255 255 255 255 255 255 255 255 255
254 254 254 251 251 251 255 255 255 255 255 255 250 250 250
248 248 248 253 253 253 255 255 255 251 251 251 245 245 245
251 251 251 251 251 251 251 251 251 253 253 253 254 254 254
253 253 253 250 250 250 247 247 247 255 255 255 255 255 255
255 255 255 255 255 255 255 255 255 255 255 255 254 254 254
254 254 254 255 255 255 255 255 255 253 253 253 252 252 252
253 253 253 253 253 253 251 251 251 250 250 250 255 255 255
254 254 254 254 254 254 254 254 254 254 254 254 254 254 254
255 255 255 255 255 255 246 248 247 247 249 248 241 243 242
223 225 224 198 200 199 176 178 177 163 165 164 158 160 159
169 171 170 169 171 170 170 172 171 170 172 171 168 170 169
167 169 168 165 167 166 165 167 166 175 177 176 173 175 174
169 171 170 165 167 166 160 162 161 157 159 158 154 156 155
153 155 154 157 159 158 155 157 156 153 155 154 153 155 154
155 157 156 157 159 158 158 160 159 158 160 159 166 168 167
167 169 168 169 171 170 171 173 172 173 175 174 171 173 172
168 170 169 164 166 165 163 165 164 156 158 157 145 147 146
135 137 136 130 132 131 130 132 131 134 136 135 136 138 137
133 137 136 132 136 135 135 137 136 132 134 133 131 133 132
150 152 151 194 194 194 231 231 231 254 254 254 251 251 251
250 248 249 252 250 251 254 252 253 254 252 253 250 246 247
243 241 242 228 226 227 223 223 223 210 210 210 194 194 194
179 179 179 163 163 163 144 144 144 128 128 128 138 138 138
142 142 142 152 152 152 159 159 159 153 153 153 142 142 142
139 139 139 144 144 144 148 150 149 148 150 149 148 150 149
148 150 149 148 150 149 148 150 149 148 150 149 148 150 149
148 150 149 148 150 149 148 150 149 148 150 149 148 150 149
148 150 149 148 150 149 148 150 149 148 150 149 148 150 149
148 150 149 148 150 149 148 150 149 148 150 149 148 150 149
148 150 149 147 149 148 148 150 149 148 150 149 149 151 150
149 151 150 148 150 149 148 150 149 147 149 148 147 149 148
147 149 148 147 149 148 147 149 148 146 148 147 145 147 146
144 146 145 143 145 144 140 142 141 135 137 136 130 132 131
131 133 132 138 140 139 145 147 146 149 151 150 149 151 150
147 149 148 147 149 148 147 149 148 147 149 148 147 149 148
146 148 147 146 148 147 146 148 147 147 149 148 147 149 148
147 149 148 147 149 148 147 149 148 147 149 148 147 149 148
147 149 148 146 148 147 146 148 147 146 148 147 147 149 148
147 149 148 147 149 148 148 150 149 148 150 149 147 149 148
147 149 148 147 149 148 147 149 148 147 149 148 147 149 148
147 149 148 147 149 148 148 150 149 148 150 149 149 151 150
149 151 150 149 151 150 150 152 151 150 152 151 151 153 152
148 150 149 148 150 149 147 149 148 146 148 147 145 147 146
145 147 146 144 146 145 144 146 145 142 144 143 141 143 142
140 142 141 138 140 139 136 138 137 134 136 135 132 134 133
132 134 133 131 133 132 131 133 132 131 133 132 131 133 132
133 135 134 135 137 136 137 139 138 138 140 139 142 144 143
143 145 144 144 146 145 145 147 146 147 149 148 148 150 149
149 151 150 150 152 151 149 151 150 149 151 150 149 151 150
149 151 150 149 151 150 149 151 150 149 151 150 149 151 150
149 149 149 149 149 149 149 149 149 149 149 149 149 149 149
149 149 149 149 149 149 149 149 149 159 159 159 148 148 148
149 149 149 159 159 159 152 152 152 148 148 148 179 179 179
225 225 225 245 245 245 248 248 248 249 249 249 248 248 248
249 249 249 253 253 253 254 254 254 251 251 251 254 254 254
254 254 254 254 254 254 254 254 254 254 254 254 254 254 254
254 254 254 254 254 254 255 255 255 255 255 255 255 255 255
251 251 251 251 251 251 251 251 251 247 247 247 240 240 240
199 199 199 165 165 165 134 134 134 125 125 125 129 129 129
128 128 128 123 123 123 121 121 121 171 171 171 220 220 220
251 251 251 251 251 251 253 253 253 255 255 255 252 252 252
251 251 251 255 255 255 255 255 255 254 254 254 252 252 252
251 251 251 251 251 251 252 252 252 252 252 252 254 254 254
254 254 254 254 254 254 254 254 254 254 254 254 254 254 254
254 254 254 254 254 254 254 254 254 254 254 254 254 254 254
254 254 254 254 254 254 254 254 254 254 254 254 254 254 254
254 254 254 254 254 254 254 254 254 254 254 254 254 254 254
254 254 254 254 254 254 254 254 254 254 254 254 254 254 254
254 254 254 254 254 254 254 254 254 254 254 254 254 254 254
254 254 254 254 254 254 254 254 254 254 254 254 254 254 254
254 254 254 254 254 254 254 254 254 254 254 254 254 254 254
254 254 254 254 254 254 254 254 254 254 254 254 254 254 254
254 254 254 254 254 254 254 254 254 254 254 254 254 254 254
254 254 254 254 254 254 254 254 254 254 254 254 254 254 254
254 254 254 254 254 254 254 254 254 254 254 254 254 254 254
254 254 254 254 254 254 254 254 254 253 253 253 253 253 253
254 254 254 255 255 255 255 255 255 255 255 255 248 248 248
242 242 242 250 250 250 249 249 249 248 248 248 250 250 250
252 252 252 254 254 254 253 253 253 253 253 253 250 250 250
248 248 248 247 247 247 250 250 250 255 255 255 255 255 255
255 255 255 251 251 251 250 250 250 251 251 251 252 252 252
253 253 253 253 253 253 252 252 252 250 250 250 249 249 249
252 252 252 251 251 251 251 251 251 252 252 252 255 255 255
255 255 255 255 255 255 255 255 255 254 254 254 254 254 254
254 254 254 252 252 252 251 251 251 251 251 251 253 253 253
254 254 254 254 255 255 246 248 247 219 221 220 182 184 183
150 152 151 139 141 140 150 152 151 164 166 165 169 171 170
172 174 173 174 176 175 172 174 173 168 170 169 164 166 165
164 166 165 165 167 166 167 169 168 169 171 170 171 173 172
173 175 174 173 175 174 170 172 171 167 169 168 164 166 165
166 168 167 165 167 166 163 165 164 159 161 160 156 158 157
155 157 156 157 159 158 159 161 160 160 162 161 163 165 164
168 170 169 173 175 174 174 176 175 170 172 171 163 165 164
157 159 158 153 155 154 148 150 149 141 143 142 134 136 135
131 133 132 131 133 132 132 134 133 134 136 135 132 136 135
127 131 130 136 138 137 132 134 133 126 128 127 163 165 164
219 219 219 243 243 243 255 255 255 253 253 253 250 248 249
250 248 249 253 251 252 255 253 254 255 252 253 252 250 251
255 254 255 255 255 255 249 249 249 238 238 238 225 225 225
206 206 206 179 179 179 156 156 156 147 147 147 145 145 145
151 151 151 160 160 160 158 158 158 148 148 148 143 143 143
147 147 147 148 150 149 148 150 149 148 150 149 148 150 149
148 150 149 148 150 149 148 150 149 148 150 149 148 150 149
148 150 149 148 150 149 148 150 149 148 150 149 148 150 149
148 150 149 148 150 149 148 150 149 148 150 149 148 150 149
148 150 149 148 150 149 148 150 149 148 150 149 148 150 149
147 149 148 148 150 149 148 150 149 149 151 150 149 151 150
148 150 149 147 149 148 147 149 148 147 149 148 148 150 149
148 150 149 148 150 149 147 149 148 144 146 145 141 143 142
139 141 140 139 141 140 135 137 136 133 135 134 135 137 136
141 143 142 147 149 148 149 151 150 149 151 150 149 151 150
149 151 150 149 151 150 149 151 150 149 151 150 149 151 150
149 151 150 149 151 150 148 150 149 148 150 149 148 150 149
148 150 149 148 150 149 148 150 149 148 150 149 148 150 149
146 148 147 147 149 148 147 149 148 147 149 148 147 149 148
148 150 149 148 150 149 148 150 149 148 150 149 148 150 149
148 150 149 148 150 149 148 150 149 148 150 149 148 150 149
148 150 149 149 151 150 148 150 149 147 149 148 147 149 148
147 149 148 148 150 149 150 152 151 151 153 152 146 148 147
145 147 146 144 146 145 143 145 144 141 143 142 140 142 141
139 141 140 138 140 139 134 136 135 133 135 134 133 135 134
133 135 134 132 134 133 132 134 133 132 134 133 132 134 133
130 132 131 131 133 132 132 134 133 134 136 135 137 139 138
140 142 141 143 145 144 145 147 146 146 148 147 146 148 147
147 149 148 148 150 149 149 151 150 149 151 150 150 152 151
150 152 151 149 151 150 149 151 150 149 151 150 149 151 150
149 151 150 149 151 150 149 151 150 149 151 150 149 149 149
149 149 149 149 149 149 149 149 149 149 149 149 149 149 149
149 149 149 149 149 149 157 157 157 149 149 149 147 147 147
153 153 153 154 154 154 165 165 165 205 205 205 250 250 250
249 249 249 251 251 251 250 250 250 246 246 246 248 248 248
253 253 253 255 255 255 255 255 255 254 254 254 254 254 254
254 254 254 254 254 254 254 254 254 254 254 254 254 254 254
254 254 254 252 252 252 255 255 255 254 254 254 252 252 252
253 253 253 255 255 255 252 252 252 246 246 246 206 206 206
169 169 169 134 134 134 129 129 129 138 138 138 138 138 138
129 129 129 122 122 122 169 169 169 218 218 218 250 250 250
252 252 252 254 254 254 255 255 255 253 253 253 253 253 253
255 255 255 255 255 255 253 253 253 252 252 252 251 251 251
251 251 251 252 252 252 253 253 253 254 254 254 254 254 254
254 254 254 254 254 254 254 254 254 254 254 254 254 254 254
254 254 254 254 254 254 254 254 254 254 254 254 254 254 254
254 254 254 254 254 254 254 254 254 254 254 254 254 254 254
254 254 254 254 254 254 254 254 254 254 254 254 254 254 254
254 254 254 254 254 254 254 254 254 254 254 254 254 254 254
254 254 254 254 254 254 254 254 254 254 254 254 254 254 254
254 254 254 254 254 254 254 254 254 254 254 254 254 254 254
254 254 254 254 254 254 254 254 254 254 254 254 254 254 254
254 254 254 254 254 254 254 254 254 254 254 254 254 254 254
254 254 254 254 254 254 254 254 254 254 254 254 254 254 254
254 254 254 254 254 254 254 254 254 254 254 254 254 254 254
254 254 254 254 254 254 254 254 254 254 254 254 254 254 254
254 254 254 254 254 254 254 254 254 254 254 254 254 254 254
253 253 253 251 251 251 248 248 248 244 244 244 241 241 241
234 234 234 244 244 244 253 253 253 251 251 251 238 238 238
231 231 231 238 238 238 251 251 251 252 252 252 251 251 251
249 249 249 250 250 250 251 251 251 252 252 252 253 253 253
252 252 252 253 253 253 253 253 253 254 254 254 255 255 255
255 255 255 255 255 255 255 255 255 255 255 255 248 248 248
248 248 248 248 248 248 250 250 250 253 253 253 254 254 254
254 254 254 252 252 252 247 247 247 249 249 249 250 250 250
251 251 251 252 252 252 251 251 251 245 245 245 237 237 237
234 236 235 220 222 221 194 196 195 161 163 162 136 138 137
132 134 133 146 148 147 162 164 163 163 165 164 170 172 171
177 179 178 178 180 179 173 175 174 170 172 171 170 172 171
172 174 173 162 164 163 162 164 163 162 164 163 163 165 164
165 167 166 168 170 169 171 173 172 172 174 173 172 174 173
173 175 174 171 173 172 167 169 168 162 164 163 161 163 162
164 166 165 168 170 169 163 165 164 164 166 165 168 170 169
170 172 171 170 172 171 164 166 165 155 157 156 149 151 150
141 143 142 139 141 140 137 139 138 134 136 135 132 134 133
131 133 132 132 134 133 132 134 133 132 136 135 124 128 127
136 138 137 132 134 133 126 128 127 177 179 178 239 239 239
250 250 250 254 254 254 251 251 251 249 247 248 249 247 248
251 249 250 252 250 251 254 250 251 251 249 250 255 254 255
255 255 255 255 255 255 255 255 255 255 255 255 249 249 249
228 228 228 208 208 208 173 173 173 150 150 150 138 138 138
150 150 150 164 164 164 163 163 163 155 155 155 152 152 152
148 150 149 148 150 149 148 150 149 148 150 149 148 150 149
148 150 149 148 150 149 148 150 149 148 150 149 148 150 149
148 150 149 148 150 149 148 150 149 148 150 149 148 150 149
148 150 149 148 150 149 148 150 149 148 150 149 148 150 149
148 150 149 148 150 149 148 150 149 148 150 149 148 150 149
148 150 149 149 151 150 149 151 150 149 151 150 148 150 149
147 149 148 146 148 147 147 149 148 148 150 149 150 152 151
149 151 150 147 149 148 142 144 143 138 140 139 134 136 135
138 140 139 137 139 138 137 139 138 140 142 141 145 147 146
148 150 149 149 151 150 148 150 149 151 153 152 151 153 152
151 153 152 151 153 152 152 154 153 152 154 153 152 154 153
152 154 153 150 152 151 150 152 151 150 152 151 150 152 151
150 152 151 150 152 151 150 152 151 150 152 151 149 151 150
149 151 150 149 151 150 150 152 151 150 152 151 150 152 151
150 152 151 150 152 151 148 150 149 148 150 149 148 150 149
148 150 149 148 150 149 148 150 149 148 150 149 148 150 149
146 148 147 144 146 145 142 144 143 141 143 142 141 143 142
143 145 144 145 147 146 146 148 147 141 143 142 141 143 142
139 141 140 138 140 139 136 138 137 134 136 135 133 135 134
132 134 133 130 132 131 131 133 132 132 134 133 133 135 134
134 136 135 135 137 136 136 138 137 137 139 138 134 136 135
135 137 136 136 138 137 139 141 140 142 144 143 144 146 145
147 149 148 148 150 149 148 150 149 148 150 149 148 150 149
148 150 149 149 151 150 149 151 150 149 151 150 149 151 150
148 150 149 148 150 149 148 150 149 148 150 149 148 150 149
148 150 149 148 150 149 148 150 149 149 149 149 149 149 149
149 149 149 149 149 149 149 149 149 149 149 149 149 149 149
149 149 149 147 147 147 154 154 154 151 151 151 146 146 146
163 163 163 202 202 202 235 235 235 247 247 247 250 250 250
252 252 252 251 251 251 248 248 248 249 249 249 254 254 254
255 255 255 255 255 255 254 254 254 254 254 254 254 254 254
254 254 254 254 254 254 254 254 254 254 254 254 254 254 254
254 254 254 255 255 255 253 253 253 249 249 249 250 250 250
253 253 253 251 251 251 246 246 246 203 203 203 165 165 165
132 132 132 132 132 132 147 147 147 150 150 150 138 138 138
126 126 126 162 162 162 213 213 213 250 250 250 254 254 254
252 252 252 249 249 249 246 246 246 250 250 250 255 255 255
255 255 255 253 253 253 252 252 252 251 251 251 252 252 252
253 253 253 253 253 253 254 254 254 254 254 254 254 254 254
254 254 254 254 254 254 254 254 254 254 254 254 254 254 254
254 254 254 254 254 254 254 254 254 254 254 254 254 254 254
254 254 254 254 254 254 254 254 254 254 254 254 254 254 254
254 254 254 254 254 254 254 254 254 254 254 254 254 254 254
254 254 254 254 254 254 254 254 254 254 254 254 254 254 254
254 254 254 254 254 254 254 254 254 254 254 254 254 254 254
254 254 254 254 254 254 254 254 254 254 254 254 254 254 254
254 254 254 254 254 254 254 254 254 254 254 254 254 254 254
254 254 254 254 254 254 254 254 254 254 254 254 254 254 254
254 254 254 254 254 254 254 254 254 254 254 254 254 254 254
254 254 254 254 254 254 254 254 254 254 254 254 254 254 254
254 254 254 254 254 254 254 254 254 254 254 254 254 254 254
254 254 254 253 253 253 254 254 254 253 253 253 250 250 250
245 245 245 244 244 244 248 248 248 252 252 252 246 246 246
245 245 245 240 240 240 226 226 226 205 205 205 191 191 191
197 197 197 211 211 211 241 241 241 248 248 248 255 255 255
255 255 255 251 251 251 246 246 246 246 246 246 247 247 247
250 250 250 248 248 248 246 246 246 245 245 245 244 244 244
245 245 245 247 247 247 248 248 248 253 253 253 252 252 252
251 251 251 251 251 251 251 251 251 250 250 250 248 248 248
245 245 245 248 248 248 249 249 249 248 248 248 247 247 247
248 248 248 245 245 245 228 228 228 210 210 210 176 178 177
176 178 177 174 176 175 168 170 169 158 160 159 147 149 148
139 141 140 134 136 135 154 156 155 163 165 164 173 175 174
177 179 178 175 177 176 172 174 173 172 174 173 174 176 175
177 179 178 175 177 176 171 173 172 167 169 168 165 167 166
165 167 166 166 168 167 167 169 168 167 169 168 169 171 170
169 171 170 167 169 168 164 166 165 164 166 165 168 170 169
172 174 173 174 176 175 171 173 172 168 170 169 164 166 165
158 160 159 151 153 152 142 144 143 136 138 137 133 135 134
133 135 134 133 135 134 133 135 134 133 135 134 133 135 134
132 134 133 132 134 133 132 136 135 124 128 127 135 137 136
135 137 136 136 138 137 190 192 191 248 248 248 251 251 251
253 253 253 253 253 253 254 252 253 254 252 253 255 253 254
254 252 253 253 249 250 249 247 248 253 251 252 250 250 250
248 248 248 250 250 250 255 255 255 255 255 255 244 244 244
229 229 229 178 178 178 149 149 149 132 132 132 144 144 144
158 158 158 156 156 156 147 147 147 144 144 144 148 150 149
148 150 149 148 150 149 148 150 149 148 150 149 148 150 149
148 150 149 148 150 149 148 150 149 148 150 149 148 150 149
148 150 149 148 150 149 148 150 149 148 150 149 148 150 149
148 150 149 148 150 149 148 150 149 148 150 149 148 150 149
148 150 149 148 150 149 148 150 149 149 151 150 149 151 150
149 151 150 149 151 150 149 151 150 148 150 149 147 149 148
146 148 147 146 148 147 148 150 149 150 152 151 150 152 151
147 149 148 141 143 142 135 137 136 132 134 133 135 137 136
136 138 137 137 139 138 140 142 141 142 144 143 144 146 145
144 146 145 144 146 145 147 149 148 147 149 148 147 149 148
148 150 149 148 150 149 149 151 150 149 151 150 150 152 151
149 151 150 149 151 150 149 151 150 149 151 150 149 151 150
149 151 150 149 151 150 149 151 150 148 150 149 148 150 149
148 150 149 148 150 149 148 150 149 148 150 149 147 149 148
147 149 148 145 147 146 145 147 146 145 147 146 145 147 146
145 147 146 145 147 146 145 147 146 145 147 146 139 141 140
138 140 139 136 138 137 134 136 135 134 136 135 135 137 136
137 139 138 139 141 140 136 138 137 136 138 137 135 137 136
133 135 134 132 134 133 130 132 131 129 131 130 129 131 130
130 132 131 131 133 132 133 135 134 135 137 136 137 139 138
139 141 140 140 142 141 141 143 142 140 142 141 141 143 142
142 144 143 143 145 144 145 147 146 146 148 147 147 149 148
147 149 148 147 149 148 147 149 148 148 150 149 148 150 149
148 150 149 148 150 149 148 150 149 148 150 149 148 150 149
148 150 149 148 150 149 148 150 149 148 150 149 148 150 149
148 150 149 148 150 149 149 149 149 149 149 149 149 149 149
149 149 149 149 149 149 149 149 149 149 149 149 149 149 149
146 146 146 149 149 149 152 152 152 164 164 164 198 198 198
238 238 238 253 253 253 246 246 246 249 249 249 252 252 252
253 253 253 251 251 251 251 251 251 255 255 255 255 255 255
252 252 252 254 254 254 254 254 254 254 254 254 254 254 254
254 254 254 254 254 254 254 254 254 254 254 254 255 255 255
255 255 255 252 252 252 247 247 247 246 246 246 248 248 248
247 247 247 243 243 243 210 210 210 169 169 169 132 132 132
128 128 128 142 142 142 145 145 145 134 134 134 124 124 124
154 154 154 207 207 207 246 246 246 253 253 253 248 248 248
241 241 241 238 238 238 245 245 245 255 255 255 254 254 254
253 253 253 252 252 252 251 251 251 252 252 252 253 253 253
254 254 254 254 254 254 254 254 254 254 254 254 254 254 254
254 254 254 254 254 254 254 254 254 254 254 254 254 254 254
254 254 254 254 254 254 254 254 254 254 254 254 254 254 254
254 254 254 254 254 254 254 254 254 254 254 254 254 254 254
254 254 254 254 254 254 254 254 254 254 254 254 254 254 254
254 254 254 254 254 254 254 254 254 254 254 254 254 254 254
254 254 254 254 254 254 254 254 254 254 254 254 254 254 254
254 254 254 254 254 254 254 254 254 254 254 254 254 254 254
254 254 254 254 254 254 254 254 254 254 254 254 254 254 254
254 254 254 254 254 254 254 254 254 254 254 254 254 254 254
254 254 254 254 254 254 254 254 254 254 254 254 254 254 254
254 254 254 254 254 254 254 254 254 254 254 254 254 254 254
254 254 254 254 254 254 254 254 254 254 254 254 254 254 254
253 253 253 253 253 253 252 252 252 249 249 249 247 247 247
248 248 248 253 253 253 255 255 255 250 250 250 226 226 226
200 200 200 185 185 185 176 176 176 168 168 168 168 168 168
173 173 173 204 204 204 220 220 220 240 240 240 251 251 251
251 251 251 249 249 249 251 251 251 254 254 254 251 251 251
250 250 250 247 247 247 244 244 244 243 243 243 242 242 242
242 242 242 242 242 242 251 251 251 250 250 250 251 251 251
254 254 254 255 255 255 255 255 255 254 254 254 252 252 252
255 255 255 254 254 254 242 242 242 227 227 227 219 219 219
212 212 212 194 194 194 175 175 175 157 159 158 159 161 160
164 166 165 169 171 170 171 173 172 162 164 163 147 149 148
135 137 136 139 141 140 147 149 148 157 159 158 165 167 166
170 172 171 172 174 173 175 177 176 178 180 179 177 179 178
177 179 178 177 179 178 176 178 177 173 175 174 169 171 170
166 168 167 163 165 164 164 166 165 166 168 167 167 169 168
168 170 169 168 170 169 170 172 171 172 174 173 174 176 175
180 182 181 174 176 175 164 166 165 154 156 155 145 147 146
137 139 138 129 131 130 124 126 125 128 130 129 129 131 130
132 134 133 133 135 134 134 136 135 134 136 135 133 135 134
132 134 133 132 136 135 126 130 129 133 135 134 140 142 141
156 158 157 205 207 206 248 248 248 251 251 251 250 250 250
252 252 252 255 253 254 255 254 255 255 254 255 253 251 252
252 248 249 248 246 247 255 254 255 253 253 253 247 247 247
245 245 245 249 249 249 252 252 252 246 246 246 236 236 236
170 170 170 151 151 151 143 143 143 152 152 152 152 152 152
139 139 139 134 134 134 140 140 140 148 150 149 148 150 149
148 150 149 148 150 149 148 150 149 148 150 149 148 150 149
148 150 149 148 150 149 148 150 149 148 150 149 148 150 149
148 150 149 148 150 149 148 150 149 148 150 149 148 150 149
148 150 149 148 150 149 148 150 149 148 150 149 148 150 149
148 150 149 148 150 149 149 151 150 149 151 150 149 151 150
149 151 150 148 150 149 147 149 148 146 148 147 145 147 146
146 148 147 147 149 148 149 151 150 148 150 149 145 147 146
140 142 141 135 137 136 131 133 132 131 133 132 131 133 132
133 135 134 134 136 135 135 137 136 135 137 136 135 137 136
135 137 136 138 140 139 138 140 139 138 140 139 139 141 140
140 142 141 141 143 142 141 143 142 141 143 142 142 144 143
142 144 143 142 144 143 142 144 143 142 144 143 142 144 143
142 144 143 142 144 143 141 143 142 141 143 142 141 143 142
140 142 141 140 142 141 140 142 141 140 142 141 139 141 140
137 139 138 137 139 138 137 139 138 137 139 138 137 139 138
137 139 138 137 139 138 137 139 138 134 136 135 133 135 134
132 134 133 130 132 131 130 132 131 131 133 132 132 134 133
132 134 133 132 134 133 132 134 133 132 134 133 131 133 132
131 133 132 131 133 132 131 133 132 131 133 132 132 134 133
133 135 134 134 136 135 136 138 137 138 140 139 141 143 142
142 144 143 143 145 144 146 148 147 146 148 147 147 149 148
147 149 148 147 149 148 146 148 147 145 147 146 145 147 146
146 148 147 146 148 147 146 148 147 147 149 148 147 149 148
147 149 148 147 149 148 147 149 148 147 149 148 147 149 148
147 149 148 147 149 148 147 149 148 147 149 148 147 149 148
147 149 148 149 149 149 149 149 149 149 149 149 149 149 149
149 149 149 149 149 149 149 149 149 149 149 149 147 147 147
136 136 136 150 150 150 196 196 196 236 236 236 248 248 248
249 249 249 251 251 251 249 249 249 252 252 252 253 253 253
251 251 251 252 252 252 255 255 255 254 254 254 251 251 251
254 254 254 254 254 254 254 254 254 254 254 254 254 254 254
254 254 254 254 254 254 254 254 254 252 252 252 253 253 253
252 252 252 250 250 250 251 251 251 255 255 255 253 253 253
248 248 248 225 225 225 184 184 184 145 145 145 135 135 135
142 142 142 143 143 143 137 137 137 131 131 131 160 160 160
207 207 207 243 243 243 252 252 252 252 252 252 246 246 246
242 242 242 248 248 248 255 255 255 254 254 254 252 252 252
251 251 251 251 251 251 252 252 252 253 253 253 254 254 254
254 254 254 254 254 254 254 254 254 254 254 254 254 254 254
254 254 254 254 254 254 254 254 254 254 254 254 254 254 254
254 254 254 254 254 254 254 254 254 254 254 254 254 254 254
254 254 254 254 254 254 254 254 254 254 254 254 254 254 254
254 254 254 254 254 254 254 254 254 254 254 254 254 254 254
254 254 254 254 254 254 254 254 254 254 254 254 254 254 254
254 254 254 254 254 254 254 254 254 254 254 254 254 254 254
254 254 254 254 254 254 254 254 254 254 254 254 254 254 254
254 254 254 254 254 254 254 254 254 254 254 254 254 254 254
254 254 254 254 254 254 254 254 254 254 254 254 254 254 254
254 254 254 254 254 254 254 254 254 254 254 254 254 254 254
254 254 254 254 254 254 254 254 254 254 254 254 254 254 254
254 254 254 254 254 254 254 254 254 254 254 254 255 255 255
253 253 253 250 250 250 251 251 251 253 253 253 251 251 251
245 245 245 238 238 238 217 217 217 191 191 191 169 169 169
168 168 168 173 173 173 171 171 171 168 168 168 170 170 170
168 168 168 180 180 180 197 197 197 210 210 210 219 219 219
228 228 228 237 237 237 244 244 244 253 253 253 254 254 254
255 255 255 255 255 255 255 255 255 254 254 254 251 251 251
249 249 249 239 239 239 239 239 239 240 240 240 243 243 243
245 245 245 245 245 245 243 243 243 241 241 241 238 238 238
231 231 231 208 208 208 180 180 180 166 166 166 169 169 169
169 169 169 164 164 164 172 174 173 167 169 168 162 164 163
164 166 165 169 171 170 170 172 171 167 169 168 162 164 163
143 145 144 145 147 146 149 151 150 153 155 154 158 160 159
163 165 164 167 169 168 170 172 171 162 164 163 165 167 166
169 171 170 172 174 173 173 175 174 172 174 173 170 172 171
168 170 169 168 170 169 168 170 169 169 171 170 171 173 172
174 176 175 174 176 175 173 175 174 172 174 173 169 171 170
162 164 163 152 154 153 143 145 144 136 138 137 130 132 131
125 127 126 122 124 123 127 129 128 128 130 129 131 133 132
134 136 135 135 137 136 136 138 137 135 137 136 134 136 135
131 135 134 128 132 131 131 133 132 146 148 147 179 181 180
219 221 220 246 246 246 251 251 251 246 246 246 248 248 248
253 251 252 254 252 253 254 252 253 252 250 251 253 249 250
250 248 249 255 254 255 254 254 254 251 251 251 248 248 248
251 251 251 254 254 254 252 252 252 245 245 245 175 175 175
155 155 155 147 147 147 155 155 155 155 155 155 141 141 141
137 137 137 147 147 147 148 150 149 148 150 149 148 150 149
148 150 149 148 150 149 148 150 149 148 150 149 148 150 149
148 150 149 148 150 149 148 150 149 148 150 149 148 150 149
148 150 149 148 150 149 148 150 149 148 150 149 148 150 149
148 150 149 148 150 149 148 150 149 148 150 149 148 150 149
148 150 149 149 151 150 150 152 151 150 152 151 149 151 150
148 150 149 147 149 148 146 148 147 145 147 146 146 148 147
147 149 148 147 149 148 147 149 148 144 146 145 140 142 141
135 137 136 132 134 133 128 130 129 129 131 130 130 132 131
130 132 131 129 131 130 129 131 130 129 131 130 129 131 130
130 132 131 131 133 132 131 133 132 132 134 133 133 135 134
134 136 135 134 136 135 135 137 136 135 137 136 135 137 136
135 137 136 135 137 136 135 137 136 135 137 136 135 137 136
135 137 136 134 136 135 134 136 135 134 136 135 133 135 134
133 135 134 132 134 133 132 134 133 132 134 133 132 134 133
132 134 133 132 134 133 132 134 133 132 134 133 132 134 133
132 134 133 132 134 133 132 134 133 132 134 133 131 133 132
131 133 132 130 132 131 130 132 131 130 132 131 130 132 131
130 132 131 131 133 132 131 133 132 132 134 133 134 136 135
135 137 136 135 137 136 136 138 137 136 138 137 137 139 138
138 140 139 140 142 141 142 144 143 143 145 144 145 147 146
145 147 146 148 150 149 149 151 150 149 151 150 149 151 150
149 151 150 147 149 148 145 147 146 144 146 145 146 148 147
146 148 147 146 148 147 147 149 148 147 149 148 148 150 149
148 150 149 149 151 150 147 149 148 147 149 148 147 149 148
147 149 148 147 149 148 147 149 148 147 149 148 147 149 148
149 149 149 149 149 149 149 149 149 149 149 149 149 149 149
149 149 149 149 149 149 149 149 149 147 147 147 143 143 143
170 170 170 222 222 222 251 251 251 246 246 246 242 242 242
251 251 251 251 251 251 253 253 253 252 252 252 248 248 248
248 248 248 253 253 253 254 254 254 252 252 252 254 254 254
254 254 254 254 254 254 254 254 254 254 254 254 254 254 254
254 254 254 254 254 254 249 249 249 253 253 253 254 254 254
252 252 252 249 249 249 246 246 246 237 237 237 228 228 228
209 209 209 181 181 181 157 157 157 156 156 156 163 163 163
162 162 162 155 155 155 150 150 150 171 171 171 205 205 205
231 231 231 244 244 244 255 255 255 255 255 255 251 251 251
253 253 253 254 254 254 254 254 254 252 252 252 251 251 251
251 251 251 252 252 252 254 254 254 255 255 255 254 254 254
254 254 254 254 254 254 254 254 254 254 254 254 254 254 254
254 254 254 254 254 254 254 254 254 254 254 254 254 254 254
254 254 254 254 254 254 254 254 254 254 254 254 254 254 254
254 254 254 254 254 254 254 254 254 254 254 254 254 254 254
254 254 254 254 254 254 254 254 254 254 254 254 254 254 254
254 254 254 254 254 254 254 254 254 254 254 254 254 254 254
254 254 254 254 254 254 254 254 254 254 254 254 254 254 254
254 254 254 254 254 254 254 254 254 254 254 254 254 254 254
254 254 254 254 254 254 254 254 254 254 254 254 254 254 254
254 254 254 254 254 254 254 254 254 254 254 254 254 254 254
254 254 254 254 254 254 254 254 254 254 254 254 254 254 254
254 254 254 254 254 254 254 254 254 254 254 254 254 254 254
254 254 254 254 254 254 254 254 254 255 255 255 253 253 253
249 249 249 253 253 253 255 255 255 250 250 250 231 231 231
213 213 213 181 181 181 170 170 170 169 169 169 179 179 179
183 183 183 177 177 177 175 175 175 180 180 180 156 156 156
155 155 155 156 156 156 160 160 160 170 170 170 184 184 184
200 200 200 210 210 210 222 222 222 226 226 226 233 233 233
238 238 238 240 240 240 239 239 239 235 235 235 232 232 232
232 232 232 230 230 230 227 227 227 224 224 224 221 221 221
215 215 215 208 208 208 203 203 203 191 191 191 185 185 185
162 162 162 133 133 133 124 124 124 145 145 145 170 170 170
183 183 183 172 174 173 168 170 169 166 168 167 168 170 169
173 175 174 175 177 176 174 176 175 171 173 172 169 171 170
163 165 164 155 157 156 149 151 150 147 149 148 147 149 148
148 150 149 148 150 149 160 162 161 161 163 162 162 164 163
164 166 165 166 168 167 168 170 169 170 172 171 171 173 172
168 170 169 167 169 168 167 169 168 170 172 171 173 175 174
173 175 174 169 171 170 165 167 166 152 154 153 147 149 148
141 143 142 136 138 137 133 135 134 131 133 132 129 131 130
127 129 128 127 129 128 129 131 130 132 134 133 134 136 135
136 138 137 136 138 137 136 138 137 135 137 136 129 133 132
129 133 132 130 132 131 150 152 151 195 197 196 228 230 229
244 244 244 253 253 253 247 247 247 250 250 250 253 251 252
255 253 254 255 253 254 255 254 255 255 254 255 255 254 255
251 249 250 253 253 253 252 252 252 251 251 251 252 252 252
254 254 254 251 251 251 245 245 245 188 188 188 154 154 154
134 134 134 145 145 145 157 157 157 152 152 152 149 149 149
154 154 154 148 150 149 148 150 149 148 150 149 148 150 149
148 150 149 148 150 149 148 150 149 148 150 149 148 150 149
148 150 149 148 150 149 148 150 149 148 150 149 148 150 149
148 150 149 148 150 149 148 150 149 148 150 149 148 150 149
148 150 149 148 150 149 148 150 149 148 150 149 148 150 149
150 152 151 150 152 151 150 152 151 149 151 150 148 150 149
147 149 148 146 148 147 145 147 146 146 148 147 146 148 147
147 149 148 146 148 147 143 145 144 139 141 140 135 137 136
133 135 134 130 132 131 130 132 131 130 132 131 129 131 130
127 129 128 126 128 127 127 129 128 128 130 129 128 130 129
128 130 129 129 131 130 130 132 131 131 133 132 131 133 132
132 134 133 133 135 134 132 134 133 132 134 133 132 134 133
132 134 133 132 134 133 132 134 133 132 134 133 132 134 133
132 134 133 131 133 132 131 133 132 130 132 131 130 132 131
129 131 130 129 131 130 129 131 130 130 132 131 130 132 131
130 132 131 130 132 131 130 132 131 130 132 131 130 132 131
130 132 131 132 134 133 132 134 133 133 135 134 133 135 134
132 134 133 131 133 132 130 132 131 129 131 130 130 132 131
131 133 132 132 134 133 134 136 135 136 138 137 138 140 139
139 141 140 140 142 141 141 143 142 142 144 143 143 145 144
144 146 145 145 147 146 147 149 148 148 150 149 148 150 149
149 151 150 149 151 150 150 152 151 150 152 151 149 151 150
148 150 149 146 148 147 144 146 145 146 148 147 146 148 147
147 149 148 147 149 148 148 150 149 149 151 150 150 152 151
150 152 151 147 149 148 147 149 148 147 149 148 147 149 148
147 149 148 147 149 148 147 149 148 147 149 148 149 149 149
149 149 149 149 149 149 149 149 149 149 149 149 149 149 149
149 149 149 149 149 149 150 150 150 169 169 169 204 204 204
237 237 237 251 251 251 250 250 250 247 247 247 248 248 248
253 253 253 254 254 254 250 250 250 245 245 245 245 245 245
251 251 251 255 255 255 255 255 255 254 254 254 254 254 254
254 254 254 254 254 254 254 254 254 254 254 254 254 254 254
254 254 254 255 255 255 255 255 255 255 255 255 247 247 247
234 234 234 217 217 217 197 197 197 180 180 180 171 171 171
158 158 158 156 156 156 171 171 171 184 184 184 182 182 182
171 171 171 165 165 165 173 173 173 196 196 196 213 213 213
229 229 229 251 251 251 255 255 255 252 252 252 250 250 250
254 254 254 253 253 253 252 252 252 251 251 251 251 251 251
253 253 253 254 254 254 255 255 255 254 254 254 254 254 254
254 254 254 254 254 254 254 254 254 254 254 254 254 254 254
254 254 254 254 254 254 254 254 254 254 254 254 254 254 254
254 254 254 254 254 254 254 254 254 254 254 254 254 254 254
254 254 254 254 254 254 254 254 254 254 254 254 254 254 254
254 254 254 254 254 254 254 254 254 254 254 254 254 254 254
254 254 254 254 254 254 254 254 254 254 254 254 254 254 254
254 254 254 254 254 254 254 254 254 254 254 254 254 254 254
254 254 254 254 254 254 254 254 254 254 254 254 254 254 254
254 254 254 254 254 254 254 254 254 254 254 254 254 254 254
254 254 254 254 254 254 254 254 254 254 254 254 254 254 254
254 254 254 254 254 254 254 254 254 254 254 254 254 254 254
254 254 254 254 254 254 254 254 254 254 254 254 254 254 254
254 254 254 254 254 254 255 255 255 255 255 255 255 255 255
255 255 255 250 250 250 231 231 231 204 204 204 185 185 185
167 167 167 169 169 169 173 173 173 174 174 174 172 172 172
169 169 169 167 167 167 166 166 166 164 164 164 167 167 167
170 170 170 171 171 171 171 171 171 171 171 171 172 172 172
173 173 173 175 175 175 172 172 172 178 178 178 183 183 183
182 182 182 188 188 188 188 188 188 175 175 175 158 158 158
167 167 167 178 178 178 184 184 184 183 183 183 175 175 175
167 167 167 161 161 161 172 172 172 170 170 170 165 165 165
154 154 154 147 147 147 149 149 149 160 160 160 170 170 170
175 177 176 173 175 174 169 171 170 165 167 166 163 165 164
163 165 164 164 166 165 165 167 166 170 172 171 170 172 171
170 172 171 167 169 168 164 166 165 162 164 163 162 164 163
162 164 163 164 166 165 159 161 160 159 161 160 165 167 166
170 172 171 171 173 172 174 176 175 178 180 179 170 172 171
169 171 170 170 172 171 173 175 174 175 177 176 170 172 171
160 162 161 151 153 152 138 140 139 132 134 133 126 128 127
126 128 127 130 132 131 135 137 136 135 137 136 133 135 134
135 137 136 135 137 136 135 137 136 135 137 136 135 137 136
135 137 136 135 137 136 135 137 136 130 134 133 132 136 135
129 131 130 157 159 158 212 214 213 238 240 239 241 241 241
254 254 254 251 251 251 252 252 252 252 250 251 250 248 249
252 250 251 255 254 255 255 254 255 251 249 250 249 247 248
249 249 249 247 247 247 247 247 247 252 252 252 255 255 255
253 253 253 245 245 245 200 200 200 168 168 168 144 144 144
146 146 146 152 152 152 147 147 147 143 143 143 147 147 147
148 150 149 148 150 149 148 150 149 148 150 149 148 150 149
148 150 149 148 150 149 148 150 149 148 150 149 148 150 149
148 150 149 148 150 149 148 150 149 148 150 149 148 150 149
148 150 149 148 150 149 148 150 149 148 150 149 148 150 149
148 150 149 148 150 149 148 150 149 148 150 149 144 146 145
151 153 152 156 158 157 152 154 153 146 148 147 144 146 145
145 147 146 146 148 147 142 144 143 149 151 150 154 156 155
152 154 153 145 147 146 139 141 140 137 139 138 136 138 137
135 137 136 134 136 135 136 138 137 139 141 140 137 139 138
130 132 131 129 131 130 133 135 134 124 126 125 136 138 137
131 133 132 128 130 129 142 144 143 139 141 140 130 132 131
139 141 140 132 134 133 132 134 133 132 134 133 132 134 133
132 134 133 132 134 133 132 134 133 132 134 133 133 135 134
133 135 134 134 136 135 134 136 135 135 137 136 135 137 136
136 138 137 136 138 137 135 137 136 135 137 136 134 136 135
134 136 135 133 135 134 133 135 134 133 135 134 133 135 134
140 142 141 138 140 139 138 140 139 139 141 140 137 139 138
133 135 134 134 136 135 139 141 140 131 133 132 141 143 142
143 145 144 137 139 138 139 141 140 149 151 150 153 155 154
149 151 150 148 150 149 148 150 149 148 150 149 148 150 149
148 150 149 148 150 149 148 150 149 148 150 149 148 150 149
148 150 149 148 150 149 148 150 149 148 150 149 148 150 149
148 150 149 148 150 149 148 150 149 148 150 149 148 150 149
148 150 149 148 150 149 148 150 149 148 150 149 148 150 149
148 150 149 146 148 147 147 149 148 151 153 152 152 154 153
149 151 150 149 151 150 151 153 152 148 148 148 149 149 149
153 153 153 155 155 155 151 151 151 146 146 146 146 146 146
152 152 152 163 163 163 199 199 199 233 233 233 245 245 245
247 247 247 253 253 253 255 255 255 252 252 252 251 251 251
251 251 251 252 252 252 253 253 253 254 254 254 254 254 254
254 254 254 254 254 254 254 254 254 250 250 250 249 249 249
254 254 254 255 255 255 254 254 254 253 253 253 255 255 255
253 253 253 254 254 254 249 249 249 231 231 231 202 202 202
179 179 179 172 172 172 175 175 175 163 163 163 164 164 164
167 167 167 168 168 168 168 168 168 167 167 167 165 165 165
164 164 164 162 162 162 174 174 174 182 182 182 203 203 203
238 238 238 255 255 255 253 253 253 251 251 251 246 246 246
248 248 248 250 250 250 253 253 253 254 254 254 255 255 255
255 255 255 254 254 254 254 254 254 254 254 254 254 254 254
254 254 254 254 254 254 254 254 254 254 254 254 254 254 254
254 254 254 254 254 254 254 254 254 254 254 254 254 254 254
254 254 254 254 254 254 254 254 254 254 254 254 254 254 254
254 254 254 254 254 254 254 254 254 254 254 254 254 254 254
254 254 254 254 254 254 254 254 254 254 254 254 254 254 254
254 254 254 254 254 254 254 254 254 254 254 254 254 254 254
254 254 254 254 254 254 254 254 254 254 254 254 254 254 254
254 254 254 254 254 254 254 254 254 254 254 254 254 254 254
254 254 254 254 254 254 254 254 254 254 254 254 254 254 254
254 254 254 254 254 254 254 254 254 254 254 254 254 254 254
254 254 254 254 254 254 254 254 254 254 254 254 254 254 254
254 254 254 254 254 254 254 254 254 254 254 254 254 254 254
254 254 254 252 252 252 251 251 251 250 250 250 248 248 248
238 238 238 216 216 216 188 188 188 167 167 167 161 161 161
162 162 162 164 164 164 166 166 166 167 167 167 169 169 169
172 172 172 173 173 173 175 175 175 175 175 175 174 174 174
172 172 172 171 171 171 171 171 171 172 172 172 173 173 173
173 173 173 169 169 169 173 173 173 172 172 172 165 165 165
164 164 164 158 158 158 141 141 141 134 134 134 145 145 145
160 160 160 172 172 172 175 175 175 171 171 171 165 165 165
160 160 160 170 170 170 171 171 171 169 169 169 161 161 161
152 152 152 150 150 150 156 156 156 163 163 163 169 171 170
169 171 170 169 171 170 169 171 170 169 171 170 168 170 169
167 169 168 167 169 168 158 160 159 161 163 162 166 168 167
171 173 172 174 176 175 174 176 175 172 174 173 171 173 172
162 164 163 163 165 164 165 167 166 169 171 170 171 173 172
171 173 172 168 170 169 165 167 166 172 174 173 169 171 170
167 169 168 166 168 167 165 167 166 158 160 159 147 149 148
139 141 140 133 135 134 129 131 130 127 129 128 129 131 130
134 136 135 137 139 138 135 137 136 132 134 133 134 136 135
134 136 135 134 136 135 134 136 135 134 136 135 134 136 135
134 136 135 134 136 135 130 134 133 132 136 135 130 132 131
157 159 158 214 216 215 239 241 240 242 242 242 254 254 254
251 251 251 253 253 253 253 251 252 251 249 250 253 251 252
255 254 255 255 254 255 252 250 251 250 248 249 250 250 250
249 249 249 248 248 248 253 253 253 255 255 255 253 253 253
246 246 246 203 203 203 171 171 171 146 146 146 147 147 147
152 152 152 149 149 149 146 146 146 150 150 150 148 150 149
148 150 149 148 150 149 148 150 149 148 150 149 148 150 149
148 150 149 148 150 149 148 150 149 148 150 149 148 150 149
148 150 149 148 150 149 148 150 149 148 150 149 148 150 149
148 150 149 148 150 149 148 150 149 148 150 149 148 150 149
148 150 149 148 150 149 148 150 149 146 148 147 150 152 151
152 154 153 149 151 150 144 146 145 143 145 144 144 146 145
145 147 146 141 143 142 146 148 147 149 151 150 146 148 147
141 143 142 134 136 135 126 128 127 120 122 121 137 139 138
135 137 136 132 134 133 130 132 131 129 131 130 129 131 130
127 129 128 125 127 126 125 127 126 140 142 141 141 143 142
133 135 134 134 136 135 136 138 137 135 137 136 136 138 137
135 137 136 135 137 136 135 137 136 135 137 136 135 137 136
135 137 136 135 137 136 135 137 136 134 136 135 134 136 135
135 137 136 135 137 136 135 137 136 135 137 136 136 138 137
136 138 137 134 136 135 134 136 135 134 136 135 134 136 135
133 135 134 133 135 134 133 135 134 132 134 133 127 129 128
126 128 127 130 132 131 134 136 135 133 135 134 130 132 131
130 132 131 134 136 135 136 138 137 138 140 139 143 145 144
147 149 148 149 151 150 149 151 150 150 152 151 152 154 153
148 150 149 148 150 149 148 150 149 148 150 149 148 150 149
148 150 149 148 150 149 148 150 149 148 150 149 148 150 149
148 150 149 148 150 149 148 150 149 148 150 149 148 150 149
148 150 149 148 150 149 148 150 149 148 150 149 148 150 149
148 150 149 148 150 149 148 150 149 148 150 149 149 151 150
147 149 148 148 150 149 151 153 152 149 151 150 145 147 146
145 147 146 148 150 149 154 154 154 148 148 148 146 146 146
150 150 150 154 154 154 152 152 152 149 149 149 149 149 149
195 195 195 221 221 221 244 244 244 249 249 249 248 248 248
253 253 253 255 255 255 252 252 252 252 252 252 252 252 252
253 253 253 254 254 254 254 254 254 254 254 254 253 253 253
253 253 253 255 255 255 252 252 252 251 251 251 255 255 255
255 255 255 253 253 253 252 252 252 253 253 253 252 252 252
253 253 253 237 237 237 203 203 203 177 177 177 172 172 172
176 176 176 177 177 177 172 172 172 172 172 172 172 172 172
171 171 171 169 169 169 165 165 165 162 162 162 160 160 160
159 159 159 167 167 167 170 170 170 186 186 186 221 221 221
243 243 243 246 246 246 247 247 247 248 248 248 250 250 250
251 251 251 253 253 253 254 254 254 255 255 255 254 254 254
254 254 254 254 254 254 254 254 254 254 254 254 254 254 254
254 254 254 254 254 254 254 254 254 254 254 254 254 254 254
254 254 254 254 254 254 254 254 254 254 254 254 254 254 254
254 254 254 254 254 254 254 254 254 254 254 254 254 254 254
254 254 254 254 254 254 254 254 254 254 254 254 254 254 254
254 254 254 254 254 254 254 254 254 254 254 254 254 254 254
254 254 254 254 254 254 254 254 254 254 254 254 254 254 254
254 254 254 254 254 254 254 254 254 254 254 254 254 254 254
254 254 254 254 254 254 254 254 254 254 254 254 254 254 254
254 254 254 254 254 254 254 254 254 254 254 254 254 254 254
254 254 254 254 254 254 254 254 254 254 254 254 254 254 254
254 254 254 254 254 254 254 254 254 254 254 254 254 254 254
254 254 254 254 254 254 254 254 254 254 254 254 254 254 254
254 254 254 253 253 253 252 252 252 250 250 250 241 241 241
222 222 222 197 197 197 179 179 179 161 161 161 164 164 164
168 168 168 171 171 171 172 172 172 169 169 169 166 166 166
163 163 163 177 177 177 174 174 174 170 170 170 167 167 167
165 165 165 166 166 166 167 167 167 169 169 169 172 172 172
169 169 169 173 173 173 174 174 174 166 166 166 165 165 165
158 158 158 141 141 141 124 124 124 137 137 137 155 155 155
170 170 170 176 176 176 175 175 175 170 170 170 166 166 166
169 169 169 172 172 172 173 173 173 168 168 168 159 159 159
154 154 154 154 154 154 157 157 157 162 164 163 164 166 165
169 171 170 172 174 173 174 176 175 173 175 174 171 173 172
169 171 170 164 166 165 164 166 165 166 168 167 170 172 171
175 177 176 176 178 177 172 174 173 169 171 170 165 167 166
171 173 172 173 175 174 170 172 171 171 173 172 175 177 176
171 173 172 161 163 162 171 173 172 167 169 168 162 164 163
157 159 158 153 155 154 146 148 147 136 138 137 128 130 129
128 130 129 127 129 128 129 131 130 133 135 134 138 140 139
139 141 140 135 137 136 131 133 132 134 136 135 134 136 135
134 136 135 134 136 135 134 136 135 134 136 135 134 136 135
134 136 135 131 135 134 132 136 135 130 132 131 159 161 160
216 218 217 242 244 243 243 243 243 254 254 254 253 253 253
254 254 254 254 252 253 251 249 250 253 251 252 255 254 255
255 254 255 254 252 253 252 250 251 252 252 252 251 251 251
250 250 250 253 253 253 255 255 255 254 254 254 248 248 248
208 208 208 176 176 176 149 149 149 147 147 147 152 152 152
150 150 150 149 149 149 152 152 152 148 150 149 148 150 149
148 150 149 148 150 149 148 150 149 148 150 149 148 150 149
148 150 149 148 150 149 148 150 149 148 150 149 148 150 149
148 150 149 148 150 149 148 150 149 148 150 149 148 150 149
148 150 149 148 150 149 148 150 149 148 150 149 148 150 149
148 150 149 148 150 149 149 151 150 148 150 149 147 149 148
146 148 147 145 147 146 143 145 144 143 145 144 143 145 144
152 154 153 162 164 163 174 176 175 181 183 182 185 187 186
185 187 186 177 179 178 168 170 169 153 155 154 154 156 155
151 153 152 145 147 146 146 148 147 147 149 148 135 137 136
119 121 120 128 130 129 136 138 137 143 145 144 135 137 136
122 124 123 127 129 128 135 137 136 130 132 131 133 135 134
133 135 134 133 135 134 133 135 134 133 135 134 133 135 134
133 135 134 133 135 134 132 134 133 132 134 133 131 133 132
131 133 132 131 133 132 131 133 132 130 132 131 130 132 131
130 132 131 129 131 130 129 131 130 129 131 130 128 130 129
128 130 129 128 130 129 128 130 129 124 126 125 122 124 123
122 124 123 124 126 125 121 123 122 117 119 118 118 120 119
122 124 123 131 133 132 131 133 132 139 141 140 150 152 151
152 154 153 146 148 147 146 148 147 152 154 153 148 150 149
148 150 149 148 150 149 148 150 149 148 150 149 148 150 149
148 150 149 148 150 149 148 150 149 148 150 149 148 150 149
148 150 149 148 150 149 148 150 149 148 150 149 148 150 149
148 150 149 148 150 149 148 150 149 148 150 149 148 150 149
148 150 149 148 150 149 148 150 149 149 151 150 149 151 150
150 152 151 152 154 153 147 149 148 142 144 143 142 144 143
147 149 148 154 154 154 151 151 151 149 149 149 149 149 149
148 148 148 151 151 151 160 160 160 171 171 171 229 229 229
242 242 242 252 252 252 250 250 250 248 248 248 253 253 253
255 255 255 253 253 253 253 253 253 253 253 253 254 254 254
254 254 254 254 254 254 253 253 253 252 252 252 252 252 252
255 255 255 253 253 253 252 252 252 255 255 255 255 255 255
252 252 252 250 250 250 250 250 250 248 248 248 245 245 245
219 219 219 179 179 179 161 161 161 169 169 169 178 178 178
174 174 174 177 177 177 177 177 177 176 176 176 173 173 173
170 170 170 166 166 166 162 162 162 160 160 160 166 166 166
168 168 168 164 164 164 175 175 175 210 210 210 237 237 237
247 247 247 253 253 253 251 251 251 252 252 252 253 253 253
254 254 254 255 255 255 255 255 255 254 254 254 254 254 254
254 254 254 254 254 254 254 254 254 254 254 254 254 254 254
254 254 254 254 254 254 254 254 254 254 254 254 254 254 254
254 254 254 254 254 254 254 254 254 254 254 254 254 254 254
254 254 254 254 254 254 254 254 254 254 254 254 254 254 254
254 254 254 254 254 254 254 254 254 254 254 254 254 254 254
254 254 254 254 254 254 254 254 254 254 254 254 254 254 254
254 254 254 254 254 254 254 254 254 254 254 254 254 254 254
254 254 254 254 254 254 254 254 254 254 254 254 254 254 254
254 254 254 254 254 254 254 254 254 254 254 254 254 254 254
254 254 254 254 254 254 254 254 254 254 254 254 254 254 254
254 254 254 254 254 254 254 254 254 254 254 254 254 254 254
254 254 254 254 254 254 254 254 254 254 254 254 254 254 254
254 254 254 254 254 254 254 254 254 254 254 254 255 255 255
255 255 255 255 255 255 255 255 255 255 255 255 245 245 245
231 231 231 220 220 220 186 186 186 182 182 182 175 175 175
170 170 170 167 167 167 166 166 166 165 165 165 165 165 165
170 170 170 168 168 168 166 166 166 165 165 165 166 166 166
168 168 168 169 169 169 170 170 170 172 172 172 169 169 169
174 174 174 176 176 176 172 172 172 175 175 175 172 172 172
158 158 158 133 133 133 146 146 146 163 163 163 176 176 176
181 181 181 179 179 179 173 173 173 169 169 169 167 167 167
171 171 171 174 174 174 171 171 171 164 164 164 158 158 158
157 157 157 157 157 157 160 162 161 163 165 164 167 169 168
172 174 173 174 176 175 173 175 174 171 173 172 170 172 171
174 176 175 169 171 170 164 166 165 164 166 165 169 171 170
171 173 172 169 171 170 165 167 166 172 174 173 180 182 181
179 181 180 169 171 170 170 172 171 180 182 181 179 181 180
167 169 168 162 164 163 158 160 159 153 155 154 149 151 150
145 147 146 140 142 141 134 136 135 129 131 130 129 131 130
129 131 130 131 133 132 134 136 135 137 139 138 137 139 138
134 136 135 131 133 132 133 135 134 133 135 134 133 135 134
133 135 134 133 135 134 133 135 134 133 135 134 133 135 134
131 135 134 133 137 136 131 133 132 161 163 162 219 221 220
245 247 246 245 245 245 254 254 254 254 254 254 255 255 255
254 252 253 251 249 250 253 251 252 255 254 255 255 254 255
255 253 254 253 251 252 254 254 254 253 253 253 251 251 251
253 253 253 255 255 255 255 255 255 250 250 250 213 213 213
181 181 181 152 152 152 145 145 145 150 150 150 150 150 150
150 150 150 153 153 153 148 150 149 148 150 149 148 150 149
148 150 149 148 150 149 148 150 149 148 150 149 148 150 149
148 150 149 148 150 149 148 150 149 148 150 149 148 150 149
148 150 149 148 150 149 148 150 149 148 150 149 148 150 149
148 150 149 148 150 149 148 150 149 148 150 149 148 150 149
148 150 149 149 151 150 147 149 148 146 148 147 149 151 150
150 152 151 146 148 147 143 145 144 142 144 143 162 164 163
186 188 187 213 215 214 230 232 231 240 242 241 246 248 247
243 245 244 235 237 236 210 212 211 218 220 219 218 220 219
213 215 214 214 216 215 212 214 213 189 191 190 160 162 161
137 139 138 122 124 123 128 130 129 131 133 132 114 116 115
115 117 116 127 129 128 124 126 125 125 127 126 125 127 126
125 127 126 125 127 126 125 127 126 125 127 126 125 127 126
125 127 126 125 127 126 125 127 126 125 127 126 124 126 125
123 125 124 123 125 124 122 124 123 122 124 123 121 123 122
121 123 122 121 123 122 121 123 122 120 122 121 120 122 121
120 122 121 119 121 120 125 127 126 122 124 123 119 121 120
119 121 120 117 119 118 115 117 116 118 120 119 124 126 125
115 117 116 126 128 127 136 138 137 141 143 142 141 143 142
143 145 144 146 148 147 147 149 148 148 150 149 148 150 149
148 150 149 148 150 149 148 150 149 148 150 149 148 150 149
148 150 149 148 150 149 148 150 149 148 150 149 148 150 149
148 150 149 148 150 149 148 150 149 148 150 149 148 150 149
148 150 149 148 150 149 148 150 149 148 150 149 148 150 149
148 150 149 148 150 149 148 150 149 149 151 150 151 153 152
153 155 154 148 150 149 142 144 143 144 146 145 149 151 150
149 149 149 153 153 153 155 155 155 148 148 148 138 138 138
148 148 148 183 183 183 217 217 217 243 243 243 248 248 248
250 250 250 247 247 247 248 248 248 254 254 254 255 255 255
255 255 255 254 254 254 254 254 254 254 254 254 254 254 254
253 253 253 252 252 252 251 251 251 251 251 251 254 254 254
250 250 250 249 249 249 253 253 253 254 254 254 251 251 251
248 248 248 249 249 249 245 245 245 227 227 227 197 197 197
173 173 173 168 168 168 174 174 174 174 174 174 169 169 169
173 173 173 173 173 173 173 173 173 172 172 172 171 171 171
169 169 169 167 167 167 166 166 166 173 173 173 173 173 173
165 165 165 173 173 173 208 208 208 237 237 237 251 251 251
255 255 255 254 254 254 254 254 254 254 254 254 255 255 255
254 254 254 254 254 254 254 254 254 254 254 254 254 254 254
254 254 254 254 254 254 254 254 254 254 254 254 254 254 254
254 254 254 254 254 254 254 254 254 254 254 254 254 254 254
254 254 254 254 254 254 254 254 254 254 254 254 254 254 254
254 254 254 254 254 254 254 254 254 254 254 254 254 254 254
254 254 254 254 254 254 254 254 254 254 254 254 254 254 254
254 254 254 254 254 254 254 254 254 254 254 254 254 254 254
254 254 254 254 254 254 254 254 254 254 254 254 254 254 254
254 254 254 254 254 254 254 254 254 254 254 254 254 254 254
254 254 254 254 254 254 254 254 254 254 254 254 254 254 254
254 254 254 254 254 254 254 254 254 254 254 254 254 254 254
254 254 254 254 254 254 254 254 254 254 254 254 254 254 254
254 254 254 254 254 254 254 254 254 254 254 254 254 254 254
254 254 254 254 254 254 254 254 254 254 254 254 253 253 253
252 252 252 254 254 254 255 255 255 254 254 254 250 250 250
246 246 246 229 229 229 212 212 212 187 187 187 167 167 167
159 159 159 162 162 162 170 170 170 176 176 176 165 165 165
165 165 165 166 166 166 170 170 170 175 175 175 178 178 178
179 179 179 178 178 178 173 173 173 167 167 167 168 168 168
168 168 168 163 163 163 168 168 168 169 169 169 157 157 157
142 142 142 151 151 151 165 165 165 175 175 175 177 177 177
174 174 174 169 169 169 166 166 166 168 168 168 170 170 170
172 172 172 170 170 170 166 166 166 163 163 163 163 163 163
164 164 164 163 165 164 164 166 165 166 168 167 168 170 169
169 171 170 170 172 171 170 172 171 170 172 171 170 172 171
166 168 167 164 166 165 166 168 167 171 173 172 173 175 174
169 171 170 165 167 166 172 174 173 181 183 182 180 182 181
170 172 171 169 171 170 176 178 177 172 174 173 158 160 159
145 147 146 143 145 144 140 142 141 139 141 140 138 140 139
138 140 139 136 138 137 135 137 136 134 136 135 133 135 134
133 135 134 133 135 134 134 136 135 134 136 135 133 135 134
132 134 133 133 135 134 133 135 134 133 135 134 133 135 134
133 135 134 133 135 134 133 135 134 133 135 134 132 136 135
133 137 136 132 134 133 163 165 164 223 225 224 248 250 249
247 247 247 254 254 254 255 255 255 255 255 255 254 252 253
251 249 250 253 251 252 255 254 255 255 254 255 255 253 254
254 252 253 255 255 255 254 254 254 251 251 251 252 252 252
255 255 255 255 255 255 251 251 251 218 218 218 186 186 186
154 154 154 143 143 143 146 146 146 149 149 149 150 150 150
151 151 151 148 150 149 148 150 149 148 150 149 148 150 149
148 150 149 148 150 149 148 150 149 148 150 149 148 150 149
148 150 149 148 150 149 148 150 149 148 150 149 148 150 149
148 150 149 148 150 149 148 150 149 148 150 149 148 150 149
148 150 149 148 150 149 148 150 149 148 150 149 148 150 149
148 150 149 146 148 147 148 150 149 155 157 156 156 158 157
150 152 151 145 147 146 145 147 146 162 164 163 197 199 198
232 234 233 248 250 249 252 254 253 254 255 255 251 253 252
245 247 246 247 249 248 254 255 255 254 255 255 253 255 254
254 255 255 253 255 254 232 234 233 205 207 206 158 160 159
118 120 119 111 113 112 125 127 126 116 118 117 109 111 110
119 121 120 124 126 125 120 122 121 120 122 121 120 122 121
120 122 121 120 122 121 120 122 121 120 122 121 120 122 121
121 123 122 121 123 122 120 122 121 120 122 121 119 121 120
118 120 119 118 120 119 118 120 119 117 119 118 117 119 118
117 119 118 116 118 117 116 118 117 116 118 117 115 117 116
115 117 116 117 119 118 117 119 118 120 122 121 125 127 126
126 128 127 124 126 125 126 128 127 130 132 131 111 113 112
139 141 140 150 152 151 136 138 137 132 134 133 146 148 147
152 154 153 143 145 144 148 150 149 148 150 149 148 150 149
148 150 149 148 150 149 148 150 149 148 150 149 148 150 149
148 150 149 148 150 149 148 150 149 148 150 149 148 150 149
148 150 149 148 150 149 148 150 149 148 150 149 148 150 149
148 150 149 148 150 149 148 150 149 148 150 149 148 150 149
148 150 149 147 149 148 147 149 148 150 152 151 153 155 154
151 153 152 147 149 148 149 151 150 154 156 155 149 149 149
149 149 149 147 147 147 142 142 142 142 142 142 165 165 165
211 211 211 251 251 251 247 247 247 248 248 248 248 248 248
247 247 247 250 250 250 255 255 255 255 255 255 255 255 255
254 254 254 254 254 254 254 254 254 254 254 254 253 253 253
252 252 252 251 251 251 251 251 251 248 248 248 245 245 245
246 246 246 251 251 251 253 253 253 250 250 250 248 248 248
248 248 248 247 247 247 207 207 207 173 173 173 171 171 171
178 178 178 175 175 175 169 169 169 169 169 169 169 169 169
169 169 169 170 170 170 170 170 170 170 170 170 170 170 170
169 169 169 169 169 169 172 172 172 172 172 172 163 163 163
171 171 171 205 205 205 235 235 235 248 248 248 255 255 255
255 255 255 255 255 255 254 254 254 254 254 254 254 254 254
254 254 254 254 254 254 254 254 254 254 254 254 254 254 254
254 254 254 254 254 254 254 254 254 254 254 254 254 254 254
254 254 254 254 254 254 254 254 254 254 254 254 254 254 254
254 254 254 254 254 254 254 254 254 254 254 254 254 254 254
254 254 254 254 254 254 254 254 254 254 254 254 254 254 254
254 254 254 254 254 254 254 254 254 254 254 254 254 254 254
254 254 254 254 254 254 254 254 254 254 254 254 254 254 254
254 254 254 254 254 254 254 254 254 254 254 254 254 254 254
254 254 254 254 254 254 254 254 254 254 254 254 254 254 254
254 254 254 254 254 254 254 254 254 254 254 254 254 254 254
254 254 254 254 254 254 254 254 254 254 254 254 254 254 254
254 254 254 254 254 254 254 254 254 254 254 254 254 254 254
254 254 254 254 254 254 254 254 254 254 254 254 254 254 254
254 254 254 254 254 254 255 255 255 254 254 254 251 251 251
250 250 250 251 251 251 251 251 251 251 251 251 250 250 250
254 254 254 240 240 240 221 221 221 201 201 201 186 186 186
174 174 174 164 164 164 157 157 157 163 163 163 163 163 163
164 164 164 170 170 170 177 177 177 180 180 180 179 179 179
176 176 176 172 172 172 165 165 165 166 166 166 166 166 166
163 163 163 171 171 171 175 175 175 164 164 164 148 148 148
155 155 155 164 164 164 170 170 170 172 172 172 170 170 170
168 168 168 167 167 167 169 169 169 170 170 170 170 170 170
169 169 169 167 167 167 167 167 167 169 169 169 171 171 171
167 169 168 166 168 167 166 168 167 166 168 167 166 168 167
167 169 168 168 170 169 169 171 170 170 172 171 170 172 171
172 174 173 175 177 176 176 178 177 172 174 173 164 166 165
157 159 158 165 167 166 172 174 173 173 175 174 166 168 167
163 165 164 160 162 161 149 151 150 136 138 137 129 131 130
130 132 131 130 132 131 131 133 132 132 134 133 134 136 135
136 138 137 137 139 138 137 139 138 136 138 137 134 136 135
132 134 133 131 133 132 132 134 133 133 135 134 133 135 134
134 136 135 134 136 135 134 136 135 134 136 135 134 136 135
134 136 135 134 136 135 134 136 135 132 136 135 133 137 136
133 135 134 165 167 166 226 228 227 252 254 253 249 249 249
254 254 254 255 255 255 255 255 255 253 251 252 249 247 248
251 249 250 255 254 255 255 254 255 255 253 254 254 252 253
255 255 255 255 255 255 251 251 251 251 251 251 254 254 254
254 254 254 252 252 252 225 225 225 193 193 193 158 158 158
142 142 142 144 144 144 148 148 148 150 150 150 150 150 150
148 150 149 148 150 149 148 150 149 148 150 149 148 150 149
148 150 149 148 150 149 148 150 149 148 150 149 148 150 149
148 150 149 148 150 149 148 150 149 148 150 149 148 150 149
148 150 149 148 150 149 148 150 149 148 150 149 148 150 149
148 150 149 148 150 149 148 150 149 148 150 149 148 150 149
145 147 146 150 152 151 159 161 160 159 161 160 151 153 152
148 150 149 152 154 153 170 172 171 207 209 208 242 244 243
251 253 252 248 250 249 248 250 249 247 249 248 242 244 243
246 248 247 250 252 251 249 251 250 244 246 245 245 247 246
248 250 249 243 245 244 232 234 233 190 192 191 141 143 142
114 116 115 121 123 122 122 124 123 114 116 115 117 119 118
126 128 127 120 122 121 120 122 121 120 122 121 120 122 121
120 122 121 120 122 121 120 122 121 120 122 121 121 123 122
121 123 122 121 123 122 121 123 122 120 122 121 120 122 121
120 122 121 120 122 121 119 121 120 119 121 120 118 120 119
118 120 119 118 120 119 117 119 118 117 119 118 117 119 118
112 114 113 114 116 115 121 123 122 128 130 129 127 129 128
120 122 121 117 119 118 118 120 119 137 139 138 175 177 176
186 188 187 156 158 157 139 141 140 152 154 153 158 160 159
144 146 145 148 150 149 148 150 149 148 150 149 148 150 149
148 150 149 148 150 149 148 150 149 148 150 149 148 150 149
148 150 149 148 150 149 148 150 149 148 150 149 148 150 149
148 150 149 148 150 149 148 150 149 148 150 149 148 150 149
148 150 149 148 150 149 148 150 149 148 150 149 148 150 149
148 150 149 145 147 146 147 149 148 152 154 153 154 156 155
152 154 153 153 155 154 155 157 156 154 154 154 142 142 142
135 135 135 145 145 145 170 170 170 202 202 202 235 235 235
255 255 255 252 252 252 251 251 251 251 251 251 251 251 251
253 253 253 254 254 254 254 254 254 252 252 252 253 253 253
253 253 253 254 254 254 254 254 254 254 254 254 253 253 253
252 252 252 252 252 252 246 246 246 243 243 243 245 245 245
251 251 251 253 253 253 250 250 250 248 248 248 248 248 248
244 244 244 193 193 193 157 157 157 165 165 165 178 178 178
172 172 172 168 168 168 175 175 175 170 170 170 170 170 170
169 169 169 169 169 169 169 169 169 168 168 168 168 168 168
168 168 168 172 172 172 172 172 172 164 164 164 172 172 172
207 207 207 235 235 235 248 248 248 255 255 255 255 255 255
254 254 254 253 253 253 253 253 253 252 252 252 253 253 253
253 253 253 254 254 254 254 254 254 254 254 254 254 254 254
254 254 254 254 254 254 254 254 254 254 254 254 254 254 254
254 254 254 254 254 254 254 254 254 254 254 254 254 254 254
254 254 254 254 254 254 254 254 254 254 254 254 254 254 254
254 254 254 254 254 254 254 254 254 254 254 254 254 254 254
254 254 254 254 254 254 254 254 254 254 254 254 254 254 254
254 254 254 254 254 254 254 254 254 254 254 254 254 254 254
254 254 254 254 254 254 254 254 254 254 254 254 254 254 254
254 254 254 254 254 254 254 254 254 254 254 254 254 254 254
254 254 254 254 254 254 254 254 254 254 254 254 254 254 254
254 254 254 254 254 254 254 254 254 254 254 254 254 254 254
254 254 254 254 254 254 254 254 254 254 254 254 254 254 254
254 254 254 254 254 254 254 254 254 254 254 254 254 254 254
254 254 254 255 255 255 255 255 255 254 254 254 253 253 253
252 252 252 252 252 252 251 251 251 250 250 250 254 254 254
252 252 252 249 249 249 242 242 242 229 229 229 207 207 207
181 181 181 163 163 163 173 173 173 169 169 169 166 166 166
168 168 168 172 172 172 174 174 174 172 172 172 169 169 169
171 171 171 166 166 166 169 169 169 172 172 172 171 171 171
181 181 181 185 185 185 175 175 175 158 158 158 162 162 162
166 166 166 169 169 169 170 170 170 170 170 170 170 170 170
171 171 171 170 170 170 170 170 170 170 170 170 170 170 170
169 169 169 170 170 170 171 171 171 172 172 172 168 170 169
167 169 168 167 169 168 167 169 168 167 169 168 168 170 169
168 170 169 169 171 170 173 175 174 173 175 174 173 175 174
172 174 173 170 172 171 166 168 167 162 164 163 160 162 161
163 165 164 160 162 161 155 157 156 151 153 152 146 148 147
139 141 140 132 134 133 127 129 128 126 128 127 127 129 128
129 131 130 130 132 131 130 132 131 132 134 133 133 135 134
135 137 136 135 137 136 135 137 136 134 136 135 133 135 134
132 134 133 132 134 133 134 136 135 135 137 136 134 136 135
134 136 135 134 136 135 134 136 135 134 136 135 134 136 135
134 136 135 134 136 135 133 137 136 134 138 137 134 136 135
167 169 168 229 231 230 254 255 255 250 250 250 254 254 254
254 254 254 254 254 254 252 250 251 248 246 247 250 248 249
255 254 255 255 254 255 255 253 254 254 252 253 255 255 255
255 255 255 250 250 250 249 249 249 252 252 252 253 253 253
252 252 252 233 233 233 200 200 200 162 162 162 143 143 143
143 143 143 148 148 148 150 150 150 150 150 150 148 150 149
148 150 149 148 150 149 148 150 149 148 150 149 148 150 149
148 150 149 148 150 149 148 150 149 148 150 149 148 150 149
148 150 149 148 150 149 148 150 149 148 150 149 148 150 149
148 150 149 148 150 149 148 150 149 148 150 149 148 150 149
148 150 149 148 150 149 148 150 149 148 150 149 145 147 146
149 151 150 158 160 159 157 159 158 149 151 150 151 153 152
161 163 162 193 195 194 226 228 227 253 255 254 254 255 255
251 253 252 254 255 255 254 255 255 250 252 251 250 252 251
251 253 252 251 253 252 248 250 249 245 247 246 246 248 247
251 253 252 254 255 255 218 220 219 181 183 182 135 137 136
117 119 118 123 125 124 123 125 124 119 121 120 124 126 125
121 123 122 121 123 122 121 123 122 121 123 122 121 123 122
121 123 122 121 123 122 121 123 122 121 123 122 122 124 123
122 124 123 122 124 123 122 124 123 122 124 123 123 125 124
123 125 124 122 124 123 121 123 122 121 123 122 121 123 122
120 122 121 120 122 121 120 122 121 120 122 121 119 121 120
117 119 118 117 119 118 120 122 121 119 121 120 118 120 119
121 123 122 127 129 128 184 186 185 219 221 220 229 231 230
194 196 195 160 162 161 155 157 156 154 156 155 145 147 146
148 150 149 148 150 149 148 150 149 148 150 149 148 150 149
148 150 149 148 150 149 148 150 149 148 150 149 148 150 149
148 150 149 148 150 149 148 150 149 148 150 149 148 150 149
148 150 149 148 150 149 148 150 149 148 150 149 148 150 149
148 150 149 148 150 149 148 150 149 148 150 149 149 151 150
144 146 145 143 145 144 150 152 151 155 157 156 155 157 156
153 155 154 153 155 154 151 151 151 143 143 143 146 146 146
173 173 173 210 210 210 237 237 237 249 249 249 253 253 253
255 255 255 253 253 253 253 253 253 253 253 253 253 253 253
252 252 252 251 251 251 252 252 252 252 252 252 252 252 252
253 253 253 254 254 254 254 254 254 254 254 254 253 253 253
253 253 253 249 249 249 246 246 246 248 248 248 253 253 253
255 255 255 251 251 251 247 247 247 247 247 247 229 229 229
189 189 189 160 160 160 165 165 165 175 175 175 173 173 173
171 171 171 176 176 176 170 170 170 170 170 170 169 169 169
169 169 169 169 169 169 169 169 169 169 169 169 169 169 169
174 174 174 174 174 174 166 166 166 174 174 174 208 208 208
237 237 237 249 249 249 255 255 255 253 253 253 253 253 253
252 252 252 251 251 251 251 251 251 252 252 252 253 253 253
254 254 254 254 254 254 254 254 254 254 254 254 254 254 254
254 254 254 254 254 254 254 254 254 254 254 254 254 254 254
254 254 254 254 254 254 254 254 254 254 254 254 254 254 254
254 254 254 254 254 254 254 254 254 254 254 254 254 254 254
254 254 254 254 254 254 254 254 254 254 254 254 254 254 254
254 254 254 254 254 254 254 254 254 254 254 254 254 254 254
254 254 254 254 254 254 254 254 254 254 254 254 254 254 254
254 254 254 254 254 254 254 254 254 254 254 254 254 254 254
254 254 254 254 254 254 254 254 254 254 254 254 254 254 254
254 254 254 254 254 254 254 254 254 254 254 254 254 254 254
254 254 254 254 254 254 254 254 254 254 254 254 254 254 254
254 254 254 254 254 254 254 254 254 254 254 254 254 254 254
254 254 254 254 254 254 254 254 254 254 254 254 254 254 254
250 250 250 251 251 251 253 253 253 254 254 254 255 255 255
255 255 255 254 254 254 253 253 253 251 251 251 249 249 249
248 248 248 249 249 249 247 247 247 239 239 239 225 225 225
215 215 215 188 188 188 181 181 181 174 174 174 171 171 171
172 172 172 173 173 173 170 170 170 166 166 166 172 172 172
167 167 167 171 171 171 172 172 172 170 170 170 176 176 176
177 177 177 165 165 165 165 165 165 166 166 166 167 167 167
167 167 167 166 166 166 167 167 167 169 169 169 171 171 171
171 171 171 171 171 171 172 172 172 172 172 172 171 171 171
171 171 171 171 171 171 171 171 171 167 169 168 168 170 169
169 171 170 170 172 171 170 172 171 170 172 171 169 171 170
169 171 170 168 170 169 165 167 166 161 163 162 158 160 159
158 160 159 164 166 165 173 175 174 179 181 180 166 168 167
153 155 154 139 141 140 133 135 134 129 131 130 125 127 126
128 130 129 134 136 135 131 133 132 132 134 133 133 135 134
133 135 134 131 133 132 131 133 132 132 134 133 133 135 134
131 133 132 133 135 134 134 136 135 135 137 136 134 136 135
134 136 135 135 137 136 136 138 137 135 137 136 135 137 136
135 137 136 135 137 136 135 137 136 135 137 136 135 137 136
135 137 136 133 137 136 134 138 137 134 136 135 168 170 169
230 232 231 254 255 255 250 250 250 254 254 254 254 254 254
254 254 254 251 249 250 247 245 246 249 247 248 255 253 254
255 254 255 254 252 253 254 252 253 255 255 255 255 255 255
250 250 250 248 248 248 251 251 251 253 253 253 251 251 251
237 237 237 205 205 205 166 166 166 144 144 144 143 143 143
149 149 149 151 151 151 150 150 150 148 150 149 148 150 149
148 150 149 148 150 149 148 150 149 148 150 149 148 150 149
148 150 149 148 150 149 148 150 149 148 150 149 148 150 149
148 150 149 148 150 149 148 150 149 148 150 149 148 150 149
148 150 149 148 150 149 148 150 149 148 150 149 148 150 149
148 150 149 148 150 149 149 151 150 145 147 146 148 150 149
155 157 156 153 155 154 147 149 148 153 155 154 168 170 169
213 215 214 239 241 240 254 255 255 252 254 253 248 250 249
254 255 255 254 255 255 248 250 249 247 249 248 249 251 250
253 255 254 253 255 254 246 248 247 240 242 241 246 248 247
254 255 255 234 236 235 212 214 213 155 157 156 113 115 114
121 123 122 128 130 129 120 122 121 120 122 121 122 124 123
122 124 123 122 124 123 122 124 123 122 124 123 122 124 123
122 124 123 122 124 123 120 122 121 121 123 122 121 123 122
122 124 123 122 124 123 123 125 124 123 125 124 124 126 125
122 124 123 122 124 123 122 124 123 121 123 122 121 123 122
121 123 122 120 122 121 120 122 121 127 129 128 119 121 120
112 114 113 112 114 113 118 120 119 130 132 131 149 151 150
165 167 166 220 222 221 249 251 250 254 255 255 224 226 225
178 180 179 154 156 155 147 149 148 144 146 145 148 150 149
148 150 149 148 150 149 148 150 149 148 150 149 148 150 149
148 150 149 148 150 149 148 150 149 148 150 149 148 150 149
148 150 149 148 150 149 148 150 149 148 150 149 148 150 149
148 150 149 148 150 149 148 150 149 148 150 149 148 150 149
148 150 149 148 150 149 148 150 149 150 152 151 143 145 144
141 143 142 148 150 149 155 157 156 155 157 156 151 153 152
149 151 150 143 143 143 149 149 149 170 170 170 205 205 205
237 237 237 252 252 252 255 255 255 254 254 254 253 253 253
252 252 252 251 251 251 252 252 252 251 251 251 249 249 249
251 251 251 254 254 254 251 251 251 251 251 251 252 252 252
253 253 253 254 254 254 254 254 254 254 254 254 254 254 254
252 252 252 250 250 250 251 251 251 255 255 255 255 255 255
251 251 251 247 247 247 246 246 246 212 212 212 191 191 191
173 173 173 171 171 171 177 177 177 177 177 177 174 174 174
173 173 173 168 168 168 168 168 168 168 168 168 169 169 169
170 170 170 171 171 171 172 172 172 173 173 173 172 172 172
172 172 172 163 163 163 170 170 170 204 204 204 233 233 233
246 246 246 255 255 255 252 252 252 252 252 252 251 251 251
250 250 250 250 250 250 252 252 252 253 253 253 255 255 255
254 254 254 254 254 254 254 254 254 254 254 254 254 254 254
254 254 254 254 254 254 254 254 254 254 254 254 254 254 254
254 254 254 254 254 254 254 254 254 254 254 254 254 254 254
254 254 254 254 254 254 254 254 254 254 254 254 254 254 254
254 254 254 254 254 254 254 254 254 254 254 254 254 254 254
254 254 254 254 254 254 254 254 254 254 254 254 254 254 254
254 254 254 254 254 254 254 254 254 254 254 254 254 254 254
254 254 254 254 254 254 254 254 254 254 254 254 254 254 254
254 254 254 254 254 254 254 254 254 254 254 254 254 254 254
254 254 254 254 254 254 254 254 254 254 254 254 254 254 254
254 254 254 254 254 254 254 254 254 254 254 254 254 254 254
254 254 254 254 254 254 254 254 254 254 254 254 254 254 254
254 254 254 254 254 254 254 254 254 254 254 254 254 254 254
254 254 254 254 254 254 254 254 254 254 254 254 254 254 254
254 254 254 254 254 254 246 246 246 246 246 246 247 247 247
249 249 249 251 251 251 252 252 252 253 253 253 254 254 254
233 233 233 221 221 221 204 204 204 191 191 191 183 183 183
178 178 178 172 172 172 168 168 168 168 168 168 167 167 167
164 164 164 162 162 162 161 161 161 162 162 162 164 164 164
165 165 165 168 168 168 167 167 167 166 166 166 165 165 165
165 165 165 166 166 166 167 167 167 168 168 168 168 168 168
169 169 169 170 170 170 171 171 171 172 172 172 171 171 171
170 170 170 169 169 169 167 167 167 169 169 169 173 173 173
175 175 175 176 176 176 175 175 175 172 172 172 170 170 170
167 167 167 161 161 161 164 164 164 169 169 169 179 179 179
206 206 206 230 230 230 232 232 232 180 180 180 152 152 152
130 130 130 132 132 132 138 138 138 137 137 137 135 137 136
139 141 140 136 138 137 136 138 137 133 137 136 132 136 135
130 134 133 129 133 132 128 132 131 128 132 131 130 134 135
131 135 136 131 135 136 132 136 137 132 136 137 131 135 136
131 135 136 130 134 135 134 138 139 131 135 136 129 133 134
130 134 135 134 138 139 135 139 140 133 137 138 130 134 135
133 137 136 133 137 136 136 138 137 173 175 174 233 235 234
254 255 255 249 249 249 255 255 255 255 255 255 253 253 253
251 249 250 250 248 249 250 248 249 251 249 250 255 252 253
255 254 255 253 251 252 255 255 255 255 255 255 252 252 252
252 252 252 255 255 255 255 255 255 252 252 252 242 242 242
212 212 212 166 166 166 142 142 142 147 147 147 149 149 149
147 147 147 155 155 155 148 150 149 148 150 149 148 150 149
148 150 149 148 150 149 148 150 149 148 150 149 148 150 149
148 150 149 148 150 149 148 150 149 148 150 149 148 150 149
148 150 149 148 150 149 148 150 149 149 149 149 149 149 149
149 149 149 149 149 149 149 149 149 149 149 149 149 149 149
149 149 149 144 144 144 162 162 162 150 150 150 149 149 149
163 163 163 141 141 141 136 136 136 183 183 183 235 235 235
238 238 238 241 241 241 243 243 243 245 245 245 248 248 248
252 252 252 255 255 255 248 248 248 249 249 249 249 249 249
246 246 246 243 243 243 243 243 243 246 246 246 250 250 250
247 249 248 230 232 231 172 174 173 120 122 121 115 117 116
118 120 119 115 117 116 123 125 124 119 121 120 119 121 120
119 121 120 119 121 120 119 121 120 119 121 120 119 121 120
119 121 120 119 121 120 119 121 120 119 121 120 119 121 120
119 121 120 119 121 120 119 121 120 119 121 120 120 122 121
120 122 121 119 121 120 119 121 120 119 121 120 118 120 119
118 120 119 118 120 119 116 116 116 118 118 118 121 121 121
120 120 120 119 119 119 138 138 138 186 186 186 233 233 233
237 237 237 242 242 242 242 242 242 226 226 226 196 196 196
167 167 167 154 154 154 153 153 153 147 147 147 148 148 148
150 150 150 151 151 151 151 151 151 150 150 150 148 148 148
147 147 147 147 147 147 148 148 148 150 150 150 151 151 151
151 151 151 150 150 150 148 148 148 147 147 147 148 150 149
148 150 149 148 150 149 148 150 149 148 150 149 148 150 149
148 150 149 148 150 149 151 153 152 154 156 155 138 140 139
135 137 136 154 156 155 152 154 153 141 143 142 149 151 150
143 143 143 150 150 150 187 187 187 240 240 240 255 255 255
249 249 249 244 244 244 255 255 255 255 255 255 255 255 255
255 255 255 254 254 254 254 254 254 253 253 253 253 253 253
253 253 253 250 250 250 252 252 252 255 255 255 255 255 255
255 255 255 254 254 254 250 250 250 248 248 248 252 252 252
253 253 253 255 255 255 251 251 251 250 250 250 255 255 255
254 254 254 226 226 226 199 199 199 198 198 198 189 189 189
178 178 178 176 176 176 180 180 180 176 176 176 167 167 167
168 168 168 169 169 169 169 169 169 170 170 170 170 170 170
171 171 171 171 171 171 171 171 171 174 174 174 170 170 170
164 164 164 170 170 170 200 200 200 237 237 237 254 254 254
253 253 253 249 249 249 253 253 253 253 253 253 251 251 251
252 252 252 255 255 255 255 255 255 254 254 254 254 254 254
254 254 254 254 254 254 254 254 254 254 254 254 254 254 254
254 254 254 254 254 254 254 254 254 254 254 254 254 254 254
254 254 254 254 254 254 254 254 254 254 254 254 254 254 254
254 254 254 254 254 254 254 254 254 254 254 254 254 254 254
254 254 254 254 254 254 254 254 254 254 254 254 254 254 254
254 254 254 254 254 254 254 254 254 254 254 254 254 254 254
254 254 254 254 254 254 254 254 254 254 254 254 254 254 254
254 254 254 254 254 254 254 254 254 254 254 254 254 254 254
254 254 254 254 254 254 254 254 254 254 254 254 254 254 254
254 254 254 254 254 254 254 254 254 254 254 254 254 254 254
254 254 254 254 254 254 254 254 254 254 254 254 254 254 254
254 254 254 254 254 254 254 254 254 254 254 254 254 254 254
254 254 254 254 254 254 254 254 254 254 254 254 254 254 254
254 254 254 254 254 254 254 254 254 254 254 254 254 254 254
254 254 254 249 249 249 249 249 249 250 250 250 251 251 251
252 252 252 254 254 254 254 254 254 255 255 255 255 255 255
248 248 248 239 239 239 230 230 230 222 222 222 211 211 211
198 198 198 188 188 188 172 172 172 171 171 171 169 169 169
168 168 168 168 168 168 169 169 169 171 171 171 172 172 172
177 177 177 176 176 176 175 175 175 174 174 174 174 174 174
175 175 175 176 176 176 177 177 177 175 175 175 174 174 174
173 173 173 172 172 172 172 172 172 173 173 173 175 175 175
176 176 176 177 177 177 174 174 174 169 169 169 166 166 166
166 166 166 169 169 169 173 173 173 176 176 176 185 185 185
190 190 190 209 209 209 227 227 227 235 235 235 245 245 245
245 245 245 231 231 231 180 180 180 152 152 152 130 130 130
132 132 132 139 139 139 137 137 137 133 135 134 136 138 137
135 137 136 135 137 136 132 136 135 131 135 134 131 135 134
130 134 133 128 134 132 128 134 132 130 134 135 131 135 136
131 135 136 132 136 137 132 136 137 131 135 136 131 135 136
130 134 135 134 138 139 131 135 136 129 133 134 130 134 135
134 138 139 135 139 140 133 137 138 130 134 135 131 135 134
133 137 136 136 138 137 174 176 175 234 236 235 254 255 255
248 248 248 255 255 255 255 255 255 254 254 254 253 251 252
252 250 251 252 250 251 253 251 252 255 253 254 255 254 255
253 251 252 255 255 255 255 255 255 252 252 252 252 252 252
255 255 255 255 255 255 252 252 252 241 241 241 211 211 211
167 167 167 144 144 144 148 148 148 149 149 149 147 147 147
153 153 153 148 150 149 148 150 149 148 150 149 148 150 149
148 150 149 148 150 149 148 150 149 148 150 149 148 150 149
148 150 149 148 150 149 148 150 149 148 150 149 148 150 149
148 150 149 148 150 149 149 149 149 149 149 149 149 149 149
149 149 149 149 149 149 149 149 149 149 149 149 149 149 149
143 143 143 153 153 153 147 147 147 150 150 150 162 162 162
150 150 150 155 155 155 195 195 195 238 238 238 241 241 241
244 244 244 247 247 247 248 248 248 250 250 250 253 253 253
255 255 255 250 250 250 251 251 251 250 250 250 248 248 248
245 245 245 246 246 246 249 249 249 252 252 252 251 253 252
238 240 239 186 188 187 134 136 135 122 124 123 119 121 120
117 119 118 125 127 126 119 121 120 119 121 120 119 121 120
119 121 120 119 121 120 119 121 120 119 121 120 119 121 120
120 122 121 120 122 121 120 122 121 120 122 121 120 122 121
120 122 121 120 122 121 120 122 121 120 122 121 120 122 121
120 122 121 120 122 121 119 121 120 119 121 120 119 121 120
118 120 119 121 121 121 122 122 122 120 120 120 120 120 120
137 137 137 176 176 176 218 218 218 245 245 245 242 242 242
242 242 242 249 249 249 248 248 248 219 219 219 173 173 173
144 144 144 138 138 138 146 146 146 147 147 147 150 150 150
152 152 152 152 152 152 150 150 150 148 148 148 147 147 147
148 148 148 148 148 148 150 150 150 150 150 150 150 150 150
150 150 150 148 148 148 148 148 148 148 150 149 148 150 149
148 150 149 148 150 149 148 150 149 148 150 149 148 150 149
148 150 149 147 149 148 147 149 148 137 139 138 139 141 140
155 157 156 150 152 151 141 143 142 152 154 153 166 166 166
186 186 186 219 219 219 248 248 248 255 255 255 255 255 255
253 253 253 255 255 255 255 255 255 255 255 255 255 255 255
254 254 254 254 254 254 253 253 253 253 253 253 253 253 253
251 251 251 253 253 253 255 255 255 255 255 255 255 255 255
254 254 254 251 251 251 249 249 249 252 252 252 252 252 252
255 255 255 251 251 251 250 250 250 255 255 255 252 252 252
225 225 225 194 194 194 199 199 199 195 195 195 181 181 181
173 173 173 175 175 175 175 175 175 171 171 171 169 169 169
169 169 169 170 170 170 170 170 170 171 171 171 171 171 171
171 171 171 172 172 172 175 175 175 167 167 167 164 164 164
178 178 178 211 211 211 242 242 242 255 255 255 254 254 254
249 249 249 252 252 252 252 252 252 249 249 249 250 250 250
254 254 254 255 255 255 253 253 253 254 254 254 254 254 254
254 254 254 254 254 254 254 254 254 254 254 254 254 254 254
254 254 254 254 254 254 254 254 254 254 254 254 254 254 254
254 254 254 254 254 254 254 254 254 254 254 254 254 254 254
254 254 254 254 254 254 254 254 254 254 254 254 254 254 254
254 254 254 254 254 254 254 254 254 254 254 254 254 254 254
254 254 254 254 254 254 254 254 254 254 254 254 254 254 254
254 254 254 254 254 254 254 254 254 254 254 254 254 254 254
254 254 254 254 254 254 254 254 254 254 254 254 254 254 254
254 254 254 254 254 254 254 254 254 254 254 254 254 254 254
254 254 254 254 254 254 254 254 254 254 254 254 254 254 254
254 254 254 254 254 254 254 254 254 254 254 254 254 254 254
254 254 254 254 254 254 254 254 254 254 254 254 254 254 254
254 254 254 254 254 254 254 254 254 254 254 254 254 254 254
254 254 254 254 254 254 254 254 254 254 254 254 254 254 254
253 253 253 253 253 253 253 253 253 254 254 254 254 254 254
255 255 255 255 255 255 255 255 255 255 255 255 253 253 253
251 251 251 251 251 251 250 250 250 244 244 244 235 235 235
227 227 227 223 223 223 217 217 217 207 207 207 194 194 194
182 182 182 171 171 171 164 164 164 160 160 160 164 164 164
163 163 163 163 163 163 162 162 162 162 162 162 163 163 163
163 163 163 164 164 164 165 165 165 162 162 162 160 160 160
158 158 158 160 160 160 164 164 164 170 170 170 173 173 173
174 174 174 175 175 175 178 178 178 185 185 185 197 197 197
211 211 211 225 225 225 234 234 234 236 236 236 236 236 236
247 247 247 255 255 255 255 255 255 255 255 255 254 254 254
233 233 233 182 182 182 153 153 153 131 131 131 133 133 133
140 140 140 137 137 137 131 133 132 133 135 134 133 135 134
133 135 134 131 135 134 131 135 134 131 135 134 131 135 134
130 136 134 130 136 134 130 134 135 131 135 136 131 135 136
132 136 137 132 136 137 131 135 136 131 135 136 130 134 135
134 138 139 131 135 136 129 133 134 130 134 135 134 138 139
135 139 140 133 137 138 130 134 135 129 133 132 132 136 135
138 140 139 176 178 177 236 238 237 254 255 255 247 247 247
254 254 254 254 254 254 254 254 254 255 253 254 255 253 254
255 253 254 255 253 254 255 253 254 255 253 254 253 251 252
255 255 255 255 255 255 252 252 252 252 252 252 255 255 255
255 255 255 252 252 252 239 239 239 211 211 211 167 167 167
145 145 145 150 150 150 150 150 150 146 146 146 152 152 152
148 150 149 148 150 149 148 150 149 148 150 149 148 150 149
148 150 149 148 150 149 148 150 149 148 150 149 148 150 149
148 150 149 148 150 149 148 150 149 148 150 149 148 150 149
148 150 149 149 149 149 149 149 149 149 149 149 149 149 149
149 149 149 149 149 149 149 149 149 149 149 149 147 147 147
146 146 146 147 147 147 152 152 152 154 154 154 158 158 158
181 181 181 211 211 211 242 242 242 245 245 245 249 249 249
251 251 251 252 252 252 252 252 252 253 253 253 254 254 254
251 251 251 252 252 252 251 251 251 250 250 250 249 249 249
249 249 249 252 252 252 254 254 254 254 255 255 246 248 247
205 207 206 156 158 157 130 132 131 119 121 120 116 118 117
124 126 125 119 121 120 119 121 120 119 121 120 119 121 120
119 121 120 119 121 120 119 121 120 119 121 120 120 122 121
120 122 121 120 122 121 120 122 121 120 122 121 120 122 121
120 122 121 120 122 121 121 123 122 121 123 122 121 123 122
120 122 121 120 122 121 119 121 120 119 121 120 119 121 120
124 124 124 121 121 121 116 116 116 125 125 125 164 164 164
215 215 215 246 246 246 250 250 250 250 250 250 244 244 244
252 252 252 255 255 255 239 239 239 186 186 186 146 146 146
135 135 135 144 144 144 146 146 146 150 150 150 152 152 152
153 153 153 151 151 151 149 149 149 147 147 147 148 148 148
149 149 149 149 149 149 150 150 150 150 150 150 149 149 149
149 149 149 148 148 148 148 150 149 148 150 149 148 150 149
148 150 149 148 150 149 148 150 149 148 150 149 148 150 149
146 148 147 144 146 145 140 142 141 146 148 147 153 155 154
144 146 145 142 144 143 160 162 161 192 192 192 222 222 222
246 246 246 249 249 249 247 247 247 253 253 253 255 255 255
251 251 251 255 255 255 255 255 255 254 254 254 254 254 254
254 254 254 254 254 254 253 253 253 253 253 253 253 253 253
253 253 253 254 254 254 254 254 254 254 254 254 253 253 253
252 252 252 251 251 251 252 252 252 252 252 252 255 255 255
253 253 253 250 250 250 255 255 255 250 250 250 225 225 225
191 191 191 201 201 201 201 201 201 185 185 185 170 170 170
170 170 170 175 175 175 176 176 176 170 170 170 170 170 170
171 171 171 171 171 171 171 171 171 172 172 172 172 172 172
172 172 172 173 173 173 163 163 163 164 164 164 190 190 190
226 226 226 250 250 250 255 255 255 254 254 254 250 250 250
251 251 251 250 250 250 247 247 247 247 247 247 252 252 252
255 255 255 254 254 254 254 254 254 254 254 254 254 254 254
254 254 254 254 254 254 254 254 254 254 254 254 254 254 254
254 254 254 254 254 254 254 254 254 254 254 254 254 254 254
254 254 254 254 254 254 254 254 254 254 254 254 254 254 254
254 254 254 254 254 254 254 254 254 254 254 254 254 254 254
254 254 254 254 254 254 254 254 254 254 254 254 254 254 254
254 254 254 254 254 254 254 254 254 254 254 254 254 254 254
254 254 254 254 254 254 254 254 254 254 254 254 254 254 254
254 254 254 254 254 254 254 254 254 254 254 254 254 254 254
254 254 254 254 254 254 254 254 254 254 254 254 254 254 254
254 254 254 254 254 254 254 254 254 254 254 254 254 254 254
254 254 254 254 254 254 254 254 254 254 254 254 254 254 254
254 254 254 254 254 254 254 254 254 254 254 254 254 254 254
254 254 254 254 254 254 254 254 254 254 254 254 254 254 254
254 254 254 254 254 254 254 254 254 254 254 254 255 255 255
255 255 255 255 255 255 255 255 255 255 255 255 254 254 254
254 254 254 254 254 254 248 248 248 246 246 246 244 244 244
246 246 246 250 250 250 254 254 254 255 255 255 255 255 255
255 255 255 252 252 252 246 246 246 239 239 239 232 232 232
226 226 226 222 222 222 220 220 220 195 195 195 195 195 195
195 195 195 195 195 195 195 195 195 195 195 195 195 195 195
195 195 195 196 196 196 194 194 194 193 193 193 194 194 194
197 197 197 202 202 202 208 208 208 212 212 212 219 219 219
222 222 222 228 228 228 235 235 235 241 241 241 246 246 246
249 249 249 251 251 251 255 255 255 252 252 252 251 251 251
253 253 253 252 252 252 255 255 255 251 251 251 233 233 233
186 186 186 156 156 156 132 132 132 134 134 134 140 140 140
136 136 136 130 132 131 130 132 131 132 134 133 132 134 133
130 134 133 131 135 134 131 135 134 132 136 135 131 137 135
131 137 135 130 134 135 131 135 136 131 135 136 132 136 137
132 136 137 131 135 136 131 135 136 130 134 135 134 138 139
131 135 136 129 133 134 130 134 135 134 138 139 135 139 140
133 137 138 130 134 135 127 131 130 132 136 135 139 141 140
179 181 180 237 239 238 254 255 255 246 246 246 253 253 253
254 254 254 254 254 254 255 254 255 255 254 255 255 254 255
255 254 255 255 253 254 255 253 254 253 251 252 255 255 255
255 255 255 252 252 252 252 252 252 255 255 255 255 255 255
252 252 252 238 238 238 210 210 210 168 168 168 147 147 147
151 151 151 150 150 150 145 145 145 150 150 150 148 150 149
148 150 149 148 150 149 148 150 149 148 150 149 148 150 149
148 150 149 148 150 149 148 150 149 148 150 149 148 150 149
148 150 149 148 150 149 148 150 149 148 150 149 148 150 149
149 149 149 149 149 149 149 149 149 149 149 149 149 149 149
149 149 149 149 149 149 149 149 149 155 155 155 145 145 145
151 151 151 153 153 153 143 143 143 160 160 160 201 201 201
227 227 227 245 245 245 248 248 248 252 252 252 254 254 254
253 253 253 252 252 252 252 252 252 252 252 252 252 252 252
251 251 251 251 251 251 251 251 251 250 250 250 251 251 251
253 253 253 254 254 254 253 255 254 251 253 252 224 226 225
177 179 178 137 139 138 116 118 117 114 116 115 121 123 122
120 122 121 120 122 121 120 122 121 120 122 121 120 122 121
120 122 121 120 122 121 120 122 121 121 123 122 121 123 122
121 123 122 121 123 122 121 123 122 121 123 122 121 123 122
121 123 122 121 123 122 121 123 122 121 123 122 121 123 122
120 122 121 120 122 121 119 121 120 119 121 120 126 126 126
121 121 121 123 123 123 150 150 150 198 198 198 239 239 239
254 254 254 250 250 250 254 254 254 247 247 247 248 248 248
254 254 254 242 242 242 206 206 206 168 168 168 149 149 149
144 144 144 146 146 146 149 149 149 152 152 152 153 153 153
151 151 151 149 149 149 148 148 148 149 149 149 149 149 149
149 149 149 149 149 149 149 149 149 149 149 149 149 149 149
149 149 149 148 150 149 148 150 149 148 150 149 148 150 149
148 150 149 148 150 149 148 150 149 148 150 149 150 152 151
148 150 149 149 151 150 153 155 154 147 149 148 137 139 138
150 152 151 178 180 179 219 219 219 240 240 240 253 253 253
247 247 247 242 242 242 248 248 248 252 252 252 248 248 248
254 254 254 254 254 254 254 254 254 254 254 254 254 254 254
254 254 254 254 254 254 254 254 254 255 255 255 254 254 254
253 253 253 253 253 253 252 252 252 252 252 252 252 252 252
253 253 253 253 253 253 252 252 252 255 255 255 254 254 254
251 251 251 255 255 255 249 249 249 226 226 226 196 196 196
205 205 205 203 203 203 185 185 185 170 170 170 169 169 169
174 174 174 176 176 176 171 171 171 171 171 171 171 171 171
171 171 171 171 171 171 172 172 172 172 172 172 172 172 172
168 168 168 158 158 158 168 168 168 203 203 203 239 239 239
255 255 255 255 255 255 254 254 254 251 251 251 252 252 252
250 250 250 246 246 246 247 247 247 253 253 253 255 255 255
255 255 255 254 254 254 254 254 254 254 254 254 254 254 254
254 254 254 254 254 254 254 254 254 254 254 254 254 254 254
254 254 254 254 254 254 254 254 254 254 254 254 254 254 254
254 254 254 254 254 254 254 254 254 254 254 254 254 254 254
254 254 254 254 254 254 254 254 254 254 254 254 254 254 254
254 254 254 254 254 254 254 254 254 254 254 254 254 254 254
254 254 254 254 254 254 254 254 254 254 254 254 254 254 254
254 254 254 254 254 254 254 254 254 254 254 254 254 254 254
254 254 254 254 254 254 254 254 254 254 254 254 254 254 254
254 254 254 254 254 254 254 254 254 254 254 254 254 254 254
254 254 254 254 254 254 254 254 254 254 254 254 254 254 254
254 254 254 254 254 254 254 254 254 254 254 254 254 254 254
254 254 254 254 254 254 254 254 254 254 254 254 254 254 254
254 254 254 254 254 254 254 254 254 254 254 254 254 254 254
254 254 254 254 254 254 254 254 254 254 254 254 254 254 254
254 254 254 254 254 254 253 253 253 253 253 253 253 253 253
253 253 253 255 255 255 253 253 253 249 249 249 248 248 248
249 249 249 252 252 252 255 255 255 255 255 255 254 254 254
254 254 254 254 254 254 254 254 254 254 254 254 255 255 255
255 255 255 255 255 255 245 245 245 246 246 246 246 246 246
246 246 246 246 246 246 246 246 246 246 246 246 245 245 245
242 242 242 243 243 243 243 243 243 244 244 244 246 246 246
248 248 248 250 250 250 251 251 251 250 250 250 253 253 253
255 255 255 255 255 255 255 255 255 254 254 254 249 249 249
246 246 246 244 244 244 239 239 239 245 245 245 253 253 253
255 255 255 255 255 255 252 252 252 232 232 232 193 193 193
160 160 160 133 133 133 132 132 132 139 139 139 136 136 136
130 132 131 130 132 131 131 133 132 131 133 132 130 134 133
131 135 134 131 135 134 132 136 135 132 138 136 132 138 136
130 134 135 131 135 136 131 135 136 132 136 137 132 136 137
131 135 136 131 135 136 130 134 135 134 138 139 131 135 136
129 133 134 130 134 135 134 138 139 135 139 140 133 137 138
130 134 135 125 129 128 131 135 134 141 143 142 180 182 181
237 239 238 253 255 254 246 246 246 253 253 253 253 253 253
254 254 254 255 254 255 255 254 255 255 254 255 255 254 255
255 253 254 254 252 253 253 251 252 255 255 255 255 255 255
252 252 252 252 252 252 255 255 255 255 255 255 252 252 252
237 237 237 210 210 210 168 168 168 148 148 148 152 152 152
151 151 151 145 145 145 149 149 149 148 150 149 148 150 149
148 150 149 148 150 149 148 150 149 148 150 149 148 150 149
148 150 149 148 150 149 148 150 149 148 150 149 148 150 149
148 150 149 148 150 149 148 150 149 148 150 149 149 149 149
149 149 149 149 149 149 149 149 149 149 149 149 149 149 149
149 149 149 149 149 149 156 156 156 146 146 146 153 153 153
151 151 151 136 136 136 165 165 165 219 219 219 243 243 243
247 247 247 250 250 250 253 253 253 254 254 254 253 253 253
251 251 251 250 250 250 250 250 250 251 251 251 251 251 251
250 250 250 250 250 250 250 250 250 251 251 251 251 251 251
251 251 251 253 255 254 253 255 254 240 242 241 198 200 199
145 147 146 117 119 118 116 118 117 121 123 122 120 122 121
120 122 121 120 122 121 120 122 121 120 122 121 120 122 121
120 122 121 120 122 121 121 123 122 121 123 122 121 123 122
121 123 122 121 123 122 121 123 122 121 123 122 121 123 122
121 123 122 121 123 122 121 123 122 120 122 121 120 122 121
119 121 120 119 121 120 119 121 120 127 127 127 123 123 123
143 143 143 191 191 191 233 233 233 250 250 250 252 252 252
255 255 255 250 250 250 251 251 251 247 247 247 242 242 242
239 239 239 227 227 227 193 193 193 158 158 158 146 146 146
147 147 147 149 149 149 151 151 151 151 151 151 151 151 151
149 149 149 148 148 148 149 149 149 149 149 149 149 149 149
149 149 149 149 149 149 149 149 149 149 149 149 149 149 149
148 150 149 148 150 149 148 150 149 148 150 149 148 150 149
148 150 149 148 150 149 148 150 149 151 153 152 149 151 150
155 157 156 155 157 156 142 144 143 142 144 143 174 176 175
208 210 209 245 245 245 245 245 245 248 248 248 251 251 251
251 251 251 251 251 251 252 252 252 255 255 255 254 254 254
254 254 254 254 254 254 254 254 254 254 254 254 254 254 254
254 254 254 254 254 254 255 255 255 254 254 254 253 253 253
252 252 252 252 252 252 252 252 252 253 253 253 253 253 253
254 254 254 252 252 252 255 255 255 255 255 255 251 251 251
254 254 254 250 250 250 231 231 231 209 209 209 211 211 211
202 202 202 183 183 183 171 171 171 172 172 172 174 174 174
173 173 173 171 171 171 171 171 171 171 171 171 171 171 171
171 171 171 171 171 171 171 171 171 171 171 171 164 164 164
162 162 162 179 179 179 216 216 216 247 247 247 255 255 255
254 254 254 253 253 253 252 252 252 254 254 254 252 252 252
247 247 247 248 248 248 254 254 254 255 255 255 255 255 255
254 254 254 254 254 254 254 254 254 254 254 254 254 254 254
254 254 254 254 254 254 254 254 254 254 254 254 254 254 254
254 254 254 254 254 254 254 254 254 254 254 254 254 254 254
254 254 254 254 254 254 254 254 254 254 254 254 254 254 254
254 254 254 254 254 254 254 254 254 254 254 254 254 254 254
254 254 254 254 254 254 254 254 254 254 254 254 254 254 254
254 254 254 254 254 254 254 254 254 254 254 254 254 254 254
254 254 254 254 254 254 254 254 254 254 254 254 254 254 254
254 254 254 254 254 254 254 254 254 254 254 254 254 254 254
254 254 254 254 254 254 254 254 254 254 254 254 254 254 254
254 254 254 254 254 254 254 254 254 254 254 254 254 254 254
254 254 254 254 254 254 254 254 254 254 254 254 254 254 254
254 254 254 254 254 254 254 254 254 254 254 254 254 254 254
254 254 254 254 254 254 254 254 254 254 254 254 254 254 254
254 254 254 254 254 254 253 253 253 253 253 253 253 253 253
253 253 253 253 253 253 253 253 253 252 252 252 252 252 252
254 254 254 255 255 255 255 255 255 255 255 255 255 255 255
254 254 254 253 253 253 252 252 252 254 254 254 253 253 253
251 251 251 248 248 248 246 246 246 243 243 243 241 241 241
240 240 240 252 252 252 253 253 253 254 254 254 254 254 254
254 254 254 254 254 254 253 253 253 252 252 252 252 252 252
253 253 253 254 254 254 253 253 253 252 252 252 250 250 250
247 247 247 246 246 246 243 243 243 244 244 244 247 247 247
250 250 250 253 253 253 255 255 255 255 255 255 255 255 255
250 250 250 244 244 244 249 249 249 254 254 254 255 255 255
255 255 255 255 255 255 240 240 240 203 203 203 166 166 166
134 134 134 130 130 130 136 136 136 135 135 135 132 134 133
133 135 134 132 134 133 132 134 133 130 134 133 131 135 134
131 135 134 132 136 135 131 137 135 131 137 135 130 134 135
131 135 136 131 135 136 132 136 137 132 136 137 131 135 136
131 135 136 130 134 135 134 138 139 131 135 136 129 133 134
130 134 135 134 138 139 135 139 140 133 137 138 130 134 135
125 129 128 132 136 135 141 143 142 180 182 181 236 238 237
252 254 253 246 246 246 254 254 254 253 253 253 254 254 254
255 254 255 255 254 255 255 254 255 255 254 255 255 253 254
254 252 253 253 251 252 255 255 255 255 255 255 252 252 252
252 252 252 255 255 255 255 255 255 252 252 252 237 237 237
210 210 210 168 168 168 147 147 147 152 152 152 151 151 151
145 145 145 150 150 150 148 150 149 148 150 149 148 150 149
148 150 149 148 150 149 148 150 149 148 150 149 148 150 149
148 150 149 148 150 149 148 150 149 148 150 149 148 150 149
148 150 149 148 150 149 148 150 149 149 149 149 149 149 149
149 149 149 149 149 149 149 149 149 149 149 149 149 149 149
149 149 149 151 151 151 144 144 144 150 150 150 148 148 148
144 144 144 181 181 181 234 234 234 255 255 255 248 248 248
251 251 251 253 253 253 253 253 253 252 252 252 250 250 250
250 250 250 251 251 251 252 252 252 251 251 251 249 249 249
249 249 249 250 250 250 251 251 251 249 249 249 247 247 247
252 254 253 254 255 255 252 254 253 215 217 216 154 156 155
120 122 121 120 122 121 124 126 125 121 123 122 121 123 122
121 123 122 121 123 122 121 123 122 121 123 122 121 123 122
121 123 122 120 122 121 120 122 121 120 122 121 120 122 121
120 122 121 120 122 121 120 122 121 120 122 121 120 122 121
120 122 121 119 121 120 119 121 120 119 121 120 118 120 119
118 120 119 118 120 119 120 120 120 127 127 127 164 164 164
219 219 219 249 249 249 247 247 247 247 247 247 255 255 255
245 245 245 253 253 253 251 251 251 242 242 242 244 244 244
241 241 241 203 203 203 157 157 157 149 149 149 149 149 149
149 149 149 149 149 149 149 149 149 149 149 149 149 149 149
149 149 149 150 150 150 149 149 149 149 149 149 148 148 148
148 148 148 149 149 149 149 149 149 150 150 150 148 150 149
148 150 149 148 150 149 148 150 149 148 150 149 148 150 149
148 150 149 148 150 149 148 150 149 145 147 146 152 154 153
151 153 152 142 144 143 162 164 163 207 209 208 237 239 238
255 255 255 242 242 242 239 239 239 251 251 251 255 255 255
252 252 252 251 251 251 255 255 255 253 253 253 253 253 253
254 254 254 254 254 254 254 254 254 254 254 254 255 255 255
255 255 255 255 255 255 254 254 254 253 253 253 252 252 252
252 252 252 252 252 252 252 252 252 253 253 253 255 255 255
252 252 252 255 255 255 255 255 255 251 251 251 254 254 254
252 252 252 238 238 238 224 224 224 220 220 220 204 204 204
182 182 182 171 171 171 173 173 173 174 174 174 170 170 170
171 171 171 171 171 171 170 170 170 170 170 170 170 170 170
169 169 169 169 169 169 169 169 169 168 168 168 179 179 179
202 202 202 230 230 230 250 250 250 255 255 255 253 253 253
251 251 251 252 252 252 254 254 254 253 253 253 249 249 249
250 250 250 255 255 255 255 255 255 255 255 255 254 254 254
254 254 254 254 254 254 254 254 254 254 254 254 254 254 254
254 254 254 254 254 254 254 254 254 254 254 254 254 254 254
254 254 254 254 254 254 254 254 254 254 254 254 254 254 254
254 254 254 254 254 254 254 254 254 254 254 254 254 254 254
254 254 254 254 254 254 254 254 254 254 254 254 254 254 254
254 254 254 254 254 254 254 254 254 254 254 254 254 254 254
254 254 254 254 254 254 254 254 254 254 254 254 254 254 254
254 254 254 254 254 254 254 254 254 254 254 254 254 254 254
254 254 254 254 254 254 254 254 254 254 254 254 254 254 254
254 254 254 254 254 254 254 254 254 254 254 254 254 254 254
254 254 254 254 254 254 254 254 254 254 254 254 254 254 254
254 254 254 254 254 254 254 254 254 254 254 254 254 254 254
254 254 254 254 254 254 254 254 254 254 254 254 254 254 254
254 254 254 254 254 254 254 254 254 254 254 254 254 254 254
254 254 254 253 253 253 253 253 253 253 253 253 253 253 253
253 253 253 253 253 253 254 254 254 254 254 254 247 247 247
250 250 250 255 255 255 255 255 255 255 255 255 255 255 255
253 253 253 252 252 252 252 252 252 253 253 253 254 254 254
255 255 255 255 255 255 255 255 255 255 255 255 255 255 255
250 250 250 251 251 251 252 252 252 253 253 253 253 253 253
252 252 252 251 251 251 250 250 250 253 253 253 253 253 253
253 253 253 253 253 253 251 251 251 248 248 248 245 245 245
243 243 243 252 252 252 251 251 251 250 250 250 249 249 249
249 249 249 250 250 250 251 251 251 252 252 252 255 255 255
255 255 255 255 255 255 251 251 251 246 246 246 253 253 253
255 255 255 246 246 246 212 212 212 171 171 171 134 134 134
127 127 127 134 134 134 135 135 135 134 136 135 137 139 138
132 134 133 133 135 134 131 135 134 131 135 134 131 135 134
131 135 134 130 136 134 131 137 135 130 134 135 131 135 136
131 135 136 132 136 137 132 136 137 131 135 136 131 135 136
130 134 135 134 138 139 131 135 136 129 133 134 130 134 135
134 138 139 135 139 140 133 137 138 130 134 135 125 129 128
132 136 135 142 144 143 179 181 180 235 237 236 251 253 252
246 246 246 255 255 255 254 254 254 254 254 254 255 254 255
255 254 255 255 254 255 255 254 255 255 253 254 255 253 254
253 251 252 255 255 255 255 255 255 252 252 252 252 252 252
255 255 255 255 255 255 252 252 252 238 238 238 210 210 210
168 168 168 146 146 146 151 151 151 150 150 150 146 146 146
151 151 151 148 150 149 148 150 149 148 150 149 148 150 149
148 150 149 148 150 149 148 150 149 148 150 149 148 150 149
148 150 149 148 150 149 148 150 149 148 150 149 148 150 149
148 150 149 148 150 149 149 149 149 149 149 149 149 149 149
149 149 149 149 149 149 149 149 149 149 149 149 149 149 149
148 148 148 144 144 144 145 145 145 147 147 147 162 162 162
203 203 203 243 243 243 255 255 255 251 251 251 252 252 252
253 253 253 253 253 253 251 251 251 251 251 251 252 252 252
253 253 253 254 254 254 252 252 252 250 250 250 250 250 250
251 251 251 251 251 251 248 248 248 245 245 245 248 250 249
250 252 251 254 255 255 224 226 225 158 160 159 121 123 122
123 125 124 125 127 126 121 123 122 121 123 122 121 123 122
121 123 122 121 123 122 121 123 122 121 123 122 121 123 122
120 122 121 120 122 121 120 122 121 120 122 121 120 122 121
120 122 121 120 122 121 120 122 121 119 121 120 119 121 120
118 120 119 118 120 119 117 119 118 117 119 118 117 119 118
117 119 118 120 120 120 142 142 142 186 186 186 230 230 230
248 248 248 244 244 244 245 245 245 255 255 255 249 249 249
252 252 252 250 250 250 248 248 248 253 253 253 245 245 245
206 206 206 162 162 162 153 153 153 152 152 152 149 149 149
147 147 147 146 146 146 147 147 147 148 148 148 150 150 150
150 150 150 150 150 150 148 148 148 148 148 148 148 148 148
148 148 148 150 150 150 150 150 150 148 150 149 148 150 149
148 150 149 148 150 149 148 150 149 148 150 149 148 150 149
148 150 149 149 151 150 141 143 142 145 147 146 145 147 146
148 150 149 187 189 188 234 236 235 250 252 251 253 253 253
241 241 241 238 238 238 248 248 248 255 255 255 251 251 251
248 248 248 252 252 252 253 253 253 253 253 253 253 253 253
254 254 254 254 254 254 255 255 255 255 255 255 255 255 255
254 254 254 254 254 254 254 254 254 253 253 253 253 253 253
252 252 252 252 252 252 252 252 252 255 255 255 253 253 253
255 255 255 255 255 255 250 250 250 254 254 254 255 255 255
244 244 244 234 234 234 229 229 229 209 209 209 183 183 183
168 168 168 170 170 170 172 172 172 170 170 170 170 170 170
170 170 170 169 169 169 169 169 169 168 168 168 168 168 168
168 168 168 167 167 167 180 180 180 203 203 203 229 229 229
245 245 245 252 252 252 254 254 254 252 252 252 249 249 249
250 250 250 252 252 252 252 252 252 249 249 249 250 250 250
255 255 255 255 255 255 254 254 254 254 254 254 254 254 254
254 254 254 254 254 254 254 254 254 254 254 254 254 254 254
254 254 254 254 254 254 254 254 254 254 254 254 254 254 254
254 254 254 254 254 254 254 254 254 254 254 254 254 254 254
254 254 254 254 254 254 254 254 254 254 254 254 254 254 254
254 254 254 254 254 254 254 254 254 254 254 254 254 254 254
254 254 254 254 254 254 254 254 254 254 254 254 254 254 254
254 254 254 254 254 254 254 254 254 254 254 254 254 254 254
254 254 254 254 254 254 254 254 254 254 254 254 254 254 254
254 254 254 254 254 254 254 254 254 254 254 254 254 254 254
254 254 254 254 254 254 254 254 254 254 254 254 254 254 254
254 254 254 254 254 254 254 254 254 254 254 254 254 254 254
254 254 254 254 254 254 254 254 254 254 254 254 254 254 254
254 254 254 254 254 254 254 254 254 254 254 254 254 254 254
254 254 254 254 254 254 254 254 254 254 254 254 254 254 254
253 253 253 253 253 253 253 253 253 254 254 254 254 254 254
255 255 255 255 255 255 255 255 255 255 255 255 255 255 255
255 255 255 255 255 255 254 254 254 252 252 252 252 252 252
252 252 252 253 253 253 253 253 253 253 253 253 253 253 253
252 252 252 250 250 250 249 249 249 248 248 248 252 252 252
253 253 253 254 254 254 255 255 255 255 255 255 254 254 254
253 253 253 252 252 252 251 251 251 251 251 251 251 251 251
251 251 251 250 250 250 250 250 250 249 249 249 249 249 249
245 245 245 247 247 247 251 251 251 254 254 254 255 255 255
255 255 255 255 255 255 255 255 255 252 252 252 249 249 249
254 254 254 255 255 255 250 250 250 253 253 253 253 253 253
241 241 241 218 218 218 174 174 174 134 134 134 125 125 125
132 132 132 134 134 134 135 137 136 139 141 140 133 135 134
133 135 134 131 135 134 131 135 134 131 135 134 131 135 134
130 136 134 130 136 134 130 134 135 131 135 136 131 135 136
132 136 137 132 136 137 131 135 136 131 135 136 130 134 135
134 138 139 131 135 136 129 133 134 130 134 135 134 138 139
135 139 140 133 137 138 130 134 135 126 130 129 133 137 136
142 144 143 179 181 180 234 236 235 250 252 251 246 246 246
255 255 255 254 254 254 254 254 254 255 253 254 255 253 254
255 253 254 255 253 254 255 253 254 255 253 254 253 251 252
255 255 255 255 255 255 252 252 252 252 252 252 255 255 255
255 255 255 252 252 252 239 239 239 211 211 211 167 167 167
146 146 146 150 150 150 150 150 150 146 146 146 152 152 152
148 150 149 148 150 149 148 150 149 148 150 149 148 150 149
148 150 149 148 150 149 148 150 149 148 150 149 148 150 149
148 150 149 148 150 149 148 150 149 148 150 149 148 150 149
148 150 149 149 149 149 149 149 149 149 149 149 149 149 149
149 149 149 149 149 149 149 149 149 149 149 149 149 149 149
146 146 146 142 142 142 148 148 148 177 177 177 218 218 218
245 245 245 250 250 250 252 252 252 253 253 253 254 254 254
253 253 253 251 251 251 251 251 251 253 253 253 255 255 255
255 255 255 254 254 254 251 251 251 251 251 251 252 252 252
251 251 251 248 248 248 244 244 244 243 245 244 245 247 246
254 255 255 225 227 226 157 159 158 120 122 121 122 124 123
123 125 124 121 123 122 121 123 122 121 123 122 121 123 122
121 123 122 121 123 122 121 123 122 121 123 122 119 121 120
119 121 120 119 121 120 119 121 120 119 121 120 119 121 120
119 121 120 119 121 120 118 120 119 118 120 119 117 119 118
117 119 118 117 119 118 116 118 117 116 118 117 116 118 117
130 130 130 164 164 164 207 207 207 236 236 236 246 246 246
247 247 247 250 250 250 255 255 255 255 255 255 249 249 249
246 246 246 251 251 251 255 255 255 243 243 243 207 207 207
174 174 174 156 156 156 153 153 153 149 149 149 146 146 146
144 144 144 146 146 146 148 148 148 150 150 150 151 151 151
150 150 150 148 148 148 147 147 147 147 147 147 148 148 148
150 150 150 151 151 151 148 150 149 148 150 149 148 150 149
148 150 149 148 150 149 148 150 149 148 150 149 148 150 149
152 154 153 140 142 141 140 142 141 141 143 142 153 155 154
203 205 204 247 249 248 249 251 250 251 251 251 246 246 246
245 245 245 249 249 249 254 254 254 253 253 253 251 251 251
250 250 250 253 253 253 253 253 253 253 253 253 254 254 254
254 254 254 255 255 255 255 255 255 255 255 255 253 253 253
253 253 253 254 254 254 254 254 254 254 254 254 253 253 253
252 252 252 251 251 251 255 255 255 253 253 253 255 255 255
255 255 255 250 250 250 254 254 254 255 255 255 249 249 249
240 240 240 234 234 234 214 214 214 184 184 184 166 166 166
166 166 166 171 171 171 172 172 172 169 169 169 169 169 169
169 169 169 168 168 168 168 168 168 167 167 167 167 167 167
166 166 166 190 190 190 221 221 221 248 248 248 255 255 255
253 253 253 253 253 253 252 252 252 248 248 248 247 247 247
251 251 251 251 251 251 249 249 249 250 250 250 254 254 254
254 254 254 251 251 251 254 254 254 254 254 254 254 254 254
254 254 254 254 254 254 254 254 254 254 254 254 254 254 254
254 254 254 254 254 254 254 254 254 254 254 254 254 254 254
254 254 254 254 254 254 254 254 254 254 254 254 254 254 254
254 254 254 254 254 254 254 254 254 254 254 254 254 254 254
254 254 254 254 254 254 254 254 254 254 254 254 254 254 254
254 254 254 254 254 254 254 254 254 254 254 254 254 254 254
254 254 254 254 254 254 254 254 254 254 254 254 254 254 254
254 254 254 254 254 254 254 254 254 254 254 254 254 254 254
254 254 254 254 254 254 254 254 254 254 254 254 254 254 254
254 254 254 254 254 254 254 254 254 254 254 254 254 254 254
254 254 254 254 254 254 254 254 254 254 254 254 254 254 254
254 254 254 254 254 254 254 254 254 254 254 254 254 254 254
254 254 254 254 254 254 254 254 254 254 254 254 254 254 254
254 254 254 254 254 254 254 254 254 254 254 254 254 254 254
254 254 254 254 254 254 254 254 254 254 254 254 254 254 254
254 254 254 254 254 254 252 252 252 252 252 252 252 252 252
252 252 252 252 252 252 252 252 252 252 252 252 252 252 252
252 252 252 252 252 252 252 252 252 253 253 253 253 253 253
254 254 254 254 254 254 254 254 254 254 254 254 254 254 254
254 254 254 254 254 254 254 254 254 254 254 254 254 254 254
254 254 254 254 254 254 254 254 254 254 254 254 254 254 254
254 254 254 254 254 254 254 254 254 254 254 254 254 254 254
254 254 254 254 254 254 254 254 254 254 254 254 254 254 254
254 254 254 254 254 254 250 250 250 252 252 252 251 251 251
249 249 249 251 251 251 254 254 254 252 252 252 247 247 247
228 228 228 173 173 173 127 127 127 125 125 125 136 136 136
135 135 135 131 133 132 134 136 135 133 135 134 133 135 134
131 135 134 131 135 134 131 135 134 131 135 134 130 136 134
130 136 134 131 135 136 131 135 136 131 135 136 131 135 136
131 135 136 131 135 136 131 135 136 131 135 136 132 136 137
132 136 137 132 136 137 132 136 137 132 136 137 132 136 137
132 136 137 132 136 137 129 133 132 131 135 134 140 142 141
174 176 175 227 229 228 254 255 255 254 254 254 250 250 250
252 252 252 254 254 254 255 254 255 255 254 255 255 254 255
255 254 255 255 254 255 255 254 255 253 251 252 253 253 253
251 251 251 251 251 251 255 255 255 255 255 255 252 252 252
244 244 244 241 241 241 212 212 212 167 167 167 144 144 144
148 148 148 149 149 149 146 146 146 152 152 152 148 150 149
148 150 149 148 150 149 148 150 149 148 150 149 148 150 149
148 150 149 148 150 149 148 150 149 148 150 149 148 150 149
148 150 149 148 150 149 148 150 149 148 150 149 148 150 149
148 148 148 148 148 148 148 148 148 148 148 148 148 148 148
148 148 148 148 148 148 148 148 148 151 151 151 148 148 148
137 137 137 149 149 149 194 194 194 233 233 233 246 246 246
250 250 250 255 255 255 252 252 252 247 247 247 248 248 248
252 252 252 255 255 255 253 253 253 250 250 250 252 252 252
255 255 255 255 255 255 251 251 251 246 246 246 248 248 248
249 249 249 248 248 248 243 245 244 245 247 246 246 248 247
216 218 217 160 162 161 124 126 125 121 123 122 125 127 126
120 122 121 120 122 121 120 122 121 120 122 121 120 122 121
120 122 121 120 122 121 120 122 121 119 121 120 119 121 120
119 121 120 119 121 120 119 121 120 119 121 120 119 121 120
119 121 120 119 121 120 118 120 119 117 119 118 117 119 118
118 120 119 118 120 119 115 117 116 113 115 114 128 128 128
185 185 185 217 217 217 240 240 240 253 253 253 253 253 253
255 255 255 253 253 253 253 253 253 247 247 247 248 248 248
253 253 253 255 255 255 255 255 255 220 220 220 171 171 171
158 158 158 152 152 152 145 145 145 143 143 143 145 145 145
149 149 149 150 150 150 150 150 150 151 151 151 150 150 150
149 149 149 148 148 148 148 148 148 148 148 148 148 148 148
148 148 148 148 150 149 148 150 149 148 150 149 148 150 149
148 150 149 148 150 149 148 150 149 148 150 149 149 151 150
145 147 146 144 146 145 144 146 145 161 163 162 206 208 207
243 245 244 248 250 249 251 251 251 248 248 248 245 245 245
246 246 246 249 249 249 251 251 251 251 251 251 249 249 249
254 254 254 254 254 254 254 254 254 254 254 254 254 254 254
254 254 254 254 254 254 254 254 254 254 254 254 254 254 254
254 254 254 253 253 253 253 253 253 252 252 252 252 252 252
252 252 252 252 252 252 252 252 252 252 252 252 252 252 252
252 252 252 252 252 252 252 252 252 252 252 252 242 242 242
234 234 234 214 214 214 187 187 187 171 171 171 169 169 169
170 170 170 167 167 167 173 173 173 167 167 167 167 167 167
174 174 174 174 174 174 166 166 166 167 167 167 174 174 174
208 208 208 234 234 234 255 255 255 255 255 255 252 252 252
253 253 253 252 252 252 246 246 246 251 251 251 251 251 251
251 251 251 251 251 251 251 251 251 251 251 251 251 251 251
251 251 251 254 254 254 254 254 254 254 254 254 254 254 254
254 254 254 254 254 254 254 254 254 254 254 254 254 254 254
254 254 254 254 254 254 254 254 254 254 254 254 254 254 254
254 254 254 254 254 254 254 254 254 254 254 254 254 254 254
254 254 254 254 254 254 254 254 254 254 254 254 254 254 254
254 254 254 254 254 254 254 254 254 254 254 254 254 254 254
254 254 254 254 254 254 254 254 254 254 254 254 254 254 254
254 254 254 254 254 254 254 254 254 254 254 254 254 254 254
254 254 254 254 254 254 254 254 254 254 254 254 254 254 254
254 254 254 254 254 254 254 254 254 254 254 254 254 254 254
254 254 254 254 254 254 254 254 254 254 254 254 254 254 254
254 254 254 254 254 254 254 254 254 254 254 254 254 254 254
254 254 254 254 254 254 254 254 254 254 254 254 254 254 254
254 254 254 254 254 254 254 254 254 254 254 254 254 254 254
254 254 254 254 254 254 254 254 254 254 254 254 254 254 254
254 254 254 254 254 254 254 254 254 254 254 254 254 254 254
254 254 254 253 253 253 253 253 253 253 253 253 253 253 253
253 253 253 253 253 253 253 253 253 253 253 253 252 252 252
252 252 252 252 252 252 253 253 253 253 253 253 254 254 254
254 254 254 254 254 254 254 254 254 254 254 254 254 254 254
254 254 254 254 254 254 254 254 254 254 254 254 254 254 254
254 254 254 254 254 254 254 254 254 254 254 254 254 254 254
254 254 254 254 254 254 254 254 254 254 254 254 254 254 254
254 254 254 254 254 254 254 254 254 254 254 254 254 254 254
254 254 254 251 251 251 253 253 253 252 252 252 250 250 250
251 251 251 255 255 255 253 253 253 248 248 248 228 228 228
174 174 174 129 129 129 124 124 124 135 135 135 135 135 135
131 133 132 134 136 135 133 135 134 133 135 134 131 135 134
131 135 134 131 135 134 131 135 134 130 136 134 130 136 134
131 135 136 131 135 136 131 135 136 131 135 136 131 135 136
131 135 136 131 135 136 131 135 136 132 136 137 132 136 137
132 136 137 132 136 137 132 136 137 132 136 137 132 136 137
132 136 137 131 135 134 131 135 134 136 138 137 168 170 169
221 223 222 251 253 252 253 253 253 251 251 251 252 252 252
254 254 254 255 254 255 255 254 255 255 254 255 255 253 254
255 254 255 255 254 255 253 251 252 253 253 253 252 252 252
251 251 251 254 254 254 255 255 255 252 252 252 244 244 244
242 242 242 212 212 212 167 167 167 144 144 144 148 148 148
148 148 148 146 146 146 152 152 152 148 150 149 148 150 149
148 150 149 148 150 149 148 150 149 148 150 149 148 150 149
148 150 149 148 150 149 148 150 149 148 150 149 148 150 149
148 150 149 148 150 149 148 150 149 148 150 149 148 148 148
148 148 148 148 148 148 148 148 148 148 148 148 148 148 148
148 148 148 148 148 148 153 153 153 151 151 151 143 143 143
157 157 157 202 202 202 238 238 238 250 250 250 254 254 254
255 255 255 252 252 252 248 248 248 249 249 249 253 253 253
255 255 255 253 253 253 250 250 250 249 249 249 254 254 254
255 255 255 251 251 251 248 248 248 250 250 250 251 251 251
250 250 250 246 248 247 247 249 248 246 248 247 215 217 216
159 161 160 124 126 125 121 123 122 122 124 123 120 122 121
120 122 121 120 122 121 120 122 121 120 122 121 120 122 121
120 122 121 120 122 121 119 121 120 119 121 120 119 121 120
119 121 120 119 121 120 119 121 120 119 121 120 119 121 120
120 122 121 118 120 119 117 119 118 118 120 119 118 120 119
118 120 119 115 117 116 113 115 114 133 133 133 193 193 193
227 227 227 247 247 247 255 255 255 254 254 254 255 255 255
255 255 255 255 255 255 249 249 249 248 248 248 251 251 251
254 254 254 252 252 252 220 220 220 171 171 171 157 157 157
152 152 152 145 145 145 143 143 143 146 146 146 149 149 149
150 150 150 150 150 150 150 150 150 150 150 150 150 150 150
150 150 150 149 149 149 149 149 149 148 148 148 148 148 148
148 150 149 148 150 149 148 150 149 148 150 149 148 150 149
148 150 149 148 150 149 148 150 149 150 152 151 146 148 147
146 148 147 145 147 146 162 164 163 207 209 208 244 246 245
250 252 251 252 252 252 249 249 249 246 246 246 247 247 247
249 249 249 252 252 252 252 252 252 251 251 251 254 254 254
254 254 254 254 254 254 254 254 254 254 254 254 254 254 254
254 254 254 254 254 254 254 254 254 254 254 254 254 254 254
253 253 253 253 253 253 252 252 252 252 252 252 252 252 252
252 252 252 252 252 252 252 252 252 252 252 252 252 252 252
252 252 252 252 252 252 252 252 252 255 255 255 250 250 250
228 228 228 196 196 196 179 179 179 181 181 181 179 179 179
171 171 171 178 178 178 165 165 165 162 162 162 170 170 170
170 170 170 164 164 164 174 174 174 194 194 194 225 225 225
245 245 245 255 255 255 255 255 255 253 253 253 255 255 255
255 255 255 251 251 251 253 253 253 253 253 253 253 253 253
253 253 253 253 253 253 253 253 253 253 253 253 253 253 253
254 254 254 254 254 254 254 254 254 254 254 254 254 254 254
254 254 254 254 254 254 254 254 254 254 254 254 254 254 254
254 254 254 254 254 254 254 254 254 254 254 254 254 254 254
254 254 254 254 254 254 254 254 254 254 254 254 254 254 254
254 254 254 254 254 254 254 254 254 254 254 254 254 254 254
254 254 254 254 254 254 254 254 254 254 254 254 254 254 254
254 254 254 254 254 254 254 254 254 254 254 254 254 254 254
254 254 254 254 254 254 254 254 254 254 254 254 254 254 254
254 254 254 254 254 254 254 254 254 254 254 254 254 254 254
254 254 254 254 254 254 254 254 254 254 254 254 254 254 254
254 254 254 254 254 254 254 254 254 254 254 254 254 254 254
254 254 254 254 254 254 254 254 254 254 254 254 254 254 254
254 254 254 254 254 254 254 254 254 254 254 254 254 254 254
254 254 254 254 254 254 254 254 254 254 254 254 254 254 254
254 254 254 254 254 254 254 254 254 254 254 254 254 254 254
254 254 254 254 254 254 254 254 254 254 254 254 254 254 254
254 254 254 254 254 254 254 254 254 254 254 254 254 254 254
254 254 254 254 254 254 254 254 254 253 253 253 253 253 253
253 253 253 253 253 253 254 254 254 254 254 254 254 254 254
254 254 254 254 254 254 254 254 254 254 254 254 254 254 254
254 254 254 254 254 254 254 254 254 254 254 254 254 254 254
254 254 254 254 254 254 254 254 254 254 254 254 254 254 254
254 254 254 254 254 254 254 254 254 254 254 254 254 254 254
254 254 254 254 254 254 254 254 254 254 254 254 254 254 254
252 252 252 254 254 254 253 253 253 250 250 250 252 252 252
255 255 255 254 254 254 250 250 250 230 230 230 178 178 178
131 131 131 124 124 124 134 134 134 135 135 135 132 134 133
134 136 135 133 135 134 133 135 134 131 135 134 131 135 134
131 135 134 131 135 134 130 136 134 130 136 134 131 135 136
131 135 136 131 135 136 131 135 136 131 135 136 131 135 136
131 135 136 131 135 136 132 136 137 132 136 137 132 136 137
132 136 137 132 136 137 132 136 137 132 136 137 132 136 137
133 137 136 130 134 133 132 134 133 161 163 162 214 216 215
247 249 248 252 252 252 253 253 253 252 252 252 254 254 254
255 254 255 255 254 255 255 254 255 255 253 254 255 254 255
255 254 255 253 251 252 253 253 253 252 252 252 251 251 251
254 254 254 255 255 255 252 252 252 245 245 245 242 242 242
212 212 212 166 166 166 143 143 143 146 146 146 147 147 147
145 145 145 152 152 152 148 150 149 148 150 149 148 150 149
148 150 149 148 150 149 148 150 149 148 150 149 148 150 149
148 150 149 148 150 149 148 150 149 148 150 149 148 150 149
148 150 149 148 150 149 148 150 149 148 148 148 148 148 148
148 148 148 148 148 148 148 148 148 148 148 148 148 148 148
148 148 148 151 151 151 151 151 151 147 147 147 165 165 165
210 210 210 243 243 243 252 252 252 255 255 255 254 254 254
252 252 252 250 250 250 252 252 252 255 255 255 255 255 255
253 253 253 249 249 249 247 247 247 252 252 252 255 255 255
252 252 252 251 251 251 252 252 252 252 252 252 250 250 250
248 250 249 250 252 251 248 250 249 214 216 215 157 159 158
123 125 124 120 122 121 121 123 122 120 122 121 120 122 121
120 122 121 120 122 121 120 122 121 120 122 121 120 122 121
120 122 121 119 121 120 119 121 120 119 121 120 119 121 120
119 121 120 119 121 120 119 121 120 119 121 120 120 122 121
119 121 120 118 120 119 118 120 119 119 121 120 118 120 119
116 118 117 113 115 114 136 136 136 202 202 202 238 238 238
254 254 254 255 255 255 252 252 252 255 255 255 254 254 254
255 255 255 250 250 250 248 248 248 250 250 250 251 251 251
250 250 250 218 218 218 172 172 172 156 156 156 151 151 151
145 145 145 143 143 143 146 146 146 150 150 150 151 151 151
150 150 150 149 149 149 150 150 150 151 151 151 152 152 152
151 151 151 150 150 150 149 149 149 148 148 148 148 150 149
148 150 149 148 150 149 148 150 149 148 150 149 148 150 149
148 150 149 148 150 149 150 152 151 148 150 149 148 150 149
147 149 148 161 163 162 206 208 207 245 247 246 252 254 253
253 253 253 251 251 251 249 249 249 249 249 249 251 251 251
253 253 253 253 253 253 253 253 253 254 254 254 254 254 254
254 254 254 254 254 254 254 254 254 254 254 254 254 254 254
254 254 254 254 254 254 254 254 254 254 254 254 254 254 254
253 253 253 253 253 253 253 253 253 253 253 253 252 252 252
252 252 252 252 252 252 252 252 252 252 252 252 252 252 252
252 252 252 252 252 252 255 255 255 255 255 255 233 233 233
196 196 196 182 182 182 189 189 189 186 186 186 171 171 171
180 180 180 165 165 165 159 159 159 165 165 165 167 167 167
169 169 169 192 192 192 222 222 222 244 244 244 254 254 254
255 255 255 254 254 254 251 251 251 255 255 255 255 255 255
253 253 253 255 255 255 255 255 255 255 255 255 255 255 255
255 255 255 255 255 255 255 255 255 255 255 255 254 254 254
254 254 254 254 254 254 254 254 254 254 254 254 254 254 254
254 254 254 254 254 254 254 254 254 254 254 254 254 254 254
254 254 254 254 254 254 254 254 254 254 254 254 254 254 254
254 254 254 254 254 254 254 254 254 254 254 254 254 254 254
254 254 254 254 254 254 254 254 254 254 254 254 254 254 254
254 254 254 254 254 254 254 254 254 254 254 254 254 254 254
254 254 254 254 254 254 254 254 254 254 254 254 254 254 254
254 254 254 254 254 254 254 254 254 254 254 254 254 254 254
254 254 254 254 254 254 254 254 254 254 254 254 254 254 254
254 254 254 254 254 254 254 254 254 254 254 254 254 254 254
254 254 254 254 254 254 254 254 254 254 254 254 254 254 254
254 254 254 254 254 254 254 254 254 254 254 254 254 254 254
254 254 254 254 254 254 254 254 254 254 254 254 254 254 254
254 254 254 254 254 254 254 254 254 254 254 254 254 254 254
254 254 254 254 254 254 254 254 254 254 254 254 254 254 254
254 254 254 254 254 254 254 254 254 254 254 254 255 255 255
255 255 255 255 255 255 255 255 255 255 255 255 255 255 255
255 255 255 255 255 255 253 253 253 254 254 254 254 254 254
254 254 254 254 254 254 254 254 254 254 254 254 254 254 254
254 254 254 254 254 254 254 254 254 254 254 254 254 254 254
254 254 254 254 254 254 254 254 254 254 254 254 254 254 254
254 254 254 254 254 254 254 254 254 254 254 254 254 254 254
254 254 254 254 254 254 254 254 254 254 254 254 254 254 254
254 254 254 254 254 254 254 254 254 254 254 254 253 253 253
255 255 255 253 253 253 250 250 250 252 252 252 255 255 255
255 255 255 251 251 251 234 234 234 183 183 183 136 136 136
125 125 125 132 132 132 134 134 134 132 134 133 134 136 135
133 135 134 133 135 134 131 135 134 131 135 134 131 135 134
131 135 134 130 136 134 130 136 134 131 135 136 131 135 136
131 135 136 131 135 136 131 135 136 131 135 136 131 135 136
131 135 136 131 135 136 131 135 136 131 135 136 131 135 136
131 135 136 131 135 136 131 135 136 131 135 136 133 137 136
130 134 133 130 132 131 159 161 160 212 214 213 245 247 246
252 252 252 253 253 253 251 251 251 253 253 253 255 254 255
255 254 255 255 253 254 255 253 254 255 253 254 255 254 255
253 251 252 254 254 254 253 253 253 251 251 251 252 252 252
255 255 255 253 253 253 247 247 247 240 240 240 210 210 210
165 165 165 142 142 142 146 146 146 147 147 147 145 145 145
152 152 152 148 150 149 148 150 149 148 150 149 148 150 149
148 150 149 148 150 149 148 150 149 148 150 149 148 150 149
148 150 149 148 150 149 148 150 149 148 150 149 148 150 149
148 150 149 148 150 149 148 148 148 148 148 148 148 148 148
148 148 148 148 148 148 148 148 148 148 148 148 148 148 148
147 147 147 149 149 149 150 150 150 173 173 173 216 216 216
244 244 244 250 250 250 253 253 253 253 253 253 252 252 252
252 252 252 253 253 253 255 255 255 255 255 255 252 252 252
249 249 249 248 248 248 253 253 253 255 255 255 253 253 253
252 252 252 253 253 253 251 251 251 247 247 247 247 249 248
253 255 254 250 252 251 211 213 212 150 152 151 118 120 119
119 121 120 122 124 123 120 122 121 120 122 121 120 122 121
120 122 121 120 122 121 120 122 121 120 122 121 120 122 121
120 122 121 120 122 121 120 122 121 120 122 121 120 122 121
120 122 121 120 122 121 120 122 121 120 122 121 119 121 120
118 120 119 118 120 119 119 121 120 118 120 119 116 118 117
114 116 115 136 136 136 207 207 207 246 246 246 255 255 255
253 253 253 246 246 246 253 253 253 249 249 249 254 254 254
248 248 248 249 249 249 251 251 251 252 252 252 249 249 249
217 217 217 171 171 171 154 154 154 150 150 150 144 144 144
144 144 144 147 147 147 151 151 151 151 151 151 151 151 151
148 148 148 150 150 150 152 152 152 153 153 153 153 153 153
151 151 151 149 149 149 148 148 148 148 150 149 148 150 149
148 150 149 148 150 149 148 150 149 148 150 149 148 150 149
148 150 149 149 151 150 148 150 149 148 150 149 146 148 147
158 160 159 202 204 203 242 244 243 251 253 252 254 254 254
252 252 252 251 251 251 251 251 251 252 252 252 253 253 253
254 254 254 255 255 255 254 254 254 254 254 254 254 254 254
254 254 254 254 254 254 254 254 254 254 254 254 254 254 254
254 254 254 254 254 254 254 254 254 254 254 254 254 254 254
254 254 254 254 254 254 253 253 253 253 253 253 253 253 253
253 253 253 253 253 253 253 253 253 253 253 253 253 253 253
253 253 253 246 246 246 251 251 251 231 231 231 195 195 195
185 185 185 197 197 197 192 192 192 170 170 170 173 173 173
168 168 168 164 164 164 163 163 163 169 169 169 188 188 188
219 219 219 244 244 244 252 252 252 255 255 255 255 255 255
251 251 251 250 250 250 254 254 254 255 255 255 252 252 252
255 255 255 255 255 255 255 255 255 255 255 255 255 255 255
255 255 255 255 255 255 255 255 255 254 254 254 254 254 254
254 254 254 254 254 254 254 254 254 254 254 254 254 254 254
254 254 254 254 254 254 254 254 254 254 254 254 254 254 254
254 254 254 254 254 254 254 254 254 254 254 254 254 254 254
254 254 254 254 254 254 254 254 254 254 254 254 254 254 254
254 254 254 254 254 254 254 254 254 254 254 254 254 254 254
254 254 254 254 254 254 254 254 254 254 254 254 254 254 254
254 254 254 254 254 254 254 254 254 254 254 254 254 254 254
254 254 254 254 254 254 254 254 254 254 254 254 254 254 254
254 254 254 254 254 254 254 254 254 254 254 254 254 254 254
254 254 254 254 254 254 254 254 254 254 254 254 254 254 254
254 254 254 254 254 254 254 254 254 254 254 254 254 254 254
254 254 254 254 254 254 254 254 254 254 254 254 254 254 254
254 254 254 254 254 254 254 254 254 254 254 254 254 254 254
254 254 254 254 254 254 254 254 254 254 254 254 254 254 254
254 254 254 254 254 254 254 254 254 254 254 254 254 254 254
254 254 254 254 254 254 254 254 254 255 255 255 255 255 255
255 255 255 255 255 255 255 255 255 255 255 255 255 255 255
255 255 255 255 255 255 254 254 254 254 254 254 254 254 254
254 254 254 254 254 254 254 254 254 254 254 254 254 254 254
254 254 254 254 254 254 254 254 254 254 254 254 254 254 254
254 254 254 254 254 254 254 254 254 254 254 254 254 254 254
254 254 254 254 254 254 254 254 254 254 254 254 254 254 254
254 254 254 254 254 254 254 254 254 254 254 254 254 254 254
254 254 254 254 254 254 254 254 254 254 254 254 255 255 255
253 253 253 250 250 250 251 251 251 255 255 255 255 255 255
252 252 252 240 240 240 191 191 191 142 142 142 127 127 127
131 131 131 134 134 134 133 135 134 134 136 135 133 135 134
133 135 134 131 135 134 131 135 134 131 135 134 131 135 134
130 136 134 130 136 134 131 135 136 131 135 136 131 135 136
131 135 136 131 135 136 131 135 136 131 135 136 131 135 136
131 135 136 131 135 136 131 135 136 131 135 136 131 135 136
131 135 136 131 135 136 131 135 136 132 136 135 130 134 133
132 134 133 161 163 162 214 216 215 247 249 248 252 252 252
252 252 252 251 251 251 253 253 253 255 254 255 255 254 255
255 253 254 254 252 253 255 253 254 255 254 255 253 251 252
254 254 254 253 253 253 251 251 251 251 251 251 254 254 254
253 253 253 248 248 248 236 236 236 208 208 208 164 164 164
142 142 142 147 147 147 148 148 148 145 145 145 151 151 151
148 150 149 148 150 149 148 150 149 148 150 149 148 150 149
148 150 149 148 150 149 148 150 149 148 150 149 148 150 149
148 150 149 148 150 149 148 150 149 148 150 149 148 150 149
148 150 149 148 148 148 148 148 148 148 148 148 148 148 148
148 148 148 148 148 148 148 148 148 148 148 148 144 144 144
149 149 149 155 155 155 182 182 182 225 225 225 246 246 246
248 248 248 251 251 251 252 252 252 252 252 252 253 253 253
254 254 254 255 255 255 255 255 255 253 253 253 251 251 251
252 252 252 255 255 255 255 255 255 254 254 254 253 253 253
253 253 253 250 250 250 244 244 244 245 247 246 252 254 253
248 250 249 205 207 206 141 143 142 112 114 113 118 120 119
125 127 126 120 122 121 120 122 121 120 122 121 120 122 121
120 122 121 120 122 121 120 122 121 120 122 121 120 122 121
120 122 121 120 122 121 120 122 121 120 122 121 120 122 121
120 122 121 120 122 121 121 123 122 119 121 120 118 120 119
119 121 120 119 121 120 119 121 120 116 118 117 114 116 115
138 138 138 212 212 212 251 251 251 255 255 255 251 251 251
243 243 243 250 250 250 246 246 246 248 248 248 245 245 245
250 250 250 254 254 254 254 254 254 250 250 250 216 216 216
169 169 169 153 153 153 148 148 148 144 144 144 144 144 144
148 148 148 151 151 151 152 152 152 151 151 151 147 147 147
149 149 149 151 151 151 152 152 152 153 153 153 151 151 151
149 149 149 148 148 148 148 150 149 148 150 149 148 150 149
148 150 149 148 150 149 148 150 149 148 150 149 148 150 149
148 150 149 148 150 149 148 150 149 144 146 145 153 155 154
195 197 196 237 239 238 248 250 249 254 254 254 253 253 253
253 253 253 252 252 252 252 252 252 253 253 253 255 255 255
255 255 255 254 254 254 254 254 254 254 254 254 254 254 254
254 254 254 254 254 254 254 254 254 254 254 254 254 254 254
254 254 254 254 254 254 254 254 254 254 254 254 254 254 254
254 254 254 255 255 255 253 253 253 253 253 253 253 253 253
253 253 253 253 253 253 253 253 253 253 253 253 253 253 253
246 246 246 253 253 253 236 236 236 205 205 205 198 198 198
209 209 209 199 199 199 173 173 173 163 163 163 172 172 172
172 172 172 167 167 167 181 181 181 216 216 216 244 244 244
253 253 253 252 252 252 254 254 254 254 254 254 252 252 252
253 253 253 255 255 255 254 254 254 252 252 252 255 255 255
255 255 255 255 255 255 255 255 255 255 255 255 255 255 255
255 255 255 255 255 255 254 254 254 254 254 254 254 254 254
254 254 254 254 254 254 254 254 254 254 254 254 254 254 254
254 254 254 254 254 254 254 254 254 254 254 254 254 254 254
254 254 254 254 254 254 254 254 254 254 254 254 254 254 254
254 254 254 254 254 254 254 254 254 254 254 254 254 254 254
254 254 254 254 254 254 254 254 254 254 254 254 254 254 254
254 254 254 254 254 254 254 254 254 254 254 254 254 254 254
254 254 254 254 254 254 254 254 254 254 254 254 254 254 254
254 254 254 254 254 254 254 254 254 254 254 254 254 254 254
254 254 254 254 254 254 254 254 254 254 254 254 254 254 254
254 254 254 254 254 254 254 254 254 254 254 254 254 254 254
254 254 254 254 254 254 254 254 254 254 254 254 254 254 254
254 254 254 254 254 254 254 254 254 254 254 254 254 254 254
254 254 254 254 254 254 254 254 254 254 254 254 254 254 254
254 254 254 254 254 254 254 254 254 254 254 254 254 254 254
254 254 254 254 254 254 254 254 254 254 254 254 254 254 254
254 254 254 254 254 254 255 255 255 255 255 255 255 255 255
255 255 255 255 255 255 255 255 255 255 255 255 255 255 255
255 255 255 255 255 255 255 255 255 255 255 255 254 254 254
254 254 254 254 254 254 254 254 254 254 254 254 254 254 254
254 254 254 254 254 254 254 254 254 254 254 254 254 254 254
254 254 254 254 254 254 254 254 254 254 254 254 254 254 254
254 254 254 254 254 254 254 254 254 254 254 254 254 254 254
254 254 254 254 254 254 254 254 254 254 254 254 254 254 254
254 254 254 254 254 254 254 254 254 254 254 254 252 252 252
248 248 248 250 250 250 255 255 255 255 255 255 252 252 252
247 247 247 199 199 199 149 149 149 129 129 129 131 131 131
134 134 134 133 135 134 133 135 134 133 135 134 133 135 134
131 135 134 131 135 134 131 135 134 131 135 134 130 136 134
130 136 134 131 135 136 131 135 136 131 135 136 131 135 136
131 135 136 131 135 136 131 135 136 131 135 136 130 134 135
130 134 135 130 134 135 130 134 135 130 134 135 130 134 135
130 134 135 130 134 135 132 136 135 130 134 133 132 134 133
162 164 163 216 218 217 247 249 248 252 252 252 252 252 252
250 250 250 252 252 252 255 254 255 255 254 255 255 253 254
254 252 253 255 253 254 255 254 255 253 251 252 254 254 254
254 254 254 251 251 251 250 250 250 253 253 253 253 253 253
250 250 250 231 231 231 204 204 204 163 163 163 143 143 143
149 149 149 149 149 149 146 146 146 151 151 151 148 150 149
148 150 149 148 150 149 148 150 149 148 150 149 148 150 149
148 150 149 148 150 149 148 150 149 148 150 149 148 150 149
148 150 149 148 150 149 148 150 149 148 150 149 148 150 149
148 148 148 148 148 148 148 148 148 148 148 148 148 148 148
148 148 148 148 148 148 148 148 148 146 146 146 152 152 152
163 163 163 194 194 194 235 235 235 251 251 251 249 249 249
251 251 251 253 253 253 253 253 253 254 254 254 254 254 254
254 254 254 254 254 254 253 253 253 253 253 253 255 255 255
255 255 255 255 255 255 253 253 253 253 253 253 254 254 254
250 250 250 244 244 244 245 247 246 248 250 249 239 241 240
193 195 194 134 136 135 112 114 113 120 122 121 124 126 125
120 122 121 120 122 121 120 122 121 120 122 121 120 122 121
120 122 121 120 122 121 120 122 121 121 123 122 121 123 122
121 123 122 121 123 122 121 123 122 121 123 122 121 123 122
121 123 122 121 123 122 120 122 121 119 121 120 119 121 120
120 122 121 119 121 120 117 119 118 115 117 116 142 142 142
218 218 218 255 255 255 255 255 255 251 251 251 245 245 245
253 253 253 247 247 247 245 245 245 245 245 245 251 251 251
255 255 255 255 255 255 248 248 248 214 214 214 166 166 166
151 151 151 147 147 147 144 144 144 145 145 145 149 149 149
152 152 152 153 153 153 152 152 152 147 147 147 148 148 148
149 149 149 150 150 150 151 151 151 150 150 150 149 149 149
148 148 148 148 150 149 148 150 149 148 150 149 148 150 149
148 150 149 148 150 149 148 150 149 148 150 149 147 149 148
148 150 149 149 151 150 142 144 143 148 150 149 189 191 190
232 234 233 245 247 246 253 253 253 254 254 254 254 254 254
253 253 253 251 251 251 252 252 252 255 255 255 255 255 255
254 254 254 254 254 254 254 254 254 254 254 254 254 254 254
254 254 254 254 254 254 254 254 254 254 254 254 254 254 254
254 254 254 254 254 254 255 255 255 255 255 255 255 255 255
255 255 255 254 254 254 254 254 254 254 254 254 254 254 254
254 254 254 254 254 254 254 254 254 254 254 254 251 251 251
255 255 255 242 242 242 220 220 220 214 214 214 219 219 219
202 202 202 173 173 173 163 163 163 173 173 173 177 177 177
178 178 178 201 201 201 237 237 237 255 255 255 252 252 252
251 251 251 253 253 253 255 255 255 255 255 255 255 255 255
255 255 255 255 255 255 255 255 255 254 254 254 254 254 254
254 254 254 254 254 254 254 254 254 254 254 254 254 254 254
254 254 254 254 254 254 254 254 254 254 254 254 254 254 254
254 254 254 254 254 254 254 254 254 254 254 254 254 254 254
254 254 254 254 254 254 254 254 254 254 254 254 254 254 254
254 254 254 254 254 254 254 254 254 254 254 254 254 254 254
254 254 254 254 254 254 254 254 254 254 254 254 254 254 254
254 254 254 254 254 254 254 254 254 254 254 254 254 254 254
254 254 254 254 254 254 254 254 254 254 254 254 254 254 254
254 254 254 254 254 254 254 254 254 254 254 254 254 254 254
254 254 254 254 254 254 254 254 254 254 254 254 254 254 254
254 254 254 254 254 254 254 254 254 254 254 254 254 254 254
254 254 254 254 254 254 254 254 254 254 254 254 254 254 254
254 254 254 254 254 254 254 254 254 254 254 254 254 254 254
254 254 254 254 254 254 254 254 254 254 254 254 254 254 254
254 254 254 254 254 254 254 254 254 254 254 254 254 254 254
254 254 254 254 254 254 254 254 254 254 254 254 254 254 254
254 254 254 254 254 254 254 254 254 254 254 254 254 254 254
254 254 254 254 254 254 254 254 254 254 254 254 254 254 254
254 254 254 254 254 254 254 254 254 254 254 254 255 255 255
255 255 255 255 255 255 255 255 255 255 255 255 254 254 254
254 254 254 254 254 254 254 254 254 254 254 254 254 254 254
254 254 254 254 254 254 254 254 254 254 254 254 254 254 254
254 254 254 254 254 254 254 254 254 254 254 254 254 254 254
254 254 254 254 254 254 254 254 254 254 254 254 254 254 254
254 254 254 254 254 254 254 254 254 254 254 254 254 254 254
254 254 254 253 253 253 254 254 254 251 251 251 247 247 247
249 249 249 254 254 254 254 254 254 251 251 251 254 254 254
207 207 207 155 155 155 131 131 131 131 131 131 134 134 134
133 135 134 132 134 133 133 135 134 133 135 134 131 135 134
131 135 134 131 135 134 131 135 134 130 136 134 130 136 134
131 135 136 131 135 136 131 135 136 131 135 136 131 135 136
131 135 136 131 135 136 131 135 136 130 134 135 130 134 135
130 134 135 130 134 135 130 134 135 130 134 135 130 134 135
130 134 135 132 136 135 130 134 133 131 133 132 160 162 161
213 215 214 246 248 247 252 252 252 253 253 253 250 250 250
252 252 252 255 253 254 255 254 255 254 252 253 254 252 253
255 252 253 255 254 255 253 251 252 255 255 255 255 255 255
251 251 251 249 249 249 252 252 252 253 253 253 251 251 251
225 225 225 200 200 200 162 162 162 144 144 144 151 151 151
151 151 151 146 146 146 151 151 151 148 150 149 148 150 149
148 150 149 148 150 149 148 150 149 148 150 149 148 150 149
148 150 149 148 150 149 148 150 149 148 150 149 148 150 149
148 150 149 148 150 149 148 150 149 148 150 149 148 148 148
148 148 148 148 148 148 148 148 148 148 148 148 148 148 148
148 148 148 148 148 148 147 147 147 155 155 155 169 169 169
203 203 203 243 243 243 254 254 254 249 249 249 251 251 251
254 254 254 254 254 254 254 254 254 254 254 254 253 253 253
253 253 253 254 254 254 255 255 255 255 255 255 255 255 255
254 254 254 251 251 251 252 252 252 255 255 255 253 253 253
247 247 247 249 251 250 242 244 243 223 225 224 179 181 180
131 133 132 118 120 119 123 125 124 119 121 120 120 122 121
120 122 121 120 122 121 120 122 121 120 122 121 120 122 121
120 122 121 120 122 121 121 123 122 121 123 122 121 123 122
121 123 122 121 123 122 121 123 122 121 123 122 121 123 122
121 123 122 120 122 121 119 121 120 119 121 120 120 122 121
119 121 120 117 119 118 115 117 116 145 145 145 220 220 220
255 255 255 255 255 255 251 251 251 247 247 247 255 255 255
248 248 248 250 250 250 248 248 248 253 253 253 254 254 254
251 251 251 244 244 244 210 210 210 164 164 164 150 150 150
146 146 146 143 143 143 145 145 145 149 149 149 153 153 153
153 153 153 152 152 152 146 146 146 147 147 147 147 147 147
148 148 148 148 148 148 148 148 148 149 149 149 149 149 149
148 150 149 148 150 149 148 150 149 148 150 149 148 150 149
148 150 149 148 150 149 148 150 149 148 150 149 150 152 151
151 153 152 142 144 143 145 147 146 185 187 186 228 230 229
242 244 243 252 252 252 253 253 253 254 254 254 253 253 253
251 251 251 251 251 251 254 254 254 255 255 255 254 254 254
254 254 254 254 254 254 254 254 254 254 254 254 254 254 254
254 254 254 254 254 254 254 254 254 254 254 254 254 254 254
255 255 255 255 255 255 255 255 255 255 255 255 255 255 255
254 254 254 254 254 254 254 254 254 254 254 254 254 254 254
254 254 254 254 254 254 254 254 254 252 252 252 254 254 254
246 246 246 235 235 235 232 232 232 229 229 229 207 207 207
179 179 179 174 174 174 170 170 170 173 173 173 193 193 193
223 223 223 245 245 245 251 251 251 249 249 249 251 251 251
253 253 253 255 255 255 255 255 255 255 255 255 253 253 253
254 254 254 255 255 255 254 254 254 254 254 254 254 254 254
254 254 254 254 254 254 254 254 254 254 254 254 254 254 254
254 254 254 254 254 254 254 254 254 254 254 254 254 254 254
254 254 254 254 254 254 254 254 254 254 254 254 254 254 254
254 254 254 254 254 254 254 254 254 254 254 254 254 254 254
254 254 254 254 254 254 254 254 254 254 254 254 254 254 254
254 254 254 254 254 254 254 254 254 254 254 254 254 254 254
254 254 254 254 254 254 254 254 254 254 254 254 254 254 254
254 254 254 254 254 254 254 254 254 254 254 254 254 254 254
254 254 254 254 254 254 254 254 254 254 254 254 254 254 254
254 254 254 254 254 254 254 254 254 254 254 254 254 254 254
254 254 254 254 254 254 254 254 254 254 254 254 254 254 254
254 254 254 254 254 254 254 254 254 254 254 254 254 254 254
254 254 254 254 254 254 254 254 254 254 254 254 254 254 254
254 254 254 254 254 254 254 254 254 254 254 254 254 254 254
254 254 254 254 254 254 254 254 254 254 254 254 254 254 254
254 254 254 254 254 254 254 254 254 254 254 254 254 254 254
254 254 254 254 254 254 254 254 254 254 254 254 254 254 254
254 254 254 254 254 254 254 254 254 254 254 254 254 254 254
254 254 254 254 254 254 254 254 254 255 255 255 255 255 255
255 255 255 255 255 255 255 255 255 254 254 254 254 254 254
254 254 254 254 254 254 254 254 254 254 254 254 254 254 254
254 254 254 254 254 254 254 254 254 254 254 254 254 254 254
254 254 254 254 254 254 254 254 254 254 254 254 254 254 254
254 254 254 254 254 254 254 254 254 254 254 254 254 254 254
254 254 254 254 254 254 254 254 254 254 254 254 254 254 254
253 253 253 253 253 253 250 250 250 246 246 246 248 248 248
253 253 253 254 254 254 251 251 251 255 255 255 211 211 211
158 158 158 133 133 133 131 131 131 134 134 134 133 135 134
132 134 133 133 135 134 133 135 134 131 135 134 131 135 134
131 135 134 131 135 134 130 136 134 130 136 134 131 135 136
131 135 136 131 135 136 131 135 136 131 135 136 131 135 136
131 135 136 131 135 136 130 134 135 130 134 135 130 134 135
130 134 135 130 134 135 130 134 135 130 134 135 130 134 135
134 138 137 130 134 133 129 131 130 157 159 158 210 212 211
244 246 245 252 252 252 254 254 254 250 250 250 252 252 252
255 253 254 255 253 254 254 252 253 254 252 253 254 252 253
255 253 254 251 251 251 255 255 255 255 255 255 250 250 250
249 249 249 252 252 252 253 253 253 251 251 251 222 222 222
198 198 198 161 161 161 145 145 145 152 152 152 152 152 152
147 147 147 150 150 150 148 150 149 148 150 149 148 150 149
148 150 149 148 150 149 148 150 149 148 150 149 148 150 149
148 150 149 148 150 149 148 150 149 148 150 149 148 150 149
148 150 149 148 150 149 148 150 149 148 148 148 148 148 148
148 148 148 148 148 148 148 148 148 148 148 148 148 148 148
148 148 148 146 146 146 155 155 155 171 171 171 207 207 207
245 245 245 254 254 254 247 247 247 248 248 248 255 255 255
255 255 255 254 254 254 253 253 253 252 252 252 252 252 252
255 255 255 255 255 255 255 255 255 255 255 255 252 252 252
249 249 249 252 252 252 255 255 255 255 255 255 250 250 250
253 255 254 238 240 239 211 213 212 169 171 170 131 133 132
123 125 124 125 127 126 114 116 115 120 122 121 120 122 121
120 122 121 120 122 121 120 122 121 120 122 121 120 122 121
120 122 121 121 123 122 121 123 122 121 123 122 121 123 122
121 123 122 121 123 122 121 123 122 121 123 122 121 123 122
120 122 121 119 121 120 119 121 120 120 122 121 120 122 121
117 119 118 115 117 116 145 145 145 220 220 220 254 254 254
255 255 255 249 249 249 247 247 247 255 255 255 247 247 247
255 255 255 252 252 252 254 254 254 253 253 253 248 248 248
240 240 240 208 208 208 162 162 162 149 149 149 146 146 146
143 143 143 145 145 145 150 150 150 153 153 153 154 154 154
152 152 152 146 146 146 146 146 146 146 146 146 146 146 146
146 146 146 147 147 147 148 148 148 149 149 149 148 150 149
148 150 149 148 150 149 148 150 149 148 150 149 148 150 149
148 150 149 148 150 149 149 151 150 152 154 153 152 154 153
142 144 143 144 146 145 183 185 184 226 228 227 241 243 242
252 252 252 253 253 253 254 254 254 252 252 252 250 250 250
250 250 250 254 254 254 255 255 255 254 254 254 254 254 254
254 254 254 254 254 254 254 254 254 254 254 254 254 254 254
254 254 254 254 254 254 254 254 254 254 254 254 255 255 255
255 255 255 255 255 255 255 255 255 255 255 255 254 254 254
254 254 254 254 254 254 254 254 254 254 254 254 254 254 254
254 254 254 254 254 254 254 254 254 254 254 254 250 250 250
248 248 248 249 249 249 242 242 242 217 217 217 192 192 192
185 185 185 166 166 166 168 168 168 204 204 204 237 237 237
244 244 244 243 243 243 246 246 246 251 251 251 252 252 252
255 255 255 255 255 255 252 252 252 249 249 249 251 251 251
255 255 255 255 255 255 255 255 255 255 255 255 255 255 255
255 255 255 255 255 255 255 255 255 255 255 255 254 254 254
254 254 254 254 254 254 254 254 254 254 254 254 254 254 254
254 254 254 254 254 254 254 254 254 254 254 254 254 254 254
254 254 254 254 254 254 254 254 254 254 254 254 254 254 254
254 254 254 254 254 254 254 254 254 254 254 254 254 254 254
254 254 254 254 254 254 254 254 254 254 254 254 254 254 254
254 254 254 254 254 254 254 254 254 254 254 254 254 254 254
254 254 254 254 254 254 254 254 254 254 254 254 254 254 254
254 254 254 254 254 254 254 254 254 254 254 254 254 254 254
254 254 254 254 254 254 254 254 254 254 254 254 254 254 254
254 254 254 254 254 254 254 254 254 254 254 254 254 254 254
254 254 254 254 254 254 254 254 254 254 254 254 254 254 254
254 254 254 254 254 254 254 254 254 254 254 254 254 254 254
254 254 254 254 254 254 254 254 254 254 254 254 254 254 254
254 254 254 254 254 254 254 254 254 254 254 254 254 254 254
254 254 254 254 254 254 254 254 254 254 254 254 254 254 254
254 254 254 254 254 254 254 254 254 254 254 254 254 254 254
254 254 254 254 254 254 254 254 254 254 254 254 254 254 254
254 254 254 254 254 254 254 254 254 254 254 254 254 254 254
254 254 254 254 254 254 254 254 254 254 254 254 254 254 254
254 254 254 254 254 254 254 254 254 254 254 254 254 254 254
254 254 254 254 254 254 254 254 254 254 254 254 254 254 254
254 254 254 254 254 254 254 254 254 254 254 254 254 254 254
254 254 254 254 254 254 254 254 254 254 254 254 254 254 254
254 254 254 254 254 254 254 254 254 254 254 254 252 252 252
254 254 254 255 255 255 253 253 253 249 249 249 248 248 248
250 250 250 253 253 253 250 250 250 214 214 214 169 169 169
141 141 141 133 133 133 133 133 133 130 132 131 128 130 129
135 137 136 134 136 135 132 136 135 131 135 134 131 135 134
132 136 135 131 137 135 132 138 136 132 136 135 132 136 135
132 136 135 132 136 135 132 136 135 132 136 135 132 136 135
132 136 135 132 136 135 132 136 135 132 136 135 131 135 134
131 135 134 130 134 133 130 134 133 130 134 133 126 132 130
128 134 132 125 129 128 155 159 158 215 219 218 243 247 246
245 247 246 253 255 254 253 255 254 250 252 251 248 248 248
248 248 248 249 249 249 252 252 252 253 253 253 253 253 253
253 253 253 252 252 252 250 250 250 250 250 250 252 252 252
253 253 253 251 251 251 247 247 247 228 228 228 186 186 186
158 158 158 151 151 151 146 146 146 144 144 144 148 148 148
146 146 146 149 149 149 149 149 149 149 149 149 149 149 149
149 149 149 149 149 149 149 149 149 149 149 149 149 149 149
149 149 149 149 149 149 149 149 149 149 149 149 149 149 149
149 149 149 149 149 149 150 150 150 151 151 151 152 152 152
152 152 152 151 151 151 149 149 149 148 148 148 146 146 146
142 142 142 146 146 146 181 181 181 228 228 228 248 248 248
253 253 253 254 254 254 252 252 252 255 255 255 255 255 255
252 252 252 248 248 248 250 250 250 255 255 255 255 255 255
253 253 253 247 247 247 255 255 255 255 255 255 250 250 250
246 246 246 251 251 251 255 255 255 255 255 255 255 255 255
246 246 246 193 193 193 155 155 155 124 124 124 114 114 114
133 133 133 117 117 117 114 114 114 115 115 115 116 116 116
117 117 117 118 118 118 119 119 119 120 120 120 121 121 121
124 124 124 123 123 123 122 122 122 121 121 121 121 121 121
122 122 122 123 123 123 124 124 124 121 121 121 119 119 119
118 118 118 118 118 118 119 119 119 117 117 117 115 115 115
112 112 112 137 137 137 220 220 220 255 255 255 254 254 254
255 255 255 254 254 254 244 244 244 255 255 255 251 251 251
255 255 255 255 255 255 253 253 253 250 250 250 238 238 238
200 200 200 160 160 160 146 146 146 146 146 146 147 147 147
148 148 148 148 148 148 149 149 149 150 150 150 150 150 150
147 147 147 147 147 147 147 147 147 148 148 148 148 148 148
149 149 149 149 149 149 149 149 149 149 149 149 149 149 149
149 149 149 149 149 149 149 149 149 149 149 149 149 149 149
149 149 149 150 150 150 153 153 153 146 146 146 137 137 137
150 150 150 188 188 188 225 225 225 244 244 244 253 253 253
253 253 253 254 254 254 254 254 254 254 254 254 253 253 253
252 252 252 252 252 252 254 254 254 254 254 254 254 254 254
254 254 254 254 254 254 254 254 254 254 254 254 254 254 254
254 254 254 254 254 254 254 254 254 254 254 254 254 254 254
254 254 254 254 254 254 254 254 254 254 254 254 254 254 254
254 254 254 254 254 254 254 254 254 254 254 254 254 254 254
254 254 254 254 254 254 255 255 255 254 254 254 252 252 252
255 255 255 255 255 255 232 232 232 204 204 204 183 183 183
166 166 166 172 172 172 211 211 211 246 246 246 254 254 254
246 246 246 241 241 241 248 248 248 250 250 250 253 253 253
255 255 255 255 255 255 255 255 255 254 254 254 253 253 253
254 254 254 254 254 254 254 254 254 254 254 254 254 254 254
254 254 254 254 254 254 254 254 254 254 254 254 254 254 254
254 254 254 254 254 254 254 254 254 254 254 254 254 254 254
254 254 254 254 254 254 254 254 254 254 254 254 254 254 254
254 254 254 254 254 254 254 254 254 254 254 254 254 254 254
254 254 254 254 254 254 254 254 254 254 254 254 254 254 254
254 254 254 254 254 254 254 254 254 254 254 254 254 254 254
254 254 254 254 254 254 254 254 254 254 254 254 254 254 254
254 254 254 254 254 254 254 254 254 254 254 254 254 254 254
254 254 254 254 254 254 254 254 254 254 254 254 254 254 254
254 254 254 254 254 254 254 254 254 254 254 254 254 254 254
254 254 254 254 254 254 254 254 254 254 254 254 254 254 254
254 254 254 254 254 254 254 254 254 254 254 254 254 254 254
254 254 254 254 254 254 254 254 254 254 254 254 254 254 254
254 254 254 254 254 254 254 254 254 254 254 254 254 254 254
254 254 254 254 254 254 254 254 254 254 254 254 254 254 254
254 254 254 254 254 254 254 254 254 254 254 254 254 254 254
254 254 254 254 254 254 254 254 254 254 254 254 254 254 254
254 254 254 254 254 254 254 254 254 254 254 254 254 254 254
254 254 254 254 254 254 254 254 254 254 254 254 254 254 254
254 254 254 254 254 254 254 254 254 254 254 254 254 254 254
254 254 254 254 254 254 254 254 254 254 254 254 254 254 254
254 254 254 254 254 254 254 254 254 254 254 254 254 254 254
254 254 254 254 254 254 254 254 254 254 254 254 254 254 254
254 254 254 254 254 254 254 254 254 254 254 254 254 254 254
254 254 254 254 254 254 254 254 254 252 252 252 253 253 253
254 254 254 252 252 252 249 249 249 248 248 248 250 250 250
253 253 253 252 252 252 217 217 217 173 173 173 144 144 144
134 134 134 133 133 133 131 133 132 130 132 131 135 137 136
134 136 135 132 136 135 131 135 134 131 135 134 132 136 135
131 137 135 132 138 136 132 136 135 132 136 135 132 136 135
132 136 135 132 136 135 132 136 135 132 136 135 132 136 135
132 136 135 132 136 135 132 136 135 131 135 134 131 135 134
130 134 133 130 134 133 130 134 133 128 134 132 128 134 132
126 130 129 154 158 157 211 215 214 241 245 244 246 248 247
253 255 254 253 255 254 250 252 251 248 248 248 248 248 248
250 250 250 252 252 252 253 253 253 253 253 253 254 254 254
254 254 254 252 252 252 250 250 250 250 250 250 253 253 253
252 252 252 249 249 249 221 221 221 179 179 179 152 152 152
149 149 149 147 147 147 147 147 147 150 150 150 147 147 147
149 149 149 149 149 149 149 149 149 149 149 149 149 149 149
149 149 149 149 149 149 149 149 149 149 149 149 149 149 149
149 149 149 149 149 149 149 149 149 149 149 149 149 149 149
149 149 149 150 150 150 151 151 151 152 152 152 152 152 152
151 151 151 149 149 149 148 148 148 146 146 146 142 142 142
146 146 146 181 181 181 228 228 228 248 248 248 253 253 253
255 255 255 252 252 252 255 255 255 255 255 255 252 252 252
248 248 248 250 250 250 255 255 255 255 255 255 253 253 253
246 246 246 250 250 250 253 253 253 252 252 252 249 249 249
248 248 248 247 247 247 245 245 245 252 252 252 255 255 255
185 185 185 131 131 131 123 123 123 121 121 121 127 127 127
120 120 120 124 124 124 124 124 124 123 123 123 122 122 122
121 121 121 120 120 120 120 120 120 119 119 119 115 115 115
115 115 115 115 115 115 116 116 116 117 117 117 118 118 118
120 120 120 120 120 120 120 120 120 119 119 119 120 120 120
122 122 122 124 124 124 125 125 125 123 123 123 121 121 121
134 134 134 214 214 214 254 254 254 249 249 249 254 254 254
251 251 251 239 239 239 243 243 243 251 251 251 253 253 253
250 250 250 247 247 247 248 248 248 236 236 236 198 198 198
158 158 158 146 146 146 146 146 146 147 147 147 148 148 148
148 148 148 149 149 149 150 150 150 150 150 150 147 147 147
147 147 147 147 147 147 148 148 148 148 148 148 149 149 149
149 149 149 149 149 149 149 149 149 149 149 149 149 149 149
149 149 149 149 149 149 149 149 149 149 149 149 149 149 149
149 149 149 152 152 152 146 146 146 139 139 139 152 152 152
189 189 189 227 227 227 247 247 247 252 252 252 253 253 253
253 253 253 254 254 254 254 254 254 253 253 253 253 253 253
252 252 252 254 254 254 254 254 254 254 254 254 254 254 254
254 254 254 254 254 254 254 254 254 254 254 254 254 254 254
254 254 254 254 254 254 254 254 254 254 254 254 254 254 254
254 254 254 254 254 254 254 254 254 254 254 254 254 254 254
254 254 254 254 254 254 254 254 254 254 254 254 254 254 254
255 255 255 255 255 255 253 253 253 250 250 250 255 255 255
255 255 255 242 242 242 220 220 220 179 179 179 170 170 170
182 182 182 218 218 218 246 246 246 250 250 250 245 245 245
245 245 245 249 249 249 250 250 250 253 253 253 255 255 255
255 255 255 255 255 255 254 254 254 253 253 253 254 254 254
254 254 254 254 254 254 254 254 254 254 254 254 254 254 254
254 254 254 254 254 254 254 254 254 254 254 254 254 254 254
254 254 254 254 254 254 254 254 254 254 254 254 254 254 254
254 254 254 254 254 254 254 254 254 254 254 254 254 254 254
254 254 254 254 254 254 254 254 254 254 254 254 254 254 254
254 254 254 254 254 254 254 254 254 254 254 254 254 254 254
254 254 254 254 254 254 254 254 254 254 254 254 254 254 254
254 254 254 254 254 254 254 254 254 254 254 254 254 254 254
254 254 254 254 254 254 254 254 254 254 254 254 254 254 254
254 254 254 254 254 254 254 254 254 254 254 254 254 254 254
254 254 254 254 254 254 254 254 254 254 254 254 254 254 254
254 254 254 254 254 254 254 254 254 254 254 254 254 254 254
254 254 254 254 254 254 254 254 254 254 254 254 254 254 254
254 254 254 254 254 254 254 254 254 254 254 254 254 254 254
254 254 254 254 254 254 254 254 254 254 254 254 254 254 254
254 254 254 254 254 254 254 254 254 254 254 254 254 254 254
254 254 254 254 254 254 254 254 254 254 254 254 254 254 254
254 254 254 254 254 254 254 254 254 254 254 254 254 254 254
254 254 254 254 254 254 254 254 254 254 254 254 254 254 254
254 254 254 254 254 254 254 254 254 254 254 254 254 254 254
254 254 254 254 254 254 254 254 254 254 254 254 254 254 254
254 254 254 254 254 254 254 254 254 254 254 254 254 254 254
254 254 254 254 254 254 254 254 254 254 254 254 254 254 254
254 254 254 254 254 254 254 254 254 254 254 254 254 254 254
254 254 254 254 254 254 254 254 254 254 254 254 254 254 254
254 254 254 254 254 254 252 252 252 253 253 253 253 253 253
252 252 252 250 250 250 250 250 250 251 251 251 253 253 253
254 254 254 223 223 223 181 181 181 149 149 149 135 135 135
134 134 134 134 136 135 133 135 134 135 137 136 134 136 135
132 136 135 131 135 134 131 135 134 132 136 135 131 137 135
132 138 136 132 136 135 132 136 135 132 136 135 132 136 135
132 136 135 132 136 135 132 136 135 132 136 135 132 136 135
132 136 135 132 136 135 131 135 134 131 135 134 130 134 133
130 134 133 130 134 133 130 136 134 128 134 132 128 132 131
152 156 155 203 207 206 236 240 239 248 250 249 254 255 255
252 254 253 250 252 251 249 249 249 249 249 249 251 251 251
253 253 253 253 253 253 253 253 253 254 254 254 255 255 255
254 254 254 249 249 249 249 249 249 253 253 253 254 254 254
251 251 251 209 209 209 168 168 168 144 144 144 147 147 147
149 149 149 151 151 151 153 153 153 148 148 148 149 149 149
149 149 149 149 149 149 149 149 149 149 149 149 149 149 149
149 149 149 149 149 149 149 149 149 149 149 149 149 149 149
149 149 149 149 149 149 149 149 149 149 149 149 149 149 149
150 150 150 151 151 151 152 152 152 152 152 152 151 151 151
149 149 149 148 148 148 146 146 146 143 143 143 146 146 146
182 182 182 228 228 228 249 249 249 253 253 253 255 255 255
252 252 252 255 255 255 255 255 255 252 252 252 248 248 248
250 250 250 255 255 255 255 255 255 253 253 253 246 246 246
245 245 245 248 248 248 254 254 254 254 254 254 246 246 246
239 239 239 236 236 236 239 239 239 246 246 246 168 168 168
110 110 110 123 123 123 127 127 127 119 119 119 118 118 118
119 119 119 119 119 119 119 119 119 120 120 120 120 120 120
120 120 120 120 120 120 120 120 120 125 125 125 125 125 125
126 126 126 125 125 125 124 124 124 122 122 122 120 120 120
119 119 119 123 123 123 123 123 123 123 123 123 123 123 123
122 122 122 118 118 118 112 112 112 107 107 107 136 136 136
210 210 210 250 250 250 246 246 246 251 251 251 253 253 253
244 244 244 245 245 245 251 251 251 249 249 249 245 245 245
244 244 244 244 244 244 230 230 230 192 192 192 155 155 155
146 146 146 146 146 146 147 147 147 148 148 148 148 148 148
149 149 149 150 150 150 150 150 150 147 147 147 147 147 147
147 147 147 148 148 148 148 148 148 149 149 149 149 149 149
149 149 149 149 149 149 149 149 149 149 149 149 149 149 149
149 149 149 149 149 149 149 149 149 149 149 149 147 147 147
151 151 151 147 147 147 141 141 141 153 153 153 189 189 189
227 227 227 249 249 249 252 252 252 252 252 252 253 253 253
254 254 254 254 254 254 253 253 253 253 253 253 252 252 252
254 254 254 254 254 254 254 254 254 254 254 254 254 254 254
254 254 254 254 254 254 254 254 254 254 254 254 254 254 254
254 254 254 254 254 254 254 254 254 254 254 254 254 254 254
254 254 254 254 254 254 254 254 254 254 254 254 254 254 254
254 254 254 254 254 254 254 254 254 254 254 254 255 255 255
255 255 255 253 253 253 248 248 248 252 252 252 255 255 255
252 252 252 241 241 241 195 195 195 180 180 180 183 183 183
215 215 215 247 247 247 255 255 255 248 248 248 244 244 244
250 250 250 251 251 251 253 253 253 255 255 255 255 255 255
255 255 255 254 254 254 254 254 254 254 254 254 254 254 254
254 254 254 254 254 254 254 254 254 254 254 254 254 254 254
254 254 254 254 254 254 254 254 254 254 254 254 254 254 254
254 254 254 254 254 254 254 254 254 254 254 254 254 254 254
254 254 254 254 254 254 254 254 254 254 254 254 254 254 254
254 254 254 254 254 254 254 254 254 254 254 254 254 254 254
254 254 254 254 254 254 254 254 254 254 254 254 254 254 254
254 254 254 254 254 254 254 254 254 254 254 254 254 254 254
254 254 254 254 254 254 254 254 254 254 254 254 254 254 254
254 254 254 254 254 254 254 254 254 254 254 254 254 254 254
254 254 254 254 254 254 254 254 254 254 254 254 254 254 254
254 254 254 254 254 254 254 254 254 254 254 254 254 254 254
254 254 254 254 254 254 254 254 254 254 254 254 254 254 254
254 254 254 254 254 254 254 254 254 254 254 254 254 254 254
254 254 254 254 254 254 254 254 254 254 254 254 254 254 254
254 254 254 254 254 254 254 254 254 254 254 254 254 254 254
254 254 254 254 254 254 254 254 254 254 254 254 254 254 254
254 254 254 254 254 254 254 254 254 254 254 254 254 254 254
254 254 254 254 254 254 254 254 254 254 254 254 254 254 254
254 254 254 254 254 254 254 254 254 254 254 254 254 254 254
254 254 254 254 254 254 254 254 254 254 254 254 254 254 254
254 254 254 254 254 254 254 254 254 254 254 254 254 254 254
254 254 254 254 254 254 254 254 254 254 254 254 254 254 254
254 254 254 254 254 254 254 254 254 254 254 254 254 254 254
254 254 254 254 254 254 254 254 254 254 254 254 254 254 254
254 254 254 254 254 254 254 254 254 254 254 254 254 254 254
254 254 254 254 254 254 254 254 254 254 254 254 253 253 253
252 252 252 252 252 252 253 253 253 254 254 254 255 255 255
230 230 230 190 190 190 153 153 153 135 135 135 133 133 133
135 137 136 136 138 137 135 137 136 134 136 135 132 136 135
131 135 134 131 135 134 132 136 135 131 137 135 132 138 136
132 136 135 132 136 135 132 136 135 132 136 135 132 136 135
132 136 135 132 136 135 132 136 135 132 136 135 132 136 135
132 136 135 131 135 134 131 135 134 130 134 133 130 134 133
130 134 133 132 138 136 128 134 132 129 133 132 150 154 153
192 196 195 229 233 232 249 251 250 254 255 255 251 253 252
249 251 250 249 249 249 249 249 249 252 252 252 254 254 254
254 254 254 254 254 254 252 252 252 255 255 255 254 254 254
249 249 249 249 249 249 255 255 255 255 255 255 251 251 251
194 194 194 156 156 156 137 137 137 145 145 145 151 151 151
155 155 155 155 155 155 149 149 149 149 149 149 149 149 149
149 149 149 149 149 149 149 149 149 149 149 149 149 149 149
149 149 149 149 149 149 149 149 149 149 149 149 149 149 149
149 149 149 149 149 149 149 149 149 149 149 149 150 150 150
151 151 151 152 152 152 152 152 152 151 151 151 149 149 149
148 148 148 146 146 146 143 143 143 146 146 146 182 182 182
228 228 228 249 249 249 253 253 253 255 255 255 253 253 253
255 255 255 255 255 255 252 252 252 248 248 248 250 250 250
255 255 255 255 255 255 253 253 253 246 246 246 244 244 244
247 247 247 255 255 255 255 255 255 248 248 248 244 244 244
245 245 245 231 231 231 211 211 211 150 150 150 115 115 115
129 129 129 135 135 135 126 126 126 122 122 122 119 119 119
120 120 120 120 120 120 120 120 120 120 120 120 120 120 120
120 120 120 120 120 120 118 118 118 120 120 120 121 121 121
122 122 122 120 120 120 117 117 117 114 114 114 112 112 112
110 110 110 114 114 114 119 119 119 125 125 125 127 127 127
124 124 124 117 117 117 111 111 111 129 129 129 196 196 196
240 240 240 243 243 243 247 247 247 253 253 253 252 252 252
255 255 255 251 251 251 250 250 250 249 249 249 248 248 248
240 240 240 218 218 218 182 182 182 152 152 152 147 147 147
147 147 147 147 147 147 148 148 148 148 148 148 149 149 149
149 149 149 149 149 149 147 147 147 147 147 147 147 147 147
148 148 148 148 148 148 149 149 149 149 149 149 149 149 149
149 149 149 149 149 149 149 149 149 149 149 149 149 149 149
149 149 149 149 149 149 149 149 149 147 147 147 151 151 151
149 149 149 143 143 143 152 152 152 183 183 183 221 221 221
245 245 245 251 251 251 252 252 252 253 253 253 254 254 254
254 254 254 254 254 254 253 253 253 253 253 253 254 254 254
254 254 254 254 254 254 254 254 254 254 254 254 254 254 254
254 254 254 254 254 254 254 254 254 254 254 254 254 254 254
254 254 254 254 254 254 254 254 254 254 254 254 254 254 254
254 254 254 254 254 254 254 254 254 254 254 254 254 254 254
254 254 254 254 254 254 254 254 254 253 253 253 255 255 255
254 254 254 249 249 249 251 251 251 255 255 255 255 255 255
253 253 253 230 230 230 195 195 195 177 177 177 202 202 202
244 244 244 255 255 255 253 253 253 239 239 239 251 251 251
252 252 252 253 253 253 255 255 255 255 255 255 255 255 255
254 254 254 254 254 254 254 254 254 254 254 254 254 254 254
254 254 254 254 254 254 254 254 254 254 254 254 254 254 254
254 254 254 254 254 254 254 254 254 254 254 254 254 254 254
254 254 254 254 254 254 254 254 254 254 254 254 254 254 254
254 254 254 254 254 254 254 254 254 254 254 254 254 254 254
254 254 254 254 254 254 254 254 254 254 254 254 254 254 254
254 254 254 254 254 254 254 254 254 254 254 254 254 254 254
254 254 254 254 254 254 254 254 254 254 254 254 254 254 254
254 254 254 254 254 254 254 254 254 254 254 254 254 254 254
254 254 254 254 254 254 254 254 254 254 254 254 254 254 254
254 254 254 254 254 254 254 254 254 254 254 254 254 254 254
254 254 254 254 254 254 254 254 254 254 254 254 254 254 254
254 254 254 254 254 254 254 254 254 254 254 254 254 254 254
254 254 254 254 254 254 254 254 254 254 254 254 254 254 254
254 254 254 254 254 254 254 254 254 254 254 254 254 254 254
254 254 254 254 254 254 254 254 254 254 254 254 254 254 254
254 254 254 254 254 254 254 254 254 254 254 254 254 254 254
254 254 254 254 254 254 254 254 254 254 254 254 254 254 254
254 254 254 254 254 254 254 254 254 254 254 254 254 254 254
254 254 254 254 254 254 254 254 254 254 254 254 254 254 254
254 254 254 254 254 254 254 254 254 254 254 254 254 254 254
254 254 254 254 254 254 254 254 254 254 254 254 254 254 254
254 254 254 254 254 254 254 254 254 254 254 254 254 254 254
254 254 254 254 254 254 254 254 254 254 254 254 254 254 254
254 254 254 254 254 254 254 254 254 254 254 254 254 254 254
254 254 254 254 254 254 254 254 254 254 254 254 254 254 254
255 255 255 255 255 255 254 254 254 254 254 254 255 255 255
255 255 255 255 255 255 255 255 255 255 255 255 236 236 236
198 198 198 157 157 157 133 133 133 131 131 131 136 138 137
139 141 140 135 137 136 134 136 135 132 136 135 131 135 134
131 135 134 132 136 135 131 137 135 132 138 136 132 136 135
132 136 135 132 136 135 132 136 135 132 136 135 132 136 135
132 136 135 132 136 135 132 136 135 132 136 135 132 136 135
131 135 134 131 135 134 130 134 133 130 134 133 130 134 133
133 139 137 127 133 131 130 134 133 146 150 149 179 183 182
221 225 224 250 252 251 254 255 255 251 253 252 249 251 250
249 249 249 250 250 250 253 253 253 255 255 255 255 255 255
254 254 254 250 250 250 255 255 255 254 254 254 248 248 248
251 251 251 255 255 255 255 255 255 244 244 244 181 181 181
147 147 147 134 134 134 145 145 145 153 153 153 156 156 156
155 155 155 149 149 149 149 149 149 149 149 149 149 149 149
149 149 149 149 149 149 149 149 149 149 149 149 149 149 149
149 149 149 149 149 149 149 149 149 149 149 149 149 149 149
149 149 149 149 149 149 149 149 149 150 150 150 151 151 151
152 152 152 152 152 152 151 151 151 149 149 149 148 148 148
146 146 146 143 143 143 147 147 147 183 183 183 229 229 229
249 249 249 254 254 254 255 255 255 253 253 253 255 255 255
255 255 255 252 252 252 248 248 248 250 250 250 255 255 255
255 255 255 253 253 253 248 248 248 247 247 247 250 250 250
255 255 255 255 255 255 253 253 253 254 254 254 255 255 255
223 223 223 156 156 156 121 121 121 118 118 118 117 117 117
126 126 126 133 133 133 128 128 128 129 129 129 129 129 129
128 128 128 126 126 126 125 125 125 124 124 124 123 123 123
123 123 123 117 117 117 120 120 120 124 124 124 127 127 127
128 128 128 127 127 127 125 125 125 123 123 123 123 123 123
125 125 125 128 128 128 129 129 129 123 123 123 112 112 112 97 97 97
87 87 87 100 100 100 161 161 161 219 219 219 243 243 243 250 250 250
251 251 251 253 253 253 255 255 255 250 250 250 253 253 253
255 255 255 253 253 253 234 234 234 201 201 201 169 169 169
151 151 151 147 147 147 147 147 147 148 148 148 148 148 148
148 148 148 148 148 148 149 149 149 149 149 149 147 147 147
147 147 147 147 147 147 148 148 148 148 148 148 149 149 149
149 149 149 149 149 149 149 149 149 149 149 149 149 149 149
149 149 149 149 149 149 149 149 149 149 149 149 149 149 149
147 147 147 151 151 151 150 150 150 144 144 144 148 148 148
174 174 174 211 211 211 237 237 237 251 251 251 252 252 252
253 253 253 254 254 254 254 254 254 254 254 254 254 254 254
254 254 254 254 254 254 254 254 254 254 254 254 254 254 254
254 254 254 254 254 254 254 254 254 254 254 254 254 254 254
254 254 254 254 254 254 254 254 254 254 254 254 254 254 254
254 254 254 254 254 254 254 254 254 254 254 254 254 254 254
254 254 254 254 254 254 254 254 254 254 254 254 254 254 254
251 251 251 254 254 254 254 254 254 252 252 252 251 251 251
253 253 253 254 254 254 254 254 254 255 255 255 217 217 217
187 187 187 198 198 198 232 232 232 254 254 254 254 254 254
246 246 246 253 253 253 253 253 253 254 254 254 255 255 255
255 255 255 255 255 255 255 255 255 254 254 254 254 254 254
254 254 254 254 254 254 254 254 254 254 254 254 254 254 254
254 254 254 254 254 254 254 254 254 254 254 254 254 254 254
254 254 254 254 254 254 254 254 254 254 254 254 254 254 254
254 254 254 254 254 254 254 254 254 254 254 254 254 254 254
254 254 254 254 254 254 254 254 254 254 254 254 254 254 254
254 254 254 254 254 254 254 254 254 254 254 254 254 254 254
254 254 254 254 254 254 254 254 254 254 254 254 254 254 254
254 254 254 254 254 254 254 254 254 254 254 254 254 254 254
254 254 254 254 254 254 254 254 254 254 254 254 254 254 254
254 254 254 254 254 254 254 254 254 254 254 254 254 254 254
254 254 254 254 254 254 254 254 254 254 254 254 254 254 254
254 254 254 254 254 254 254 254 254 254 254 254 254 254 254
254 254 254 254 254 254 254 254 254 254 254 254 254 254 254
254 254 254 254 254 254 254 254 254 254 254 254 254 254 254
254 254 254 254 254 254 254 254 254 254 254 254 254 254 254
254 254 254 254 254 254 254 254 254 254 254 254 254 254 254
254 254 254 254 254 254 254 254 254 254 254 254 254 254 254
254 254 254 254 254 254 254 254 254 254 254 254 254 254 254
254 254 254 254 254 254 254 254 254 254 254 254 254 254 254
254 254 254 254 254 254 254 254 254 254 254 254 254 254 254
254 254 254 254 254 254 254 254 254 254 254 254 254 254 254
254 254 254 254 254 254 254 254 254 254 254 254 254 254 254
254 254 254 254 254 254 254 254 254 254 254 254 254 254 254
254 254 254 254 254 254 254 254 254 254 254 254 254 254 254
254 254 254 254 254 254 254 254 254 254 254 254 254 254 254
254 254 254 254 254 254 255 255 255 255 255 255 253 253 253
254 254 254 255 255 255 255 255 255 255 255 255 255 255 255
254 254 254 240 240 240 204 204 204 159 159 159 131 131 131
128 128 128 135 137 136 139 141 140 135 137 136 134 136 135
132 136 135 131 135 134 131 135 134 132 136 135 131 137 135
132 138 136 132 136 135 132 136 135 132 136 135 132 136 135
132 136 135 132 136 135 132 136 135 132 136 135 132 136 135
132 136 135 132 136 135 131 135 134 131 135 134 130 134 133
130 134 133 130 134 133 134 140 138 126 132 130 129 133 132
141 145 144 167 171 170 213 217 216 250 252 251 253 255 254
250 252 251 249 251 250 250 250 250 251 251 251 254 254 254
255 255 255 255 255 255 254 254 254 249 249 249 255 255 255
253 253 253 248 248 248 252 252 252 255 255 255 248 248 248
229 229 229 171 171 171 142 142 142 134 134 134 147 147 147
154 154 154 154 154 154 153 153 153 148 148 148 149 149 149
149 149 149 149 149 149 149 149 149 149 149 149 149 149 149
149 149 149 149 149 149 149 149 149 149 149 149 149 149 149
149 149 149 149 149 149 149 149 149 149 149 149 149 149 149
150 150 150 151 151 151 152 152 152 152 152 152 151 151 151
149 149 149 148 148 148 146 146 146 144 144 144 147 147 147
183 183 183 229 229 229 250 250 250 254 254 254 255 255 255
254 254 254 255 255 255 255 255 255 252 252 252 248 248 248
250 250 250 255 255 255 255 255 255 253 253 253 250 250 250
252 252 252 252 252 252 251 251 251 254 254 254 255 255 255
254 254 254 248 248 248 183 183 183 91 91 91 73 73 73 86 86 86
76 76 76 89 89 89 105 105 105 107 107 107 109 109 109 110 110 110
112 112 112 114 114 114 116 116 116 119 119 119 120 120 120
121 121 121 127 127 127 128 128 128 129 129 129 129 129 129
127 127 127 124 124 124 120 120 120 117 117 117 112 112 112
111 111 111 109 109 109 104 104 104 94 94 94 78 78 78 62 62 62
51 51 51 72 72 72 121 121 121 191 191 191 243 243 243 255 255 255
255 255 255 253 253 253 254 254 254 251 251 251 253 253 253
255 255 255 250 250 250 223 223 223 185 185 185 158 158 158
150 150 150 148 148 148 148 148 148 148 148 148 148 148 148
148 148 148 148 148 148 148 148 148 148 148 148 147 147 147
147 147 147 147 147 147 148 148 148 148 148 148 149 149 149
149 149 149 149 149 149 149 149 149 149 149 149 149 149 149
149 149 149 149 149 149 149 149 149 149 149 149 149 149 149
148 148 148 152 152 152 151 151 151 145 145 145 145 145 145
165 165 165 201 201 201 231 231 231 250 250 250 251 251 251
252 252 252 253 253 253 254 254 254 254 254 254 254 254 254
254 254 254 254 254 254 254 254 254 254 254 254 254 254 254
254 254 254 254 254 254 254 254 254 254 254 254 254 254 254
254 254 254 254 254 254 254 254 254 254 254 254 254 254 254
254 254 254 254 254 254 254 254 254 254 254 254 254 254 254
254 254 254 254 254 254 254 254 254 254 254 254 254 254 254
251 251 251 253 253 253 254 254 254 253 253 253 252 252 252
251 251 251 251 251 251 251 251 251 255 255 255 237 237 237
217 217 217 214 214 214 224 224 224 238 238 238 251 251 251
255 255 255 254 254 254 254 254 254 254 254 254 254 254 254
255 255 255 255 255 255 255 255 255 255 255 255 254 254 254
254 254 254 254 254 254 254 254 254 254 254 254 254 254 254
254 254 254 254 254 254 254 254 254 254 254 254 254 254 254
254 254 254 254 254 254 254 254 254 254 254 254 254 254 254
254 254 254 254 254 254 254 254 254 254 254 254 254 254 254
254 254 254 254 254 254 254 254 254 254 254 254 254 254 254
254 254 254 254 254 254 254 254 254 254 254 254 254 254 254
254 254 254 254 254 254 254 254 254 254 254 254 254 254 254
254 254 254 254 254 254 254 254 254 254 254 254 254 254 254
254 254 254 254 254 254 254 254 254 254 254 254 254 254 254
254 254 254 254 254 254 254 254 254 254 254 254 254 254 254
254 254 254 254 254 254 254 254 254 254 254 254 254 254 254
254 254 254 254 254 254 254 254 254 254 254 254 254 254 254
254 254 254 254 254 254 254 254 254 254 254 254 254 254 254
254 254 254 254 254 254 254 254 254 254 254 254 254 254 254
254 254 254 254 254 254 254 254 254 254 254 254 254 254 254
254 254 254 254 254 254 254 254 254 254 254 254 254 254 254
254 254 254 254 254 254 254 254 254 254 254 254 254 254 254
254 254 254 254 254 254 254 254 254 254 254 254 254 254 254
254 254 254 254 254 254 254 254 254 254 254 254 254 254 254
254 254 254 254 254 254 254 254 254 254 254 254 254 254 254
254 254 254 254 254 254 254 254 254 254 254 254 254 254 254
254 254 254 254 254 254 254 254 254 254 254 254 254 254 254
254 254 254 254 254 254 254 254 254 254 254 254 254 254 254
254 254 254 254 254 254 254 254 254 254 254 254 254 254 254
254 254 254 254 254 254 254 254 254 254 254 254 254 254 254
254 254 254 254 254 254 255 255 255 253 253 253 251 251 251
251 251 251 254 254 254 255 255 255 255 255 255 254 254 254
252 252 252 242 242 242 208 208 208 160 160 160 128 128 128
124 124 124 133 135 134 139 141 140 135 137 136 134 136 135
132 136 135 131 135 134 131 135 134 132 136 135 131 137 135
132 138 136 132 136 135 132 136 135 132 136 135 132 136 135
132 136 135 132 136 135 132 136 135 132 136 135 132 136 135
132 136 135 132 136 135 131 135 134 131 135 134 130 134 133
130 134 133 130 134 133 134 140 138 124 130 128 129 133 132
138 142 141 157 161 160 206 210 209 249 251 250 252 254 253
249 251 250 249 251 250 250 250 250 252 252 252 255 255 255
255 255 255 255 255 255 254 254 254 252 252 252 255 255 255
254 254 254 249 249 249 254 254 254 255 255 255 238 238 238
210 210 210 164 164 164 140 140 140 137 137 137 151 151 151
153 153 153 151 151 151 151 151 151 147 147 147 149 149 149
149 149 149 149 149 149 149 149 149 149 149 149 149 149 149
149 149 149 149 149 149 149 149 149 149 149 149 149 149 149
149 149 149 149 149 149 149 149 149 149 149 149 149 149 149
150 150 150 151 151 151 152 152 152 152 152 152 151 151 151
149 149 149 148 148 148 146 146 146 144 144 144 147 147 147
183 183 183 230 230 230 250 250 250 254 254 254 255 255 255
254 254 254 255 255 255 255 255 255 252 252 252 248 248 248
250 250 250 255 255 255 255 255 255 253 253 253 251 251 251
255 255 255 251 251 251 246 246 246 252 252 252 255 255 255
239 239 239 212 212 212 131 131 131 57 57 57 45 45 45 54 54 54
55 55 55 64 64 64 65 65 65 76 76 76 73 73 73 74 74 74 78 78 78
82 82 82 87 87 87 91 91 91 95 95 95 96 96 96 97 97 97 96 96 96
95 95 95 93 93 93 88 88 88 83 83 83 78 78 78 75 75 75 61 61 61
61 61 61 63 63 63 66 66 66 68 68 68 68 68 68 66 66 66 63 63 63
63 63 63 87 87 87 153 153 153 227 227 227 255 255 255 255 255 255
254 254 254 255 255 255 253 253 253 248 248 248 245 245 245
238 238 238 210 210 210 172 172 172 151 151 151 149 149 149
148 148 148 148 148 148 148 148 148 148 148 148 148 148 148
148 148 148 148 148 148 148 148 148 147 147 147 147 147 147
147 147 147 148 148 148 148 148 148 149 149 149 149 149 149
149 149 149 149 149 149 149 149 149 149 149 149 149 149 149
149 149 149 149 149 149 149 149 149 149 149 149 147 147 147
151 151 151 152 152 152 146 146 146 144 144 144 161 161 161
197 197 197 228 228 228 250 250 250 251 251 251 252 252 252
253 253 253 254 254 254 255 255 255 255 255 255 254 254 254
254 254 254 254 254 254 254 254 254 254 254 254 254 254 254
254 254 254 254 254 254 254 254 254 254 254 254 254 254 254
254 254 254 254 254 254 254 254 254 254 254 254 254 254 254
254 254 254 254 254 254 254 254 254 254 254 254 254 254 254
254 254 254 254 254 254 254 254 254 254 254 254 253 253 253
252 252 252 252 252 252 253 253 253 252 252 252 250 250 250
249 249 249 250 250 250 251 251 251 247 247 247 241 241 241
237 237 237 236 236 236 239 239 239 249 249 249 255 255 255
255 255 255 255 255 255 255 255 255 254 254 254 254 254 254
255 255 255 255 255 255 255 255 255 254 254 254 254 254 254
254 254 254 254 254 254 254 254 254 254 254 254 254 254 254
254 254 254 254 254 254 254 254 254 254 254 254 254 254 254
254 254 254 254 254 254 254 254 254 254 254 254 254 254 254
254 254 254 254 254 254 254 254 254 254 254 254 254 254 254
254 254 254 254 254 254 254 254 254 254 254 254 254 254 254
254 254 254 254 254 254 254 254 254 254 254 254 254 254 254
254 254 254 254 254 254 254 254 254 254 254 254 254 254 254
254 254 254 254 254 254 254 254 254 254 254 254 254 254 254
254 254 254 254 254 254 254 254 254 254 254 254 254 254 254
254 254 254 254 254 254 254 254 254 254 254 254 254 254 254
254 254 254 254 254 254 254 254 254 254 254 254 254 254 254
254 254 254 254 254 254 254 254 254 254 254 254 254 254 254
254 254 254 254 254 254 254 254 254 254 254 254 254 254 254
254 254 254 254 254 254 254 254 254 254 254 254 254 254 254
254 254 254 254 254 254 254 254 254 254 254 254 254 254 254
254 254 254 254 254 254 254 254 254 254 254 254 254 254 254
254 254 254 254 254 254 254 254 254 254 254 254 254 254 254
254 254 254 254 254 254 254 254 254 254 254 254 254 254 254
254 254 254 254 254 254 254 254 254 254 254 254 254 254 254
254 254 254 254 254 254 254 254 254 254 254 254 254 254 254
254 254 254 254 254 254 254 254 254 254 254 254 254 254 254
254 254 254 254 254 254 254 254 254 254 254 254 254 254 254
254 254 254 254 254 254 254 254 254 254 254 254 254 254 254
254 254 254 254 254 254 254 254 254 254 254 254 254 254 254
254 254 254 254 254 254 254 254 254 254 254 254 254 254 254
254 254 254 253 253 253 251 251 251 248 248 248 249 249 249
253 253 253 255 255 255 254 254 254 252 252 252 251 251 251
243 243 243 210 210 210 160 160 160 126 126 126 122 122 122
132 134 133 138 140 139 135 137 136 134 136 135 132 136 135
131 135 134 131 135 134 132 136 135 131 137 135 132 138 136
132 136 135 132 136 135 132 136 135 132 136 135 132 136 135
132 136 135 132 136 135 132 136 135 132 136 135 132 136 135
132 136 135 131 135 134 131 135 134 130 134 133 130 134 133
130 134 133 134 140 138 123 129 127 129 133 132 136 140 139
151 155 154 202 206 205 249 251 250 251 253 252 249 251 250
248 250 249 250 250 250 252 252 252 255 255 255 255 255 255
255 255 255 255 255 255 255 255 255 255 255 255 255 255 255
249 249 249 255 255 255 255 255 255 231 231 231 197 197 197
162 162 162 140 140 140 139 139 139 153 153 153 153 153 153
149 149 149 149 149 149 146 146 146 149 149 149 149 149 149
149 149 149 149 149 149 149 149 149 149 149 149 149 149 149
149 149 149 149 149 149 149 149 149 149 149 149 149 149 149
149 149 149 149 149 149 149 149 149 149 149 149 150 150 150
151 151 151 152 152 152 152 152 152 151 151 151 149 149 149
148 148 148 146 146 146 144 144 144 148 148 148 183 183 183
230 230 230 250 250 250 255 255 255 255 255 255 254 254 254
255 255 255 255 255 255 252 252 252 248 248 248 250 250 250
255 255 255 255 255 255 253 253 253 252 252 252 255 255 255
250 250 250 242 242 242 251 251 251 255 255 255 223 223 223
179 179 179 106 106 106 63 63 63 53 53 53 53 53 53 69 69 69 71 71 71
48 48 48 65 65 65 59 59 59 59 59 59 59 59 59 60 60 60 60 60 60
60 60 60 60 60 60 60 60 60 61 61 61 62 62 62 63 63 63 64 64 64
64 64 64 63 63 63 61 61 61 60 60 60 65 65 65 62 62 62 59 59 59
58 58 58 60 60 60 62 62 62 64 64 64 65 65 65 64 64 64 65 65 65
119 119 119 201 201 201 243 243 243 248 248 248 251 251 251
255 255 255 254 254 254 242 242 242 234 234 234 225 225 225
201 201 201 166 166 166 147 147 147 147 147 147 148 148 148
148 148 148 148 148 148 148 148 148 148 148 148 148 148 148
148 148 148 148 148 148 147 147 147 147 147 147 147 147 147
148 148 148 148 148 148 149 149 149 149 149 149 149 149 149
149 149 149 149 149 149 149 149 149 149 149 149 149 149 149
149 149 149 149 149 149 149 149 149 146 146 146 150 150 150
152 152 152 148 148 148 145 145 145 160 160 160 196 196 196
228 228 228 250 250 250 251 251 251 252 252 252 253 253 253
254 254 254 255 255 255 255 255 255 255 255 255 254 254 254
254 254 254 254 254 254 254 254 254 254 254 254 254 254 254
254 254 254 254 254 254 254 254 254 254 254 254 254 254 254
254 254 254 254 254 254 254 254 254 254 254 254 254 254 254
254 254 254 254 254 254 254 254 254 254 254 254 254 254 254
254 254 254 254 254 254 254 254 254 255 255 255 252 252 252
250 250 250 252 252 252 252 252 252 250 250 250 250 250 250
252 252 252 250 250 250 248 248 248 248 248 248 251 251 251
254 254 254 253 253 253 249 249 249 247 247 247 255 255 255
255 255 255 255 255 255 254 254 254 254 254 254 254 254 254
255 255 255 255 255 255 254 254 254 254 254 254 254 254 254
254 254 254 254 254 254 254 254 254 254 254 254 254 254 254
254 254 254 254 254 254 254 254 254 254 254 254 254 254 254
254 254 254 254 254 254 254 254 254 254 254 254 254 254 254
254 254 254 254 254 254 254 254 254 254 254 254 254 254 254
254 254 254 254 254 254 254 254 254 254 254 254 254 254 254
254 254 254 254 254 254 254 254 254 254 254 254 254 254 254
254 254 254 254 254 254 254 254 254 254 254 254 254 254 254
254 254 254 254 254 254 254 254 254 254 254 254 254 254 254
254 254 254 254 254 254 254 254 254 254 254 254 254 254 254
254 254 254 254 254 254 254 254 254 254 254 254 254 254 254
254 254 254 254 254 254 254 254 254 254 254 254 254 254 254
254 254 254 254 254 254 254 254 254 254 254 254 254 254 254
254 254 254 254 254 254 254 254 254 254 254 254 254 254 254
254 254 254 254 254 254 254 254 254 254 254 254 254 254 254
254 254 254 254 254 254 254 254 254 254 254 254 254 254 254
254 254 254 254 254 254 254 254 254 254 254 254 254 254 254
254 254 254 254 254 254 254 254 254 254 254 254 254 254 254
254 254 254 254 254 254 254 254 254 254 254 254 254 254 254
254 254 254 254 254 254 254 254 254 254 254 254 254 254 254
254 254 254 254 254 254 254 254 254 254 254 254 254 254 254
254 254 254 254 254 254 254 254 254 254 254 254 254 254 254
254 254 254 254 254 254 254 254 254 254 254 254 254 254 254
254 254 254 254 254 254 254 254 254 254 254 254 254 254 254
254 254 254 254 254 254 254 254 254 254 254 254 254 254 254
254 254 254 254 254 254 254 254 254 254 254 254 254 254 254
255 255 255 254 254 254 255 255 255 252 252 252 243 243 243
247 247 247 250 250 250 240 240 240 244 244 244 233 233 233
178 178 178 101 101 101 68 68 68 90 90 90 110 112 111 108 110 109
123 125 124 124 126 125 125 129 128 128 132 131 131 135 134
134 138 137 135 141 139 136 142 140 133 137 136 133 137 136
133 137 136 132 136 135 130 134 133 128 132 131 125 129 128
124 128 127 134 138 137 135 139 138 138 142 141 139 143 142
139 143 142 137 141 140 134 138 137 132 136 135 127 133 131
123 129 127 125 129 128 108 112 111 93 97 96 162 166 165 251 253 252
253 255 254 249 251 250 254 255 255 255 255 255 253 253 253
247 247 247 246 246 246 248 248 248 250 250 250 244 244 244
252 252 252 252 252 252 249 249 249 255 255 255 255 255 255
226 226 226 183 183 183 156 156 156 154 154 154 153 153 153
156 156 156 161 161 161 160 160 160 153 153 153 146 146 146
149 149 149 149 149 149 148 148 148 148 148 148 148 148 148
149 149 149 150 150 150 150 150 150 150 150 150 148 148 148
147 147 147 149 149 149 151 151 151 152 152 152 151 151 151
150 150 150 149 149 149 147 147 147 145 145 145 145 145 145
147 147 147 149 149 149 149 149 149 148 148 148 155 155 155
142 142 142 175 175 175 212 212 212 238 238 238 255 255 255
254 254 254 255 255 255 255 255 255 255 255 255 255 255 255
254 254 254 251 251 251 250 250 250 251 251 251 252 252 252
252 252 252 254 254 254 255 255 255 248 248 248 246 246 246
255 255 255 214 214 214 133 133 133 80 80 80 60 60 60 53 53 53
65 65 65 70 70 70 61 61 61 55 55 55 59 59 59 60 60 60 56 56 56
57 57 57 63 63 63 65 65 65 61 61 61 61 61 61 65 65 65 60 60 60
64 64 64 66 66 66 62 62 62 56 56 56 56 56 56 63 63 63 70 70 70
64 64 64 65 65 65 66 66 66 67 67 67 68 68 68 67 67 67 66 66 66
65 65 65 55 55 55 46 46 46 101 101 101 196 196 196 248 248 248
249 249 249 247 247 247 253 253 253 248 248 248 255 255 255
234 234 234 177 177 177 127 127 127 115 115 115 124 124 124
131 131 131 131 131 131 139 139 139 150 150 150 159 159 159
163 163 163 160 160 160 154 154 154 150 150 150 145 145 145
147 147 147 147 147 147 145 145 145 142 142 142 141 141 141
144 144 144 147 147 147 154 154 154 156 156 156 159 159 159
160 160 160 158 158 158 153 153 153 148 148 148 144 144 144
144 144 144 133 133 133 121 121 121 106 106 106 99 99 99 86 86 86
118 118 118 218 218 218 254 254 254 250 250 250 240 240 240
242 242 242 255 255 255 254 254 254 244 244 244 244 244 244
254 254 254 254 254 254 254 254 254 254 254 254 254 254 254
254 254 254 254 254 254 254 254 254 254 254 254 254 254 254
254 254 254 254 254 254 254 254 254 254 254 254 254 254 254
254 254 254 254 254 254 254 254 254 254 254 254 254 254 254
254 254 254 254 254 254 254 254 254 254 254 254 254 254 254
254 254 254 254 254 254 254 254 254 254 254 254 254 254 254
254 254 254 254 254 254 254 254 254 254 254 254 254 254 254
254 254 254 254 254 254 254 254 254 254 254 254 254 254 254
254 254 254 254 254 254 254 254 254 254 254 254 254 254 254
254 254 254 254 254 254 254 254 254 254 254 254 254 254 254
254 254 254 254 254 254 254 254 254 254 254 254 254 254 254
254 254 254 254 254 254 254 254 254 254 254 254 254 254 254
254 254 254 254 254 254 254 254 254 254 254 254 254 254 254
254 254 254 254 254 254 254 254 254 254 254 254 254 254 254
254 254 254 254 254 254 254 254 254 254 254 254 254 254 254
254 254 254 254 254 254 254 254 254 254 254 254 254 254 254
254 254 254 254 254 254 254 254 254 254 254 254 254 254 254
254 254 254 254 254 254 254 254 254 254 254 254 254 254 254
254 254 254 254 254 254 254 254 254 254 254 254 254 254 254
254 254 254 254 254 254 254 254 254 254 254 254 254 254 254
254 254 254 254 254 254 254 254 254 254 254 254 254 254 254
254 254 254 254 254 254 254 254 254 254 254 254 254 254 254
254 254 254 254 254 254 254 254 254 254 254 254 254 254 254
254 254 254 254 254 254 254 254 254 254 254 254 254 254 254
254 254 254 254 254 254 254 254 254 254 254 254 254 254 254
254 254 254 254 254 254 254 254 254 254 254 254 254 254 254
254 254 254 254 254 254 254 254 254 254 254 254 254 254 254
254 254 254 254 254 254 254 254 254 254 254 254 254 254 254
254 254 254 254 254 254 254 254 254 254 254 254 254 254 254
254 254 254 254 254 254 254 254 254 254 254 254 254 254 254
254 254 254 254 254 254 254 254 254 254 254 254 254 254 254
254 254 254 254 254 254 254 254 254 254 254 254 254 254 254
254 254 254 254 254 254 254 254 254 254 254 254 254 254 254
254 254 254 254 254 254 254 254 254 254 254 254 254 254 254
254 254 254 254 254 254 254 254 254 254 254 254 254 254 254
254 254 254 253 253 253 248 248 248 252 252 252 253 253 253
247 247 247 251 251 251 255 255 255 248 248 248 255 255 255
203 203 203 127 127 127 70 70 70 52 52 52 63 63 63 75 77 76 79 81 80
82 84 83 86 88 87 91 95 94 100 104 103 111 115 114 122 126 125
129 135 133 134 140 138 142 146 145 137 141 140 129 133 132
124 128 127 123 127 126 127 131 130 133 137 136 137 141 140
124 128 127 123 127 126 121 125 124 117 121 120 111 115 114
104 108 107 98 102 101 95 99 98 80 86 84 70 76 74 70 74 73 58 62 61
55 59 58 129 133 132 226 228 227 248 250 249 251 253 252 252 254 253
255 255 255 255 255 255 252 252 252 249 249 249 251 251 251
255 255 255 251 251 251 255 255 255 252 252 252 243 243 243
250 250 250 242 242 242 184 184 184 115 115 115 102 102 102
114 114 114 132 132 132 148 148 148 158 158 158 160 160 160
159 159 159 157 157 157 150 150 150 150 150 150 149 149 149
147 147 147 145 145 145 144 144 144 143 143 143 142 142 142
144 144 144 143 143 143 142 142 142 144 144 144 147 147 147
149 149 149 149 149 149 148 148 148 140 140 140 144 144 144
151 151 151 158 158 158 162 162 162 161 161 161 155 155 155
150 150 150 145 145 145 136 136 136 171 171 171 211 211 211
241 241 241 255 255 255 249 249 249 250 250 250 255 255 255
255 255 255 255 255 255 254 254 254 251 251 251 250 250 250
251 251 251 252 252 252 255 255 255 250 250 250 253 253 253
253 253 253 253 253 253 254 254 254 206 206 206 126 126 126 84 84 84
69 69 69 55 55 55 55 55 55 66 66 66 75 75 75 76 76 76 74 74 74
67 67 67 60 60 60 58 58 58 63 63 63 65 65 65 60 60 60 57 57 57
57 57 57 60 60 60 65 65 65 70 70 70 70 70 70 65 65 65 62 62 62
63 63 63 65 65 65 64 64 64 65 65 65 66 66 66 67 67 67 67 67 67
66 66 66 64 64 64 64 64 64 63 63 63 43 43 43 71 71 71 149 149 149
220 220 220 255 255 255 255 255 255 247 247 247 255 255 255
253 253 253 206 206 206 122 122 122 62 62 62 55 55 55 67 67 67
68 68 68 88 88 88 91 91 91 98 98 98 106 106 106 116 116 116
125 125 125 132 132 132 137 137 137 147 147 147 149 149 149
152 152 152 153 153 153 152 152 152 152 152 152 153 153 153
155 155 155 146 146 146 144 144 144 140 140 140 132 132 132
122 122 122 110 110 110 99 99 99 93 93 93 79 79 79 77 77 77 74 74 74
65 65 65 62 62 62 51 51 51 88 88 88 193 193 193 252 252 252
252 252 252 245 245 245 246 246 246 255 255 255 255 255 255
247 247 247 249 249 249 254 254 254 254 254 254 254 254 254
254 254 254 254 254 254 254 254 254 254 254 254 254 254 254
254 254 254 254 254 254 254 254 254 254 254 254 254 254 254
254 254 254 254 254 254 254 254 254 254 254 254 254 254 254
254 254 254 254 254 254 254 254 254 254 254 254 254 254 254
254 254 254 254 254 254 254 254 254 254 254 254 254 254 254
254 254 254 254 254 254 254 254 254 254 254 254 254 254 254
254 254 254 254 254 254 254 254 254 254 254 254 254 254 254
254 254 254 254 254 254 254 254 254 254 254 254 254 254 254
254 254 254 254 254 254 254 254 254 254 254 254 254 254 254
254 254 254 254 254 254 254 254 254 254 254 254 254 254 254
254 254 254 254 254 254 254 254 254 254 254 254 254 254 254
254 254 254 254 254 254 254 254 254 254 254 254 254 254 254
254 254 254 254 254 254 254 254 254 254 254 254 254 254 254
254 254 254 254 254 254 254 254 254 254 254 254 254 254 254
254 254 254 254 254 254 254 254 254 254 254 254 254 254 254
254 254 254 254 254 254 254 254 254 254 254 254 254 254 254
254 254 254 254 254 254 254 254 254 254 254 254 254 254 254
254 254 254 254 254 254 254 254 254 254 254 254 254 254 254
254 254 254 254 254 254 254 254 254 254 254 254 254 254 254
254 254 254 254 254 254 254 254 254 254 254 254 254 254 254
254 254 254 254 254 254 254 254 254 254 254 254 254 254 254
254 254 254 254 254 254 254 254 254 254 254 254 254 254 254
254 254 254 254 254 254 254 254 254 254 254 254 254 254 254
254 254 254 254 254 254 254 254 254 254 254 254 254 254 254
254 254 254 254 254 254 254 254 254 254 254 254 254 254 254
254 254 254 254 254 254 254 254 254 254 254 254 254 254 254
254 254 254 254 254 254 254 254 254 254 254 254 254 254 254
254 254 254 254 254 254 254 254 254 254 254 254 254 254 254
254 254 254 254 254 254 254 254 254 254 254 254 254 254 254
254 254 254 254 254 254 254 254 254 254 254 254 254 254 254
254 254 254 254 254 254 254 254 254 254 254 254 254 254 254
254 254 254 254 254 254 254 254 254 254 254 254 254 254 254
254 254 254 254 254 254 254 254 254 254 254 254 254 254 254
254 254 254 254 254 254 254 254 254 254 254 254 254 254 254
254 254 254 254 254 254 254 254 254 255 255 255 249 249 249
253 253 253 255 255 255 253 253 253 254 254 254 255 255 255
255 255 255 255 255 255 164 164 164 76 76 76 50 50 50 55 55 55
54 54 54 53 55 54 61 63 62 48 50 49 49 51 50 49 53 52 52 56 55
57 61 60 63 67 66 67 73 71 70 76 74 74 78 77 75 79 78 76 80 79
77 81 80 77 81 80 77 81 80 76 80 79 75 79 78 82 86 85 80 84 83
78 82 81 75 79 78 72 76 75 68 72 71 66 70 69 64 68 67 65 71 69
49 55 53 49 53 52 41 45 44 39 43 42 100 104 103 189 191 190
234 236 235 254 255 255 250 252 251 250 250 250 255 255 255
254 254 254 248 248 248 248 248 248 255 255 255 247 247 247
254 254 254 250 250 250 244 244 244 250 250 250 231 231 231
153 153 153 66 66 66 70 70 70 81 81 81 94 94 94 102 102 102
106 106 106 113 113 113 126 126 126 136 136 136 145 145 145
147 147 147 151 151 151 155 155 155 158 158 158 160 160 160
161 161 161 161 161 161 149 149 149 147 147 147 147 147 147
147 147 147 149 149 149 150 150 150 149 149 149 148 148 148
163 163 163 161 161 161 158 158 158 152 152 152 141 141 141
124 124 124 107 107 107 95 95 95 68 68 68 71 71 71 117 117 117
173 173 173 228 228 228 255 255 255 255 255 255 255 255 255
254 254 254 255 255 255 255 255 255 254 254 254 252 252 252
251 251 251 251 251 251 252 252 252 252 252 252 239 239 239
240 240 240 245 245 245 244 244 244 235 235 235 176 176 176 91 91 91
56 56 56 64 64 64 66 66 66 61 61 61 62 62 62 70 70 70 71 71 71
66 66 66 56 56 56 51 51 51 49 49 49 55 55 55 60 60 60 62 62 62
64 64 64 66 66 66 57 57 57 61 61 61 64 64 64 64 64 64 63 63 63
61 61 61 60 60 60 60 60 60 65 65 65 65 65 65 64 64 64 63 63 63
60 60 60 58 58 58 56 56 56 55 55 55 53 53 53 51 51 51 77 77 77
131 131 131 194 194 194 248 248 248 255 255 255 243 243 243
253 253 253 236 236 236 173 173 173 87 87 87 42 42 42 51 51 51
67 67 67 65 65 65 62 62 62 61 61 61 60 60 60 62 62 62 68 68 68
77 77 77 86 86 86 92 92 92 83 83 83 84 84 84 86 86 86 89 89 89
92 92 92 93 93 93 92 92 92 91 91 91 94 94 94 92 92 92 87 87 87
81 81 81 72 72 72 64 64 64 56 56 56 52 52 52 55 55 55 57 57 57
62 62 62 58 58 58 56 56 56 46 46 46 83 83 83 187 187 187 246 246 246
254 254 254 252 252 252 251 251 251 255 255 255 255 255 255
250 250 250 254 254 254 254 254 254 254 254 254 254 254 254
254 254 254 254 254 254 254 254 254 254 254 254 254 254 254
254 254 254 254 254 254 254 254 254 254 254 254 254 254 254
254 254 254 254 254 254 254 254 254 254 254 254 254 254 254
254 254 254 254 254 254 254 254 254 254 254 254 254 254 254
254 254 254 254 254 254 254 254 254 254 254 254 254 254 254
254 254 254 254 254 254 254 254 254 254 254 254 254 254 254
254 254 254 254 254 254 254 254 254 254 254 254 254 254 254
254 254 254 254 254 254 254 254 254 254 254 254 254 254 254
254 254 254 254 254 254 254 254 254 254 254 254 254 254 254
254 254 254 254 254 254 254 254 254 254 254 254 254 254 254
254 254 254 254 254 254 254 254 254 254 254 254 254 254 254
254 254 254 254 254 254 254 254 254 254 254 254 254 254 254
254 254 254 254 254 254 254 254 254 254 254 254 254 254 254
254 254 254 254 254 254 254 254 254 254 254 254 254 254 254
254 254 254 254 254 254 254 254 254 254 254 254 254 254 254
254 254 254 254 254 254 254 254 254 254 254 254 254 254 254
254 254 254 254 254 254 254 254 254 254 254 254 254 254 254
254 254 254 254 254 254 254 254 254 254 254 254 254 254 254
254 254 254 254 254 254 254 254 254 254 254 254 254 254 254
254 254 254 254 254 254 254 254 254 254 254 254 254 254 254
254 254 254 254 254 254 254 254 254 254 254 254 254 254 254
254 254 254 254 254 254 254 254 254 254 254 254 254 254 254
254 254 254 254 254 254 254 254 254 254 254 254 254 254 254
254 254 254 254 254 254 254 254 254 254 254 254 254 254 254
254 254 254 254 254 254 254 254 254 254 254 254 254 254 254
254 254 254 254 254 254 254 254 254 254 254 254 254 254 254
254 254 254 254 254 254 254 254 254 254 254 254 254 254 254
254 254 254 254 254 254 254 254 254 254 254 254 254 254 254
254 254 254 254 254 254 254 254 254 254 254 254 254 254 254
254 254 254 254 254 254 254 254 254 254 254 254 254 254 254
254 254 254 254 254 254 254 254 254 254 254 254 254 254 254
254 254 254 254 254 254 254 254 254 254 254 254 254 254 254
254 254 254 254 254 254 254 254 254 254 254 254 254 254 254
254 254 254 254 254 254 254 254 254 254 254 254 254 254 254
254 254 254 254 254 254 254 254 254 255 255 255 252 252 252
255 255 255 255 255 255 250 250 250 246 246 246 252 252 252
254 254 254 228 228 228 132 132 132 53 53 53 49 49 49 69 69 69
66 66 66 59 61 60 66 68 67 75 77 76 73 75 74 67 71 70 63 67 66
60 64 63 58 62 61 56 62 60 57 63 61 49 53 52 53 57 56 59 63 62
64 68 67 65 69 68 62 66 65 58 62 61 55 59 58 53 57 56 53 57 56
52 56 55 52 56 55 54 58 57 55 59 58 57 61 60 59 63 62 70 76 74
58 64 62 65 69 68 57 61 60 49 53 52 82 86 85 150 152 151 215 217 216
254 255 255 249 251 250 247 247 247 253 253 253 252 252 252
243 243 243 242 242 242 248 248 248 244 244 244 246 246 246
248 248 248 251 251 251 244 244 244 203 203 203 123 123 123 53 53 53
62 62 62 65 65 65 67 67 67 63 63 63 58 58 58 61 61 61 73 73 73
84 84 84 97 97 97 101 101 101 108 108 108 116 116 116 123 123 123
128 128 128 130 130 130 132 132 132 144 144 144 142 142 142
139 139 139 138 138 138 138 138 138 136 136 136 134 134 134
132 132 132 105 105 105 101 101 101 95 95 95 88 88 88 81 81 81
73 73 73 65 65 65 59 59 59 53 53 53 59 59 59 99 99 99 153 153 153
220 220 220 255 255 255 252 252 252 252 252 252 253 253 253
254 254 254 255 255 255 255 255 255 252 252 252 251 251 251
251 251 251 252 252 252 255 255 255 251 251 251 253 253 253
252 252 252 247 247 247 235 235 235 170 170 170 76 76 76 64 64 64
72 72 72 72 72 72 55 55 55 37 37 37 36 36 36 53 53 53 69 69 69
64 64 64 61 61 61 56 56 56 51 51 51 50 50 50 53 53 53 61 61 61
68 68 68 61 61 61 59 59 59 56 56 56 54 54 54 54 54 54 57 57 57
60 60 60 63 63 63 64 64 64 64 64 64 64 64 64 64 64 64 63 63 63
62 62 62 61 61 61 61 61 61 55 55 55 59 59 59 85 85 85 131 131 131
187 187 187 241 241 241 255 255 255 244 244 244 231 231 231
188 188 188 119 119 119 62 62 62 49 49 49 67 67 67 76 76 76 70 70 70
60 60 60 59 59 59 57 57 57 56 56 56 55 55 55 55 55 55 55 55 55
56 56 56 64 64 64 62 62 62 61 61 61 63 63 63 66 66 66 68 68 68
66 66 66 64 64 64 65 65 65 65 65 65 66 66 66 67 67 67 67 67 67
68 68 68 68 68 68 68 68 68 57 57 57 58 58 58 62 62 62 59 59 59
58 58 58 42 42 42 70 70 70 166 166 166 236 236 236 251 251 251
254 254 254 252 252 252 255 255 255 253 253 253 250 250 250
255 255 255 254 254 254 254 254 254 254 254 254 254 254 254
254 254 254 254 254 254 254 254 254 254 254 254 254 254 254
254 254 254 254 254 254 254 254 254 254 254 254 254 254 254
254 254 254 254 254 254 254 254 254 254 254 254 254 254 254
254 254 254 254 254 254 254 254 254 254 254 254 254 254 254
254 254 254 254 254 254 254 254 254 254 254 254 254 254 254
254 254 254 254 254 254 254 254 254 254 254 254 254 254 254
254 254 254 254 254 254 254 254 254 254 254 254 254 254 254
254 254 254 254 254 254 254 254 254 254 254 254 254 254 254
254 254 254 254 254 254 254 254 254 254 254 254 254 254 254
254 254 254 254 254 254 254 254 254 254 254 254 254 254 254
254 254 254 254 254 254 254 254 254 254 254 254 254 254 254
254 254 254 254 254 254 254 254 254 254 254 254 254 254 254
254 254 254 254 254 254 254 254 254 254 254 254 254 254 254
254 254 254 254 254 254 254 254 254 254 254 254 254 254 254
254 254 254 254 254 254 254 254 254 254 254 254 254 254 254
254 254 254 254 254 254 254 254 254 254 254 254 254 254 254
254 254 254 254 254 254 254 254 254 254 254 254 254 254 254
254 254 254 254 254 254 254 254 254 254 254 254 254 254 254
254 254 254 254 254 254 254 254 254 254 254 254 254 254 254
254 254 254 254 254 254 254 254 254 254 254 254 254 254 254
254 254 254 254 254 254 254 254 254 254 254 254 254 254 254
254 254 254 254 254 254 254 254 254 254 254 254 254 254 254
254 254 254 254 254 254 254 254 254 254 254 254 254 254 254
254 254 254 254 254 254 254 254 254 254 254 254 254 254 254
254 254 254 254 254 254 254 254 254 254 254 254 254 254 254
254 254 254 254 254 254 254 254 254 254 254 254 254 254 254
254 254 254 254 254 254 254 254 254 254 254 254 254 254 254
254 254 254 254 254 254 254 254 254 254 254 254 254 254 254
254 254 254 254 254 254 254 254 254 254 254 254 254 254 254
254 254 254 254 254 254 254 254 254 254 254 254 254 254 254
254 254 254 254 254 254 254 254 254 254 254 254 254 254 254
254 254 254 254 254 254 254 254 254 254 254 254 254 254 254
254 254 254 254 254 254 254 254 254 254 254 254 254 254 254
254 254 254 254 254 254 254 254 254 254 254 254 254 254 254
254 254 254 254 254 254 254 254 254 250 250 250 255 255 255
255 255 255 243 243 243 237 237 237 243 243 243 244 244 244
190 190 190 115 115 115 52 52 52 50 50 50 68 68 68 69 69 69 67 69 68
73 75 74 54 56 55 53 55 54 50 54 53 50 54 53 50 54 53 51 55 54
52 58 56 53 59 57 65 69 68 62 66 65 59 63 62 58 62 61 59 63 62
63 67 66 68 72 71 71 75 74 64 68 67 62 66 65 60 64 63 57 61 60
56 60 59 56 60 59 57 61 60 57 61 60 55 61 59 51 57 55 67 71 70
57 61 60 48 52 51 62 66 65 112 114 113 198 200 199 254 255 255
246 248 247 246 246 246 252 252 252 252 252 252 245 245 245
243 243 243 247 247 247 253 253 253 247 247 247 252 252 252
255 255 255 219 219 219 146 146 146 79 79 79 49 49 49 56 56 56
60 60 60 64 64 64 65 65 65 62 62 62 57 57 57 55 55 55 54 54 54
60 60 60 63 63 63 67 67 67 71 71 71 74 74 74 75 75 75 75 75 75
75 75 75 70 70 70 67 67 67 65 65 65 64 64 64 63 63 63 62 62 62
59 59 59 57 57 57 53 53 53 52 52 52 51 51 51 53 53 53 57 57 57
62 62 62 65 65 65 66 66 66 62 62 62 65 65 65 89 89 89 132 132 132
208 208 208 255 255 255 246 246 246 246 246 246 251 251 251
253 253 253 255 255 255 255 255 255 253 253 253 252 252 252
252 252 252 252 252 252 249 249 249 252 252 252 255 255 255
252 252 252 245 245 245 243 243 243 186 186 186 94 94 94 56 56 56
57 57 57 67 67 67 76 76 76 70 70 70 61 61 61 69 69 69 86 86 86
80 80 80 76 76 76 62 62 62 41 41 41 25 25 25 24 24 24 35 35 35
46 46 46 66 66 66 64 64 64 61 61 61 59 59 59 58 58 58 59 59 59
60 60 60 61 61 61 54 54 54 54 54 54 55 55 55 56 56 56 57 57 57
59 59 59 60 60 60 61 61 61 61 61 61 50 50 50 71 71 71 129 129 129
198 198 198 251 251 251 255 255 255 246 246 246 232 232 232
154 154 154 75 75 75 49 49 49 59 59 59 68 68 68 63 63 63 58 58 58
57 57 57 58 58 58 59 59 59 61 61 61 62 62 62 62 62 62 62 62 62
62 62 62 61 61 61 57 57 57 52 52 52 51 51 51 53 53 53 54 54 54
53 53 53 51 51 51 46 46 46 46 46 46 48 48 48 49 49 49 52 52 52
54 54 54 56 56 56 57 57 57 63 63 63 60 60 60 60 60 60 59 59 59
61 61 61 43 43 43 59 59 59 146 146 146 224 224 224 245 245 245
253 253 253 250 250 250 252 252 252 250 250 250 248 248 248
255 255 255 254 254 254 254 254 254 254 254 254 254 254 254
254 254 254 254 254 254 254 254 254 254 254 254 254 254 254
254 254 254 254 254 254 254 254 254 254 254 254 254 254 254
254 254 254 254 254 254 254 254 254 254 254 254 254 254 254
254 254 254 254 254 254 254 254 254 254 254 254 254 254 254
254 254 254 254 254 254 254 254 254 254 254 254 254 254 254
254 254 254 254 254 254 254 254 254 254 254 254 254 254 254
254 254 254 254 254 254 254 254 254 254 254 254 254 254 254
254 254 254 254 254 254 254 254 254 254 254 254 254 254 254
254 254 254 254 254 254 254 254 254 254 254 254 254 254 254
254 254 254 254 254 254 254 254 254 254 254 254 254 254 254
254 254 254 254 254 254 254 254 254 254 254 254 254 254 254
254 254 254 254 254 254 254 254 254 254 254 254 254 254 254
254 254 254 254 254 254 254 254 254 254 254 254 254 254 254
254 254 254 254 254 254 254 254 254 254 254 254 254 254 254
254 254 254 254 254 254 254 254 254 254 254 254 254 254 254
254 254 254 254 254 254 254 254 254 254 254 254 254 254 254
254 254 254 254 254 254 254 254 254 254 254 254 254 254 254
254 254 254 254 254 254 254 254 254 254 254 254 254 254 254
254 254 254 254 254 254 254 254 254 254 254 254 254 254 254
254 254 254 254 254 254 254 254 254 254 254 254 254 254 254
254 254 254 254 254 254 254 254 254 254 254 254 254 254 254
254 254 254 254 254 254 254 254 254 254 254 254 254 254 254
254 254 254 254 254 254 254 254 254 254 254 254 254 254 254
254 254 254 254 254 254 254 254 254 254 254 254 254 254 254
254 254 254 254 254 254 254 254 254 254 254 254 254 254 254
254 254 254 254 254 254 254 254 254 254 254 254 254 254 254
254 254 254 254 254 254 254 254 254 254 254 254 254 254 254
254 254 254 254 254 254 254 254 254 254 254 254 254 254 254
254 254 254 254 254 254 254 254 254 254 254 254 254 254 254
254 254 254 254 254 254 254 254 254 254 254 254 254 254 254
254 254 254 254 254 254 254 254 254 254 254 254 254 254 254
254 254 254 254 254 254 254 254 254 254 254 254 254 254 254
254 254 254 254 254 254 254 254 254 254 254 254 254 254 254
254 254 254 254 254 254 254 254 254 254 254 254 254 254 254
254 254 254 254 254 254 252 252 252 252 252 252 255 255 255
255 255 255 244 244 244 245 245 245 246 246 246 237 237 237
164 164 164 112 112 112 62 62 62 51 51 51 59 59 59 64 64 64 66 68 67
73 75 74 59 61 60 59 61 60 58 62 61 58 62 61 59 63 62 60 64 63
59 65 63 59 65 63 53 57 56 53 57 56 52 56 55 52 56 55 53 57 56
55 59 58 57 61 60 58 62 61 65 69 68 63 67 66 60 64 63 56 60 59
53 57 56 52 56 55 51 55 54 51 55 54 52 58 56 49 55 53 64 68 67
49 53 52 45 49 48 51 55 54 85 87 86 183 185 184 241 243 242
244 246 245 249 249 249 252 252 252 254 254 254 254 254 254
253 253 253 252 252 252 255 255 255 250 250 250 255 255 255
255 255 255 195 195 195 102 102 102 53 53 53 56 56 56 67 67 67
66 66 66 66 66 66 67 67 67 67 67 67 66 66 66 64 64 64 61 61 61
62 62 62 63 63 63 65 65 65 67 67 67 67 67 67 67 67 67 66 66 66
66 66 66 61 61 61 59 59 59 58 58 58 59 59 59 61 61 61 62 62 62
61 61 61 60 60 60 65 65 65 65 65 65 65 65 65 67 67 67 68 68 68
67 67 67 64 64 64 61 61 61 50 50 50 50 50 50 60 60 60 97 97 97
188 188 188 251 251 251 247 247 247 251 251 251 250 250 250
253 253 253 255 255 255 255 255 255 254 254 254 252 252 252
252 252 252 252 252 252 232 232 232 239 239 239 251 251 251
247 247 247 240 240 240 247 247 247 214 214 214 146 146 146 83 83 83
61 61 61 54 54 54 68 68 68 75 75 75 62 62 62 49 49 49 49 49 49
57 57 57 53 53 53 38 38 38 13 13 13 0 0 0 0 0 0 15 15 15 28 28 28
58 58 58 63 63 63 68 68 68 69 69 69 66 66 66 61 61 61 56 56 56
54 54 54 61 61 61 61 61 61 60 60 60 60 60 60 60 60 60 61 61 61
62 62 62 63 63 63 53 53 53 63 63 63 109 109 109 173 173 173
222 222 222 249 249 249 255 255 255 244 244 244 224 224 224
133 133 133 54 54 54 47 47 47 70 70 70 74 74 74 68 68 68 68 68 68
59 59 59 58 58 58 58 58 58 58 58 58 61 61 61 65 65 65 69 69 69
72 72 72 71 71 71 68 68 68 65 65 65 63 63 63 63 63 63 63 63 63
62 62 62 61 61 61 63 63 63 63 63 63 64 64 64 65 65 65 65 65 65
66 66 66 66 66 66 67 67 67 68 68 68 62 62 62 63 63 63 65 65 65
72 72 72 53 53 53 65 65 65 146 146 146 215 215 215 240 240 240
252 252 252 248 248 248 250 250 250 249 249 249 248 248 248
253 253 253 254 254 254 254 254 254 254 254 254 254 254 254
254 254 254 254 254 254 254 254 254 254 254 254 254 254 254
254 254 254 254 254 254 254 254 254 254 254 254 254 254 254
254 254 254 254 254 254 254 254 254 254 254 254 254 254 254
254 254 254 254 254 254 254 254 254 254 254 254 254 254 254
254 254 254 254 254 254 254 254 254 254 254 254 254 254 254
254 254 254 254 254 254 254 254 254 254 254 254 254 254 254
254 254 254 254 254 254 254 254 254 254 254 254 254 254 254
254 254 254 254 254 254 254 254 254 254 254 254 254 254 254
254 254 254 254 254 254 254 254 254 254 254 254 254 254 254
254 254 254 254 254 254 254 254 254 254 254 254 254 254 254
254 254 254 254 254 254 254 254 254 254 254 254 254 254 254
254 254 254 254 254 254 254 254 254 254 254 254 254 254 254
254 254 254 254 254 254 254 254 254 254 254 254 254 254 254
254 254 254 254 254 254 254 254 254 254 254 254 254 254 254
254 254 254 254 254 254 254 254 254 254 254 254 254 254 254
254 254 254 254 254 254 254 254 254 254 254 254 254 254 254
254 254 254 254 254 254 254 254 254 254 254 254 254 254 254
254 254 254 254 254 254 254 254 254 254 254 254 254 254 254
254 254 254 254 254 254 254 254 254 254 254 254 254 254 254
254 254 254 254 254 254 254 254 254 254 254 254 254 254 254
254 254 254 254 254 254 254 254 254 254 254 254 254 254 254
254 254 254 254 254 254 254 254 254 254 254 254 254 254 254
254 254 254 254 254 254 254 254 254 254 254 254 254 254 254
254 254 254 254 254 254 254 254 254 254 254 254 254 254 254
254 254 254 254 254 254 254 254 254 254 254 254 254 254 254
254 254 254 254 254 254 254 254 254 254 254 254 254 254 254
254 254 254 254 254 254 254 254 254 254 254 254 254 254 254
254 254 254 254 254 254 254 254 254 254 254 254 254 254 254
254 254 254 254 254 254 254 254 254 254 254 254 254 254 254
254 254 254 254 254 254 254 254 254 254 254 254 254 254 254
254 254 254 254 254 254 254 254 254 254 254 254 254 254 254
254 254 254 254 254 254 254 254 254 254 254 254 254 254 254
254 254 254 254 254 254 254 254 254 254 254 254 254 254 254
254 254 254 254 254 254 254 254 254 254 254 254 254 254 254
254 254 254 254 254 254 255 255 255 254 254 254 255 255 255
250 250 250 249 249 249 255 255 255 250 250 250 223 223 223
141 141 141 101 101 101 66 66 66 59 59 59 63 63 63 62 62 62 60 62 61
64 66 65 66 68 67 67 69 68 65 69 68 64 68 67 62 66 65 59 63 62
54 60 58 52 58 56 59 63 62 62 66 65 66 70 69 69 73 72 69 73 72
66 70 69 61 65 64 58 62 61 56 60 59 55 59 58 54 58 57 53 57 56
53 57 56 53 57 56 53 57 56 53 57 56 61 67 65 57 63 61 68 72 71
50 54 53 56 60 59 58 62 61 71 73 72 167 169 168 229 231 230
243 245 244 252 252 252 251 251 251 251 251 251 255 255 255
255 255 255 252 252 252 253 253 253 249 249 249 255 255 255
247 247 247 179 179 179 87 87 87 50 50 50 64 64 64 69 69 69 66 66 66
62 62 62 60 60 60 60 60 60 62 62 62 65 65 65 67 67 67 60 60 60
60 60 60 61 61 61 63 63 63 64 64 64 65 65 65 66 66 66 67 67 67
65 65 65 64 64 64 63 63 63 65 65 65 68 68 68 70 70 70 70 70 70
69 69 69 55 55 55 56 56 56 59 59 59 63 63 63 65 65 65 65 65 65
62 62 62 58 58 58 68 68 68 64 64 64 59 59 59 84 84 84 177 177 177
245 245 245 242 242 242 248 248 248 249 249 249 252 252 252
255 255 255 255 255 255 254 254 254 253 253 253 252 252 252
252 252 252 248 248 248 243 243 243 254 254 254 255 255 255
248 248 248 252 252 252 247 247 247 218 218 218 198 198 198
156 156 156 108 108 108 83 83 83 74 74 74 65 65 65 54 54 54 48 48 48
62 62 62 55 55 55 35 35 35 11 11 11 0 0 0 4 4 4 16 16 16 23 23 23
48 48 48 57 57 57 68 68 68 73 73 73 71 71 71 66 66 66 64 64 64
64 64 64 46 46 46 48 48 48 52 52 52 58 58 58 66 66 66 74 74 74
81 81 81 84 84 84 115 115 115 146 146 146 199 199 199 235 235 235
240 240 240 240 240 240 241 241 241 234 234 234 180 180 180
106 106 106 44 44 44 43 43 43 64 64 64 68 68 68 68 68 68 73 73 73
66 66 66 64 64 64 60 60 60 57 57 57 54 54 54 54 54 54 54 54 54
55 55 55 53 53 53 56 56 56 59 59 59 60 60 60 59 59 59 58 58 58
57 57 57 57 57 57 57 57 57 58 58 58 59 59 59 61 61 61 61 61 61
61 61 61 61 61 61 61 61 61 60 60 60 57 57 57 60 60 60 64 64 64
68 68 68 49 49 49 60 60 60 142 142 142 211 211 211 239 239 239
252 252 252 249 249 249 251 251 251 252 252 252 250 250 250
253 253 253 254 254 254 254 254 254 254 254 254 254 254 254
254 254 254 254 254 254 254 254 254 254 254 254 254 254 254
254 254 254 254 254 254 254 254 254 254 254 254 254 254 254
254 254 254 254 254 254 254 254 254 254 254 254 254 254 254
254 254 254 254 254 254 254 254 254 254 254 254 254 254 254
254 254 254 254 254 254 254 254 254 254 254 254 254 254 254
254 254 254 254 254 254 254 254 254 254 254 254 254 254 254
254 254 254 254 254 254 254 254 254 254 254 254 254 254 254
254 254 254 254 254 254 254 254 254 254 254 254 254 254 254
254 254 254 254 254 254 254 254 254 254 254 254 254 254 254
254 254 254 254 254 254 254 254 254 254 254 254 254 254 254
254 254 254 254 254 254 254 254 254 254 254 254 254 254 254
254 254 254 254 254 254 254 254 254 254 254 254 254 254 254
254 254 254 254 254 254 254 254 254 254 254 254 254 254 254
254 254 254 254 254 254 254 254 254 254 254 254 254 254 254
254 254 254 254 254 254 254 254 254 254 254 254 254 254 254
254 254 254 254 254 254 254 254 254 254 254 254 254 254 254
254 254 254 254 254 254 254 254 254 254 254 254 254 254 254
254 254 254 254 254 254 254 254 254 254 254 254 254 254 254
254 254 254 254 254 254 254 254 254 254 254 254 254 254 254
254 254 254 254 254 254 254 254 254 254 254 254 254 254 254
254 254 254 254 254 254 254 254 254 254 254 254 254 254 254
254 254 254 254 254 254 254 254 254 254 254 254 254 254 254
254 254 254 254 254 254 254 254 254 254 254 254 254 254 254
254 254 254 254 254 254 254 254 254 254 254 254 254 254 254
254 254 254 254 254 254 254 254 254 254 254 254 254 254 254
254 254 254 254 254 254 254 254 254 254 254 254 254 254 254
254 254 254 254 254 254 254 254 254 254 254 254 254 254 254
254 254 254 254 254 254 254 254 254 254 254 254 254 254 254
254 254 254 254 254 254 254 254 254 254 254 254 254 254 254
254 254 254 254 254 254 254 254 254 254 254 254 254 254 254
254 254 254 254 254 254 254 254 254 254 254 254 254 254 254
254 254 254 254 254 254 254 254 254 254 254 254 254 254 254
254 254 254 254 254 254 254 254 254 254 254 254 254 254 254
254 254 254 254 254 254 254 254 254 254 254 254 254 254 254
254 254 254 254 254 254 255 255 255 251 251 251 246 246 246
239 239 239 245 245 245 255 255 255 245 245 245 204 204 204
117 117 117 82 82 82 60 60 60 66 66 66 73 73 73 63 63 63 52 54 53
53 55 54 60 62 61 63 65 64 66 68 67 68 72 71 72 74 73 69 73 72
68 72 71 66 70 69 64 68 67 60 64 63 56 58 57 50 54 53 51 53 52
52 56 55 59 61 60 60 64 63 66 68 67 64 68 67 66 68 67 64 68 67
66 68 67 64 68 67 66 68 67 64 68 67 58 62 61 56 60 59 66 70 69
51 55 54 71 73 72 72 74 73 67 69 68 156 158 157 222 224 223
243 245 244 255 255 255 248 248 248 247 247 247 255 255 255
255 255 255 246 246 246 247 247 247 248 248 248 254 254 254
237 237 237 167 167 167 81 81 81 46 46 46 57 57 57 44 44 44 51 51 51
60 60 60 66 66 66 65 65 65 62 62 62 58 58 58 56 56 56 60 60 60
59 59 59 58 58 58 58 58 58 57 57 57 57 57 57 58 58 58 58 58 58
61 61 61 59 59 59 59 59 59 60 60 60 62 62 62 63 63 63 62 62 62
61 61 61 62 62 62 61 61 61 61 61 61 63 63 63 66 66 66 68 68 68
68 68 68 67 67 67 60 60 60 55 55 55 44 44 44 68 68 68 168 168 168
242 242 242 241 241 241 249 249 249 249 249 249 252 252 252
255 255 255 255 255 255 255 255 255 253 253 253 252 252 252
252 252 252 255 255 255 239 239 239 247 247 247 255 255 255
241 241 241 236 236 236 247 247 247 249 249 249 248 248 248
244 244 244 232 232 232 216 216 216 203 203 203 190 190 190
167 167 167 146 146 146 122 122 122 107 107 107 77 77 77 44 44 44
27 27 27 24 24 24 22 22 22 18 18 18 46 46 46 56 56 56 68 68 68
74 74 74 74 74 74 76 76 76 82 82 82 89 89 89 107 107 107 115 115 115
130 130 130 150 150 150 173 173 173 196 196 196 213 213 213
223 223 223 234 234 234 245 245 245 255 255 255 255 255 255
243 243 243 244 244 244 241 241 241 224 224 224 157 157 157
107 107 107 61 61 61 54 54 54 62 62 62 62 62 62 60 60 60 64 64 64
66 66 66 65 65 65 63 63 63 59 59 59 53 53 53 46 46 46 39 39 39
35 35 35 48 48 48 56 56 56 65 65 65 70 70 70 69 69 69 66 66 66
65 65 65 65 65 65 68 68 68 69 69 69 70 70 70 71 71 71 71 71 71
70 70 70 68 68 68 67 67 67 65 65 65 65 65 65 70 70 70 70 70 70
70 70 70 47 47 47 59 59 59 144 144 144 210 210 210 239 239 239
253 253 253 250 250 250 253 253 253 255 255 255 252 252 252
254 254 254 254 254 254 254 254 254 254 254 254 254 254 254
254 254 254 254 254 254 254 254 254 254 254 254 254 254 254
254 254 254 254 254 254 254 254 254 254 254 254 254 254 254
254 254 254 254 254 254 254 254 254 254 254 254 254 254 254
254 254 254 254 254 254 254 254 254 254 254 254 254 254 254
254 254 254 254 254 254 254 254 254 254 254 254 254 254 254
254 254 254 254 254 254 254 254 254 254 254 254 254 254 254
254 254 254 254 254 254 254 254 254 254 254 254 254 254 254
254 254 254 254 254 254 254 254 254 254 254 254 254 254 254
254 254 254 254 254 254 254 254 254 254 254 254 254 254 254
254 254 254 254 254 254 254 254 254 254 254 254 254 254 254
254 254 254 254 254 254 254 254 254 254 254 254 254 254 254
254 254 254 254 254 254 254 254 254 254 254 254 254 254 254
254 254 254 254 254 254 254 254 254 254 254 254 254 254 254
254 254 254 254 254 254 254 254 254 254 254 254 254 254 254
254 254 254 254 254 254 254 254 254 254 254 254 254 254 254
254 254 254 254 254 254 254 254 254 254 254 254 254 254 254
254 254 254 254 254 254 254 254 254 254 254 254 254 254 254
254 254 254 254 254 254 254 254 254 254 254 254 254 254 254
254 254 254 254 254 254 254 254 254 254 254 254 254 254 254
254 254 254 254 254 254 254 254 254 254 254 254 254 254 254
254 254 254 254 254 254 254 254 254 254 254 254 254 254 254
254 254 254 254 254 254 254 254 254 254 254 254 254 254 254
254 254 254 254 254 254 254 254 254 254 254 254 254 254 254
254 254 254 254 254 254 254 254 254 254 254 254 254 254 254
254 254 254 254 254 254 254 254 254 254 254 254 254 254 254
254 254 254 254 254 254 254 254 254 254 254 254 254 254 254
254 254 254 254 254 254 254 254 254 254 254 254 254 254 254
254 254 254 254 254 254 254 254 254 254 254 254 254 254 254
254 254 254 254 254 254 254 254 254 254 254 254 254 254 254
254 254 254 254 254 254 254 254 254 254 254 254 254 254 254
254 254 254 254 254 254 254 254 254 254 254 254 254 254 254
254 254 254 254 254 254 254 254 254 254 254 254 254 254 254
254 254 254 254 254 254 254 254 254 254 254 254 254 254 254
254 254 254 254 254 254 254 254 254 254 254 254 254 254 254
254 254 254 254 254 254 253 253 253 255 255 255 249 249 249
238 238 238 246 246 246 255 255 255 238 238 238 204 204 204
110 110 110 77 77 77 59 59 59 71 71 71 78 78 78 64 64 64 51 51 51
51 51 51 58 58 58 63 63 63 68 68 68 68 70 69 66 66 66 62 64 63
61 63 62 62 64 63 61 63 62 36 38 37 14 14 14 11 13 12 26 26 26
44 46 45 60 60 60 68 70 69 62 62 62 60 62 61 62 62 62 64 66 65
68 68 68 66 68 67 61 61 61 55 57 56 54 56 55 63 65 64 49 51 50
61 63 62 84 84 84 56 56 56 69 69 69 157 157 157 231 231 231
237 237 237 247 247 247 254 254 254 255 255 255 255 255 255
252 252 252 251 251 251 239 239 239 250 250 250 248 248 248
205 205 205 126 126 126 59 59 59 45 45 45 62 62 62 68 68 68 66 66 66
64 64 64 64 64 64 65 65 65 65 65 65 63 63 63 61 61 61 53 53 53
58 58 58 61 61 61 61 61 61 63 63 63 67 67 67 66 66 66 61 61 61
62 62 62 57 57 57 61 61 61 71 71 71 71 71 71 59 59 59 57 57 57
64 64 64 69 69 69 71 71 71 71 71 71 65 65 65 57 57 57 53 53 53
56 56 56 60 60 60 65 65 65 77 77 77 49 49 49 48 48 48 130 130 130
211 211 211 242 242 242 255 255 255 255 255 255 254 254 254
249 249 249 248 248 248 251 251 251 253 253 253 253 253 253
252 252 252 254 254 254 254 254 254 254 254 254 254 254 254
254 254 254 254 254 254 254 254 254 254 254 254 254 254 254
254 254 254 254 254 254 253 253 253 253 253 253 252 252 252
252 252 252 252 252 252 245 245 245 243 243 243 239 239 239
234 234 234 229 229 229 224 224 224 220 220 220 218 218 218
214 214 214 215 215 215 219 219 219 226 226 226 234 234 234
240 240 240 243 243 243 244 244 244 246 246 246 246 246 246
247 247 247 249 249 249 250 250 250 252 252 252 253 253 253
254 254 254 255 255 255 248 248 248 245 245 245 252 252 252
255 255 255 251 251 251 238 238 238 228 228 228 174 174 174
114 114 114 58 58 58 49 49 49 69 69 69 78 78 78 70 70 70 60 60 60
62 62 62 68 68 68 77 77 77 77 77 77 59 59 59 30 30 30 11 11 11 6 6 6
21 21 21 36 36 36 53 53 53 62 62 62 60 60 60 57 57 57 58 58 58
61 61 61 64 64 64 65 65 65 67 67 67 68 68 68 68 68 68 66 66 66
64 64 64 63 63 63 66 66 66 70 70 70 63 63 63 66 66 66 63 63 63
44 44 44 92 92 92 195 195 195 249 249 249 247 247 247 246 246 246
249 249 249 253 253 253 255 255 255 255 255 255 253 253 253
254 254 254 254 254 254 254 254 254 254 254 254 254 254 254
254 254 254 254 254 254 254 254 254 254 254 254 254 254 254
254 254 254 254 254 254 254 254 254 254 254 254 254 254 254
254 254 254 254 254 254 254 254 254 254 254 254 254 254 254
254 254 254 254 254 254 254 254 254 254 254 254 254 254 254
254 254 254 254 254 254 254 254 254 254 254 254 254 254 254
254 254 254 254 254 254 254 254 254 254 254 254 254 254 254
254 254 254 254 254 254 254 254 254 254 254 254 254 254 254
254 254 254 254 254 254 254 254 254 254 254 254 254 254 254
254 254 254 254 254 254 254 254 254 254 254 254 254 254 254
254 254 254 254 254 254 254 254 254 254 254 254 254 254 254
254 254 254 254 254 254 254 254 254 254 254 254 254 254 254
254 254 254 254 254 254 254 254 254 254 254 254 254 254 254
254 254 254 254 254 254 254 254 254 254 254 254 254 254 254
254 254 254 254 254 254 254 254 254 254 254 254 254 254 254
254 254 254 254 254 254 254 254 254 254 254 254 254 254 254
254 254 254 254 254 254 254 254 254 254 254 254 254 254 254
254 254 254 254 254 254 254 254 254 254 254 254 254 254 254
254 254 254 254 254 254 254 254 254 254 254 254 254 254 254
254 254 254 254 254 254 254 254 254 254 254 254 254 254 254
254 254 254 254 254 254 254 254 254 254 254 254 254 254 254
254 254 254 254 254 254 254 254 254 254 254 254 254 254 254
254 254 254 254 254 254 254 254 254 254 254 254 254 254 254
254 254 254 254 254 254 254 254 254 254 254 254 254 254 254
254 254 254 254 254 254 254 254 254 254 254 254 254 254 254
254 254 254 254 254 254 254 254 254 254 254 254 254 254 254
254 254 254 254 254 254 254 254 254 254 254 254 254 254 254
254 254 254 254 254 254 254 254 254 254 254 254 254 254 254
254 254 254 254 254 254 254 254 254 254 254 254 254 254 254
254 254 254 254 254 254 254 254 254 254 254 254 254 254 254
254 254 254 254 254 254 254 254 254 254 254 254 254 254 254
254 254 254 254 254 254 254 254 254 254 254 254 254 254 254
254 254 254 254 254 254 254 254 254 254 254 254 254 254 254
254 254 254 254 254 254 254 254 254 254 254 254 254 254 254
254 254 254 254 254 254 254 254 254 254 254 254 254 254 254
254 254 254 251 251 251 255 255 255 252 252 252 243 243 243
244 244 244 251 251 251 241 241 241 223 223 223 143 143 143
104 104 104 67 67 67 58 58 58 58 58 58 55 55 55 54 54 54 60 60 60
51 51 51 55 55 55 61 61 61 65 65 65 64 64 64 61 61 61 57 57 57
55 55 55 42 42 42 23 23 23 5 5 5 5 5 5 18 18 18 36 36 36 51 51 51
61 61 61 63 63 63 60 60 60 57 57 57 57 57 57 62 62 62 68 68 68
74 74 74 77 77 77 67 67 67 75 75 75 60 60 60 53 53 53 61 61 61
58 58 58 102 102 102 194 194 194 236 236 236 239 239 239 244 244 244
248 248 248 250 250 250 251 251 251 251 251 251 250 250 250
253 253 253 253 253 253 250 250 250 217 217 217 139 139 139 61 61 61
39 39 39 58 58 58 70 70 70 63 63 63 54 54 54 49 49 49 50 50 50
56 56 56 62 62 62 65 65 65 50 50 50 53 53 53 62 62 62 67 67 67
60 60 60 48 48 48 48 48 48 57 57 57 61 61 61 54 54 54 53 53 53
58 58 58 65 65 65 69 69 69 76 76 76 83 83 83 70 70 70 71 71 71
73 73 73 72 72 72 68 68 68 64 64 64 59 59 59 57 57 57 49 49 49
59 59 59 42 42 42 57 57 57 142 142 142 214 214 214 238 238 238
249 249 249 245 245 245 245 245 245 245 245 245 248 248 248
251 251 251 254 254 254 255 255 255 255 255 255 254 254 254
254 254 254 254 254 254 254 254 254 254 254 254 254 254 254
254 254 254 254 254 254 254 254 254 254 254 254 254 254 254
253 253 253 253 253 253 252 252 252 252 252 252 252 252 252
255 255 255 254 254 254 253 253 253 251 251 251 249 249 249
247 247 247 246 246 246 245 245 245 244 244 244 244 244 244
245 245 245 248 248 248 251 251 251 253 253 253 253 253 253
252 252 252 251 251 251 252 252 252 252 252 252 253 253 253
255 255 255 255 255 255 255 255 255 255 255 255 255 255 255
253 253 253 251 251 251 253 253 253 252 252 252 245 245 245
239 239 239 237 237 237 192 192 192 146 146 146 94 94 94 66 66 66
56 56 56 54 54 54 59 59 59 67 67 67 61 61 61 61 61 61 62 62 62
58 58 58 42 42 42 19 19 19 4 4 4 1 1 1 17 17 17 32 32 32 52 52 52
65 65 65 69 69 69 68 68 68 68 68 68 70 70 70 65 65 65 63 63 63
61 61 61 59 59 59 57 57 57 56 56 56 56 56 56 56 56 56 42 42 42
51 51 51 50 50 50 67 67 67 98 98 98 107 107 107 137 137 137
199 199 199 248 248 248 246 246 246 245 245 245 248 248 248
251 251 251 253 253 253 253 253 253 251 251 251 254 254 254
254 254 254 254 254 254 254 254 254 254 254 254 254 254 254
254 254 254 254 254 254 254 254 254 254 254 254 254 254 254
254 254 254 254 254 254 254 254 254 254 254 254 254 254 254
254 254 254 254 254 254 254 254 254 254 254 254 254 254 254
254 254 254 254 254 254 254 254 254 254 254 254 254 254 254
254 254 254 254 254 254 254 254 254 254 254 254 254 254 254
254 254 254 254 254 254 254 254 254 254 254 254 254 254 254
254 254 254 254 254 254 254 254 254 254 254 254 254 254 254
254 254 254 254 254 254 254 254 254 254 254 254 254 254 254
254 254 254 254 254 254 254 254 254 254 254 254 254 254 254
254 254 254 254 254 254 254 254 254 254 254 254 254 254 254
254 254 254 254 254 254 254 254 254 254 254 254 254 254 254
254 254 254 254 254 254 254 254 254 254 254 254 254 254 254
254 254 254 254 254 254 254 254 254 254 254 254 254 254 254
254 254 254 254 254 254 254 254 254 254 254 254 254 254 254
254 254 254 254 254 254 254 254 254 254 254 254 254 254 254
254 254 254 254 254 254 254 254 254 254 254 254 254 254 254
254 254 254 254 254 254 254 254 254 254 254 254 254 254 254
254 254 254 254 254 254 254 254 254 254 254 254 254 254 254
254 254 254 254 254 254 254 254 254 254 254 254 254 254 254
254 254 254 254 254 254 254 254 254 254 254 254 254 254 254
254 254 254 254 254 254 254 254 254 254 254 254 254 254 254
254 254 254 254 254 254 254 254 254 254 254 254 254 254 254
254 254 254 254 254 254 254 254 254 254 254 254 254 254 254
254 254 254 254 254 254 254 254 254 254 254 254 254 254 254
254 254 254 254 254 254 254 254 254 254 254 254 254 254 254
254 254 254 254 254 254 254 254 254 254 254 254 254 254 254
254 254 254 254 254 254 254 254 254 254 254 254 254 254 254
254 254 254 254 254 254 254 254 254 254 254 254 254 254 254
254 254 254 254 254 254 254 254 254 254 254 254 254 254 254
254 254 254 254 254 254 254 254 254 254 254 254 254 254 254
254 254 254 254 254 254 254 254 254 254 254 254 254 254 254
254 254 254 254 254 254 254 254 254 254 254 254 254 254 254
254 254 254 254 254 254 254 254 254 254 254 254 254 254 254
254 254 254 254 254 254 254 254 254 254 254 254 254 254 254
251 251 251 255 255 255 255 255 255 249 249 249 243 243 243
243 243 243 245 245 245 244 244 244 191 191 191 157 157 157
115 115 115 88 88 88 77 77 77 71 71 71 67 67 67 65 65 65 57 57 57
60 60 60 65 65 65 69 69 69 70 70 70 66 66 66 59 59 59 54 54 54
42 42 42 26 26 26 12 12 12 10 10 10 21 21 21 39 39 39 59 59 59
74 74 74 64 64 64 61 61 61 57 57 57 54 54 54 54 54 54 59 59 59
67 67 67 73 73 73 64 64 64 71 71 71 74 74 74 88 88 88 118 118 118
146 146 146 186 186 186 231 231 231 248 248 248 249 249 249
249 249 249 250 250 250 251 251 251 253 253 253 254 254 254
255 255 255 239 239 239 235 235 235 238 238 238 225 225 225
163 163 163 82 82 82 48 48 48 59 59 59 61 61 61 62 62 62 65 65 65
69 69 69 71 71 71 69 69 69 64 64 64 59 59 59 64 64 64 66 66 66
74 74 74 76 76 76 53 53 53 24 24 24 24 24 24 43 43 43 75 75 75
73 73 73 65 65 65 57 57 57 56 56 56 61 61 61 63 63 63 61 61 61
64 64 64 60 60 60 55 55 55 56 56 56 61 61 61 68 68 68 72 72 72
74 74 74 83 83 83 72 72 72 42 42 42 55 55 55 133 133 133 205 205 205
242 242 242 255 255 255 250 250 250 252 252 252 254 254 254
254 254 254 253 253 253 252 252 252 251 251 251 251 251 251
254 254 254 254 254 254 254 254 254 254 254 254 254 254 254
254 254 254 254 254 254 254 254 254 254 254 254 254 254 254
254 254 254 253 253 253 253 253 253 252 252 252 252 252 252
252 252 252 255 255 255 255 255 255 255 255 255 255 255 255
255 255 255 255 255 255 255 255 255 255 255 255 255 255 255
255 255 255 255 255 255 255 255 255 255 255 255 255 255 255
255 255 255 253 253 253 255 255 255 255 255 255 255 255 255
255 255 255 255 255 255 255 255 255 255 255 255 255 255 255
255 255 255 254 254 254 254 254 254 253 253 253 247 247 247
242 242 242 244 244 244 251 251 251 245 245 245 219 219 219
183 183 183 148 148 148 111 111 111 78 78 78 61 61 61 59 59 59
72 72 72 64 64 64 55 55 55 46 46 46 33 33 33 19 19 19 10 10 10 8 8 8
11 11 11 23 23 23 41 41 41 56 56 56 63 63 63 64 64 64 63 63 63
61 61 61 63 63 63 61 61 61 58 58 58 56 56 56 57 57 57 61 61 61
66 66 66 69 69 69 78 78 78 100 100 100 111 111 111 136 136 136
185 185 185 214 214 214 229 229 229 252 252 252 249 249 249
248 248 248 247 247 247 249 249 249 252 252 252 253 253 253
253 253 253 252 252 252 254 254 254 254 254 254 254 254 254
254 254 254 254 254 254 254 254 254 254 254 254 254 254 254
254 254 254 254 254 254 254 254 254 254 254 254 254 254 254
254 254 254 254 254 254 254 254 254 254 254 254 254 254 254
254 254 254 254 254 254 254 254 254 254 254 254 254 254 254
254 254 254 254 254 254 254 254 254 254 254 254 254 254 254
254 254 254 254 254 254 254 254 254 254 254 254 254 254 254
254 254 254 254 254 254 254 254 254 254 254 254 254 254 254
254 254 254 254 254 254 254 254 254 254 254 254 254 254 254
254 254 254 254 254 254 254 254 254 254 254 254 254 254 254
254 254 254 254 254 254 254 254 254 254 254 254 254 254 254
254 254 254 254 254 254 254 254 254 254 254 254 254 254 254
254 254 254 254 254 254 254 254 254 254 254 254 254 254 254
254 254 254 254 254 254 254 254 254 254 254 254 254 254 254
254 254 254 254 254 254 254 254 254 254 254 254 254 254 254
254 254 254 254 254 254 254 254 254 254 254 254 254 254 254
254 254 254 254 254 254 254 254 254 254 254 254 254 254 254
254 254 254 254 254 254 254 254 254 254 254 254 254 254 254
254 254 254 254 254 254 254 254 254 254 254 254 254 254 254
254 254 254 254 254 254 254 254 254 254 254 254 254 254 254
254 254 254 254 254 254 254 254 254 254 254 254 254 254 254
254 254 254 254 254 254 254 254 254 254 254 254 254 254 254
254 254 254 254 254 254 254 254 254 254 254 254 254 254 254
254 254 254 254 254 254 254 254 254 254 254 254 254 254 254
254 254 254 254 254 254 254 254 254 254 254 254 254 254 254
254 254 254 254 254 254 254 254 254 254 254 254 254 254 254
254 254 254 254 254 254 254 254 254 254 254 254 254 254 254
254 254 254 254 254 254 254 254 254 254 254 254 254 254 254
254 254 254 254 254 254 254 254 254 254 254 254 254 254 254
254 254 254 254 254 254 254 254 254 254 254 254 254 254 254
254 254 254 254 254 254 254 254 254 254 254 254 254 254 254
254 254 254 254 254 254 254 254 254 254 254 254 254 254 254
254 254 254 254 254 254 254 254 254 254 254 254 254 254 254
254 254 254 254 254 254 254 254 254 254 254 254 254 254 254
254 254 254 254 254 254 254 254 254 254 254 254 254 254 254
254 254 254 254 254 254 254 254 254 252 252 252 254 254 254
255 255 255 254 254 254 246 246 246 240 240 240 244 244 244
253 253 253 255 255 255 239 239 239 212 212 212 183 183 183
159 159 159 135 135 135 106 106 106 84 84 84 82 82 82 79 79 79
75 75 75 72 72 72 67 67 67 59 59 59 47 47 47 39 39 39 29 29 29
15 15 15 1 1 1 0 0 0 3 3 3 20 20 20 44 44 44 64 64 64 65 65 65
69 69 69 71 71 71 71 71 71 69 69 69 69 69 69 71 71 71 75 75 75
117 117 117 128 128 128 150 150 150 176 176 176 206 206 206
239 239 239 255 255 255 250 250 250 255 255 255 254 254 254
253 253 253 253 253 253 254 254 254 255 255 255 255 255 255
255 255 255 250 250 250 246 246 246 249 249 249 241 241 241
193 193 193 119 119 119 66 66 66 50 50 50 63 63 63 68 68 68 75 75 75
80 80 80 78 78 78 69 69 69 56 56 56 46 46 46 59 59 59 61 61 61
63 63 63 50 50 50 22 22 22 0 0 0 0 0 0 13 13 13 37 37 37 52 52 52
59 59 59 52 52 52 50 50 50 55 55 55 54 54 54 45 45 45 67 67 67
69 69 69 72 72 72 73 73 73 70 70 70 64 64 64 56 56 56 50 50 50
41 41 41 50 50 50 66 66 66 114 114 114 185 185 185 228 228 228
243 243 243 255 255 255 253 253 253 255 255 255 255 255 255
255 255 255 251 251 251 248 248 248 249 249 249 251 251 251
254 254 254 254 254 254 254 254 254 254 254 254 254 254 254
254 254 254 254 254 254 254 254 254 254 254 254 254 254 254
254 254 254 253 253 253 253 253 253 252 252 252 252 252 252
252 252 252 252 252 252 252 252 252 251 251 251 251 251 251
251 251 251 251 251 251 251 251 251 251 251 251 252 252 252
251 251 251 251 251 251 252 252 252 254 254 254 254 254 254
252 252 252 250 250 250 255 255 255 255 255 255 255 255 255
255 255 255 254 254 254 254 254 254 254 254 254 254 254 254
249 249 249 248 248 248 250 250 250 251 251 251 248 248 248
246 246 246 251 251 251 255 255 255 252 252 252 246 246 246
245 245 245 251 251 251 250 250 250 236 236 236 220 220 220
210 210 210 188 188 188 173 173 173 152 152 152 130 130 130
111 111 111 95 95 95 82 82 82 75 75 75 80 80 80 86 86 86 96 96 96
107 107 107 114 114 114 115 115 115 111 111 111 108 108 108
105 105 105 109 109 109 117 117 117 130 130 130 148 148 148
167 167 167 183 183 183 193 193 193 199 199 199 220 220 220
227 227 227 232 232 232 249 249 249 254 254 254 249 249 249
254 254 254 252 252 252 252 252 252 252 252 252 253 253 253
254 254 254 255 255 255 255 255 255 254 254 254 254 254 254
254 254 254 254 254 254 254 254 254 254 254 254 254 254 254
254 254 254 254 254 254 254 254 254 254 254 254 254 254 254
254 254 254 254 254 254 254 254 254 254 254 254 254 254 254
254 254 254 254 254 254 254 254 254 254 254 254 254 254 254
254 254 254 254 254 254 254 254 254 254 254 254 254 254 254
254 254 254 254 254 254 254 254 254 254 254 254 254 254 254
254 254 254 254 254 254 254 254 254 254 254 254 254 254 254
254 254 254 254 254 254 254 254 254 254 254 254 254 254 254
254 254 254 254 254 254 254 254 254 254 254 254 254 254 254
254 254 254 254 254 254 254 254 254 254 254 254 254 254 254
254 254 254 254 254 254 254 254 254 254 254 254 254 254 254
254 254 254 254 254 254 254 254 254 254 254 254 254 254 254
254 254 254 254 254 254 254 254 254 254 254 254 254 254 254
254 254 254 254 254 254 254 254 254 254 254 254 254 254 254
254 254 254 254 254 254 254 254 254 254 254 254 254 254 254
254 254 254 254 254 254 254 254 254 254 254 254 254 254 254
254 254 254 254 254 254 254 254 254 254 254 254 254 254 254
254 254 254 254 254 254 254 254 254 254 254 254 254 254 254
254 254 254 254 254 254 254 254 254 254 254 254 254 254 254
254 254 254 254 254 254 254 254 254 254 254 254 254 254 254
254 254 254 254 254 254 254 254 254 254 254 254 254 254 254
254 254 254 254 254 254 254 254 254 254 254 254 254 254 254
254 254 254 254 254 254 254 254 254 254 254 254 254 254 254
254 254 254 254 254 254 254 254 254 254 254 254 254 254 254
254 254 254 254 254 254 254 254 254 254 254 254 254 254 254
254 254 254 254 254 254 254 254 254 254 254 254 254 254 254
254 254 254 254 254 254 254 254 254 254 254 254 254 254 254
254 254 254 254 254 254 254 254 254 254 254 254 254 254 254
254 254 254 254 254 254 254 254 254 254 254 254 254 254 254
254 254 254 254 254 254 254 254 254 254 254 254 254 254 254
254 254 254 254 254 254 254 254 254 254 254 254 254 254 254
254 254 254 254 254 254 254 254 254 254 254 254 254 254 254
254 254 254 254 254 254 254 254 254 254 254 254 254 254 254
254 254 254 254 254 254 254 254 254 254 254 254 254 254 254
254 254 254 254 254 254 254 254 254 254 254 254 254 254 254
255 255 255 252 252 252 254 254 254 255 255 255 251 251 251
243 243 243 243 243 243 249 249 249 224 224 224 233 233 233
243 243 243 248 248 248 252 252 252 249 249 249 233 233 233
214 214 214 180 180 180 173 173 173 162 162 162 151 151 151
142 142 142 131 131 131 119 119 119 111 111 111 97 97 97 89 89 89
81 81 81 78 78 78 80 80 80 89 89 89 107 107 107 123 123 123
140 140 140 151 151 151 169 169 169 186 186 186 201 201 201
214 214 214 227 227 227 235 235 235 225 225 225 235 235 235
249 249 249 245 245 245 236 236 236 250 250 250 255 255 255
251 251 251 253 253 253 252 252 252 251 251 251 252 252 252
254 254 254 254 254 254 251 251 251 249 249 249 248 248 248
251 251 251 253 253 253 248 248 248 230 230 230 195 195 195
151 151 151 118 118 118 64 64 64 58 58 58 52 52 52 49 49 49 51 51 51
57 57 57 62 62 62 66 66 66 57 57 57 63 63 63 55 55 55 29 29 29 7 7 7
1 1 1 5 5 5 6 6 6 20 20 20 48 48 48 67 67 67 63 63 63 59 59 59
64 64 64 64 64 64 57 57 57 51 51 51 50 50 50 47 47 47 44 44 44
45 45 45 54 54 54 69 69 69 81 81 81 94 94 94 116 116 116 157 157 157
210 210 210 250 250 250 255 255 255 243 243 243 239 239 239
244 244 244 246 246 246 247 247 247 246 246 246 244 244 244
246 246 246 251 251 251 255 255 255 254 254 254 254 254 254
254 254 254 254 254 254 254 254 254 254 254 254 254 254 254
254 254 254 254 254 254 254 254 254 254 254 254 253 253 253
253 253 253 252 252 252 252 252 252 252 252 252 252 252 252
252 252 252 252 252 252 251 251 251 251 251 251 251 251 251
250 250 250 250 250 250 249 249 249 249 249 249 250 250 250
252 252 252 255 255 255 255 255 255 255 255 255 254 254 254
254 254 254 254 254 254 254 254 254 254 254 254 253 253 253
253 253 253 253 253 253 253 253 253 248 248 248 245 245 245
245 245 245 250 250 250 253 253 253 251 251 251 252 252 252
254 254 254 255 255 255 249 249 249 246 246 246 251 251 251
255 255 255 254 254 254 248 248 248 243 243 243 251 251 251
246 246 246 240 240 240 238 238 238 242 242 242 248 248 248
250 250 250 248 248 248 223 223 223 224 224 224 226 226 226
231 231 231 235 235 235 236 236 236 233 233 233 230 230 230
255 255 255 255 255 255 254 254 254 252 252 252 252 252 252
252 252 252 254 254 254 255 255 255 255 255 255 255 255 255
255 255 255 255 255 255 255 255 255 242 242 242 231 231 231
233 233 233 252 252 252 253 253 253 253 253 253 253 253 253
253 253 253 253 253 253 254 254 254 254 254 254 254 254 254
254 254 254 254 254 254 254 254 254 254 254 254 254 254 254
254 254 254 254 254 254 254 254 254 254 254 254 254 254 254
254 254 254 254 254 254 254 254 254 254 254 254 254 254 254
254 254 254 254 254 254 254 254 254 254 254 254 254 254 254
254 254 254 254 254 254 254 254 254 254 254 254 254 254 254
254 254 254 254 254 254 254 254 254 254 254 254 254 254 254
254 254 254 254 254 254 254 254 254 254 254 254 254 254 254
254 254 254 254 254 254 254 254 254 254 254 254 254 254 254
254 254 254 254 254 254 254 254 254 254 254 254 254 254 254
254 254 254 254 254 254 254 254 254 254 254 254 254 254 254
254 254 254 254 254 254 254 254 254 254 254 254 254 254 254
254 254 254 254 254 254 254 254 254 254 254 254 254 254 254
254 254 254 254 254 254 254 254 254 254 254 254 254 254 254
254 254 254 254 254 254 254 254 254 254 254 254 254 254 254
254 254 254 254 254 254 254 254 254 254 254 254 254 254 254
254 254 254 254 254 254 254 254 254 254 254 254 254 254 254
254 254 254 254 254 254 254 254 254 254 254 254 254 254 254
254 254 254 254 254 254 254 254 254 254 254 254 254 254 254
254 254 254 254 254 254 254 254 254 254 254 254 254 254 254
254 254 254 254 254 254 254 254 254 254 254 254 254 254 254
254 254 254 254 254 254 254 254 254 254 254 254 254 254 254
254 254 254 254 254 254 254 254 254 254 254 254 254 254 254
254 254 254 254 254 254 254 254 254 254 254 254 254 254 254
254 254 254 254 254 254 254 254 254 254 254 254 254 254 254
254 254 254 254 254 254 254 254 254 254 254 254 254 254 254
254 254 254 254 254 254 254 254 254 254 254 254 254 254 254
254 254 254 254 254 254 254 254 254 254 254 254 254 254 254
254 254 254 254 254 254 254 254 254 254 254 254 254 254 254
254 254 254 254 254 254 254 254 254 254 254 254 254 254 254
254 254 254 254 254 254 254 254 254 254 254 254 254 254 254
254 254 254 254 254 254 254 254 254 254 254 254 254 254 254
254 254 254 254 254 254 254 254 254 254 254 254 254 254 254
254 254 254 254 254 254 254 254 254 254 254 254 254 254 254
254 254 254 254 254 254 254 254 254 254 254 254 254 254 254
254 254 254 254 254 254 254 254 254 254 254 254 254 254 254
255 255 255 253 253 253 252 252 252 255 255 255 254 254 254
249 249 249 244 244 244 243 243 243 245 245 245 250 250 250
255 255 255 255 255 255 255 255 255 255 255 255 251 251 251
242 242 242 255 255 255 255 255 255 249 249 249 244 244 244
240 240 240 237 237 237 234 234 234 232 232 232 247 247 247
247 247 247 248 248 248 251 251 251 250 250 250 248 248 248
253 253 253 255 255 255 255 255 255 255 255 255 254 254 254
250 250 250 248 248 248 247 247 247 249 249 249 251 251 251
255 255 255 255 255 255 255 255 255 251 251 251 243 243 243
249 249 249 253 253 253 243 243 243 252 252 252 251 251 251
251 251 251 254 254 254 255 255 255 255 255 255 252 252 252
248 248 248 231 231 231 237 237 237 240 240 240 242 242 242
253 253 253 255 255 255 246 246 246 223 223 223 196 196 196
178 178 178 150 150 150 121 121 121 99 99 99 86 86 86 78 78 78
75 75 75 77 77 77 83 83 83 69 69 69 39 39 39 23 23 23 27 27 27
27 27 27 18 18 18 32 32 32 55 55 55 71 71 71 67 67 67 62 62 62
68 68 68 74 74 74 73 73 73 88 88 88 89 89 89 91 91 91 95 95 95
109 109 109 136 136 136 171 171 171 195 195 195 236 236 236
236 236 236 244 244 244 255 255 255 255 255 255 249 249 249
246 246 246 248 248 248 251 251 251 250 250 250 249 249 249
246 246 246 245 245 245 246 246 246 250 250 250 253 253 253
254 254 254 254 254 254 254 254 254 254 254 254 254 254 254
254 254 254 254 254 254 254 254 254 254 254 254 254 254 254
254 254 254 253 253 253 253 253 253 252 252 252 252 252 252
252 252 252 252 252 252 253 253 253 253 253 253 253 253 253
254 254 254 255 255 255 255 255 255 255 255 255 253 253 253
253 253 253 253 253 253 255 255 255 255 255 255 255 255 255
255 255 255 255 255 255 255 255 255 255 255 255 255 255 255
255 255 255 255 255 255 255 255 255 255 255 255 255 255 255
253 253 253 247 247 247 245 245 245 251 251 251 255 255 255
253 253 253 248 248 248 246 246 246 242 242 242 246 246 246
251 251 251 251 251 251 250 250 250 252 252 252 255 255 255
255 255 255 254 254 254 252 252 252 246 246 246 240 240 240
240 240 240 242 242 242 240 240 240 235 235 235 247 247 247
246 246 246 246 246 246 247 247 247 249 249 249 250 250 250
250 250 250 250 250 250 238 238 238 239 239 239 240 240 240
243 243 243 245 245 245 247 247 247 249 249 249 250 250 250
253 253 253 239 239 239 236 236 236 247 247 247 254 254 254
250 250 250 246 246 246 246 246 246 250 250 250 251 251 251
252 252 252 251 251 251 249 249 249 249 249 249 250 250 250
251 251 251 254 254 254 254 254 254 254 254 254 254 254 254
254 254 254 254 254 254 254 254 254 254 254 254 254 254 254
254 254 254 254 254 254 254 254 254 254 254 254 254 254 254
254 254 254 254 254 254 254 254 254 254 254 254 254 254 254
254 254 254 254 254 254 254 254 254 254 254 254 254 254 254
254 254 254 254 254 254 254 254 254 254 254 254 254 254 254
254 254 254 254 254 254 254 254 254 254 254 254 254 254 254
254 254 254 254 254 254 254 254 254 254 254 254 254 254 254
254 254 254 254 254 254 254 254 254 254 254 254 254 254 254
254 254 254 254 254 254 254 254 254 254 254 254 254 254 254
254 254 254 254 254 254 254 254 254 254 254 254 254 254 254
254 254 254 254 254 254 254 254 254 254 254 254 254 254 254
254 254 254 254 254 254 254 254 254 254 254 254 254 254 254
254 254 254 254 254 254 254 254 254 254 254 254 254 254 254
254 254 254 254 254 254 254 254 254 254 254 254 254 254 254
254 254 254 254 254 254 254 254 254 254 254 254 254 254 254
254 254 254 254 254 254 254 254 254 254 254 254 254 254 254
254 254 254 254 254 254 254 254 254 254 254 254 254 254 254
254 254 254 254 254 254 254 254 254 254 254 254 254 254 254
254 254 254 254 254 254 254 254 254 254 254 254 254 254 254
254 254 254 254 254 254 254 254 254 254 254 254 254 254 254
254 254 254 254 254 254 254 254 254 254 254 254 254 254 254
254 254 254 254 254 254 254 254 254 254 254 254 254 254 254
254 254 254 254 254 254 254 254 254 254 254 254 254 254 254
254 254 254 254 254 254 254 254 254 254 254 254 254 254 254
254 254 254 254 254 254 254 254 254 254 254 254 254 254 254
254 254 254 254 254 254 254 254 254 254 254 254 254 254 254
254 254 254 254 254 254 254 254 254 254 254 254 254 254 254
254 254 254 254 254 254 254 254 254 254 254 254 254 254 254
254 254 254 254 254 254 254 254 254 254 254 254 254 254 254
254 254 254 254 254 254 254 254 254 254 254 254 254 254 254
254 254 254 254 254 254 254 254 254 254 254 254 254 254 254
254 254 254 254 254 254 254 254 254 254 254 254 254 254 254
254 254 254 254 254 254 254 254 254 254 254 254 254 254 254
254 254 254 254 254 254 254 254 254 254 254 254 254 254 254
254 254 254 254 254 254 255 255 255 255 255 255 253 253 253
252 252 252 253 253 253 254 254 254 249 249 249 244 244 244
245 245 245 243 243 243 243 243 243 245 245 245 245 245 245
245 245 245 248 248 248 252 252 252 246 246 246 248 248 248
250 250 250 251 251 251 252 252 252 255 255 255 255 255 255
255 255 255 251 251 251 251 251 251 254 254 254 255 255 255
255 255 255 251 251 251 250 250 250 253 253 253 249 249 249
247 247 247 244 244 244 244 244 244 248 248 248 253 253 253
255 255 255 255 255 255 247 247 247 237 237 237 233 233 233
243 243 243 255 255 255 255 255 255 250 250 250 245 245 245
253 253 253 251 251 251 250 250 250 253 253 253 255 255 255
255 255 255 255 255 255 251 251 251 250 250 250 250 250 250
248 248 248 246 246 246 251 251 251 255 255 255 255 255 255
251 251 251 247 247 247 243 243 243 238 238 238 232 232 232
225 225 225 218 218 218 210 210 210 205 205 205 189 189 189
191 191 191 183 183 183 167 167 167 157 157 157 156 156 156
151 151 151 144 144 144 139 139 139 151 151 151 161 161 161
164 164 164 169 169 169 181 181 181 192 192 192 196 196 196
202 202 202 215 215 215 233 233 233 247 247 247 254 254 254
254 254 254 252 252 252 251 251 251 252 252 252 249 249 249
255 255 255 255 255 255 253 253 253 248 248 248 248 248 248
245 245 245 255 255 255 255 255 255 255 255 255 252 252 252
252 252 252 251 251 251 249 249 249 248 248 248 254 254 254
254 254 254 254 254 254 254 254 254 254 254 254 254 254 254
254 254 254 254 254 254 254 254 254 254 254 254 254 254 254
253 253 253 253 253 253 252 252 252 252 252 252 252 252 252
251 251 251 251 251 251 252 252 252 252 252 252 253 253 253
254 254 254 254 254 254 255 255 255 254 254 254 253 253 253
252 252 252 253 253 253 255 255 255 255 255 255 253 253 253
251 251 251 255 255 255 255 255 255 255 255 255 255 255 255
255 255 255 255 255 255 255 255 255 255 255 255 255 255 255
250 250 250 248 248 248 252 252 252 255 255 255 253 253 253
249 249 249 248 248 248 246 246 246 255 255 255 255 255 255
255 255 255 255 255 255 250 250 250 250 250 250 250 250 250
252 252 252 255 255 255 254 254 254 251 251 251 252 252 252
255 255 255 255 255 255 252 252 252 246 246 246 247 247 247
247 247 247 247 247 247 247 247 247 247 247 247 248 248 248
249 249 249 253 253 253 252 252 252 251 251 251 250 250 250
249 249 249 248 248 248 248 248 248 248 248 248 255 255 255
252 252 252 248 248 248 252 252 252 252 252 252 254 254 254
254 254 254 249 249 249 249 249 249 251 251 251 252 252 252
251 251 251 248 248 248 247 247 247 248 248 248 250 250 250
254 254 254 254 254 254 254 254 254 254 254 254 254 254 254
254 254 254 254 254 254 254 254 254 254 254 254 254 254 254
254 254 254 254 254 254 254 254 254 254 254 254 254 254 254
254 254 254 254 254 254 254 254 254 254 254 254 254 254 254
254 254 254 254 254 254 254 254 254 254 254 254 254 254 254
254 254 254 254 254 254 254 254 254 254 254 254 254 254 254
254 254 254 254 254 254 254 254 254 254 254 254 254 254 254
254 254 254 254 254 254 254 254 254 254 254 254 254 254 254
254 254 254 254 254 254 254 254 254 254 254 254 254 254 254
254 254 254 254 254 254 254 254 254 254 254 254 254 254 254
254 254 254 254 254 254 254 254 254 254 254 254 254 254 254
254 254 254 254 254 254 254 254 254 254 254 254 254 254 254
254 254 254 254 254 254 254 254 254 254 254 254 254 254 254
254 254 254 254 254 254 254 254 254 254 254 254 254 254 254
254 254 254 254 254 254 254 254 254 254 254 254 254 254 254
254 254 254 254 254 254 254 254 254 254 254 254 254 254 254
254 254 254 254 254 254 254 254 254 254 254 254 254 254 254
254 254 254 254 254 254 254 254 254 254 254 254 254 254 254
254 254 254 254 254 254 254 254 254 254 254 254 254 254 254
254 254 254 254 254 254 254 254 254 254 254 254 254 254 254
254 254 254 254 254 254 254 254 254 254 254 254 254 254 254
254 254 254 254 254 254 254 254 254 254 254 254 254 254 254
254 254 254 254 254 254 254 254 254 254 254 254 254 254 254
254 254 254 254 254 254 254 254 254 254 254 254 254 254 254
254 254 254 254 254 254 254 254 254 254 254 254 254 254 254
254 254 254 254 254 254 254 254 254 254 254 254 254 254 254
254 254 254 254 254 254 254 254 254 254 254 254 254 254 254
254 254 254 254 254 254 254 254 254 254 254 254 254 254 254
254 254 254 254 254 254 254 254 254 254 254 254 254 254 254
254 254 254 254 254 254 254 254 254 254 254 254 254 254 254
254 254 254 254 254 254 254 254 254 254 254 254 254 254 254
254 254 254 254 254 254 254 254 254 254 254 254 254 254 254
254 254 254 254 254 254 254 254 254 254 254 254 254 254 254
254 254 254 254 254 254 254 254 254 254 254 254 254 254 254
254 254 254 254 254 254 254 254 254 254 254 254 254 254 254
254 254 254 254 254 254 255 255 255 255 255 255 250 250 250
251 251 251 255 255 255 255 255 255 248 248 248 253 253 253
250 250 250 250 250 250 254 254 254 253 253 253 248 248 248
250 250 250 255 255 255 249 249 249 253 253 253 255 255 255
255 255 255 252 252 252 250 250 250 251 251 251 252 252 252
255 255 255 253 253 253 251 251 251 252 252 252 250 250 250
247 247 247 249 249 249 254 254 254 255 255 255 252 252 252
248 248 248 248 248 248 250 250 250 251 251 251 249 249 249
246 246 246 249 249 249 251 251 251 251 251 251 255 255 255
255 255 255 239 239 239 239 239 239 255 255 255 250 250 250
246 246 246 244 244 244 246 246 246 252 252 252 255 255 255
253 253 253 250 250 250 254 254 254 252 252 252 253 253 253
255 255 255 252 252 252 247 247 247 249 249 249 255 255 255
242 242 242 244 244 244 248 248 248 253 253 253 255 255 255
255 255 255 251 251 251 247 247 247 251 251 251 251 251 251
255 255 255 255 255 255 255 255 255 252 252 252 249 249 249
250 250 250 255 255 255 255 255 255 254 254 254 253 253 253
254 254 254 255 255 255 255 255 255 255 255 255 255 255 255
255 255 255 251 251 251 250 250 250 251 251 251 254 254 254
255 255 255 255 255 255 255 255 255 250 250 250 253 253 253
254 254 254 248 248 248 250 250 250 254 254 254 248 248 248
252 252 252 250 250 250 249 249 249 252 252 252 255 255 255
255 255 255 253 253 253 249 249 249 254 254 254 254 254 254
254 254 254 254 254 254 254 254 254 254 254 254 254 254 254
254 254 254 254 254 254 254 254 254 254 254 254 253 253 253
253 253 253 252 252 252 252 252 252 252 252 252 254 254 254
253 253 253 253 253 253 253 253 253 252 252 252 252 252 252
252 252 252 252 252 252 253 253 253 252 252 252 251 251 251
252 252 252 254 254 254 254 254 254 253 253 253 251 251 251
253 253 253 253 253 253 253 253 253 254 254 254 254 254 254
254 254 254 255 255 255 255 255 255 255 255 255 251 251 251
250 250 250 253 253 253 254 254 254 253 253 253 253 253 253
255 255 255 253 253 253 251 251 251 249 249 249 249 249 249
253 253 253 255 255 255 255 255 255 250 250 250 253 253 253
255 255 255 255 255 255 252 252 252 251 251 251 255 255 255
255 255 255 250 250 250 249 249 249 252 252 252 254 254 254
254 254 254 251 251 251 250 250 250 249 249 249 250 250 250
247 247 247 246 246 246 246 246 246 247 247 247 249 249 249
252 252 252 255 255 255 255 255 255 249 249 249 252 252 252
255 255 255 253 253 253 242 242 242 248 248 248 255 255 255
254 254 254 251 251 251 253 253 253 254 254 254 253 253 253
249 249 249 248 248 248 249 249 249 251 251 251 254 254 254
254 254 254 254 254 254 254 254 254 254 254 254 254 254 254
254 254 254 254 254 254 254 254 254 254 254 254 254 254 254
254 254 254 254 254 254 254 254 254 254 254 254 254 254 254
254 254 254 254 254 254 254 254 254 254 254 254 254 254 254
254 254 254 254 254 254 254 254 254 254 254 254 254 254 254
254 254 254 254 254 254 254 254 254 254 254 254 254 254 254
254 254 254 254 254 254 254 254 254 254 254 254 254 254 254
254 254 254 254 254 254 254 254 254 254 254 254 254 254 254
254 254 254 254 254 254 254 254 254 254 254 254 254 254 254
254 254 254 254 254 254 254 254 254 254 254 254 254 254 254
254 254 254 254 254 254 254 254 254 254 254 254 254 254 254
254 254 254 254 254 254 254 254 254 254 254 254 254 254 254
254 254 254 254 254 254 254 254 254 254 254 254 254 254 254
254 254 254 254 254 254 254 254 254 254 254 254 254 254 254
254 254 254 254 254 254 254 254 254 254 254 254 254 254 254
254 254 254 254 254 254 254 254 254 254 254 254 254 254 254
254 254 254 254 254 254 254 254 254 254 254 254 254 254 254
254 254 254 254 254 254 254 254 254 254 254 254 254 254 254
254 254 254 254 254 254 254 254 254 254 254 254 254 254 254
254 254 254 254 254 254 254 254 254 254 254 254 254 254 254
254 254 254 254 254 254 254 254 254 254 254 254 254 254 254
254 254 254 254 254 254 254 254 254 254 254 254 254 254 254
254 254 254 254 254 254 254 254 254 254 254 254 254 254 254
254 254 254 254 254 254 254 254 254 254 254 254 254 254 254
254 254 254 254 254 254 254 254 254 254 254 254 254 254 254
254 254 254 254 254 254 254 254 254 254 254 254 254 254 254
254 254 254 254 254 254 254 254 254 254 254 254 254 254 254
254 254 254 254 254 254 254 254 254 254 254 254 254 254 254
254 254 254 254 254 254 254 254 254 254 254 254 254 254 254
254 254 254 254 254 254 254 254 254 254 254 254 254 254 254
254 254 254 254 254 254 254 254 254 254 254 254 254 254 254
254 254 254 254 254 254 254 254 254 254 254 254 254 254 254
254 254 254 254 254 254 254 254 254 254 254 254 254 254 254
254 254 254 254 254 254 254 254 254 254 254 254 254 254 254
254 254 254 254 254 254 254 254 254 254 254 254 254 254 254
254 254 254 254 254 254 254 254 254 254 254 254 254 254 254
254 254 254 254 254 254 254 254 254 254 254 254 254 254 254
254 254 254 254 254 254 254 254 254 254 254 254 254 254 254
254 254 254 254 254 254 254 254 254 254 254 254 254 254 254
254 254 254 254 254 254 254 254 254 254 254 254 254 254 254
254 254 254 254 254 254 254 254 254 254 254 254 254 254 254
254 254 254 254 254 254 254 254 254 254 254 254 254 254 254
254 254 254 254 254 254 254 254 254 254 254 254 254 254 254
254 254 254 254 254 254 254 254 254 254 254 254 254 254 254
254 254 254 254 254 254 254 254 254 254 254 254 254 254 254
254 254 254 254 254 254 254 254 254 254 254 254 254 254 254
254 254 254 254 254 254 254 254 254 254 254 254 254 254 254
254 254 254 254 254 254 254 254 254 254 254 254 254 254 254
254 254 254 254 254 254 254 254 254 254 254 254 254 254 254
254 254 254 254 254 254 253 253 253 253 253 253 253 253 253
253 253 253 253 253 253 253 253 253 253 253 253 253 253 253
253 253 253 253 253 253 253 253 253 253 253 253 253 253 253
253 253 253 253 253 253 253 253 253 253 253 253 253 253 253
253 253 253 253 253 253 253 253 253 253 253 253 253 253 253
253 253 253 254 254 254 254 254 254 254 254 254 254 254 254
254 254 254 254 254 254 254 254 254 254 254 254 254 254 254
254 254 254 254 254 254 254 254 254 254 254 254 254 254 254
254 254 254 254 254 254 254 254 254 254 254 254 254 254 254
254 254 254 254 254 254 254 254 254 254 254 254 254 254 254
254 254 254 254 254 254 254 254 254 254 254 254 254 254 254
254 254 254 254 254 254 254 254 254 254 254 254 254 254 254
254 254 254 254 254 254 254 254 254 254 254 254 254 254 254
254 254 254 254 254 254 254 254 254 254 254 254 254 254 254
254 254 254 254 254 254 254 254 254 254 254 254 254 254 254
254 254 254 254 254 254 254 254 254 254 254 254 254 254 254
254 254 254 254 254 254 254 254 254 254 254 254 254 254 254
254 254 254 254 254 254 254 254 254 254 254 254 254 254 254
254 254 254 254 254 254 254 254 254 254 254 254 254 254 254
254 254 254 254 254 254 254 254 254 254 254 254 254 254 254
254 254 254 254 254 254 254 254 254 254 254 254 254 254 254
254 254 254 254 254 254 254 254 254 254 254 254 254 254 254
254 254 254 254 254 254 254 254 254 254 254 254 254 254 254
254 254 254 254 254 254 254 254 254 254 254 254 254 254 254
254 254 254 254 254 254 254 254 254 254 254 254 254 254 254
254 254 254 254 254 254 254 254 254 254 254 254 254 254 254
254 254 254 254 254 254 254 254 254 254 254 254 254 254 254
254 254 254 254 254 254 254 254 254 254 254 254 254 254 254
254 254 254 254 254 254 254 254 254 254 254 254 254 254 254
254 254 254 254 254 254 254 254 254 254 254 254 254 254 254
254 254 254 254 254 254 254 254 254 254 254 254 254 254 254
254 254 254 254 254 254 254 254 254 254 254 254 254 254 254
254 254 254 254 254 254 254 254 254 254 254 254 254 254 254
254 254 254 254 254 254 254 254 254 254 254 254 254 254 254
254 254 254 254 254 254 254 254 254 254 254 254 254 254 254
254 254 254 254 254 254 254 254 254 254 254 254 254 254 254
254 254 254 254 254 254 254 254 254 254 254 254 254 254 254
254 254 254 254 254 254 254 254 254 254 254 254 254 254 254
254 254 254 254 254 254 254 254 254 254 254 254 254 254 254
254 254 254 254 254 254 254 254 254 254 254 254 254 254 254
254 254 254 254 254 254 254 254 254 254 254 254 254 254 254
254 254 254 254 254 254 254 254 254 254 254 254 254 254 254
254 254 254 254 254 254 254 254 254 254 254 254 254 254 254
254 254 254 254 254 254 254 254 254 254 254 254 254 254 254
254 254 254 254 254 254 254 254 254 254 254 254 254 254 254
254 254 254 254 254 254 254 254 254 254 254 254 254 254 254
254 254 254 254 254 254 254 254 254 254 254 254 254 254 254
254 254 254 254 254 254 254 254 254 254 254 254 254 254 254
254 254 254 254 254 254 254 254 254 254 254 254 254 254 254
254 254 254 254 254 254 254 254 254 254 254 254 254 254 254
254 254 254 254 254 254 254 254 254 254 254 254 254 254 254
254 254 254 254 254 254 254 254 254 254 254 254 254 254 254
254 254 254 254 254 254 254 254 254 254 254 254 254 254 254
254 254 254 254 254 254 254 254 254 254 254 254 254 254 254
254 254 254 254 254 254 254 254 254 254 254 254 254 254 254
254 254 254 254 254 254 254 254 254 254 254 254 254 254 254
254 254 254 254 254 254 254 254 254 254 254 254 254 254 254
254 254 254 254 254 254 254 254 254 254 254 254 254 254 254
254 254 254 254 254 254 254 254 254 254 254 254 254 254 254
254 254 254 254 254 254 254 254 254 254 254 254 254 254 254
254 254 254 254 254 254 254 254 254 254 254 254 254 254 254
254 254 254 254 254 254 254 254 254 254 254 254 254 254 254
254 254 254 254 254 254 254 254 254 254 254 254 254 254 254
254 254 254 254 254 254 254 254 254 254 254 254 254 254 254
254 254 254 254 254 254 254 254 254 254 254 254 254 254 254
254 254 254 254 254 254 254 254 254 254 254 254 254 254 254
254 254 254 254 254 254 254 254 254 254 254 254 254 254 254
254 254 254 254 254 254 254 254 254 254 254 254 254 254 254
254 254 254 254 254 254 254 254 254 254 254 254 254 254 254
254 254 254 254 254 254 254 254 254 254 254 254 254 254 254
254 254 254 254 254 254 254 254 254 254 254 254 254 254 254
254 254 254 254 254 254 254 254 254 254 254 254 254 254 254
254 254 254 254 254 254 254 254 254 254 254 254 254 254 254
254 254 254 254 254 254 254 254 254 254 254 254 254 254 254
254 254 254 254 254 254 254 254 254 254 254 254 254 254 254
254 254 254 254 254 254 254 254 254 254 254 254 254 254 254
254 254 254 254 254 254 254 254 254 254 254 254 254 254 254
254 254 254 253 253 253 253 253 253 253 253 253 253 253 253
253 253 253 253 253 253 253 253 253 253 253 253 253 253 253
253 253 253 253 253 253 253 253 253 253 253 253 253 253 253
253 253 253 253 253 253 253 253 253 253 253 253 253 253 253
253 253 253 253 253 253 253 253 253 253 253 253 253 253 253
254 254 254 254 254 254 254 254 254 254 254 254 254 254 254
254 254 254 254 254 254 254 254 254 254 254 254 254 254 254
254 254 254 254 254 254 254 254 254 254 254 254 254 254 254
254 254 254 254 254 254 254 254 254 254 254 254 254 254 254
254 254 254 254 254 254 254 254 254 254 254 254 254 254 254
254 254 254 254 254 254 254 254 254 254 254 254 254 254 254
254 254 254 254 254 254 254 254 254 254 254 254 254 254 254
254 254 254 254 254 254 254 254 254 254 254 254 254 254 254
254 254 254 254 254 254 254 254 254 254 254 254 254 254 254
254 254 254 254 254 254 254 254 254 254 254 254 254 254 254
254 254 254 254 254 254 254 254 254 254 254 254 254 254 254
254 254 254 254 254 254 254 254 254 254 254 254 254 254 254
254 254 254 254 254 254 254 254 254 254 254 254 254 254 254
254 254 254 254 254 254 254 254 254 254 254 254 254 254 254
254 254 254 254 254 254 254 254 254 254 254 254 254 254 254
254 254 254 254 254 254 254 254 254 254 254 254 254 254 254
254 254 254 254 254 254 254 254 254 254 254 254 254 254 254
254 254 254 254 254 254 254 254 254 254 254 254 254 254 254
254 254 254 254 254 254 254 254 254 254 254 254 254 254 254
254 254 254 254 254 254 254 254 254 254 254 254 254 254 254
254 254 254 254 254 254 254 254 254 254 254 254 254 254 254
254 254 254 254 254 254 254 254 254 254 254 254 254 254 254
254 254 254 254 254 254 254 254 254 254 254 254 254 254 254
254 254 254 254 254 254 254 254 254 254 254 254 254 254 254
254 254 254 254 254 254 254 254 254 254 254 254 254 254 254
254 254 254 254 254 254 254 254 254 254 254 254 254 254 254
254 254 254 254 254 254 254 254 254 254 254 254 254 254 254
254 254 254 254 254 254 254 254 254 254 254 254 254 254 254
254 254 254 254 254 254 254 254 254 254 254 254 254 254 254
254 254 254 254 254 254 254 254 254 254 254 254 254 254 254
254 254 254 254 254 254 254 254 254 254 254 254 254 254 254
254 254 254 254 254 254 254 254 254 254 254 254 254 254 254
254 254 254 254 254 254 254 254 254 254 254 254 254 254 254
254 254 254 254 254 254 254 254 254 254 254 254 254 254 254
254 254 254 254 254 254 254 254 254 254 254 254 254 254 254
254 254 254 254 254 254 254 254 254 254 254 254 254 254 254
254 254 254 254 254 254 254 254 254 254 254 254 254 254 254
254 254 254 254 254 254 254 254 254 254 254 254 254 254 254
254 254 254 254 254 254 254 254 254 254 254 254 254 254 254
254 254 254 254 254 254 254 254 254 254 254 254 254 254 254
254 254 254 254 254 254 254 254 254 254 254 254 254 254 254
254 254 254 254 254 254 254 254 254 254 254 254 254 254 254
254 254 254 254 254 254 254 254 254 254 254 254 254 254 254
254 254 254 254 254 254 254 254 254 254 254 254 254 254 254
254 254 254 254 254 254 254 254 254 254 254 254 254 254 254
254 254 254 254 254 254 254 254 254 254 254 254 254 254 254
254 254 254 254 254 254 254 254 254 254 254 254 254 254 254
254 254 254 254 254 254 254 254 254 254 254 254 254 254 254
254 254 254 254 254 254 254 254 254 254 254 254 254 254 254
254 254 254 254 254 254 254 254 254 254 254 254 254 254 254
254 254 254 254 254 254 254 254 254 254 254 254 254 254 254
254 254 254 254 254 254 254 254 254 254 254 254 254 254 254
254 254 254 254 254 254 254 254 254 254 254 254 254 254 254
254 254 254 254 254 254 254 254 254 254 254 254 254 254 254
254 254 254 254 254 254 254 254 254 254 254 254 254 254 254
254 254 254 254 254 254 254 254 254 254 254 254 254 254 254
254 254 254 254 254 254 254 254 254 254 254 254 254 254 254
254 254 254 254 254 254 254 254 254 254 254 254 254 254 254
254 254 254 254 254 254 254 254 254 254 254 254 254 254 254
254 254 254 254 254 254 254 254 254 254 254 254 254 254 254
254 254 254 254 254 254 254 254 254 254 254 254 254 254 254
254 254 254 254 254 254 254 254 254 254 254 254 254 254 254
254 254 254 254 254 254 254 254 254 254 254 254 254 254 254
254 254 254 254 254 254 254 254 254 254 254 254 254 254 254
254 254 254 254 254 254 254 254 254 254 254 254 254 254 254
254 254 254 254 254 254 254 254 254 254 254 254 254 254 254
254 254 254 254 254 254 254 254 254 254 254 254 254 254 254
254 254 254 254 254 254 254 254 254 254 254 254 254 254 254
254 254 254 254 254 254 254 254 254 254 254 254 254 254 254
254 254 254 254 254 254 254 254 254 254 254 254 254 254 254
254 254 254 254 254 254 254 254 254 254 254 254 254 254 254
254 254 254 254 254 254 254 254 254 254 254 254 254 254 254
253 253 253 253 253 253 253 253 253 253 253 253 253 253 253
253 253 253 253 253 253 253 253 253 253 253 253 253 253 253
253 253 253 253 253 253 253 253 253 253 253 253 253 253 253
253 253 253 253 253 253 253 253 253 253 253 253 253 253 253
253 253 253 253 253 253 253 253 253 253 253 253 254 254 254
254 254 254 254 254 254 254 254 254 254 254 254 254 254 254
254 254 254 254 254 254 254 254 254 254 254 254 254 254 254
254 254 254 254 254 254 254 254 254 254 254 254 254 254 254
254 254 254 254 254 254 254 254 254 254 254 254 254 254 254
254 254 254 254 254 254 254 254 254 254 254 254 254 254 254
254 254 254 254 254 254 254 254 254 254 254 254 254 254 254
254 254 254 254 254 254 254 254 254 254 254 254 254 254 254
254 254 254 254 254 254 254 254 254 254 254 254 254 254 254
254 254 254 254 254 254 254 254 254 254 254 254 254 254 254
254 254 254 254 254 254 254 254 254 254 254 254 254 254 254
254 254 254 254 254 254 254 254 254 254 254 254 254 254 254
254 254 254 254 254 254 254 254 254 254 254 254 254 254 254
254 254 254 254 254 254 254 254 254 254 254 254 254 254 254
254 254 254 254 254 254 254 254 254 254 254 254 254 254 254
254 254 254 254 254 254 254 254 254 254 254 254 254 254 254
254 254 254 254 254 254 254 254 254 254 254 254 254 254 254
254 254 254 254 254 254 254 254 254 254 254 254 254 254 254
254 254 254 254 254 254 254 254 254 254 254 254 254 254 254
254 254 254 254 254 254 254 254 254 254 254 254 254 254 254
254 254 254 254 254 254 254 254 254 254 254 254 254 254 254
254 254 254 254 254 254 254 254 254 254 254 254 254 254 254
254 254 254 254 254 254 254 254 254 254 254 254 254 254 254
254 254 254 254 254 254 254 254 254 254 254 254 254 254 254
254 254 254 254 254 254 254 254 254 254 254 254 254 254 254
254 254 254 254 254 254 254 254 254 254 254 254 254 254 254
254 254 254 254 254 254 254 254 254 254 254 254 254 254 254
254 254 254 254 254 254 254 254 254 254 254 254 254 254 254
254 254 254 254 254 254 254 254 254 254 254 254 254 254 254
254 254 254 254 254 254 254 254 254 254 254 254 254 254 254
254 254 254 254 254 254 254 254 254 254 254 254 254 254 254
254 254 254 254 254 254 254 254 254 254 254 254 254 254 254
254 254 254 254 254 254 254 254 254 254 254 254 254 254 254
254 254 254 254 254 254 254 254 254 254 254 254 254 254 254
254 254 254 254 254 254 254 254 254 254 254 254 254 254 254
254 254 254 254 254 254 254 254 254 254 254 254 254 254 254
254 254 254 254 254 254 254 254 254 254 254 254 254 254 254
254 254 254 254 254 254 254 254 254 254 254 254 254 254 254
254 254 254 254 254 254 254 254 254 254 254 254 254 254 254
254 254 254 254 254 254 254 254 254 254 254 254 254 254 254
254 254 254 254 254 254 254 254 254 254 254 254 254 254 254
254 254 254 254 254 254 254 254 254 254 254 254 254 254 254
254 254 254 254 254 254 254 254 254 254 254 254 254 254 254
254 254 254 254 254 254 254 254 254 254 254 254 254 254 254
254 254 254 254 254 254 254 254 254 254 254 254 254 254 254
254 254 254 254 254 254 254 254 254 254 254 254 254 254 254
254 254 254 254 254 254 254 254 254 254 254 254 254 254 254
254 254 254 254 254 254 254 254 254 254 254 254 254 254 254
254 254 254 254 254 254 254 254 254 254 254 254 254 254 254
254 254 254 254 254 254 254 254 254 254 254 254 254 254 254
254 254 254 254 254 254 254 254 254 254 254 254 254 254 254
254 254 254 254 254 254 254 254 254 254 254 254 254 254 254
254 254 254 254 254 254 254 254 254 254 254 254 254 254 254
254 254 254 254 254 254 254 254 254 254 254 254 254 254 254
254 254 254 254 254 254 254 254 254 254 254 254 254 254 254
254 254 254 254 254 254 254 254 254 254 254 254 254 254 254
254 254 254 254 254 254 254 254 254 254 254 254 254 254 254
254 254 254 254 254 254 254 254 254 254 254 254 254 254 254
254 254 254 254 254 254 254 254 254 254 254 254 254 254 254
254 254 254 254 254 254 254 254 254 254 254 254 254 254 254
254 254 254 254 254 254 254 254 254 254 254 254 254 254 254
254 254 254 254 254 254 254 254 254 254 254 254 254 254 254
254 254 254 254 254 254 254 254 254 254 254 254 254 254 254
254 254 254 254 254 254 254 254 254 254 254 254 254 254 254
254 254 254 254 254 254 254 254 254 254 254 254 254 254 254
254 254 254 254 254 254 254 254 254 254 254 254 254 254 254
254 254 254 254 254 254 254 254 254 254 254 254 254 254 254
254 254 254 254 254 254 254 254 254 254 254 254 254 254 254
254 254 254 254 254 254 254 254 254 254 254 254 254 254 254
254 254 254 254 254 254 254 254 254 254 254 254 254 254 254
254 254 254 254 254 254 254 254 254 254 254 254 254 254 254
254 254 254 254 254 254 254 254 254 254 254 254 254 254 254
254 254 254 254 254 254 254 254 254 254 254 254 254 254 254
254 254 254 254 254 254 254 254 254 254 254 254 254 254 254
254 254 254 254 254 254 254 254 254 254 254 254 254 254 254
254 254 254 254 254 254 254 254 254 254 254 254 254 254 254
254 254 254 254 254 254 254 254 254 254 254 254 254 254 254
254 254 254 254 254 254 254 254 254 254 254 254 254 254 254
254 254 254 254 254 254 254 254 254 254 254 254 254 254 254
254 254 254 254 254 254 254 254 254 254 254 254 254 254 254
254 254 254 254 254 254 254 254 254 254 254 254 254 254 254
254 254 254 254 254 254 254 254 254 254 254 254 254 254 254
254 254 254 254 254 254 254 254 254 254 254 254 254 254 254
254 254 254 254 254 254 254 254 254 254 254 254 254 254 254
254 254 254 254 254 254 254 254 254 254 254 254 254 254 254
254 254 254 254 254 254 254 254 254 254 254 254 254 254 254
254 254 254 254 254 254 254 254 254 254 254 254 254 254 254
254 254 254 254 254 254 254 254 254 254 254 254 254 254 254
254 254 254 254 254 254 254 254 254 254 254 254 254 254 254
254 254 254 254 254 254 254 254 254 254 254 254 254 254 254
254 254 254 254 254 254 254 254 254 254 254 254 254 254 254
254 254 254 254 254 254 254 254 254 254 254 254 254 254 254
254 254 254 254 254 254 254 254 254 254 254 254 254 254 254
254 254 254 254 254 254 254 254 254 254 254 254 254 254 254
254 254 254 254 254 254 254 254 254 254 254 254 254 254 254
254 254 254 254 254 254 254 254 254 254 254 254 254 254 254
254 254 254 254 254 254 254 254 254 254 254 254 254 254 254
254 254 254 254 254 254 254 254 254 254 254 254 254 254 254
254 254 254 254 254 254 254 254 254 254 254 254 254 254 254
254 254 254 254 254 254 254 254 254 254 254 254 254 254 254
254 254 254 254 254 254 254 254 254 254 254 254 254 254 254
254 254 254 254 254 254 254 254 254 254 254 254 254 254 254
254 254 254 254 254 254 254 254 254 254 254 254 254 254 254
254 254 254 254 254 254 254 254 254 254 254 254 254 254 254
254 254 254 254 254 254 254 254 254 254 254 254 254 254 254
254 254 254 254 254 254 254 254 254 254 254 254 254 254 254
254 254 254 254 254 254 254 254 254 254 254 254 254 254 254
254 254 254 254 254 254 254 254 254 254 254 254 254 254 254
254 254 254 254 254 254 254 254 254 254 254 254 254 254 254
254 254 254 254 254 254 254 254 254 254 254 254 254 254 254
254 254 254 254 254 254 254 254 254 254 254 254 254 254 254
254 254 254 254 254 254 254 254 254 254 254 254 254 254 254
254 254 254 254 254 254 254 254 254 254 254 254 254 254 254
254 254 254 254 254 254 254 254 254 254 254 254 254 254 254
254 254 254 254 254 254 254 254 254 254 254 254 254 254 254
254 254 254 254 254 254 254 254 254 254 254 254 254 254 254
254 254 254 254 254 254 254 254 254 254 254 254 254 254 254
254 254 254 254 254 254 254 254 254 254 254 254 254 254 254
254 254 254 254 254 254 254 254 254 254 254 254 254 254 254
254 254 254 254 254 254 254 254 254 254 254 254 254 254 254
254 254 254 254 254 254 254 254 254 254 254 254 254 254 254
254 254 254 254 254 254 254 254 254 254 254 254 254 254 254
254 254 254 254 254 254 254 254 254 254 254 254 254 254 254
254 254 254 254 254 254 254 254 254 254 254 254 254 254 254
254 254 254 254 254 254 254 254 254 254 254 254 254 254 254
254 254 254 254 254 254 254 254 254 254 254 254 254 254 254
254 254 254 254 254 254 254 254 254 254 254 254 254 254 254
254 254 254 254 254 254 254 254 254 254 254 254 254 254 254
254 254 254 254 254 254 254 254 254 254 254 254 254 254 254
254 254 254 254 254 254 254 254 254 254 254 254 254 254 254
254 254 254 254 254 254 254 254 254 254 254 254 254 254 254
254 254 254 254 254 254 254 254 254 254 254 254 254 254 254
254 254 254 254 254 254 254 254 254 254 254 254 254 254 254
254 254 254 254 254 254 254 254 254 254 254 254 254 254 254
254 254 254 254 254 254 254 254 254 254 254 254 254 254 254
254 254 254 254 254 254 254 254 254 254 254 254 254 254 254
254 254 254 254 254 254 254 254 254 254 254 254 254 254 254
254 254 254 254 254 254 254 254 254 254 254 254 254 254 254
254 254 254 254 254 254 254 254 254 254 254 254 254 254 254
254 254 254 254 254 254 254 254 254 254 254 254 254 254 254
254 254 254 254 254 254 254 254 254 254 254 254 254 254 254
254 254 254 254 254 254 254 254 254 254 254 254 254 254 254
254 254 254 254 254 254 254 254 254 254 254 254 254 254 254
254 254 254 254 254 254 254 254 254 254 254 254 254 254 254
254 254 254 254 254 254 254 254 254 254 254 254 254 254 254
254 254 254 254 254 254 254 254 254 254 254 254 254 254 254
254 254 254 254 254 254 254 254 254 254 254 254 254 254 254
254 254 254 254 254 254 254 254 254 254 254 254 254 254 254
254 254 254 254 254 254 254 254 254 254 254 254 254 254 254
254 254 254 254 254 254 254 254 254 254 254 254 254 254 254
254 254 254 254 254 254 254 254 254 254 254 254 254 254 254
254 254 254 254 254 254 254 254 254 254 254 254 254 254 254
254 254 254 254 254 254 254 254 254 254 254 254 254 254 254
254 254 254 254 254 254 254 254 254 254 254 254 254 254 254
254 254 254 254 254 254 254 254 254 254 254 254 254 254 254
254 254 254 254 254 254 254 254 254 254 254 254 254 254 254
254 254 254 254 254 254 254 254 254 254 254 254 254 254 254
254 254 254 254 254 254 254 254 254 254 254 254 254 254 254
254 254 254 254 254 254 254 254 254 254 254 254 254 254 254
254 254 254 254 254 254 254 254 254 254 254 254 254 254 254
254 254 254 254 254 254 254 254 254 254 254 254 254 254 254
254 254 254 254 254 254 254 254 254 254 254 254 254 254 254
254 254 254 254 254 254 254 254 254 254 254 254 254 254 254
254 254 254 254 254 254 254 254 254 254 254 254 254 254 254
254 254 254 254 254 254 254 254 254 254 254 254 254 254 254
254 254 254 254 254 254 254 254 254 254 254 254 254 254 254
254 254 254 254 254 254 254 254 254 254 254 254 254 254 254
254 254 254 254 254 254 254 254 254 254 254 254 254 254 254
254 254 254 254 254 254 254 254 254 254 254 254 254 254 254
254 254 254 254 254 254 254 254 254 254 254 254 254 254 254
254 254 254 254 254 254 254 254 254 254 254 254 254 254 254
254 254 254 254 254 254 254 254 254 254 254 254 254 254 254
254 254 254 254 254 254 254 254 254 254 254 254 254 254 254
254 254 254 254 254 254 254 254 254 254 254 254 254 254 254
254 254 254 254 254 254 254 254 254 254 254 254 254 254 254
254 254 254 254 254 254 254 254 254 254 254 254 254 254 254
254 254 254 254 254 254 254 254 254 254 254 254 254 254 254
254 254 254 254 254 254 254 254 254 254 254 254 254 254 254
254 254 254 254 254 254 254 254 254 254 254 254 254 254 254
254 254 254 254 254 254 254 254 254 254 254 254 254 254 254
254 254 254 254 254 254 254 254 254 254 254 254 254 254 254
254 254 254 254 254 254 254 254 254 254 254 254 254 254 254
254 254 254 254 254 254 254 254 254 254 254 254 254 254 254
254 254 254 254 254 254 254 254 254 254 254 254 254 254 254
254 254 254 254 254 254 254 254 254 254 254 254 254 254 254
254 254 254 254 254 254 254 254 254 254 254 254 254 254 254
254 254 254 254 254 254 254 254 254 254 254 254 254 254 254
254 254 254 254 254 254 254 254 254 254 254 254 254 254 254
254 254 254 254 254 254 254 254 254 254 254 254 254 254 254
254 254 254 254 254 254 254 254 254 254 254 254 254 254 254
254 254 254 254 254 254 254 254 254 254 254 254 254 254 254
254 254 254 254 254 254 254 254 254 254 254 254 254 254 254
254 254 254 254 254 254 254 254 254 254 254 254 254 254 254
254 254 254 254 254 254 254 254 254 254 254 254 254 254 254
254 254 254 254 254 254 254 254 254 254 254 254 254 254 254
254 254 254 254 254 254 254 254 254 254 254 254 254 254 254
254 254 254 254 254 254 254 254 254 254 254 254 254 254 254
254 254 254 254 254 254 254 254 254 254 254 254 254 254 254
254 254 254 254 254 254 254 254 254 254 254 254 254 254 254
254 254 254 254 254 254 254 254 254 254 254 254 254 254 254
254 254 254 254 254 254 254 254 254 254 254 254 254 254 254
254 254 254 254 254 254 254 254 254 254 254 254 254 254 254
254 254 254 254 254 254 254 254 254 254 254 254 254 254 254
254 254 254 254 254 254 254 254 254 254 254 254 254 254 254
254 254 254 254 254 254 254 254 254 254 254 254 254 254 254
254 254 254 254 254 254 254 254 254 254 254 254 254 254 254
254 254 254 254 254 254 254 254 254 254 254 254 254 254 254
254 254 254 254 254 254 254 254 254 254 254 254 254 254 254
254 254 254 254 254 254 254 254 254 254 254 254 254 254 254
254 254 254 254 254 254 254 254 254 254 254 254 254 254 254
254 254 254 254 254 254 254 254 254 254 254 254 254 254 254
254 254 254 254 254 254 254 254 254 254 254 254 254 254 254
254 254 254 254 254 254 254 254 254 254 254 254 254 254 254
254 254 254 254 254 254 254 254 254 254 254 254 254 254 254
254 254 254 254 254 254 254 254 254 254 254 254 254 254 254
254 254 254 254 254 254 254 254 254 254 254 254 254 254 254
254 254 254 254 254 254 254 254 254 254 254 254 254 254 254
254 254 254 254 254 254 254 254 254 254 254 254 254 254 254
254 254 254 254 254 254 254 254 254 254 254 254 254 254 254
254 254 254 254 254 254 254 254 254 254 254 254 254 254 254
254 254 254 254 254 254 254 254 254 254 254 254 254 254 254
254 254 254 254 254 254 254 254 254 254 254 254 254 254 254
254 254 254 254 254 254 254 254 254 254 254 254 254 254 254
254 254 254 254 254 254 254 254 254 254 254 254 254 254 254
254 254 254 254 254 254 254 254 254 254 254 254 254 254 254
254 254 254 254 254 254 254 254 254 254 254 254 254 254 254
254 254 254 254 254 254 255 255 255 255 255 255 255 255 255
255 255 255 255 255 255 255 255 255 255 255 255 255 255 255
255 255 255 255 255 255 255 255 255 255 255 255 255 255 255
255 255 255 255 255 255 255 255 255 255 255 255 255 255 255
255 255 255 255 255 255 255 255 255 255 255 255 255 255 255
255 255 255 254 254 254 254 254 254 254 254 254 254 254 254
254 254 254 254 254 254 254 254 254 254 254 254 254 254 254
254 254 254 254 254 254 254 254 254 254 254 254 254 254 254
254 254 254 254 254 254 254 254 254 254 254 254 254 254 254
254 254 254 254 254 254 254 254 254 254 254 254 254 254 254
254 254 254 254 254 254 254 254 254 254 254 254 254 254 254
254 254 254 254 254 254 254 254 254 254 254 254 254 254 254
254 254 254 254 254 254 254 254 254 254 254 254 254 254 254
254 254 254 254 254 254 254 254 254 254 254 254 254 254 254
254 254 254 254 254 254 254 254 254 254 254 254 254 254 254
254 254 254 254 254 254 254 254 254 254 254 254 254 254 254
254 254 254 254 254 254 254 254 254 254 254 254 254 254 254
254 254 254 254 254 254 254 254 254 254 254 254 254 254 254
254 254 254 254 254 254 254 254 254 254 254 254 254 254 254
254 254 254 254 254 254 254 254 254 254 254 254 254 254 254
254 254 254 254 254 254 254 254 254 254 254 254 254 254 254
254 254 254 254 254 254 254 254 254 254 254 254 254 254 254
254 254 254 254 254 254 254 254 254 254 254 254 254 254 254
254 254 254 254 254 254 254 254 254 254 254 254 254 254 254
254 254 254 254 254 254 254 254 254 254 254 254 254 254 254
254 254 254 254 254 254 254 254 254 254 254 254 254 254 254
254 254 254 254 254 254 254 254 254 254 254 254 254 254 254
254 254 254 254 254 254 254 254 254 254 254 254 254 254 254
254 254 254 254 254 254 254 254 254 254 254 254 254 254 254
254 254 254 254 254 254 254 254 254 254 254 254 254 254 254
254 254 254 254 254 254 254 254 254 254 254 254 254 254 254
254 254 254 254 254 254 254 254 254 254 254 254 254 254 254
254 254 254 254 254 254 254 254 254 254 254 254 254 254 254
254 254 254 254 254 254 254 254 254 254 254 254 254 254 254
254 254 254 254 254 254 254 254 254 254 254 254 254 254 254
254 254 254 254 254 254 254 254 254 254 254 254 254 254 254
254 254 254 254 254 254 254 254 254 254 254 254 254 254 254
254 254 254 254 254 254 254 254 254 254 254 254 254 254 254
254 254 254 254 254 254 254 254 254 254 254 254 254 254 254
254 254 254 254 254 254 254 254 254 254 254 254 254 254 254
254 254 254 254 254 254 254 254 254 254 254 254 254 254 254
254 254 254 254 254 254 254 254 254 254 254 254 254 254 254
254 254 254 254 254 254 254 254 254 254 254 254 254 254 254
254 254 254 254 254 254 254 254 254 254 254 254 254 254 254
254 254 254 254 254 254 254 254 254 254 254 254 254 254 254
254 254 254 254 254 254 254 254 254 254 254 254 254 254 254
254 254 254 254 254 254 254 254 254 254 254 254 254 254 254
254 254 254 254 254 254 254 254 254 254 254 254 254 254 254
254 254 254 254 254 254 254 254 254 254 254 254 254 254 254
254 254 254 254 254 254 254 254 254 254 254 254 254 254 254
254 254 254 254 254 254 254 254 254 254 254 254 254 254 254
254 254 254 254 254 254 254 254 254 254 254 254 254 254 254
254 254 254 254 254 254 254 254 254 254 254 254 254 254 254
254 254 254 254 254 254 254 254 254 254 254 254 254 254 254
254 254 254 254 254 254 254 254 254 254 254 254 254 254 254
254 254 254 254 254 254 254 254 254 254 254 254 254 254 254
254 254 254 254 254 254 254 254 254 254 254 254 254 254 254
254 254 254 254 254 254 254 254 254 254 254 254 254 254 254
254 254 254 254 254 254 254 254 254 254 254 254 254 254 254
254 254 254 254 254 254 254 254 254 254 254 254 254 254 254
254 254 254 254 254 254 254 254 254 254 254 254 254 254 254
254 254 254 254 254 254 254 254 254 254 254 254 254 254 254
254 254 254 254 254 254 254 254 254 254 254 254 254 254 254
254 254 254 254 254 254 254 254 254 254 254 254 254 254 254
254 254 254 254 254 254 254 254 254 254 254 254 254 254 254
254 254 254 254 254 254 254 254 254 254 254 254 254 254 254
254 254 254 254 254 254 254 254 254 254 254 254 254 254 254
254 254 254 254 254 254 254 254 254 254 254 254 254 254 254
254 254 254 254 254 254 254 254 254 254 254 254 254 254 254
254 254 254 254 254 254 254 254 254 254 254 254 254 254 254
254 254 254 254 254 254 254 254 254 254 254 254 254 254 254
254 254 254 254 254 254 254 254 254 254 254 254 254 254 254
254 254 254 254 254 254 254 254 254 254 254 254 254 254 254
254 254 254 254 254 254 254 254 254 254 254 254 254 254 254
254 254 254 254 254 254 254 254 254 254 254 254 254 254 254
254 254 254 254 254 254 254 254 254 254 254 254 254 254 254
254 254 254 254 254 254 254 254 254 254 254 254 254 254 254
254 254 254 255 255 255 255 255 255 255 255 255 255 255 255
255 255 255 255 255 255 255 255 255 255 255 255 255 255 255
255 255 255 255 255 255 255 255 255 255 255 255 255 255 255
255 255 255 255 255 255 255 255 255 255 255 255 255 255 255
255 255 255 255 255 255 255 255 255 255 255 255 255 255 255
254 254 254 254 254 254 254 254 254 254 254 254 254 254 254
254 254 254 254 254 254 254 254 254 254 254 254 254 254 254
254 254 254 254 254 254 254 254 254 254 254 254 254 254 254
254 254 254 254 254 254 254 254 254 254 254 254 254 254 254
254 254 254 254 254 254 254 254 254 254 254 254 254 254 254
254 254 254 254 254 254 254 254 254 254 254 254 254 254 254
254 254 254 254 254 254 254 254 254 254 254 254 254 254 254
254 254 254 254 254 254 254 254 254 254 254 254 254 254 254
254 254 254 254 254 254 254 254 254 254 254 254 254 254 254
254 254 254 254 254 254 254 254 254 254 254 254 254 254 254
254 254 254 254 254 254 254 254 254 254 254 254 254 254 254
254 254 254 254 254 254 254 254 254 254 254 254 254 254 254
254 254 254 254 254 254 254 254 254 254 254 254 254 254 254
254 254 254 254 254 254 254 254 254 254 254 254 254 254 254
254 254 254 254 254 254 254 254 254 254 254 254 254 254 254
254 254 254 254 254 254 254 254 254 254 254 254 254 254 254
254 254 254 254 254 254 254 254 254 254 254 254 254 254 254
254 254 254 254 254 254 254 254 254 254 254 254 254 254 254
254 254 254 254 254 254 254 254 254 254 254 254 254 254 254
254 254 254 254 254 254 254 254 254 254 254 254 254 254 254
254 254 254 254 254 254 254 254 254 254 254 254 254 254 254
254 254 254 254 254 254 254 254 254 254 254 254 254 254 254
254 254 254 254 254 254 254 254 254 254 254 254 254 254 254
254 254 254 254 254 254 254 254 254 254 254 254 254 254 254
254 254 254 254 254 254 254 254 254 254 254 254 254 254 254
254 254 254 254 254 254 254 254 254 254 254 254 254 254 254
254 254 254 254 254 254 254 254 254 254 254 254 254 254 254
254 254 254 254 254 254 254 254 254 254 254 254 254 254 254
254 254 254 254 254 254 254 254 254 254 254 254 254 254 254
254 254 254 254 254 254 254 254 254 254 254 254 254 254 254
254 254 254 254 254 254 254 254 254 254 254 254 254 254 254
254 254 254 254 254 254 254 254 254 254 254 254 254 254 254
254 254 254 254 254 254 254 254 254 254 254 254 254 254 254
254 254 254 254 254 254 254 254 254 254 254 254 254 254 254
254 254 254 254 254 254 254 254 254 254 254 254 254 254 254
254 254 254 254 254 254 254 254 254 254 254 254 254 254 254
254 254 254 254 254 254 254 254 254 254 254 254 254 254 254
254 254 254 254 254 254 254 254 254 254 254 254 254 254 254
254 254 254 254 254 254 254 254 254 254 254 254 254 254 254
254 254 254 254 254 254 254 254 254 254 254 254 254 254 254
254 254 254 254 254 254 254 254 254 254 254 254 254 254 254
254 254 254 254 254 254 254 254 254 254 254 254 254 254 254
254 254 254 254 254 254 254 254 254 254 254 254 254 254 254
254 254 254 254 254 254 254 254 254 254 254 254 254 254 254
254 254 254 254 254 254 254 254 254 254 254 254 254 254 254
254 254 254 254 254 254 254 254 254 254 254 254 254 254 254
254 254 254 254 254 254 254 254 254 254 254 254 254 254 254
254 254 254 254 254 254 254 254 254 254 254 254 254 254 254
254 254 254 254 254 254 254 254 254 254 254 254 254 254 254
254 254 254 254 254 254 254 254 254 254 254 254 254 254 254
254 254 254 254 254 254 254 254 254 254 254 254 254 254 254
254 254 254 254 254 254 254 254 254 254 254 254 254 254 254
254 254 254 254 254 254 254 254 254 254 254 254 254 254 254
254 254 254 254 254 254 254 254 254 254 254 254 254 254 254
254 254 254 254 254 254 254 254 254 254 254 254 254 254 254
254 254 254 254 254 254 254 254 254 254 254 254 254 254 254
254 254 254 254 254 254 254 254 254 254 254 254 254 254 254
254 254 254 254 254 254 254 254 254 254 254 254 254 254 254
254 254 254 254 254 254 254 254 254 254 254 254 254 254 254
254 254 254 254 254 254 254 254 254 254 254 254 254 254 254
254 254 254 254 254 254 254 254 254 254 254 254 254 254 254
254 254 254 254 254 254 254 254 254 254 254 254 254 254 254
254 254 254 254 254 254 254 254 254 254 254 254 254 254 254
254 254 254 254 254 254 254 254 254 254 254 254 254 254 254
254 254 254 254 254 254 254 254 254 254 254 254 254 254 254
254 254 254 254 254 254 254 254 254 254 254 254 254 254 254
254 254 254 254 254 254 254 254 254 254 254 254 254 254 254
254 254 254 254 254 254 254 254 254 254 254 254 254 254 254
254 254 254 254 254 254 254 254 254 254 254 254 254 254 254
254 254 254 254 254 254 254 254 254 254 254 254 254 254 254
254 254 254 254 254 254 254 254 254 254 254 254 254 254 254
254 254 254 254 254 254 254 254 254 254 254 254 254 254 254
255 255 255 255 255 255 255 255 255 255 255 255 255 255 255
255 255 255 255 255 255 255 255 255 255 255 255 255 255 255
255 255 255 255 255 255 255 255 255 255 255 255 255 255 255
255 255 255 255 255 255 255 255 255 255 255 255 255 255 255
255 255 255 255 255 255 255 255 255 255 255 255 254 254 254
254 254 254 254 254 254 254 254 254 254 254 254 254 254 254
254 254 254 254 254 254 254 254 254 254 254 254 254 254 254
254 254 254 254 254 254 254 254 254 254 254 254 254 254 254
254 254 254 254 254 254 254 254 254 254 254 254 254 254 254
254 254 254 254 254 254 254 254 254 254 254 254 254 254 254
254 254 254 254 254 254 254 254 254 254 254 254 254 254 254
254 254 254 254 254 254 254 254 254 254 254 254 254 254 254
254 254 254 254 254 254 254 254 254 254 254 254 254 254 254
254 254 254 254 254 254 254 254 254 254 254 254 254 254 254
254 254 254 254 254 254 254 254 254 254 254 254 254 254 254
254 254 254 254 254 254 254 254 254 254 254 254 254 254 254
254 254 254 254 254 254 254 254 254 254 254 254 254 254 254
254 254 254 254 254 254 254 254 254 254 254 254 254 254 254
254 254 254 254 254 254 254 254 254 254 254 254 254 254 254
254 254 254 254 254 254 254 254 254 254 254 254 254 254 254
254 254 254 254 254 254 254 254 254 254 254 254 254 254 254
254 254 254 254 254 254 254 254 254 254 254 254 254 254 254
254 254 254 254 254 254 254 254 254 254 254 254 254 254 254
254 254 254 254 254 254 254 254 254 254 254 254 254 254 254
254 254 254 254 254 254 254 254 254 254 254 254 254 254 254
254 254 254 254 254 254 254 254 254 254 254 254 254 254 254
254 254 254 254 254 254 254 254 254 254 254 254 254 254 254
254 254 254 254 254 254 254 254 254 254 254 254 254 254 254
254 254 254 254 254 254 254 254 254 254 254 254 254 254 254
254 254 254 254 254 254 254 254 254 254 254 254 254 254 254
254 254 254 254 254 254 254 254 254 254 254 254 254 254 254
254 254 254 254 254 254 254 254 254 254 254 254 254 254 254
254 254 254 254 254 254 254 254 254 254 254 254 254 254 254
254 254 254 254 254 254 254 254 254 254 254 254 254 254 254
254 254 254 254 254 254 254 254 254 254 254 254 254 254 254
254 254 254 254 254 254 254 254 254 254 254 254 254 254 254
254 254 254 254 254 254 254 254 254 254 254 254 254 254 254
254 254 254 254 254 254 254 254 254 254 254 254 254 254 254
254 254 254 254 254 254 254 254 254 254 254 254 254 254 254
254 254 254 254 254 254 254 254 254 254 254 254 254 254 254
254 254 254 254 254 254 254 254 254 254 254 254 254 254 254
254 254 254 254 254 254 254 254 254 254 254 254 254 254 254
254 254 254 254 254 254 254 254 254 254 254 254 254 254 254
254 254 254 254 254 254 254 254 254 254 254 254 254 254 254
254 254 254 254 254 254 254 254 254 254 254 254 254 254 254
254 254 254 254 254 254 254 254 254 254 254 254 254 254 254
254 254 254 254 254 254 254 254 254 254 254 254 254 254 254
254 254 254 254 254 254 254 254 254 254 254 254 254 254 254
254 254 254 254 254 254 254 254 254 254 254 254 254 254 254
254 254 254 254 254 254 254 254 254 254 254 254 254 254 254
254 254 254 254 254 254 254 254 254 254 254 254 254 254 254
254 254 254 254 254 254 254 254 254 254 254 254 254 254 254
254 254 254 254 254 254 254 254 254 254 254 254 254 254 254
254 254 254 254 254 254 254 254 254 254 254 254 254 254 254
254 254 254 254 254 254 254 254 254 254 254 254 254 254 254
254 254 254 254 254 254 254 254 254 254 254 254 254 254 254
254 254 254 254 254 254 254 254 254 254 254 254 254 254 254
254 254 254 254 254 254 254 254 254 254 254 254 254 254 254
254 254 254 254 254 254 254 254 254 254 254 254 254 254 254
254 254 254 254 254 254 254 254 254 254 254 254 254 254 254
254 254 254 254 254 254 254 254 254 254 254 254 254 254 254
254 254 254 254 254 254 254 254 254 254 254 254 254 254 254
254 254 254 254 254 254 254 254 254 254 254 254 254 254 254
254 254 254 254 254 254 254 254 254 254 254 254 254 254 254
254 254 254 254 254 254 254 254 254 254 254 254 254 254 254
254 254 254 254 254 254 254 254 254 254 254 254 254 254 254
254 254 254 254 254 254 254 254 254 254 254 254 254 254 254
254 254 254 254 254 254 254 254 254 254 254 254 254 254 254
254 254 254 254 254 254 254 254 254 254 254 254 254 254 254
254 254 254 254 254 254 254 254 254 254 254 254 254 254 254
254 254 254 254 254 254 254 254 254 254 254 254 254 254 254
254 254 254 254 254 254 254 254 254 254 254 254 254 254 254
254 254 254 254 254 254 254 254 254 254 254 254 254 254 254
254 254 254 254 254 254 254 254 254 254 254 254 254 254 254
254 254 254 254 254 254 254 254 254 254 254 254 254 254 254
254 254 254 254 254 254 254 254 254 254 254 254 254 254 254
254 254 254 254 254 254 254 254 254 254 254 254 254 254 254
254 254 254 254 254 254 254 254 254 254 254 254 254 254 254
254 254 254 254 254 254 254 254 254 254 254 254 254 254 254
254 254 254 254 254 254 254 254 254 254 254 254 254 254 254
254 254 254 254 254 254 254 254 254 254 254 254 254 254 254
254 254 254 254 254 254 254 254 254 254 254 254 254 254 254
254 254 254 254 254 254 254 254 254 254 254 254 254 254 254
254 254 254 254 254 254 254 254 254 254 254 254 254 254 254
254 254 254 254 254 254 254 254 254 254 254 254 254 254 254
254 254 254 254 254 254 254 254 254 254 254 254 254 254 254
254 254 254 254 254 254 254 254 254 254 254 254 254 254 254
254 254 254 254 254 254 254 254 254 254 254 254 254 254 254
254 254 254 254 254 254 254 254 254 254 254 254 254 254 254
254 254 254 254 254 254 254 254 254 254 254 254 254 254 254
254 254 254 254 254 254 254 254 254 254 254 254 254 254 254
254 254 254 254 254 254 254 254 254 254 254 254 254 254 254
254 254 254 254 254 254 254 254 254 254 254 254 254 254 254
254 254 254 254 254 254 254 254 254 254 254 254 254 254 254
254 254 254 254 254 254 254 254 254 254 254 254 254 254 254
254 254 254 254 254 254 254 254 254 254 254 254 254 254 254
254 254 254 254 254 254 254 254 254 254 254 254 254 254 254
254 254 254 254 254 254 254 254 254 254 254 254 254 254 254
254 254 254 254 254 254 254 254 254 254 254 254 254 254 254
254 254 254 254 254 254 254 254 254 254 254 254 254 254 254
254 254 254 254 254 254 254 254 254 254 254 254 254 254 254
254 254 254 254 254 254 254 254 254 254 254 254 254 254 254
254 254 254 254 254 254 254 254 254 254 254 254 254 254 254
254 254 254 254 254 254 254 254 254 254 254 254 254 254 254
254 254 254 254 254 254 254 254 254 254 254 254 254 254 254
254 254 254 254 254 254 254 254 254 254 254 254 254 254 254
254 254 254 254 254 254 254 254 254 254 254 254 254 254 254
254 254 254 254 254 254 254 254 254 254 254 254 254 254 254
254 254 254 254 254 254 254 254 254 254 254 254 254 254 254
254 254 254 254 254 254 254 254 254 254 254 254 254 254 254
254 254 254 254 254 254 254 254 254 254 254 254 254 254 254
254 254 254 254 254 254 254 254 254 254 254 254 254 254 254
254 254 254 254 254 254 254 254 254 254 254 254 254 254 254
254 254 254 254 254 254 254 254 254 254 254 254 254 254 254
254 254 254 254 254 254 254 254 254 254 254 254 254 254 254
254 254 254 254 254 254 254 254 254 254 254 254 254 254 254
254 254 254 254 254 254 254 254 254 254 254 254 254 254 254
254 254 254 254 254 254 254 254 254 254 254 254 254 254 254
254 254 254 254 254 254 254 254 254 254 254 254 254 254 254
254 254 254 254 254 254 254 254 254 254 254 254 254 254 254
254 254 254 254 254 254 254 254 254 254 254 254 254 254 254
254 254 254 254 254 254 254 254 254 254 254 254 254 254 254
254 254 254 254 254 254 254 254 254 254 254 254 254 254 254
254 254 254 254 254 254 254 254 254 254 254 254 254 254 254
254 254 254 254 254 254 254 254 254 254 254 254 254 254 254
254 254 254 254 254 254 254 254 254 254 254 254 254 254 254
254 254 254 254 254 254 254 254 254 254 254 254 254 254 254
254 254 254 254 254 254 254 254 254 254 254 254 254 254 254
254 254 254 254 254 254 254 254 254 254 254 254 254 254 254
254 254 254 254 254 254 254 254 254 254 254 254 254 254 254
254 254 254 254 254 254 254 254 254 254 254 254 254 254 254
254 254 254 254 254 254 254 254 254 254 254 254 254 254 254
254 254 254 254 254 254 254 254 254 254 254 254 254 254 254
254 254 254 254 254 254 254 254 254 254 254 254 254 254 254
254 254 254 254 254 254 254 254 254 254 254 254 254 254 254
254 254 254 254 254 254 254 254 254 254 254 254 254 254 254
254 254 254 254 254 254 254 254 254 254 254 254 254 254 254
254 254 254 254 254 254 254 254 254 254 254 254 254 254 254
254 254 254 254 254 254 254 254 254 254 254 254 254 254 254
254 254 254 254 254 254 254 254 254 254 254 254 254 254 254
254 254 254 254 254 254 254 254 254 254 254 254 254 254 254
254 254 254 254 254 254 254 254 254 254 254 254 254 254 254
254 254 254 254 254 254 254 254 254 254 254 254 254 254 254
254 254 254 254 254 254 254 254 254 254 254 254 254 254 254
254 254 254 254 254 254 254 254 254 254 254 254 254 254 254
254 254 254 254 254 254 254 254 254 254 254 254 254 254 254
254 254 254 254 254 254 254 254 254 254 254 254 254 254 254
254 254 254 254 254 254 254 254 254 254 254 254 254 254 254
254 254 254 254 254 254 254 254 254 254 254 254 254 254 254
254 254 254 254 254 254 254 254 254 254 254 254 254 254 254
254 254 254 254 254 254 254 254 254 254 254 254 254 254 254
254 254 254 254 254 254 254 254 254 254 254 254 254 254 254
254 254 254 254 254 254 254 254 254 254 254 254 254 254 254
254 254 254 254 254 254 254 254 254 254 254 254 254 254 254
254 254 254 254 254 254 254 254 254 254 254 254 254 254 254
254 254 254 254 254 254 254 254 254 254 254 254 254 254 254
254 254 254 254 254 254 254 254 254 254 254 254 254 254 254
254 254 254 254 254 254 254 254 254 254 254 254 254 254 254
254 254 254 254 254 254 254 254 254 254 254 254 254 254 254
254 254 254 254 254 254 254 254 254 254 254 254 254 254 254
254 254 254 254 254 254 254 254 254 254 254 254 254 254 254
254 254 254 254 254 254 254 254 254 254 254 254 254 254 254
254 254 254 254 254 254 254 254 254 254 254 254 254 254 254
254 254 254 254 254 254 254 254 254 254 254 254 254 254 254
254 254 254 254 254 254 254 254 254 254 254 254 254 254 254
254 254 254 254 254 254 254 254 254 254 254 254 254 254 254
254 254 254 254 254 254 254 254 254 254 254 254 254 254 254
254 254 254 254 254 254 254 254 254 254 254 254 254 254 254
254 254 254 254 254 254 254 254 254 254 254 254 254 254 254
254 254 254 254 254 254 254 254 254 254 254 254 254 254 254
254 254 254 254 254 254 254 254 254 254 254 254 254 254 254
254 254 254 254 254 254 254 254 254 254 254 254 254 254 254
254 254 254 254 254 254 254 254 254 254 254 254 254 254 254
254 254 254 254 254 254 254 254 254 254 254 254 254 254 254
254 254 254 254 254 254 254 254 254 254 254 254 254 254 254
254 254 254 254 254 254 254 254 254 254 254 254 254 254 254
254 254 254 254 254 254 254 254 254 254 254 254 254 254 254
254 254 254 254 254 254 254 254 254 254 254 254 254 254 254
254 254 254 254 254 254 254 254 254 254 254 254 254 254 254
254 254 254 254 254 254 254 254 254 254 254 254 254 254 254
254 254 254 254 254 254 254 254 254 254 254 254 254 254 254
254 254 254 254 254 254 254 254 254 254 254 254 254 254 254
254 254 254 254 254 254 254 254 254 254 254 254 254 254 254
254 254 254 254 254 254 254 254 254 254 254 254 254 254 254
254 254 254 254 254 254 254 254 254 254 254 254 254 254 254
254 254 254 254 254 254 254 254 254 254 254 254 254 254 254
254 254 254 254 254 254 254 254 254 254 254 254 254 254 254
254 254 254 254 254 254 254 254 254 254 254 254 254 254 254
254 254 254 254 254 254 254 254 254 254 254 254 254 254 254
254 254 254 254 254 254 254 254 254 254 254 254 254 254 254
254 254 254 254 254 254 254 254 254 254 254 254 254 254 254
254 254 254 254 254 254 254 254 254 254 254 254 254 254 254
254 254 254 254 254 254 254 254 254 254 254 254 254 254 254
254 254 254 254 254 254 254 254 254 254 254 254 254 254 254
254 254 254 254 254 254 254 254 254 254 254 254 254 254 254
254 254 254 254 254 254 254 254 254 254 254 254 254 254 254
254 254 254 254 254 254 254 254 254 254 254 254 254 254 254
254 254 254 254 254 254 254 254 254 254 254 254 254 254 254
254 254 254 254 254 254 254 254 254 254 254 254 254 254 254
254 254 254 254 254 254 254 254 254 254 254 254 254 254 254
254 254 254 254 254 254 254 254 254 254 254 254 254 254 254
254 254 254 254 254 254 254 254 254 254 254 254 254 254 254
254 254 254 254 254 254 254 254 254 254 254 254 254 254 254
254 254 254 254 254 254 254 254 254 254 254 254 254 254 254
254 254 254 254 254 254 254 254 254 254 254 254 254 254 254
254 254 254 254 254 254 254 254 254 254 254 254 254 254 254
254 254 254 254 254 254 254 254 254 254 254 254 254 254 254
254 254 254 254 254 254 254 254 254 254 254 254 254 254 254
254 254 254 254 254 254 254 254 254 254 254 254 254 254 254
254 254 254 254 254 254 254 254 254 254 254 254 254 254 254
254 254 254 254 254 254 254 254 254 254 254 254 254 254 254
254 254 254 254 254 254 254 254 254 254 254 254 254 254 254
254 254 254 254 254 254 254 254 254 254 254 254 254 254 254
254 254 254 254 254 254 254 254 254 254 254 254 254 254 254
254 254 254 254 254 254 254 254 254 254 254 254 254 254 254
254 254 254 254 254 254 254 254 254 254 254 254 254 254 254
254 254 254 254 254 254 254 254 254 254 254 254 254 254 254
254 254 254 254 254 254 254 254 254 254 254 254 254 254 254
254 254 254 254 254 254 254 254 254 254 254 254 254 254 254
254 254 254 254 254 254 254 254 254 254 254 254 254 254 254
254 254 254 254 254 254 254 254 254 254 254 254 254 254 254
254 254 254 254 254 254 254 254 254 254 254 254 254 254 254
254 254 254 254 254 254 254 254 254 254 254 254 254 254 254
254 254 254 254 254 254 254 254 254 254 254 254 254 254 254
254 254 254 254 254 254 254 254 254 254 254 254 254 254 254
254 254 254 254 254 254 254 254 254 254 254 254 254 254 254
254 254 254 254 254 254 254 254 254 254 254 254 254 254 254
254 254 254 254 254 254 254 254 254 254 254 254 254 254 254
254 254 254 254 254 254 254 254 254 254 254 254 254 254 254
254 254 254 254 254 254 254 254 254 254 254 254 254 254 254
254 254 254 254 254 254 254 254 254 254 254 254 254 254 254
254 254 254 254 254 254 254 254 254 254 254 254 254 254 254
254 254 254 254 254 254 254 254 254 254 254 254 254 254 254
254 254 254 254 254 254 254 254 254 254 254 254 254 254 254
254 254 254 254 254 254 254 254 254 254 254 254 254 254 254
254 254 254 254 254 254 254 254 254 254 254 254 254 254 254
254 254 254 254 254 254 254 254 254 254 254 254 254 254 254
254 254 254 254 254 254 254 254 254 254 254 254 254 254 254
254 254 254 254 254 254 254 254 254 254 254 254 254 254 254
254 254 254 254 254 254 254 254 254 254 254 254 254 254 254
254 254 254 254 254 254 254 254 254 254 254 254 254 254 254
254 254 254 254 254 254 254 254 254 254 254 254 254 254 254
254 254 254 254 254 254 254 254 254 254 254 254 254 254 254
254 254 254 254 254 254 254 254 254 254 254 254 254 254 254
254 254 254 254 254 254 254 254 254 254 254 254 254 254 254
254 254 254 254 254 254 254 254 254 254 254 254 254 254 254
254 254 254 254 254 254 254 254 254 254 254 254 254 254 254
254 254 254 254 254 254 254 254 254 254 254 254 254 254 254
254 254 254 254 254 254 254 254 254 254 254 254 254 254 254
254 254 254 254 254 254 254 254 254 254 254 254 254 254 254
254 254 254 254 254 254 254 254 254 254 254 254 254 254 254
254 254 254 254 254 254 254 254 254 254 254 254 254 254 254
254 254 254 254 254 254 254 254 254 254 254 254 254 254 254
254 254 254 254 254 254 254 254 254 254 254 254 254 254 254
254 254 254 254 254 254 254 254 254 254 254 254 254 254 254
254 254 254 254 254 254 254 254 254 254 254 254 254 254 254
254 254 254 254 254 254 254 254 254 254 254 254 254 254 254
254 254 254 254 254 254 254 254 254 254 254 254 254 254 254
254 254 254 254 254 254 254 254 254 254 254 254 254 254 254
254 254 254 254 254 254 254 254 254 254 254 254 254 254 254
254 254 254 254 254 254 254 254 254 254 254 254 254 254 254
254 254 254 254 254 254 254 254 254 254 254 254 254 254 254
254 254 254 254 254 254 254 254 254 254 254 254 254 254 254
254 254 254 254 254 254 254 254 254 254 254 254 254 254 254
254 254 254 254 254 254 254 254 254 254 254 254 254 254 254
254 254 254 254 254 254 254 254 254 254 254 254 254 254 254
254 254 254 254 254 254 254 254 254 254 254 254 254 254 254
254 254 254 254 254 254 254 254 254 254 254 254 254 254 254
254 254 254 254 254 254 254 254 254 254 254 254 254 254 254
254 254 254 254 254 254 254 254 254 254 254 254 254 254 254
254 254 254 254 254 254 254 254 254 254 254 254 254 254 254
254 254 254 254 254 254 254 254 254 254 254 254 254 254 254
254 254 254 254 254 254 254 254 254 254 254 254 254 254 254
254 254 254 254 254 254 254 254 254 254 254 254 254 254 254
254 254 254 254 254 254 254 254 254 254 254 254 254 254 254
254 254 254 254 254 254 254 254 254 254 254 254 254 254 254
254 254 254 254 254 254 254 254 254 254 254 254 254 254 254
254 254 254 254 254 254 254 254 254 254 254 254 254 254 254
254 254 254 254 254 254 254 254 254 254 254 254 254 254 254
254 254 254 254 254 254 254 254 254 254 254 254 254 254 254
254 254 254 254 254 254 254 254 254 254 254 254 254 254 254
254 254 254 254 254 254 254 254 254 254 254 254 254 254 254
254 254 254 254 254 254 254 254 254 254 254 254 254 254 254
254 254 254 254 254 254 254 254 254 254 254 254 254 254 254
254 254 254 254 254 254 254 254 254 254 254 254 254 254 254
254 254 254 254 254 254 254 254 254 254 254 254 254 254 254
254 254 254 254 254 254 254 254 254 254 254 254 254 254 254
254 254 254 254 254 254 254 254 254 254 254 254 254 254 254
254 254 254 254 254 254 254 254 254 254 254 254 254 254 254
254 254 254 254 254 254 254 254 254 254 254 254 254 254 254
254 254 254 254 254 254 254 254 254 254 254 254 254 254 254
254 254 254 254 254 254 254 254 254 254 254 254 254 254 254
254 254 254 254 254 254 254 254 254 254 254 254 254 254 254
254 254 254 254 254 254 254 254 254 254 254 254 254 254 254
254 254 254 254 254 254 254 254 254 254 254 254 254 254 254
254 254 254 254 254 254 254 254 254 254 254 254 254 254 254
254 254 254 254 254 254 254 254 254 254 254 254 254 254 254
254 254 254 254 254 254 254 254 254 254 254 254 254 254 254
254 254 254 254 254 254 254 254 254 254 254 254 254 254 254
254 254 254 254 254 254 254 254 254 254 254 254 254 254 254
254 254 254 254 254 254 254 254 254 254 254 254 254 254 254
254 254 254 254 254 254 254 254 254 254 254 254 254 254 254
254 254 254 254 254 254 254 254 254 254 254 254 254 254 254
254 254 254 254 254 254 254 254 254 254 254 254 254 254 254
254 254 254 254 254 254 254 254 254 254 254 254 254 254 254
254 254 254 254 254 254 254 254 254 254 254 254 254 254 254
254 254 254 254 254 254 254 254 254 254 254 254 254 254 254
254 254 254 254 254 254 254 254 254 254 254 254 254 254 254
254 254 254 254 254 254 254 254 254 254 254 254 254 254 254
254 254 254 254 254 254 254 254 254 254 254 254 254 254 254
254 254 254 254 254 254 254 254 254 254 254 254 254 254 254
254 254 254 254 254 254 254 254 254 254 254 254 254 254 254
254 254 254 254 254 254 254 254 254 254 254 254 254 254 254
254 254 254 254 254 254 254 254 254 254 254 254 254 254 254
254 254 254 254 254 254 254 254 254 254 254 254 254 254 254
254 254 254 254 254 254 254 254 254 254 254 254 254 254 254
254 254 254 254 254 254 254 254 254 254 254 254 254 254 254
254 254 254 254 254 254 254 254 254 254 254 254 254 254 254
254 254 254 254 254 254 254 254 254 254 254 254 254 254 254
254 254 254 254 254 254 254 254 254 254 254 254 254 254 254
254 254 254 254 254 254 254 254 254 254 254 254 254 254 254
254 254 254 254 254 254 254 254 254 254 254 254 254 254 254
254 254 254 254 254 254 254 254 254 254 254 254 254 254 254
254 254 254 254 254 254 254 254 254 254 254 254 254 254 254
254 254 254 254 254 254 254 254 254 254 254 254 254 254 254
254 254 254 254 254 254 254 254 254 254 254 254 254 254 254
254 254 254 254 254 254 254 254 254 254 254 254 254 254 254
254 254 254 254 254 254 254 254 254 254 254 254 254 254 254
254 254 254 254 254 254 254 254 254 254 254 254 254 254 254
254 254 254 254 254 254 254 254 254 254 254 254 254 254 254
254 254 254 254 254 254 254 254 254 254 254 254 254 254 254
254 254 254 254 254 254 254 254 254 254 254 254 254 254 254
254 254 254 254 254 254 254 254 254 254 254 254 254 254 254
254 254 254 254 254 254 254 254 254 254 254 254 254 254 254
254 254 254 254 254 254 254 254 254 254 254 254 254 254 254
254 254 254 254 254 254 254 254 254 254 254 254 254 254 254
254 254 254 254 254 254 254 254 254 254 254 254 254 254 254
254 254 254 254 254 254 254 254 254 254 254 254 254 254 254
254 254 254 254 254 254 254 254 254 254 254 254 254 254 254
254 254 254 254 254 254 254 254 254 254 254 254 254 254 254
254 254 254 254 254 254 254 254 254 254 254 254 254 254 254
254 254 254 254 254 254 254 254 254 254 254 254 254 254 254
254 254 254 254 254 254 254 254 254 254 254 254 254 254 254
254 254 254 254 254 254 254 254 254 254 254 254 254 254 254
254 254 254 254 254 254 254 254 254 254 254 254 254 254 254
254 254 254 254 254 254 254 254 254 254 254 254 254 254 254
254 254 254 254 254 254 254 254 254 254 254 254 254 254 254
254 254 254 254 254 254 254 254 254 254 254 254 254 254 254
254 254 254 254 254 254 254 254 254 254 254 254 254 254 254
254 254 254 254 254 254 254 254 254 254 254 254 254 254 254
254 254 254 254 254 254 254 254 254 254 254 254 254 254 254
254 254 254 254 254 254 254 254 254 254 254 254 254 254 254
254 254 254 254 254 254 254 254 254 254 254 254 254 254 254
254 254 254 254 254 254 254 254 254 254 254 254 254 254 254
254 254 254 254 254 254 254 254 254 254 254 254 254 254 254
254 254 254 254 254 254 254 254 254 254 254 254 254 254 254
254 254 254 254 254 254 254 254 254 254 254 254 254 254 254
254 254 254 254 254 254 254 254 254 254 254 254 254 254 254
254 254 254 254 254 254 254 254 254 254 254 254 254 254 254
254 254 254 254 254 254 254 254 254 254 254 254 254 254 254
254 254 254 254 254 254 254 254 254 254 254 254 254 254 254
254 254 254 254 254 254 254 254 254 254 254 254 254 254 254
254 254 254 254 254 254 254 254 254 254 254 254 254 254 254
254 254 254 254 254 254 254 254 254 254 254 254 254 254 254
254 254 254 254 254 254 254 254 254 254 254 254 254 254 254
254 254 254 254 254 254 254 254 254 254 254 254 254 254 254
254 254 254 254 254 254 254 254 254 254 254 254 254 254 254
254 254 254 254 254 254 254 254 254 254 254 254 254 254 254
254 254 254 254 254 254 254 254 254 254 254 254 254 254 254
254 254 254 254 254 254 254 254 254 254 254 254 254 254 254
254 254 254 254 254 254 254 254 254 254 254 254 254 254 254
254 254 254 254 254 254 254 254 254 254 254 254 254 254 254
254 254 254 254 254 254 254 254 254 254 254 254 254 254 254
254 254 254 254 254 254 254 254 254 254 254 254 254 254 254
254 254 254 254 254 254 254 254 254 254 254 254 254 254 254
254 254 254 254 254 254 254 254 254 254 254 254 254 254 254
254 254 254 254 254 254 254 254 254 254 254 254 254 254 254
254 254 254 254 254 254 254 254 254 254 254 254 254 254 254
254 254 254 254 254 254 254 254 254 254 254 254 254 254 254
254 254 254 254 254 254 254 254 254 254 254 254 254 254 254
254 254 254 254 254 254 254 254 254 254 254 254 254 254 254
254 254 254 254 254 254 254 254 254 254 254 254 254 254 254
254 254 254 254 254 254 254 254 254 254 254 254 254 254 254
254 254 254 254 254 254 254 254 254 254 254 254 254 254 254
254 254 254 254 254 254 254 254 254 254 254 254 254 254 254
254 254 254 254 254 254 254 254 254 254 254 254 254 254 254
254 254 254 254 254 254 254 254 254 254 254 254 254 254 254
254 254 254 254 254 254 254 254 254 254 254 254 254 254 254
254 254 254 254 254 254 254 254 254 254 254 254 254 254 254
254 254 254 254 254 254 254 254 254 254 254 254 254 254 254
254 254 254 254 254 254 254 254 254 254 254 254 254 254 254
254 254 254 254 254 254 254 254 254 254 254 254 254 254 254
254 254 254 254 254 254 254 254 254 254 254 254 254 254 254
254 254 254 254 254 254 254 254 254 254 254 254 254 254 254
254 254 254 254 254 254 254 254 254 254 254 254 254 254 254
254 254 254 254 254 254 254 254 254 254 254 254 254 254 254
254 254 254 254 254 254 254 254 254 254 254 254 254 254 254
254 254 254 254 254 254 254 254 254 254 254 254 254 254 254
254 254 254 254 254 254 254 254 254 254 254 254 254 254 254
254 254 254 254 254 254 254 254 254 254 254 254 254 254 254
254 254 254 254 254 254 254 254 254 254 254 254 254 254 254
254 254 254 254 254 254 254 254 254 254 254 254 254 254 254
254 254 254 254 254 254 254 254 254 254 254 254 254 254 254
254 254 254 254 254 254 254 254 254 254 254 254 254 254 254
254 254 254 254 254 254 254 254 254 254 254 254 254 254 254
254 254 254 254 254 254 254 254 254 254 254 254 254 254 254
254 254 254 254 254 254 254 254 254 254 254 254 254 254 254
254 254 254 254 254 254 254 254 254 254 254 254 254 254 254
254 254 254 254 254 254 254 254 254 254 254 254 254 254 254
254 254 254 254 254 254 254 254 254 254 254 254 254 254 254
254 254 254 254 254 254 254 254 254 254 254 254 254 254 254
254 254 254 254 254 254 254 254 254 254 254 254 254 254 254
254 254 254 254 254 254 254 254 254 254 254 254 254 254 254
254 254 254 254 254 254 254 254 254 254 254 254 254 254 254
254 254 254 254 254 254 254 254 254 254 254 254 254 254 254
254 254 254 254 254 254 254 254 254 254 254 254 254 254 254
254 254 254 254 254 254 254 254 254 254 254 254 254 254 254
254 254 254 254 254 254 254 254 254 254 254 254 254 254 254
254 254 254 254 254 254 254 254 254 254 254 254 254 254 254
254 254 254 254 254 254 254 254 254 254 254 254 254 254 254
254 254 254 254 254 254 254 254 254 254 254 254 254 254 254
254 254 254 254 254 254 254 254 254 254 254 254 254 254 254
254 254 254 254 254 254 254 254 254 254 254 254 254 254 254
254 254 254 254 254 254 254 254 254 254 254 254 254 254 254
254 254 254 254 254 254 254 254 254 254 254 254 254 254 254
254 254 254 254 254 254 254 254 254 254 254 254 254 254 254
254 254 254 254 254 254 254 254 254 254 254 254 254 254 254
254 254 254 254 254 254 254 254 254 254 254 254 254 254 254
254 254 254 254 254 254 254 254 254 254 254 254 254 254 254
254 254 254 254 254 254 254 254 254 254 254 254 254 254 254
254 254 254 254 254 254 254 254 254 254 254 254 254 254 254
254 254 254 254 254 254 254 254 254 254 254 254 254 254 254
254 254 254 254 254 254 254 254 254 254 254 254 254 254 254
254 254 254 254 254 254 254 254 254 254 254 254 254 254 254
254 254 254 254 254 254 254 254 254 254 254 254 254 254 254
254 254 254 254 254 254 254 254 254 254 254 254 254 254 254
254 254 254 254 254 254 254 254 254 254 254 254 254 254 254
254 254 254 254 254 254 254 254 254 254 254 254 254 254 254
254 254 254 254 254 254 254 254 254 254 254 254 254 254 254
254 254 254 254 254 254 254 254 254 254 254 254 254 254 254
254 254 254 254 254 254 254 254 254 254 254 254 254 254 254
254 254 254 254 254 254 254 254 254 254 254 254 254 254 254
254 254 254 254 254 254 254 254 254 254 254 254 254 254 254
254 254 254 254 254 254 254 254 254 254 254 254 254 254 254
254 254 254 254 254 254 254 254 254 254 254 254 254 254 254
254 254 254 254 254 254 254 254 254 254 254 254 254 254 254
254 254 254 254 254 254 254 254 254 254 254 254 254 254 254
254 254 254 254 254 254 254 254 254 254 254 254 254 254 254
254 254 254 254 254 254 254 254 254 254 254 254 254 254 254
254 254 254 254 254 254 254 254 254 254 254 254 254 254 254
254 254 254 254 254 254 254 254 254 254 254 254 254 254 254
254 254 254 254 254 254 254 254 254 254 254 254 254 254 254
254 254 254 254 254 254 254 254 254 254 254 254 254 254 254
254 254 254 254 254 254 254 254 254 254 254 254 254 254 254
254 254 254 254 254 254 254 254 254 254 254 254 254 254 254
254 254 254 254 254 254 254 254 254 254 254 254 254 254 254
254 254 254 254 254 254 254 254 254 254 254 254 254 254 254
254 254 254 254 254 254 254 254 254 254 254 254 254 254 254
254 254 254 254 254 254 254 254 254 254 254 254 254 254 254
254 254 254 254 254 254 254 254 254 254 254 254 254 254 254
254 254 254 254 254 254 254 254 254 254 254 254 254 254 254
254 254 254 254 254 254 254 254 254 254 254 254 254 254 254
254 254 254 254 254 254 254 254 254 254 254 254 254 254 254
254 254 254 254 254 254 254 254 254 254 254 254 254 254 254
254 254 254 254 254 254 254 254 254 254 254 254 254 254 254
254 254 254 254 254 254 254 254 254 254 254 254 254 254 254
254 254 254 254 254 254 254 254 254 254 254 254 254 254 254
254 254 254 254 254 254 254 254 254 254 254 254 254 254 254
254 254 254 254 254 254 254 254 254 254 254 254 254 254 254
254 254 254 254 254 254 254 254 254 254 254 254 254 254 254
254 254 254 254 254 254 254 254 254 254 254 254 254 254 254
254 254 254 254 254 254 254 254 254 254 254 254 254 254 254
254 254 254 254 254 254 254 254 254 254 254 254 254 254 254
254 254 254 254 254 254 254 254 254 254 254 254 254 254 254
254 254 254 254 254 254 254 254 254 254 254 254 254 254 254
254 254 254 254 254 254 254 254 254 254 254 254 254 254 254
254 254 254 254 254 254 254 254 254 254 254 254 254 254 254
254 254 254 254 254 254 254 254 254 254 254 254 254 254 254
254 254 254 254 254 254 254 254 254 254 254 254 254 254 254
254 254 254 254 254 254 254 254 254 254 254 254 254 254 254
254 254 254 254 254 254 254 254 254 254 254 254 254 254 254
254 254 254 254 254 254 254 254 254 254 254 254 254 254 254
254 254 254 254 254 254 254 254 254 254 254 254 254 254 254
254 254 254 254 254 254 254 254 254 254 254 254 254 254 254
254 254 254 254 254 254 254 254 254 254 254 254 254 254 254
254 254 254 254 254 254 254 254 254 254 254 254 254 254 254
254 254 254 254 254 254 254 254 254 254 254 254 254 254 254
254 254 254 254 254 254 254 254 254 254 254 254 254 254 254
254 254 254 254 254 254 254 254 254 254 254 254 254 254 254
254 254 254 254 254 254 254 254 254 254 254 254 254 254 254
254 254 254 254 254 254 254 254 254 254 254 254 254 254 254
254 254 254 254 254 254 254 254 254 254 254 254 254 254 254
254 254 254 254 254 254 254 254 254 254 254 254 254 254 254
254 254 254 254 254 254 254 254 254 254 254 254 254 254 254
254 254 254 254 254 254 254 254 254 254 254 254 254 254 254
254 254 254 254 254 254 254 254 254 254 254 254 254 254 254
254 254 254 254 254 254 254 254 254 254 254 254 254 254 254
254 254 254 254 254 254 254 254 254 254 254 254 254 254 254
254 254 254 254 254 254 254 254 254 254 254 254 254 254 254
254 254 254 254 254 254 254 254 254 254 254 254 254 254 254
254 254 254 254 254 254 254 254 254 254 254 254 254 254 254
254 254 254 254 254 254 254 254 254 254 254 254 254 254 254
254 254 254 254 254 254 254 254 254 254 254 254 254 254 254
254 254 254 254 254 254 254 254 254 254 254 254 254 254 254
254 254 254 254 254 254 254 254 254 254 254 254 254 254 254
254 254 254 254 254 254 254 254 254 254 254 254 254 254 254
254 254 254 254 254 254 254 254 254 254 254 254 254 254 254
254 254 254 254 254 254 254 254 254 254 254 254 254 254 254
254 254 254 254 254 254 254 254 254 254 254 254 254 254 254
254 254 254 254 254 254 254 254 254 254 254 254 254 254 254
254 254 254 254 254 254 254 254 254 254 254 254 254 254 254
254 254 254 254 254 254 254 254 254 254 254 254 254 254 254
254 254 254 254 254 254 254 254 254 254 254 254 254 254 254
254 254 254 254 254 254 254 254 254 254 254 254 254 254 254
254 254 254 254 254 254 254 254 254 254 254 254 254 254 254
254 254 254 254 254 254 254 254 254 254 254 254 254 254 254
254 254 254 254 254 254 254 254 254 254 254 254 254 254 254
254 254 254 254 254 254 254 254 254 254 254 254 254 254 254
254 254 254 254 254 254 254 254 254 254 254 254 254 254 254
254 254 254 254 254 254 254 254 254 254 254 254 254 254 254
254 254 254 254 254 254 254 254 254 254 254 254 254 254 254
254 254 254 254 254 254 254 254 254 254 254 254 254 254 254
254 254 254 254 254 254 254 254 254 254 254 254 254 254 254
254 254 254 254 254 254 254 254 254 254 254 254 254 254 254
254 254 254 254 254 254 254 254 254 254 254 254 254 254 254
254 254 254 254 254 254 254 254 254 254 254 254 254 254 254
254 254 254 254 254 254 254 254 254 254 254 254 254 254 254
254 254 254 254 254 254 254 254 254 254 254 254 254 254 254
254 254 254 254 254 254 254 254 254 254 254 254 254 254 254
254 254 254 254 254 254 254 254 254 254 254 254 254 254 254
254 254 254 254 254 254 254 254 254 254 254 254 254 254 254
254 254 254 254 254 254 254 254 254 254 254 254 254 254 254
254 254 254 254 254 254 254 254 254 254 254 254 254 254 254
254 254 254 254 254 254 254 254 254 254 254 254 254 254 254
254 254 254 254 254 254 254 254 254 254 254 254 254 254 254
254 254 254 254 254 254 254 254 254 254 254 254 254 254 254
254 254 254 254 254 254 254 254 254 254 254 254 254 254 254
254 254 254 254 254 254 254 254 254 254 254 254 254 254 254
254 254 254 254 254 254 254 254 254 254 254 254 254 254 254
254 254 254 254 254 254 254 254 254 254 254 254 254 254 254
254 254 254 254 254 254 254 254 254 254 254 254 254 254 254
254 254 254 254 254 254 254 254 254 254 254 254 254 254 254
254 254 254 254 254 254 254 254 254 254 254 254 254 254 254
254 254 254 254 254 254 254 254 254 254 254 254 254 254 254
254 254 254 254 254 254 254 254 254 254 254 254 254 254 254
254 254 254 254 254 254 254 254 254 254 254 254 254 254 254
254 254 254 254 254 254 254 254 254 254 254 254 254 254 254
254 254 254 254 254 254 254 254 254 254 254 254 254 254 254
254 254 254 254 254 254 254 254 254 254 254 254 254 254 254
254 254 254 254 254 254 254 254 254 254 254 254 254 254 254
254 254 254 254 254 254 254 254 254 254 254 254 254 254 254
254 254 254 254 254 254 254 254 254 254 254 254 254 254 254
254 254 254 254 254 254 254 254 254 254 254 254 254 254 254
254 254 254 254 254 254 254 254 254 254 254 254 254 254 254
254 254 254 254 254 254 254 254 254 254 254 254 254 254 254
254 254 254 254 254 254 254 254 254 254 254 254 254 254 254
254 254 254 254 254 254 254 254 254 254 254 254 254 254 254
254 254 254 254 254 254 254 254 254 254 254 254 254 254 254
254 254 254 254 254 254 254 254 254 254 254 254 254 254 254
254 254 254 254 254 254 254 254 254 254 254 254 254 254 254
254 254 254 254 254 254 254 254 254 254 254 254 254 254 254
254 254 254 254 254 254 254 254 254 254 254 254 254 254 254
254 254 254 254 254 254 254 254 254 254 254 254 254 254 254
254 254 254 254 254 254 254 254 254 254 254 254 254 254 254
254 254 254 254 254 254 254 254 254 254 254 254 254 254 254
254 254 254 254 254 254 254 254 254 254 254 254 254 254 254
254 254 254 254 254 254 254 254 254 254 254 254 254 254 254
254 254 254 254 254 254 254 254 254 254 254 254 254 254 254
254 254 254 254 254 254 254 254 254 254 254 254 254 254 254
254 254 254 254 254 254 254 254 254 254 254 254 254 254 254
254 254 254 254 254 254 254 254 254 254 254 254 254 254 254
254 254 254 254 254 254 254 254 254 254 254 254 254 254 254
254 254 254 254 254 254 254 254 254 254 254 254 254 254 254
254 254 254 254 254 254 254 254 254 254 254 254 254 254 254
254 254 254 254 254 254 254 254 254 254 254 254 254 254 254
254 254 254 254 254 254 254 254 254 254 254 254 254 254 254
254 254 254 254 254 254 254 254 254 254 254 254 254 254 254
254 254 254 254 254 254 254 254 254 254 254 254 254 254 254
254 254 254 254 254 254 254 254 254 254 254 254 254 254 254
254 254 254 254 254 254 254 254 254 254 254 254 254 254 254
254 254 254 254 254 254 254 254 254 254 254 254 254 254 254
254 254 254 254 254 254 254 254 254 254 254 254 254 254 254
254 254 254 254 254 254 254 254 254 254 254 254 254 254 254
254 254 254 254 254 254 254 254 254 254 254 254 254 254 254
254 254 254 254 254 254 254 254 254 254 254 254 254 254 254
254 254 254 254 254 254 254 254 254 254 254 254 254 254 254
254 254 254 254 254 254 254 254 254 254 254 254 254 254 254
254 254 254 254 254 254 254 254 254 254 254 254 254 254 254
254 254 254 254 254 254 254 254 254 254 254 254 254 254 254
254 254 254 254 254 254 254 254 254 254 254 254 254 254 254
254 254 254 254 254 254 254 254 254 254 254 254 254 254 254
254 254 254 254 254 254 254 254 254 254 254 254 254 254 254
254 254 254 254 254 254 254 254 254 254 254 254 254 254 254
254 254 254 254 254 254 254 254 254 254 254 254 254 254 254
254 254 254 254 254 254 254 254 254 254 254 254 254 254 254
254 254 254 254 254 254 254 254 254 254 254 254 254 254 254
254 254 254 254 254 254 254 254 254 254 254 254 254 254 254
254 254 254 254 254 254 254 254 254 254 254 254 254 254 254
254 254 254 254 254 254 254 254 254 254 254 254 254 254 254
254 254 254 254 254 254 254 254 254 254 254 254 254 254 254
254 254 254 254 254 254 254 254 254 254 254 254 254 254 254
254 254 254 254 254 254 254 254 254 254 254 254 254 254 254
254 254 254 254 254 254 254 254 254 254 254 254 254 254 254
254 254 254 254 254 254 254 254 254 254 254 254 254 254 254
254 254 254 254 254 254 254 254 254 254 254 254 254 254 254
254 254 254 254 254 254 254 254 254 254 254 254 254 254 254
254 254 254 254 254 254 254 254 254 254 254 254 254 254 254
254 254 254 254 254 254 254 254 254 254 254 254 254 254 254
254 254 254 254 254 254 254 254 254 254 254 254 254 254 254
254 254 254 254 254 254 254 254 254 254 254 254 254 254 254
254 254 254 254 254 254 254 254 254 254 254 254 254 254 254
254 254 254 254 254 254 254 254 254 254 254 254 254 254 254
254 254 254 254 254 254 254 254 254 254 254 254 254 254 254
254 254 254 254 254 254 254 254 254 254 254 254 254 254 254
254 254 254 254 254 254 254 254 254 254 254 254 254 254 254
254 254 254 254 254 254 254 254 254 254 254 254 254 254 254
254 254 254 254 254 254 254 254 254 254 254 254 254 254 254
254 254 254 254 254 254 254 254 254 254 254 254 254 254 254
254 254 254 254 254 254 254 254 254 254 254 254 254 254 254
254 254 254 254 254 254 254 254 254 254 254 254 254 254 254
254 254 254 254 254 254 254 254 254 254 254 254 254 254 254
254 254 254 254 254 254 254 254 254 254 254 254 254 254 254
254 254 254 254 254 254 254 254 254 254 254 254 254 254 254
254 254 254 254 254 254 254 254 254 254 254 254 254 254 254
254 254 254 254 254 254 254 254 254 254 254 254 254 254 254
254 254 254 254 254 254 254 254 254 254 254 254 254 254 254
254 254 254 254 254 254 254 254 254 254 254 254 254 254 254
254 254 254 254 254 254 254 254 254 254 254 254 254 254 254
254 254 254 254 254 254 254 254 254 254 254 254 254 254 254
254 254 254 254 254 254 254 254 254 254 254 254 254 254 254
254 254 254 254 254 254 254 254 254 254 254 254 254 254 254
254 254 254 254 254 254 254 254 254 254 254 254 254 254 254
254 254 254 254 254 254 254 254 254 254 254 254 254 254 254
254 254 254 254 254 254 254 254 254 254 254 254 254 254 254
254 254 254 254 254 254 254 254 254 254 254 254 254 254 254
254 254 254 254 254 254 254 254 254 254 254 254 254 254 254
254 254 254 254 254 254 254 254 254 254 254 254 254 254 254
254 254 254 254 254 254 254 254 254 254 254 254 254 254 254
254 254 254 254 254 254 254 254 254 254 254 254 254 254 254
254 254 254 254 254 254 254 254 254 254 254 254 254 254 254
254 254 254 254 254 254 254 254 254 254 254 254 254 254 254
254 254 254 254 254 254 254 254 254 254 254 254 254 254 254
254 254 254 254 254 254 254 254 254 254 254 254 254 254 254
254 254 254 254 254 254 254 254 254 254 254 254 254 254 254
254 254 254 254 254 254 254 254 254 254 254 254 254 254 254
254 254 254 254 254 254 254 254 254 254 254 254 254 254 254
254 254 254 254 254 254 254 254 254 254 254 254 254 254 254
254 254 254 254 254 254 254 254 254 254 254 254 254 254 254
254 254 254 254 254 254 254 254 254 254 254 254 254 254 254
254 254 254 254 254 254 254 254 254 254 254 254 254 254 254
254 254 254 254 254 254 254 254 254 254 254 254 254 254 254
254 254 254 254 254 254 254 254 254 254 254 254 254 254 254
254 254 254 254 254 254 254 254 254 254 254 254
