P3
384 216
255
255 255 255 255 255 255 255 255 255 255 255 255 255 255 255
255 255 255 255 255 255 255 255 255 255 255 255 255 255 255
255 255 255 255 255 255 255 255 255 255 255 255 255 255 255
255 255 255 255 255 255 255 255 255 255 255 255 255 255 255
255 255 255 255 255 255 255 255 255 255 255 255 255 255 255
255 255 255 255 255 255 255 255 255 255 255 255 255 255 255
255 255 255 255 255 255 255 255 255 255 255 255 255 255 255
255 255 255 255 255 255 255 255 255 255 255 255 255 255 255
255 255 255 255 255 255 255 255 255 255 255 255 255 255 255
255 255 255 255 255 255 255 255 255 255 255 255 255 255 255
255 255 255 255 255 255 255 255 255 255 255 255 255 255 255
255 255 255 255 255 255 255 255 255 255 255 255 255 255 255
255 255 255 255 255 255 255 255 255 255 255 255 255 255 255
255 255 255 255 255 255 255 255 255 255 255 255 255 255 255
255 255 255 255 255 255 255 255 255 255 255 255 255 255 255
255 255 255 255 255 255 255 255 255 255 255 255 255 255 255
255 255 255 255 255 255 255 255 255 255 255 255 255 255 255
255 255 255 255 255 255 255 255 255 255 255 255 255 255 255
255 255 255 255 255 255 255 255 255 255 255 255 255 255 255
255 255 255 255 255 255 255 255 255 255 255 255 255 255 255
255 255 255 255 255 255 255 255 255 255 255 255 255 255 255
255 255 255 255 255 255 255 255 255 255 255 255 255 255 255
255 255 255 255 255 255 255 255 255 255 255 255 255 255 255
255 255 255 255 255 255 255 255 255 255 255 255 255 255 255
255 255 255 255 255 255 255 255 255 255 255 255 255 255 255
255 255 255 255 255 255 255 255 255 255 255 255 255 255 255
255 255 255 255 255 255 255 255 255 255 255 255 255 255 255
255 255 255 255 255 255 255 255 255 255 255 255 255 255 255
255 255 255 255 255 255 255 255 255 255 255 255 255 255 255
255 255 255 255 255 255 255 255 255 255 255 255 255 255 255
255 255 255 255 255 255 255 255 255 255 255 255 255 255 255
255 255 255 255 255 255 255 255 255 255 255 255 255 255 255
255 255 255 255 255 255 255 255 255 255 255 255 255 255 255
255 255 255 255 255 255 255 255 255 255 255 255 255 255 255
255 255 255 255 255 255 255 255 255 255 255 255 255 255 255
255 255 255 255 255 255 255 255 255 255 255 255 255 255 255
255 255 255 255 255 255 255 255 255 255 255 255 255 255 255
255 255 255 255 255 255 255 255 255 255 255 255 255 255 255
255 255 255 255 255 255 255 255 255 255 255 255 255 255 255
255 255 255 255 255 255 255 255 255 255 255 255 255 255 255
255 255 255 255 255 255 255 255 255 255 255 255 255 255 255
255 255 255 255 255 255 255 255 255 255 255 255 255 255 255
255 255 255 255 255 255 255 255 255 255 255 255 255 255 255
255 255 255 255 255 255 255 255 255 255 255 255 255 255 255
255 255 255 255 255 255 255 255 255 255 255 255 255 255 255
255 255 255 255 255 255 255 255 255 255 255 255 255 255 255
255 255 255 255 255 255 255 255 255 255 255 255 255 255 255
255 255 255 255 255 255 255 255 255 255 255 255 255 255 255
255 255 255 255 255 255 255 255 255 255 255 255 255 255 255
255 255 255 255 255 255 255 255 255 255 255 255 255 255 255
255 255 255 255 255 255 255 255 255 255 255 255 255 255 255
255 255 255 255 255 255 255 255 255 255 255 255 255 255 255
255 255 255 255 255 255 255 255 255 255 255 255 255 255 255
255 255 255 255 255 255 255 255 255 255 255 255 255 255 255
255 255 255 255 255 255 255 255 255 255 255 255 255 255 255
255 255 255 255 255 255 255 255 255 255 255 255 255 255 255
255 255 255 255 255 255 255 255 255 255 255 255 255 255 255
255 255 255 255 255 255 255 255 255 255 255 255 255 255 255
255 255 255 255 255 255 255 255 255 255 255 255 255 255 255
255 255 255 255 255 255 255 255 255 255 255 255 255 255 255
255 255 255 255 255 255 255 255 255 255 255 255 255 255 255
255 255 255 255 255 255 255 255 255 255 255 255 255 255 255
255 255 255 255 255 255 255 255 255 255 255 255 255 255 255
255 255 255 255 255 255 255 255 255 255 255 255 255 255 255
255 255 255 255 255 255 255 255 255 255 255 255 255 255 255
255 255 255 255 255 255 255 255 255 255 255 255 255 255 255
255 255 255 255 255 255 255 255 255 255 255 255 255 255 255
255 255 255 255 255 255 255 255 255 255 255 255 255 255 255
255 255 255 255 255 255 255 255 255 255 255 255 255 255 255
255 255 255 255 255 255 255 255 255 255 255 255 255 255 255
255 255 255 255 255 255 255 255 255 255 255 255 255 255 255
255 255 255 255 255 255 255 255 255 255 255 255 255 255 255
255 255 255 255 255 255 255 255 255 255 255 255 255 255 255
255 255 255 255 255 255 255 255 255 255 255 255 255 255 255
255 255 255 255 255 255 255 255 255 255 255 255 255 255 255
255 255 255 255 255 255 255 255 255 255 255 255 255 255 255
255 255 255 255 255 255 255 255 255 255 255 255 255 255 255
255 255 255 255 255 255 255 255 255 255 255 255 255 255 255
255 255 255 255 255 255 255 255 255 255 255 255 255 255 255
255 255 255 255 255 255 255 255 255 255 255 255 255 255 255
255 255 255 255 255 255 255 255 255 255 255 255 255 255 255
255 255 255 255 255 255 255 255 255 255 255 255 255 255 255
255 255 255 255 255 255 255 255 255 255 255 255 255 255 255
255 255 255 255 255 255 255 255 255 255 255 255 255 255 255
255 255 255 255 255 255 255 255 255 255 255 255 255 255 255
255 255 255 255 255 255 255 255 255 255 255 255 255 255 255
255 255 255 255 255 255 255 255 255 255 255 255 255 255 255
255 255 255 255 255 255 255 255 255 255 255 255 255 255 255
255 255 255 255 255 255 255 255 255 255 255 255 255 255 255
255 255 255 255 255 255 255 255 255 255 255 255 255 255 255
255 255 255 255 255 255 255 255 255 255 255 255 255 255 255
255 255 255 255 255 255 255 255 255 255 255 255 255 255 255
255 255 255 255 255 255 255 255 255 255 255 255 255 255 255
255 255 255 255 255 255 255 255 255 255 255 255 255 255 255
255 255 255 255 255 255 255 255 255 255 255 255 255 255 255
255 255 255 255 255 255 255 255 255 255 255 255 255 255 255
255 255 255 255 255 255 255 255 255 255 255 255 255 255 255
255 255 255 255 255 255 255 255 255 255 255 255 255 255 255
255 255 255 255 255 255 255 255 255 255 255 255 255 255 255
255 255 255 255 255 255 255 255 255 255 255 255 255 255 255
255 255 255 255 255 255 255 255 255 255 255 255 255 255 255
255 255 255 255 255 255 255 255 255 255 255 255 255 255 255
255 255 255 255 255 255 255 255 255 255 255 255 255 255 255
255 255 255 255 255 255 255 255 255 255 255 255 255 255 255
255 255 255 255 255 255 255 255 255 255 255 255 255 255 255
255 255 255 255 255 255 255 255 255 255 255 255 255 255 255
255 255 255 255 255 255 255 255 255 255 255 255 255 255 255
255 255 255 255 255 255 255 255 255 255 255 255 255 255 255
255 255 255 255 255 255 255 255 255 255 255 255 255 255 255
255 255 255 255 255 255 255 255 255 255 255 255 255 255 255
255 255 255 255 255 255 255 255 255 255 255 255 255 255 255
255 255 255 255 255 255 255 255 255 255 255 255 255 255 255
255 255 255 255 255 255 255 255 255 255 255 255 255 255 255
255 255 255 255 255 255 255 255 255 255 255 255 255 255 255
255 255 255 255 255 255 255 255 255 255 255 255 255 255 255
255 255 255 255 255 255 255 255 255 255 255 255 255 255 255
255 255 255 255 255 255 255 255 255 255 255 255 255 255 255
255 255 255 255 255 255 255 255 255 255 255 255 255 255 255
255 255 255 255 255 255 255 255 255 255 255 255 255 255 255
255 255 255 255 255 255 255 255 255 255 255 255 255 255 255
255 255 255 255 255 255 255 255 255 255 255 255 255 255 255
255 255 255 255 255 255 255 255 255 255 255 255 255 255 255
255 255 255 255 255 255 255 255 255 255 255 255 255 255 255
255 255 255 255 255 255 255 255 255 255 255 255 255 255 255
255 255 255 255 255 255 255 255 255 255 255 255 255 255 255
255 255 255 255 255 255 255 255 255 255 255 255 255 255 255
255 255 255 255 255 255 255 255 255 255 255 255 255 255 255
255 255 255 255 255 255 255 255 255 255 255 255 255 255 255
255 255 255 255 255 255 255 255 255 255 255 255 255 255 255
255 255 255 255 255 255 255 255 255 255 255 255 255 255 255
255 255 255 255 255 255 255 255 255 255 255 255 255 255 255
255 255 255 255 255 255 255 255 255 255 255 255 255 255 255
255 255 255 255 255 255 255 255 255 255 255 255 255 255 255
255 255 255 255 255 255 255 255 255 255 255 255 255 255 255
255 255 255 255 255 255 255 255 255 255 255 255 255 255 255
255 255 255 255 255 255 255 255 255 255 255 255 255 255 255
255 255 255 255 255 255 255 255 255 255 255 255 255 255 255
255 255 255 255 255 255 255 255 255 255 255 255 255 255 255
255 255 255 255 255 255 255 255 255 255 255 255 255 255 255
255 255 255 255 255 255 255 255 255 255 255 255 255 255 255
255 255 255 255 255 255 255 255 255 255 255 255 255 255 255
255 255 255 255 255 255 255 255 255 255 255 255 255 255 255
255 255 255 255 255 255 255 255 255 255 255 255 255 255 255
255 255 255 255 255 255 255 255 255 255 255 255 255 255 255
255 255 255 255 255 255 255 255 255 255 255 255 255 255 255
255 255 255 255 255 255 255 255 255 255 255 255 255 255 255
255 255 255 255 255 255 255 255 255 255 255 255 255 255 255
255 255 255 255 255 255 255 255 255 255 255 255 255 255 255
255 255 255 255 255 255 255 255 255 255 255 255 255 255 255
255 255 255 255 255 255 255 255 255 255 255 255 255 255 255
255 255 255 255 255 255 255 255 255 255 255 255 255 255 255
255 255 255 255 255 255 255 255 255 255 255 255 255 255 255
255 255 255 255 255 255 255 255 255 255 255 255 255 255 255
255 255 255 255 255 255 255 255 255 255 255 255 255 255 255
255 255 255 255 255 255 255 255 255 255 255 255 255 255 255
255 255 255 255 255 255 255 255 255 255 255 255 255 255 255
255 255 255 255 255 255 255 255 255 255 255 255 255 255 255
255 255 255 255 255 255 255 255 255 255 255 255 255 255 255
255 255 255 255 255 255 255 255 255 255 255 255 255 255 255
255 255 255 255 255 255 255 255 255 255 255 255 255 255 255
255 255 255 255 255 255 255 255 255 255 255 255 255 255 255
255 255 255 255 255 255 255 255 255 255 255 255 255 255 255
255 255 255 255 255 255 255 255 255 255 255 255 255 255 255
255 255 255 255 255 255 255 255 255 255 255 255 255 255 255
255 255 255 255 255 255 255 255 255 255 255 255 255 255 255
255 255 255 255 255 255 255 255 255 255 255 255 255 255 255
255 255 255 255 255 255 255 255 255 255 255 255 255 255 255
255 255 255 255 255 255 255 255 255 255 255 255 255 255 255
255 255 255 255 255 255 255 255 255 255 255 255 255 255 255
255 255 255 255 255 255 255 255 255 255 255 255 255 255 255
255 255 255 255 255 255 255 255 255 255 255 255 255 255 255
255 255 255 255 255 255 255 255 255 255 255 255 255 255 255
255 255 255 255 255 255 255 255 255 255 255 255 255 255 255
255 255 255 255 255 255 255 255 255 255 255 255 255 255 255
255 255 255 255 255 255 255 255 255 255 255 255 255 255 255
255 255 255 255 255 255 255 255 255 255 255 255 255 255 255
255 255 255 255 255 255 255 255 255 255 255 255 255 255 255
255 255 255 255 255 255 255 255 255 255 255 255 255 255 255
255 255 255 255 255 255 255 255 255 255 255 255 255 255 255
255 255 255 255 255 255 255 255 255 255 255 255 255 255 255
255 255 255 255 255 255 255 255 255 255 255 255 255 255 255
255 255 255 255 255 255 255 255 255 255 255 255 255 255 255
255 255 255 255 255 255 255 255 255 255 255 255 255 255 255
255 255 255 255 255 255 255 255 255 255 255 255 255 255 255
255 255 255 255 255 255 255 255 255 255 255 255 255 255 255
255 255 255 255 255 255 255 255 255 255 255 255 255 255 255
255 255 255 255 255 255 255 255 255 255 255 255 255 255 255
255 255 255 255 255 255 255 255 255 255 255 255 255 255 255
255 255 255 255 255 255 255 255 255 255 255 255 255 255 255
255 255 255 255 255 255 255 255 255 255 255 255 255 255 255
255 255 255 255 255 255 255 255 255 255 255 255 255 255 255
255 255 255 255 255 255 255 255 255 255 255 255 255 255 255
255 255 255 255 255 255 255 255 255 255 255 255 255 255 255
255 255 255 255 255 255 255 255 255 255 255 255 255 255 255
255 255 255 255 255 255 255 255 255 255 255 255 255 255 255
255 255 255 255 255 255 255 255 255 255 255 255 255 255 255
255 255 255 255 255 255 255 255 255 255 255 255 255 255 255
255 255 255 255 255 255 255 255 255 255 255 255 255 255 255
255 255 255 255 255 255 255 255 255 255 255 255 255 255 255
255 255 255 255 255 255 255 255 255 255 255 255 255 255 255
255 255 255 255 255 255 255 255 255 255 255 255 255 255 255
255 255 255 255 255 255 255 255 255 255 255 255 255 255 255
255 255 255 255 255 255 255 255 255 255 255 255 255 255 255
255 255 255 255 255 255 255 255 255 255 255 255 255 255 255
255 255 255 255 255 255 255 255 255 255 255 255 255 255 255
255 255 255 255 255 255 255 255 255 255 255 255 255 255 255
255 255 255 255 255 255 255 255 255 255 255 255 255 255 255
255 255 255 255 255 255 255 255 255 255 255 255 255 255 255
255 255 255 255 255 255 255 255 255 255 255 255 255 255 255
255 255 255 255 255 255 255 255 255 255 255 255 255 255 255
255 255 255 255 255 255 255 255 255 255 255 255 255 255 255
255 255 255 255 255 255 255 255 255 255 255 255 255 255 255
255 255 255 255 255 255 255 255 255 255 255 255 255 255 255
255 255 255 255 255 255 255 255 255 255 255 255 255 255 255
255 255 255 255 255 255 255 255 255 255 255 255 255 255 255
255 255 255 255 255 255 255 255 255 255 255 255 255 255 255
255 255 255 255 255 255 255 255 255 255 255 255 255 255 255
255 255 255 255 255 255 255 255 255 255 255 255 255 255 255
255 255 255 255 255 255 255 255 255 255 255 255 255 255 255
255 255 255 255 255 255 255 255 255 255 255 255 255 255 255
255 255 255 255 255 255 255 255 255 255 255 255 255 255 255
255 255 255 255 255 255 255 255 255 255 255 255 255 255 255
255 255 255 255 255 255 255 255 255 255 255 255 255 255 255
255 255 255 255 255 255 255 255 255 255 255 255 255 255 255
255 255 255 255 255 255 255 255 255 255 255 255 255 255 255
255 255 255 255 255 255 255 255 255 255 255 255 255 255 255
255 255 255 255 255 255 255 255 255 255 255 255 255 255 255
255 255 255 255 255 255 255 255 255 255 255 255 255 255 255
255 255 255 255 255 255 255 255 255 255 255 255 255 255 255
255 255 255 255 255 255 255 255 255 255 255 255 255 255 255
255 255 255 255 255 255 255 255 255 255 255 255 255 255 255
255 255 255 255 255 255 255 255 255 255 255 255 255 255 255
255 255 255 255 255 255 255 255 255 255 255 255 255 255 255
255 255 255 255 255 255 255 255 255 255 255 255 255 255 255
255 255 255 255 255 255 255 255 255 255 255 255 255 255 255
255 255 255 255 255 255 255 255 255 255 255 255 255 255 255
255 255 255 255 255 255 255 255 255 255 255 255 255 255 255
255 255 255 255 255 255 255 255 255 255 255 255 255 255 255
255 255 255 255 255 255 255 255 255 255 255 255 255 255 255
255 255 255 255 255 255 255 255 255 255 255 255 255 255 255
255 255 255 255 255 255 255 255 255 255 255 255 255 255 255
255 255 255 255 255 255 255 255 255 255 255 255 255 255 255
255 255 255 255 255 255 255 255 255 255 255 255 255 255 255
255 255 255 255 255 255 255 255 255 255 255 255 255 255 255
255 255 255 255 255 255 255 255 255 255 255 255 255 255 255
255 255 255 255 255 255 255 255 255 255 255 255 255 255 255
255 255 255 255 255 255 255 255 255 255 255 255 255 255 255
255 255 255 255 255 255 255 255 255 255 255 255 255 255 255
255 255 255 255 255 255 255 255 255 255 255 255 255 255 255
255 255 255 255 255 255 255 255 255 255 255 255 255 255 255
255 255 255 255 255 255 255 255 255 255 255 255 255 255 255
255 255 255 255 255 255 255 255 255 255 255 255 255 255 255
255 255 255 255 255 255 255 255 255 255 255 255 255 255 255
255 255 255 255 255 255 255 255 255 255 255 255 255 255 255
255 255 255 255 255 255 255 255 255 255 255 255 255 255 255
255 255 255 255 255 255 255 255 255 255 255 255 255 255 255
255 255 255 255 255 255 255 255 255 255 255 255 255 255 255
255 255 255 255 255 255 255 255 255 255 255 255 255 255 255
255 255 255 255 255 255 255 255 255 255 255 255 255 255 255
255 255 255 255 255 255 255 255 255 255 255 255 255 255 255
255 255 255 255 255 255 255 255 255 255 255 255 255 255 255
255 255 255 255 255 255 255 255 255 255 255 255 255 255 255
255 255 255 255 255 255 255 255 255 255 255 255 255 255 255
255 255 255 255 255 255 255 255 255 255 255 255 255 255 255
255 255 255 255 255 255 255 255 255 255 255 255 255 255 255
255 255 255 255 255 255 255 255 255 255 255 255 255 255 255
255 255 255 255 255 255 255 255 255 255 255 255 255 255 255
255 255 255 255 255 255 255 255 255 255 255 255 255 255 255
255 255 255 255 255 255 255 255 255 255 255 255 255 255 255
255 255 255 255 255 255 255 255 255 255 255 255 255 255 255
255 255 255 255 255 255 255 255 255 255 255 255 255 255 255
255 255 255 255 255 255 255 255 255 255 255 255 255 255 255
255 255 255 255 255 255 255 255 255 255 255 255 255 255 255
255 255 255 255 255 255 255 255 255 255 255 255 255 255 255
255 255 255 255 255 255 255 255 255 255 255 255 255 255 255
255 255 255 255 255 255 255 255 255 255 255 255 255 255 255
255 255 255 255 255 255 255 255 255 255 255 255 255 255 255
255 255 255 255 255 255 255 255 255 255 255 255 255 255 255
255 255 255 255 255 255 255 255 255 255 255 255 255 255 255
255 255 255 255 255 255 255 255 255 255 255 255 255 255 255
255 255 255 255 255 255 255 255 255 255 255 255 255 255 255
255 255 255 255 255 255 255 255 255 255 255 255 255 255 255
255 255 255 255 255 255 255 255 255 255 255 255 255 255 255
255 255 255 255 255 255 255 255 255 255 255 255 255 255 255
255 255 255 255 255 255 255 255 255 255 255 255 255 255 255
255 255 255 255 255 255 255 255 255 255 255 255 255 255 255
255 255 255 255 255 255 255 255 255 255 255 255 255 255 255
255 255 255 255 255 255 255 255 255 255 255 255 255 255 255
255 255 255 255 255 255 255 255 255 255 255 255 255 255 255
255 255 255 255 255 255 255 255 255 255 255 255 255 255 255
255 255 255 255 255 255 255 255 255 255 255 255 255 255 255
255 255 255 255 255 255 255 255 255 255 255 255 255 255 255
255 255 255 255 255 255 255 255 255 255 255 255 255 255 255
255 255 255 255 255 255 255 255 255 255 255 255 255 255 255
255 255 255 255 255 255 255 255 255 255 255 255 255 255 255
255 255 255 255 255 255 255 255 255 255 255 255 255 255 255
255 255 255 255 255 255 255 255 255 255 255 255 255 255 255
255 255 255 255 255 255 255 255 255 255 255 255 255 255 255
255 255 255 255 255 255 255 255 255 255 255 255 255 255 255
255 255 255 255 255 255 255 255 255 255 255 255 255 255 255
255 255 255 255 255 255 255 255 255 255 255 255 255 255 255
255 255 255 255 255 255 255 255 255 255 255 255 255 255 255
255 255 255 255 255 255 255 255 255 255 255 255 255 255 255
255 255 255 255 255 255 255 255 255 255 255 255 255 255 255
255 255 255 255 255 255 255 255 255 255 255 255 255 255 255
255 255 255 255 255 255 255 255 255 255 255 255 255 255 255
255 255 255 255 255 255 255 255 255 255 255 255 255 255 255
255 255 255 255 255 255 255 255 255 255 255 255 255 255 255
255 255 255 255 255 255 255 255 255 255 255 255 255 255 255
255 255 255 255 255 255 255 255 255 255 255 255 255 255 255
255 255 255 255 255 255 255 255 255 255 255 255 255 255 255
255 255 255 255 255 255 255 255 255 255 255 255 255 255 255
255 255 255 255 255 255 255 255 255 255 255 255 255 255 255
255 255 255 255 255 255 255 255 255 255 255 255 255 255 255
255 255 255 255 255 255 255 255 255 255 255 255 255 255 255
255 255 255 255 255 255 255 255 255 255 255 255 255 255 255
255 255 255 255 255 255 255 255 255 255 255 255 255 255 255
255 255 255 255 255 255 255 255 255 255 255 255 255 255 255
255 255 255 255 255 255 255 255 255 255 255 255 255 255 255
255 255 255 255 255 255 255 255 255 255 255 255 255 255 255
255 255 255 255 255 255 255 255 255 255 255 255 255 255 255
255 255 255 255 255 255 255 255 255 255 255 255 255 255 255
255 255 255 255 255 255 255 255 255 255 255 255 255 255 255
255 255 255 255 255 255 255 255 255 255 255 255 255 255 255
255 255 255 255 255 255 255 255 255 255 255 255 255 255 255
255 255 255 255 255 255 255 255 255 255 255 255 255 255 255
255 255 255 255 255 255 255 255 255 255 255 255 255 255 255
255 255 255 255 255 255 255 255 255 255 255 255 255 255 255
255 255 255 255 255 255 255 255 255 255 255 255 255 255 255
255 255 255 255 255 255 255 255 255 255 255 255 255 255 255
255 255 255 255 255 255 255 255 255 255 255 255 255 255 255
255 255 255 255 255 255 255 255 255 255 255 255 255 255 255
255 255 255 255 255 255 255 255 255 255 255 255 255 255 255
255 255 255 255 255 255 255 255 255 255 255 255 255 255 255
255 255 255 255 255 255 255 255 255 255 255 255 255 255 255
255 255 255 255 255 255 255 255 255 255 255 255 255 255 255
255 255 255 255 255 255 255 255 255 255 255 255 255 255 255
255 255 255 255 255 255 255 255 255 255 255 255 255 255 255
255 255 255 255 255 255 255 255 255 255 255 255 255 255 255
255 255 255 255 255 255 255 255 255 255 255 255 255 255 255
255 255 255 255 255 255 255 255 255 255 255 255 255 255 255
255 255 255 255 255 255 255 255 255 255 255 255 255 255 255
255 255 255 255 255 255 255 255 255 255 255 255 255 255 255
255 255 255 255 255 255 255 255 255 255 255 255 255 255 255
255 255 255 255 255 255 255 255 255 255 255 255 255 255 255
255 255 255 255 255 255 255 255 255 255 255 255 255 255 255
255 255 255 255 255 255 255 255 255 255 255 255 255 255 255
255 255 255 255 255 255 255 255 255 255 255 255 255 255 255
255 255 255 255 255 255 255 255 255 255 255 255 255 255 255
255 255 255 255 255 255 255 255 255 255 255 255 255 255 255
255 255 255 255 255 255 255 255 255 255 255 255 255 255 255
255 255 255 255 255 255 255 255 255 255 255 255 255 255 255
255 255 255 255 255 255 255 255 255 255 255 255 255 255 255
255 255 255 255 255 255 255 255 255 255 255 255 255 255 255
255 255 255 255 255 255 255 255 255 255 255 255 255 255 255
255 255 255 255 255 255 255 255 255 255 255 255 255 255 255
255 255 255 255 255 255 255 255 255 255 255 255 255 255 255
255 255 255 255 255 255 255 255 255 255 255 255 255 255 255
255 255 255 255 255 255 255 255 255 255 255 255 255 255 255
255 255 255 255 255 255 255 255 255 255 255 255 255 255 255
255 255 255 255 255 255 255 255 255 255 255 255 255 255 255
255 255 255 255 255 255 255 255 255 255 255 255 255 255 255
255 255 255 255 255 255 255 255 255 255 255 255 255 255 255
255 255 255 255 255 255 255 255 255 255 255 255 255 255 255
255 255 255 255 255 255 255 255 255 255 255 255 255 255 255
255 255 255 255 255 255 255 255 255 255 255 255 255 255 255
255 255 255 255 255 255 255 255 255 255 255 255 255 255 255
255 255 255 255 255 255 255 255 255 255 255 255 255 255 255
255 255 255 255 255 255 255 255 255 255 255 255 255 255 255
255 255 255 255 255 255 255 255 255 255 255 255 255 255 255
255 255 255 255 255 255 255 255 255 255 255 255 255 255 255
255 255 255 255 255 255 255 255 255 255 255 255 255 255 255
255 255 255 255 255 255 255 255 255 255 255 255 255 255 255
255 255 255 255 255 255 255 255 255 255 255 255 255 255 255
255 255 255 255 255 255 255 255 255 255 255 255 255 255 255
255 255 255 255 255 255 255 255 255 255 255 255 255 255 255
255 255 255 255 255 255 255 255 255 255 255 255 255 255 255
255 255 255 255 255 255 255 255 255 255 255 255 255 255 255
255 255 255 255 255 255 255 255 255 255 255 255 255 255 255
255 255 255 255 255 255 255 255 255 255 255 255 255 255 255
255 255 255 255 255 255 255 255 255 255 255 255 255 255 255
255 255 255 255 255 255 255 255 255 255 255 255 255 255 255
255 255 255 255 255 255 255 255 255 255 255 255 255 255 255
255 255 255 255 255 255 255 255 255 255 255 255 255 255 255
255 255 255 255 255 255 255 255 255 255 255 255 255 255 255
255 255 255 255 255 255 255 255 255 255 255 255 255 255 255
255 255 255 255 255 255 255 255 255 255 255 255 255 255 255
255 255 255 255 255 255 255 255 255 255 255 255 255 255 255
255 255 255 255 255 255 255 255 255 255 255 255 255 255 255
255 255 255 255 255 255 255 255 255 255 255 255 255 255 255
255 255 255 255 255 255 255 255 255 255 255 255 255 255 255
255 255 255 255 255 255 255 255 255 255 255 255 255 255 255
255 255 255 255 255 255 255 255 255 255 255 255 255 255 255
255 255 255 255 255 255 255 255 255 255 255 255 255 255 255
255 255 255 255 255 255 255 255 255 255 255 255 255 255 255
255 255 255 255 255 255 255 255 255 255 255 255 255 255 255
255 255 255 255 255 255 255 255 255 255 255 255 255 255 255
255 255 255 255 255 255 255 255 255 255 255 255 255 255 255
255 255 255 255 255 255 255 255 255 255 255 255 255 255 255
255 255 255 255 255 255 255 255 255 255 255 255 255 255 255
255 255 255 255 255 255 255 255 255 255 255 255 255 255 255
255 255 255 255 255 255 255 255 255 255 255 255 255 255 255
255 255 255 255 255 255 255 255 255 255 255 255 255 255 255
255 255 255 255 255 255 255 255 255 255 255 255 255 255 255
255 255 255 255 255 255 255 255 255 255 255 255 255 255 255
255 255 255 255 255 255 255 255 255 255 255 255 255 255 255
255 255 255 255 255 255 255 255 255 255 255 255 255 255 255
255 255 255 255 255 255 255 255 255 255 255 255 255 255 255
255 255 255 255 255 255 255 255 255 255 255 255 255 255 255
255 255 255 255 255 255 255 255 255 255 255 255 255 255 255
255 255 255 255 255 255 255 255 255 255 255 255 255 255 255
255 255 255 255 255 255 255 255 255 255 255 255 255 255 255
255 255 255 255 255 255 255 255 255 255 255 255 255 255 255
255 255 255 255 255 255 255 255 255 255 255 255 255 255 255
255 255 255 255 255 255 255 255 255 255 255 255 255 255 255
255 255 255 255 255 255 255 255 255 255 255 255 255 255 255
255 255 255 255 255 255 255 255 255 255 255 255 255 255 255
255 255 255 255 255 255 255 255 255 255 255 255 255 255 255
255 255 255 255 255 255 255 255 255 255 255 255 255 255 255
255 255 255 255 255 255 255 255 255 255 255 255 255 255 255
255 255 255 255 255 255 255 255 255 255 255 255 255 255 255
255 255 255 255 255 255 255 255 255 255 255 255 255 255 255
255 255 255 255 255 255 255 255 255 255 255 255 255 255 255
255 255 255 255 255 255 255 255 255 255 255 255 255 255 255
255 255 255 255 255 255 255 255 255 255 255 255 255 255 255
255 255 255 255 255 255 255 255 255 255 255 255 255 255 255
255 255 255 255 255 255 255 255 255 255 255 255 255 255 255
255 255 255 255 255 255 255 255 255 255 255 255 255 255 255
255 255 255 255 255 255 255 255 255 255 255 255 255 255 255
255 255 255 255 255 255 255 255 255 255 255 255 255 255 255
255 255 255 255 255 255 255 255 255 255 255 255 255 255 255
255 255 255 255 255 255 255 255 255 255 255 255 255 255 255
255 255 255 255 255 255 255 255 255 255 255 255 255 255 255
255 255 255 255 255 255 255 255 255 255 255 255 255 255 255
255 255 255 255 255 255 255 255 255 255 255 255 255 255 255
255 255 255 255 255 255 255 255 255 255 255 255 255 255 255
255 255 255 255 255 255 255 255 255 255 255 255 255 255 255
255 255 255 255 255 255 255 255 255 255 255 255 255 255 255
255 255 255 255 255 255 255 255 255 255 255 255 255 255 255
255 255 255 255 255 255 255 255 255 255 255 255 255 255 255
255 255 255 255 255 255 255 255 255 255 255 255 255 255 255
255 255 255 255 255 255 255 255 255 255 255 255 255 255 255
255 255 255 255 255 255 255 255 255 255 255 255 255 255 255
255 255 255 255 255 255 255 255 255 255 255 255 255 255 255
255 255 255 255 255 255 255 255 255 255 255 255 255 255 255
255 255 255 255 255 255 255 255 255 255 255 255 255 255 255
255 255 255 255 255 255 255 255 255 255 255 255 255 255 255
255 255 255 255 255 255 255 255 255 255 255 255 255 255 255
255 255 255 255 255 255 255 255 255 255 255 255 255 255 255
255 255 255 255 255 255 255 255 255 255 255 255 255 255 255
255 255 255 255 255 255 255 255 255 255 255 255 255 255 255
255 255 255 255 255 255 255 255 255 255 255 255 255 255 255
255 255 255 255 255 255 255 255 255 255 255 255 255 255 255
255 255 255 255 255 255 255 255 255 255 255 255 255 255 255
255 255 255 255 255 255 255 255 255 255 255 255 255 255 255
255 255 255 255 255 255 255 255 255 255 255 255 255 255 255
255 255 255 255 255 255 255 255 255 255 255 255 255 255 255
255 255 255 255 255 255 255 255 255 255 255 255 255 255 255
255 255 255 255 255 255 255 255 255 255 255 255 255 255 255
255 255 255 255 255 255 255 255 255 255 255 255 255 255 255
255 255 255 255 255 255 255 255 255 255 255 255 255 255 255
255 255 255 255 255 255 255 255 255 255 255 255 255 255 255
255 255 255 255 255 255 255 255 255 255 255 255 255 255 255
255 255 255 255 255 255 255 255 255 255 255 255 255 255 255
255 255 255 255 255 255 255 255 255 255 255 255 255 255 255
255 255 255 255 255 255 255 255 255 255 255 255 255 255 255
255 255 255 255 255 255 255 255 255 255 255 255 255 255 255
255 255 255 255 255 255 255 255 255 255 255 255 255 255 255
255 255 255 255 255 255 255 255 255 255 255 255 255 255 255
255 255 255 255 255 255 255 255 255 255 255 255 255 255 255
255 255 255 255 255 255 255 255 255 255 255 255 255 255 255
255 255 255 255 255 255 255 255 255 255 255 255 255 255 255
255 255 255 255 255 255 255 255 255 255 255 255 255 255 255
255 255 255 255 255 255 255 255 255 255 255 255 255 255 255
255 255 255 255 255 255 255 255 255 255 255 255 255 255 255
255 255 255 255 255 255 255 255 255 255 255 255 255 255 255
255 255 255 255 255 255 255 255 255 255 255 255 255 255 255
255 255 255 255 255 255 255 255 255 255 255 255 255 255 255
255 255 255 255 255 255 255 255 255 255 255 255 255 255 255
255 255 255 255 255 255 255 255 255 255 255 255 255 255 255
255 255 255 255 255 255 255 255 255 255 255 255 255 255 255
255 255 255 255 255 255 255 255 255 255 255 255 255 255 255
255 255 255 255 255 255 255 255 255 255 255 255 255 255 255
255 255 255 255 255 255 255 255 255 255 255 255 255 255 255
255 255 255 255 255 255 255 255 255 255 255 255 255 255 255
255 255 255 255 255 255 255 255 255 255 255 255 255 255 255
255 255 255 255 255 255 255 255 255 255 255 255 255 255 255
255 255 255 255 255 255 255 255 255 255 255 255 255 255 255
255 255 255 255 255 255 255 255 255 255 255 255 255 255 255
255 255 255 255 255 255 255 255 255 255 255 255 255 255 255
255 255 255 255 255 255 255 255 255 255 255 255 255 255 255
255 255 255 255 255 255 255 255 255 255 255 255 255 255 255
255 255 255 255 255 255 255 255 255 255 255 255 255 255 255
255 255 255 255 255 255 255 255 255 255 255 255 255 255 255
255 255 255 255 255 255 255 255 255 255 255 255 255 255 255
255 255 255 255 255 255 255 255 255 255 255 255 255 255 255
255 255 255 255 255 255 255 255 255 255 255 255 255 255 255
255 255 255 255 255 255 255 255 255 255 255 255 255 255 255
255 255 255 255 255 255 255 255 255 255 255 255 255 255 255
255 255 255 255 255 255 255 255 255 255 255 255 255 255 255
255 255 255 255 255 255 255 255 255 255 255 255 255 255 255
255 255 255 255 255 255 255 255 255 255 255 255 255 255 255
255 255 255 255 255 255 255 255 255 255 255 255 255 255 255
255 255 255 255 255 255 255 255 255 255 255 255 255 255 255
255 255 255 255 255 255 255 255 255 255 255 255 255 255 255
255 255 255 255 255 255 255 255 255 255 255 255 255 255 255
255 255 255 255 255 255 255 255 255 255 255 255 255 255 255
255 255 255 255 255 255 255 255 255 255 255 255 255 255 255
255 255 255 255 255 255 255 255 255 255 255 255 255 255 255
255 255 255 255 255 255 255 255 255 255 255 255 255 255 255
255 255 255 255 255 255 255 255 255 255 255 255 255 255 255
255 255 255 255 255 255 255 255 255 255 255 255 255 255 255
255 255 255 255 255 255 255 255 255 255 255 255 255 255 255
255 255 255 255 255 255 255 255 255 255 255 255 255 255 255
255 255 255 255 255 255 255 255 255 255 255 255 255 255 255
255 255 255 255 255 255 255 255 255 255 255 255 255 255 255
255 255 255 255 255 255 255 255 255 255 255 255 255 255 255
255 255 255 255 255 255 255 255 255 255 255 255 255 255 255
255 255 255 255 255 255 255 255 255 255 255 255 255 255 255
255 255 255 255 255 255 255 255 255 255 255 255 255 255 255
255 255 255 255 255 255 255 255 255 255 255 255 255 255 255
255 255 255 255 255 255 255 255 255 255 255 255 255 255 255
255 255 255 255 255 255 255 255 255 255 255 255 255 255 255
255 255 255 255 255 255 255 255 255 255 255 255 255 255 255
255 255 255 255 255 255 255 255 255 255 255 255 255 255 255
255 255 255 255 255 255 255 255 255 255 255 255 255 255 255
255 255 255 255 255 255 255 255 255 255 255 255 255 255 255
255 255 255 255 255 255 255 255 255 255 255 255 255 255 255
255 255 255 255 255 255 255 255 255 255 255 255 255 255 255
255 255 255 255 255 255 255 255 255 255 255 255 255 255 255
255 255 255 255 255 255 255 255 255 255 255 255 255 255 255
255 255 255 255 255 255 255 255 255 255 255 255 255 255 255
255 255 255 255 255 255 255 255 255 255 255 255 255 255 255
255 255 255 255 255 255 255 255 255 255 255 255 255 255 255
255 255 255 255 255 255 255 255 255 255 255 255 255 255 255
255 255 255 255 255 255 255 255 255 255 255 255 255 255 255
255 255 255 255 255 255 255 255 255 255 255 255 255 255 255
255 255 255 255 255 255 255 255 255 255 255 255 255 255 255
255 255 255 255 255 255 255 255 255 255 255 255 255 255 255
255 255 255 255 255 255 255 255 255 255 255 255 255 255 255
255 255 255 255 255 255 255 255 255 255 255 255 255 255 255
255 255 255 255 255 255 255 255 255 255 255 255 255 255 255
255 255 255 255 255 255 255 255 255 255 255 255 255 255 255
255 255 255 255 255 255 255 255 255 255 255 255 255 255 255
255 255 255 255 255 255 255 255 255 255 255 255 255 255 255
255 255 255 255 255 255 255 255 255 255 255 255 255 255 255
255 255 255 255 255 255 255 255 255 255 255 255 255 255 255
255 255 255 255 255 255 255 255 255 255 255 255 255 255 255
255 255 255 255 255 255 255 255 255 255 255 255 255 255 255
255 255 255 255 255 255 255 255 255 255 255 255 255 255 255
255 255 255 255 255 255 255 255 255 255 255 255 255 255 255
255 255 255 255 255 255 255 255 255 255 255 255 255 255 255
255 255 255 255 255 255 255 255 255 255 255 255 255 255 255
255 255 255 255 255 255 255 255 255 255 255 255 255 255 255
255 255 255 255 255 255 255 255 255 255 255 255 255 255 255
255 255 255 255 255 255 255 255 255 255 255 255 255 255 255
255 255 255 255 255 255 255 255 255 255 255 255 255 255 255
255 255 255 255 255 255 255 255 255 255 255 255 255 255 255
255 255 255 255 255 255 255 255 255 255 255 255 255 255 255
255 255 255 255 255 255 255 255 255 255 255 255 255 255 255
255 255 255 255 255 255 255 255 255 255 255 255 255 255 255
255 255 255 255 255 255 255 255 255 255 255 255 255 255 255
255 255 255 255 255 255 255 255 255 255 255 255 255 255 255
255 255 255 255 255 255 255 255 255 255 255 255 255 255 255
255 255 255 255 255 255 255 255 255 255 255 255 255 255 255
255 255 255 255 255 255 255 255 255 255 255 255 255 255 255
255 255 255 255 255 255 255 255 255 255 255 255 255 255 255
255 255 255 255 255 255 255 255 255 255 255 255 255 255 255
255 255 255 255 255 255 255 255 255 255 255 255 255 255 255
255 255 255 255 255 255 255 255 255 255 255 255 255 255 255
255 255 255 255 255 255 255 255 255 255 255 255 255 255 255
255 255 255 255 255 255 255 255 255 255 255 255 255 255 255
255 255 255 255 255 255 255 255 255 255 255 255 255 255 255
255 255 255 255 255 255 255 255 255 255 255 255 255 255 255
255 255 255 255 255 255 255 255 255 255 255 255 255 255 255
255 255 255 255 255 255 255 255 255 255 255 255 255 255 255
255 255 255 255 255 255 255 255 255 255 255 255 255 255 255
255 255 255 255 255 255 255 255 255 255 255 255 255 255 255
255 255 255 255 255 255 255 255 255 255 255 255 255 255 255
255 255 255 255 255 255 255 255 255 255 255 255 255 255 255
255 255 255 255 255 255 255 255 255 255 255 255 255 255 255
255 255 255 255 255 255 255 255 255 255 255 255 255 255 255
255 255 255 255 255 255 255 255 255 255 255 255 255 255 255
255 255 255 255 255 255 255 255 255 255 255 255 255 255 255
255 255 255 255 255 255 255 255 255 255 255 255 255 255 255
255 255 255 255 255 255 255 255 255 255 255 255 255 255 255
255 255 255 255 255 255 255 255 255 255 255 255 255 255 255
255 255 255 255 255 255 255 255 255 255 255 255 255 255 255
255 255 255 255 255 255 255 255 255 255 255 255 255 255 255
255 255 255 255 255 255 255 255 255 255 255 255 255 255 255
255 255 255 255 255 255 255 255 255 255 255 255 255 255 255
255 255 255 255 255 255 255 255 255 255 255 255 255 255 255
255 255 255 255 255 255 255 255 255 255 255 255 255 255 255
255 255 255 255 255 255 255 255 255 255 255 255 255 255 255
255 255 255 255 255 255 255 255 255 255 255 255 255 255 255
255 255 255 255 255 255 255 255 255 255 255 255 255 255 255
255 255 255 255 255 255 255 255 255 255 255 255 255 255 255
255 255 255 255 255 255 255 255 255 255 255 255 255 255 255
255 255 255 255 255 255 255 255 255 255 255 255 255 255 255
255 255 255 255 255 255 255 255 255 255 255 255 255 255 255
255 255 255 255 255 255 255 255 255 255 255 255 255 255 255
255 255 255 255 255 255 255 255 255 255 255 255 255 255 255
255 255 255 255 255 255 255 255 255 255 255 255 255 255 255
255 255 255 255 255 255 255 255 255 255 255 255 255 255 255
255 255 255 255 255 255 255 255 255 255 255 255 255 255 255
255 255 255 255 255 255 255 255 255 255 255 255 255 255 255
255 255 255 255 255 255 255 255 255 255 255 255 255 255 255
255 255 255 255 255 255 255 255 255 255 255 255 255 255 255
255 255 255 255 255 255 255 255 255 255 255 255 255 255 255
255 255 255 255 255 255 255 255 255 255 255 255 255 255 255
255 255 255 255 255 255 255 255 255 255 255 255 255 255 255
255 255 255 255 255 255 255 255 255 255 255 255 255 255 255
255 255 255 255 255 255 255 255 255 255 255 255 255 255 255
255 255 255 255 255 255 255 255 255 255 255 255 255 255 255
255 255 255 255 255 255 255 255 255 255 255 255 255 255 255
255 255 255 255 255 255 255 255 255 255 255 255 255 255 255
255 255 255 255 255 255 255 255 255 255 255 255 255 255 255
255 255 255 255 255 255 255 255 255 255 255 255 255 255 255
255 255 255 255 255 255 255 255 255 255 255 255 255 255 255
255 255 255 255 255 255 255 255 255 255 255 255 255 255 255
255 255 255 255 255 255 255 255 255 255 255 255 255 255 255
255 255 255 255 255 255 255 255 255 255 255 255 255 255 255
255 255 255 255 255 255 255 255 255 255 255 255 255 255 255
255 255 255 255 255 255 255 255 255 255 255 255 255 255 255
255 255 255 255 255 255 255 255 255 255 255 255 255 255 255
255 255 255 255 255 255 255 255 255 255 255 255 255 255 255
255 255 255 255 255 255 255 255 255 255 255 255 255 255 255
255 255 255 255 255 255 255 255 255 255 255 255 255 255 255
255 255 255 255 255 255 255 255 255 255 255 255 255 255 255
255 255 255 255 255 255 255 255 255 255 255 255 255 255 255
255 255 255 255 255 255 255 255 255 255 255 255 255 255 255
255 255 255 255 255 255 255 255 255 255 255 255 255 255 255
255 255 255 255 255 255 255 255 255 255 255 255 255 255 255
255 255 255 255 255 255 255 255 255 255 255 255 255 255 255
255 255 255 255 255 255 255 255 255 255 255 255 255 255 255
255 255 255 255 255 255 255 255 255 255 255 255 255 255 255
255 255 255 255 255 255 255 255 255 255 255 255 255 255 255
255 255 255 255 255 255 255 255 255 255 255 255 255 255 255
255 255 255 255 255 255 255 255 255 255 255 255 255 255 255
255 255 255 255 255 255 255 255 255 255 255 255 255 255 255
255 255 255 255 255 255 255 255 255 255 255 255 255 255 255
255 255 255 255 255 255 255 255 255 255 255 255 255 255 255
255 255 255 255 255 255 255 255 255 255 255 255 255 255 255
255 255 255 255 255 255 255 255 255 255 255 255 255 255 255
255 255 255 255 255 255 255 255 255 255 255 255 255 255 255
255 255 255 255 255 255 255 255 255 255 255 255 255 255 255
255 255 255 255 255 255 255 255 255 255 255 255 255 255 255
255 255 255 255 255 255 255 255 255 255 255 255 255 255 255
255 255 255 255 255 255 255 255 255 255 255 255 255 255 255
255 255 255 255 255 255 255 255 255 255 255 255 255 255 255
255 255 255 255 255 255 255 255 255 255 255 255 255 255 255
255 255 255 255 255 255 255 255 255 255 255 255 255 255 255
255 255 255 255 255 255 255 255 255 255 255 255 255 255 255
255 255 255 255 255 255 255 255 255 255 255 255 255 255 255
255 255 255 255 255 255 255 255 255 255 255 255 255 255 255
255 255 255 255 255 255 255 255 255 255 255 255 255 255 255
255 255 255 255 255 255 255 255 255 255 255 255 255 255 255
255 255 255 255 255 255 255 255 255 255 255 255 255 255 255
255 255 255 255 255 255 255 255 255 255 255 255 255 255 255
255 255 255 255 255 255 255 255 255 255 255 255 255 255 255
255 255 255 255 255 255 255 255 255 255 255 255 255 255 255
255 255 255 255 255 255 255 255 255 255 255 255 255 255 255
255 255 255 255 255 255 255 255 255 255 255 255 255 255 255
255 255 255 255 255 255 255 255 255 255 255 255 255 255 255
255 255 255 255 255 255 255 255 255 255 255 255 255 255 255
255 255 255 255 255 255 255 255 255 255 255 255 255 255 255
255 255 255 255 255 255 255 255 255 255 255 255 255 255 255
255 255 255 255 255 255 255 255 255 255 255 255 255 255 255
255 255 255 255 255 255 255 255 255 255 255 255 254 254 254
254 254 254 253 253 253 253 253 253 253 253 253 254 254 254
255 255 255 255 255 255 255 255 255 255 255 255 254 254 254
253 253 253 253 253 253 253 253 253 254 254 254 254 254 254
254 254 254 254 254 254 255 255 255 255 255 255 255 255 255
255 255 255 255 255 255 253 253 253 253 253 253 253 253 253
254 254 254 255 255 255 255 255 255 255 255 255 255 255 255
253 253 253 254 254 254 254 254 254 254 254 254 254 254 254
255 255 255 255 255 255 255 255 255 255 255 255 255 255 255
255 255 255 255 255 255 255 255 255 255 255 255 255 255 255
255 255 255 255 255 255 255 255 255 255 255 255 255 255 255
255 255 255 255 255 255 255 255 255 255 255 255 255 255 255
255 255 255 255 255 255 255 255 255 255 255 255 255 255 255
255 255 255 255 255 255 255 255 255 255 255 255 255 255 255
255 255 255 255 255 255 255 255 255 255 255 255 255 255 255
255 255 255 255 255 255 255 255 255 255 255 255 255 255 255
255 255 255 255 255 255 255 255 255 255 255 255 255 255 255
255 255 255 255 255 255 255 255 255 255 255 255 255 255 255
255 255 255 255 255 255 255 255 255 255 255 255 255 255 255
255 255 255 255 255 255 255 255 255 255 255 255 255 255 255
255 255 255 255 255 255 255 255 255 255 255 255 255 255 255
255 255 255 255 255 255 255 255 255 255 255 255 255 255 255
255 255 255 255 255 255 255 255 255 255 255 255 255 255 255
255 255 255 255 255 255 255 255 255 255 255 255 255 255 255
255 255 255 255 255 255 255 255 255 255 255 255 255 255 255
255 255 255 255 255 255 255 255 255 255 255 255 255 255 255
255 255 255 255 255 255 255 255 255 255 255 255 255 255 255
255 255 255 255 255 255 255 255 255 255 255 255 255 255 255
255 255 255 255 255 255 255 255 255 255 255 255 255 255 255
255 255 255 255 255 255 255 255 255 255 255 255 255 255 255
255 255 255 255 255 255 255 255 255 255 255 255 255 255 255
255 255 255 255 255 255 255 255 255 255 255 255 255 255 255
255 255 255 255 255 255 255 255 255 255 255 255 255 255 255
255 255 255 255 255 255 255 255 255 255 255 255 255 255 255
255 255 255 255 255 255 255 255 255 255 255 255 255 255 255
255 255 255 255 255 255 255 255 255 255 255 255 255 255 255
255 255 255 255 255 255 255 255 255 255 255 255 255 255 255
255 255 255 255 255 255 255 255 255 255 255 255 255 255 255
255 255 255 255 255 255 255 255 255 255 255 255 255 255 255
255 255 255 255 255 255 255 255 255 255 255 255 255 255 255
255 255 255 255 255 255 255 255 255 255 255 255 255 255 255
255 255 255 255 255 255 255 255 255 255 255 255 255 255 255
255 255 255 255 255 255 255 255 255 255 255 255 255 255 255
255 255 255 255 255 255 255 255 255 255 255 255 255 255 255
255 255 255 255 255 255 255 255 255 255 255 255 255 255 255
255 255 255 255 255 255 255 255 255 255 255 255 255 255 255
255 255 255 255 255 255 255 255 255 255 255 255 255 255 255
255 255 255 255 255 255 255 255 255 255 255 255 255 255 255
255 255 255 255 255 255 255 255 255 255 255 255 255 255 255
255 255 255 255 255 255 255 255 255 255 255 255 255 255 255
255 255 255 255 255 255 255 255 255 255 255 255 255 255 255
255 255 255 255 255 255 255 255 255 255 255 255 255 255 255
255 255 255 255 255 255 255 255 255 255 255 255 255 255 255
255 255 255 255 255 255 255 255 255 255 255 255 255 255 255
255 255 255 255 255 255 255 255 255 255 255 255 255 255 255
255 255 255 255 255 255 255 255 255 255 255 255 255 255 255
255 255 255 255 255 255 255 255 255 255 255 255 255 255 255
255 255 255 255 255 255 255 255 255 255 255 255 255 255 255
255 255 255 255 255 255 255 255 255 255 255 255 255 255 255
255 255 255 255 255 255 255 255 255 255 255 255 255 255 255
255 255 255 255 255 255 255 255 255 255 255 255 255 255 255
255 255 255 255 255 255 255 255 255 255 255 255 255 255 255
255 255 255 255 255 255 255 255 255 255 255 255 255 255 255
255 255 255 255 255 255 255 255 255 255 255 255 255 255 255
255 255 255 255 255 255 255 255 255 255 255 255 255 255 255
255 255 255 255 255 255 255 255 255 255 255 255 255 255 255
255 255 255 255 255 255 255 255 255 255 255 255 255 255 255
255 255 255 255 255 255 255 255 255 255 255 255 255 255 255
255 255 255 255 255 255 255 255 255 255 255 255 255 255 255
255 255 255 255 255 255 255 255 255 255 255 255 255 255 255
255 255 255 255 255 255 255 255 255 255 255 255 255 255 255
255 255 255 255 255 255 255 255 255 255 255 255 255 255 255
255 255 255 255 255 255 255 255 255 255 255 255 255 255 255
255 255 255 255 255 255 255 255 255 255 255 255 255 255 255
255 255 255 255 255 255 255 255 255 255 255 255 255 255 255
255 255 255 255 255 255 255 255 255 255 255 255 255 255 255
255 255 255 255 255 255 255 255 255 255 255 255 255 255 255
255 255 255 255 255 255 255 255 255 255 255 255 255 255 255
255 255 255 255 255 255 255 255 255 255 255 255 255 255 255
255 255 255 255 255 255 255 255 255 254 254 254 254 254 254
255 255 255 255 255 255 255 255 255 255 255 255 255 255 255
255 255 255 254 254 254 252 252 252 253 253 253 255 255 255
255 255 255 255 255 255 255 255 255 255 255 255 255 255 255
254 254 254 255 255 255 255 255 255 255 255 255 255 255 255
255 255 255 255 255 255 255 255 255 255 255 255 255 255 255
255 255 255 255 255 255 255 255 255 255 255 255 255 255 255
255 255 255 255 255 255 255 255 255 255 255 255 255 255 255
255 255 255 255 255 255 255 255 255 255 255 255 255 255 255
255 255 255 255 255 255 255 255 255 255 255 255 255 255 255
255 255 255 255 255 255 255 255 255 255 255 255 255 255 255
255 255 255 255 255 255 255 255 255 255 255 255 255 255 255
255 255 255 255 255 255 255 255 255 255 255 255 255 255 255
255 255 255 255 255 255 255 255 255 255 255 255 255 255 255
255 255 255 255 255 255 255 255 255 255 255 255 255 255 255
255 255 255 255 255 255 255 255 255 255 255 255 255 255 255
255 255 255 255 255 255 255 255 255 255 255 255 255 255 255
255 255 255 255 255 255 255 255 255 255 255 255 255 255 255
255 255 255 255 255 255 255 255 255 255 255 255 255 255 255
255 255 255 255 255 255 255 255 255 255 255 255 255 255 255
255 255 255 255 255 255 255 255 255 255 255 255 255 255 255
255 255 255 255 255 255 255 255 255 255 255 255 255 255 255
255 255 255 255 255 255 255 255 255 255 255 255 255 255 255
255 255 255 255 255 255 255 255 255 255 255 255 255 255 255
255 255 255 255 255 255 255 255 255 255 255 255 255 255 255
255 255 255 255 255 255 255 255 255 255 255 255 255 255 255
255 255 255 255 255 255 255 255 255 255 255 255 255 255 255
255 255 255 255 255 255 255 255 255 255 255 255 255 255 255
255 255 255 255 255 255 255 255 255 255 255 255 255 255 255
255 255 255 255 255 255 255 255 255 255 255 255 255 255 255
255 255 255 255 255 255 255 255 255 255 255 255 255 255 255
255 255 255 255 255 255 255 255 255 255 255 255 255 255 255
255 255 255 255 255 255 255 255 255 255 255 255 255 255 255
255 255 255 255 255 255 255 255 255 255 255 255 255 255 255
255 255 255 255 255 255 255 255 255 255 255 255 255 255 255
255 255 255 255 255 255 255 255 255 255 255 255 255 255 255
255 255 255 255 255 255 255 255 255 255 255 255 255 255 255
255 255 255 255 255 255 255 255 255 255 255 255 255 255 255
255 255 255 255 255 255 255 255 255 255 255 255 255 255 255
255 255 255 255 255 255 255 255 255 255 255 255 255 255 255
255 255 255 255 255 255 255 255 255 255 255 255 255 255 255
255 255 255 255 255 255 255 255 255 255 255 255 255 255 255
255 255 255 255 255 255 255 255 255 255 255 255 255 255 255
255 255 255 255 255 255 255 255 255 255 255 255 255 255 255
255 255 255 255 255 255 255 255 255 255 255 255 255 255 255
255 255 255 255 255 255 255 255 255 255 255 255 255 255 255
255 255 255 255 255 255 255 255 255 255 255 255 255 255 255
255 255 255 255 255 255 255 255 255 255 255 255 255 255 255
255 255 255 255 255 255 255 255 255 255 255 255 255 255 255
255 255 255 255 255 255 255 255 255 255 255 255 255 255 255
255 255 255 255 255 255 255 255 255 255 255 255 255 255 255
255 255 255 255 255 255 255 255 255 255 255 255 255 255 255
255 255 255 255 255 255 255 255 255 255 255 255 255 255 255
255 255 255 255 255 255 255 255 255 255 255 255 255 255 255
255 255 255 255 255 255 255 255 255 255 255 255 255 255 255
255 255 255 255 255 255 255 255 255 255 255 255 255 255 255
255 255 255 255 255 255 255 255 255 255 255 255 255 255 255
255 255 255 255 255 255 255 255 255 255 255 255 255 255 255
255 255 255 255 255 255 255 255 255 255 255 255 255 255 255
255 255 255 255 255 255 255 255 255 255 255 255 255 255 255
255 255 255 255 255 255 255 255 255 255 255 255 255 255 255
255 255 255 255 255 255 255 255 255 255 255 255 255 255 255
255 255 255 255 255 255 255 255 255 255 255 255 255 255 255
255 255 255 255 255 255 255 255 255 255 255 255 255 255 255
255 255 255 255 255 255 255 255 255 255 255 255 255 255 255
255 255 255 255 255 255 255 255 255 255 255 255 255 255 255
255 255 255 255 255 255 255 255 255 255 255 255 255 255 255
255 255 255 255 255 255 255 255 255 255 255 255 255 255 255
255 255 255 255 255 255 255 255 255 255 255 255 255 255 255
255 255 255 255 255 255 255 255 255 255 255 255 255 255 255
255 255 255 255 255 255 255 255 255 255 255 255 255 255 255
255 255 255 255 255 255 255 255 255 255 255 255 255 255 255
255 255 255 255 255 255 255 255 255 255 255 255 255 255 255
255 255 255 255 255 255 255 255 255 255 255 255 255 255 255
255 255 255 255 255 255 255 255 255 255 255 255 255 255 255
255 255 255 255 255 255 255 255 255 255 255 255 255 255 255
255 255 255 254 254 254 254 254 254 254 254 254 254 254 254
254 254 254 254 254 254 254 254 254 254 254 254 254 254 254
255 255 255 255 255 255 255 255 255 249 249 249 251 251 251
254 254 254 255 255 255 255 255 255 254 254 254 254 254 254
254 254 254 252 252 252 250 250 250 249 249 249 250 250 250
253 253 253 255 255 255 255 255 255 255 255 255 255 255 255
255 255 255 255 255 255 255 255 255 255 255 255 255 255 255
255 255 255 255 255 255 255 255 255 255 255 255 255 255 255
255 255 255 255 255 255 255 255 255 255 255 255 255 255 255
255 255 255 255 255 255 255 255 255 255 255 255 255 255 255
255 255 255 255 255 255 255 255 255 255 255 255 255 255 255
255 255 255 255 255 255 255 255 255 255 255 255 255 255 255
255 255 255 255 255 255 255 255 255 255 255 255 255 255 255
255 255 255 255 255 255 255 255 255 255 255 255 255 255 255
255 255 255 255 255 255 255 255 255 255 255 255 255 255 255
255 255 255 255 255 255 255 255 255 255 255 255 255 255 255
255 255 255 255 255 255 255 255 255 255 255 255 255 255 255
255 255 255 255 255 255 255 255 255 255 255 255 255 255 255
255 255 255 255 255 255 255 255 255 255 255 255 255 255 255
255 255 255 255 255 255 255 255 255 255 255 255 255 255 255
255 255 255 255 255 255 255 255 255 255 255 255 255 255 255
255 255 255 255 255 255 255 255 255 255 255 255 255 255 255
255 255 255 255 255 255 255 255 255 255 255 255 255 255 255
255 255 255 255 255 255 255 255 255 255 255 255 255 255 255
255 255 255 255 255 255 255 255 255 255 255 255 255 255 255
255 255 255 255 255 255 255 255 255 255 255 255 255 255 255
255 255 255 255 255 255 255 255 255 255 255 255 255 255 255
255 255 255 255 255 255 255 255 255 255 255 255 255 255 255
255 255 255 255 255 255 255 255 255 255 255 255 255 255 255
255 255 255 255 255 255 255 255 255 255 255 255 255 255 255
255 255 255 255 255 255 255 255 255 255 255 255 255 255 255
255 255 255 255 255 255 255 255 255 255 255 255 255 255 255
255 255 255 255 255 255 255 255 255 255 255 255 255 255 255
255 255 255 255 255 255 255 255 255 255 255 255 255 255 255
255 255 255 255 255 255 255 255 255 255 255 255 255 255 255
255 255 255 255 255 255 255 255 255 255 255 255 255 255 255
255 255 255 255 255 255 255 255 255 255 255 255 255 255 255
255 255 255 255 255 255 255 255 255 255 255 255 255 255 255
255 255 255 255 255 255 255 255 255 255 255 255 255 255 255
255 255 255 255 255 255 255 255 255 255 255 255 255 255 255
255 255 255 255 255 255 255 255 255 255 255 255 255 255 255
255 255 255 255 255 255 255 255 255 255 255 255 255 255 255
255 255 255 255 255 255 255 255 255 255 255 255 255 255 255
255 255 255 255 255 255 255 255 255 255 255 255 255 255 255
255 255 255 255 255 255 255 255 255 255 255 255 255 255 255
255 255 255 255 255 255 255 255 255 255 255 255 255 255 255
255 255 255 255 255 255 255 255 255 255 255 255 255 255 255
255 255 255 255 255 255 255 255 255 255 255 255 255 255 255
255 255 255 255 255 255 255 255 255 255 255 255 255 255 255
255 255 255 255 255 255 255 255 255 255 255 255 255 255 255
255 255 255 255 255 255 255 255 255 255 255 255 255 255 255
255 255 255 255 255 255 255 255 255 255 255 255 255 255 255
255 255 255 255 255 255 255 255 255 255 255 255 255 255 255
255 255 255 255 255 255 255 255 255 255 255 255 255 255 255
255 255 255 255 255 255 255 255 255 255 255 255 255 255 255
255 255 255 255 255 255 255 255 255 255 255 255 255 255 255
255 255 255 255 255 255 255 255 255 255 255 255 255 255 255
255 255 255 255 255 255 255 255 255 255 255 255 255 255 255
255 255 255 255 255 255 255 255 255 255 255 255 255 255 255
255 255 255 255 255 255 255 255 255 255 255 255 255 255 255
255 255 255 255 255 255 255 255 255 255 255 255 255 255 255
255 255 255 255 255 255 255 255 255 255 255 255 255 255 255
255 255 255 255 255 255 255 255 255 255 255 255 255 255 255
255 255 255 255 255 255 255 255 255 255 255 255 255 255 255
255 255 255 255 255 255 255 255 255 255 255 255 255 255 255
255 255 255 255 255 255 255 255 255 255 255 255 255 255 255
255 255 255 255 255 255 255 255 255 255 255 255 255 255 255
255 255 255 255 255 255 255 255 255 255 255 255 255 255 255
255 255 255 255 255 255 255 255 255 255 255 255 255 255 255
255 255 255 255 255 255 255 255 255 255 255 255 255 255 255
255 255 255 255 255 255 255 255 255 255 255 255 255 255 255
255 255 255 255 255 255 255 255 255 255 255 255 255 255 255
255 255 255 255 255 255 255 255 255 255 255 255 255 255 255
255 255 255 255 255 255 255 255 255 255 255 255 255 255 255
255 255 255 255 255 255 255 255 255 255 255 255 255 255 255
255 255 255 255 255 255 255 255 255 255 255 255 255 255 255
255 255 255 254 254 254 254 254 254 254 254 254 254 254 254
254 254 254 253 253 253 253 253 253 253 253 253 254 254 254
253 253 253 253 253 253 253 253 253 253 253 253 254 254 254
254 254 254 255 255 255 254 254 254 255 255 255 255 255 255
255 255 255 255 255 255 255 255 255 254 254 254 253 253 253
255 255 255 255 255 255 255 255 255 255 255 255 255 255 255
255 255 255 253 253 253 252 252 252 254 254 254 254 254 254
254 254 254 254 254 254 254 254 254 253 253 253 253 253 253
253 253 253 255 255 255 255 255 255 255 255 255 255 255 255
255 255 255 255 255 255 255 255 255 255 255 255 255 255 255
255 255 255 255 255 255 255 255 255 255 255 255 255 255 255
255 255 255 255 255 255 255 255 255 255 255 255 255 255 255
255 255 255 255 255 255 255 255 255 255 255 255 255 255 255
255 255 255 255 255 255 255 255 255 255 255 255 255 255 255
255 255 255 255 255 255 255 255 255 255 255 255 255 255 255
255 255 255 255 255 255 255 255 255 255 255 255 255 255 255
255 255 255 255 255 255 255 255 255 255 255 255 255 255 255
255 255 255 255 255 255 255 255 255 255 255 255 255 255 255
255 255 255 255 255 255 255 255 255 255 255 255 255 255 255
255 255 255 255 255 255 255 255 255 255 255 255 255 255 255
255 255 255 255 255 255 255 255 255 255 255 255 255 255 255
255 255 255 255 255 255 255 255 255 255 255 255 255 255 255
255 255 255 255 255 255 255 255 255 255 255 255 255 255 255
255 255 255 255 255 255 255 255 255 255 255 255 255 255 255
255 255 255 255 255 255 255 255 255 255 255 255 255 255 255
255 255 255 255 255 255 255 255 255 255 255 255 255 255 255
255 255 255 255 255 255 255 255 255 255 255 255 255 255 255
255 255 255 255 255 255 255 255 255 255 255 255 255 255 255
255 255 255 255 255 255 255 255 255 255 255 255 255 255 255
255 255 255 255 255 255 255 255 255 255 255 255 255 255 255
255 255 255 255 255 255 255 255 255 255 255 255 255 255 255
255 255 255 255 255 255 255 255 255 255 255 255 255 255 255
255 255 255 255 255 255 255 255 255 255 255 255 255 255 255
255 255 255 255 255 255 255 255 255 255 255 255 255 255 255
255 255 255 255 255 255 255 255 255 255 255 255 255 255 255
255 255 255 255 255 255 255 255 255 255 255 255 255 255 255
255 255 255 255 255 255 255 255 255 255 255 255 255 255 255
255 255 255 255 255 255 255 255 255 255 255 255 255 255 255
255 255 255 255 255 255 255 255 255 255 255 255 255 255 255
255 255 255 255 255 255 255 255 255 255 255 255 255 255 255
255 255 255 255 255 255 255 255 255 255 255 255 255 255 255
255 255 255 255 255 255 255 255 255 255 255 255 255 255 255
255 255 255 255 255 255 255 255 255 255 255 255 255 255 255
255 255 255 255 255 255 255 255 255 255 255 255 255 255 255
255 255 255 255 255 255 255 255 255 255 255 255 255 255 255
255 255 255 255 255 255 255 255 255 255 255 255 255 255 255
255 255 255 255 255 255 255 255 255 255 255 255 255 255 255
255 255 255 255 255 255 255 255 255 255 255 255 255 255 255
255 255 255 255 255 255 255 255 255 255 255 255 255 255 255
255 255 255 255 255 255 255 255 255 255 255 255 255 255 255
255 255 255 255 255 255 255 255 255 255 255 255 255 255 255
255 255 255 255 255 255 255 255 255 255 255 255 255 255 255
255 255 255 255 255 255 255 255 255 255 255 255 255 255 255
255 255 255 255 255 255 255 255 255 255 255 255 255 255 255
255 255 255 255 255 255 255 255 255 255 255 255 255 255 255
255 255 255 255 255 255 255 255 255 255 255 255 255 255 255
255 255 255 255 255 255 255 255 255 255 255 255 255 255 255
255 255 255 255 255 255 255 255 255 255 255 255 255 255 255
255 255 255 255 255 255 255 255 255 255 255 255 255 255 255
255 255 255 255 255 255 255 255 255 255 255 255 255 255 255
255 255 255 255 255 255 255 255 255 255 255 255 255 255 255
255 255 255 255 255 255 255 255 255 255 255 255 255 255 255
255 255 255 255 255 255 255 255 255 255 255 255 255 255 255
255 255 255 255 255 255 255 255 255 255 255 255 255 255 255
255 255 255 255 255 255 255 255 255 255 255 255 255 255 255
255 255 255 255 255 255 255 255 255 255 255 255 255 255 255
255 255 255 255 255 255 255 255 255 255 255 255 255 255 255
255 255 255 255 255 255 255 255 255 255 255 255 255 255 255
255 255 255 255 255 255 255 255 255 255 255 255 255 255 255
255 255 255 255 255 255 255 255 255 255 255 255 255 255 255
255 255 255 255 255 255 255 255 255 255 255 255 255 255 255
255 255 255 255 255 255 255 255 255 255 255 255 255 255 255
255 255 255 255 255 255 255 255 255 255 255 255 255 255 255
255 255 255 255 255 255 255 255 255 255 255 255 255 255 255
255 255 255 255 255 255 255 255 255 255 255 255 255 255 255
255 255 255 255 255 255 255 255 255 255 255 255 255 255 255
255 255 255 255 255 255 255 255 255 255 255 255 255 255 255
252 252 252 253 253 253 254 254 254 255 255 255 255 255 255
255 255 255 255 255 255 254 254 254 255 255 255 255 255 255
255 255 255 254 254 254 254 254 254 254 254 254 254 254 254
254 254 254 255 255 255 255 255 255 255 255 255 254 254 254
252 252 252 253 253 253 255 255 255 255 255 255 250 250 250
251 251 251 252 252 252 253 253 253 254 254 254 254 254 254
255 255 255 255 255 255 254 254 254 254 254 254 254 254 254
254 254 254 254 254 254 254 254 254 254 254 254 254 254 254
255 255 255 255 255 255 255 255 255 255 255 255 255 255 255
255 255 255 255 255 255 255 255 255 255 255 255 255 255 255
255 255 255 255 255 255 255 255 255 255 255 255 255 255 255
255 255 255 255 255 255 255 255 255 255 255 255 255 255 255
255 255 255 255 255 255 255 255 255 255 255 255 255 255 255
255 255 255 255 255 255 255 255 255 255 255 255 255 255 255
255 255 255 255 255 255 255 255 255 255 255 255 255 255 255
255 255 255 255 255 255 255 255 255 255 255 255 255 255 255
255 255 255 255 255 255 255 255 255 255 255 255 255 255 255
255 255 255 255 255 255 255 255 255 255 255 255 255 255 255
255 255 255 255 255 255 255 255 255 255 255 255 255 255 255
255 255 255 255 255 255 255 255 255 255 255 255 255 255 255
255 255 255 255 255 255 255 255 255 255 255 255 255 255 255
255 255 255 255 255 255 255 255 255 255 255 255 255 255 255
255 255 255 255 255 255 255 255 255 255 255 255 255 255 255
255 255 255 255 255 255 255 255 255 255 255 255 255 255 255
255 255 255 255 255 255 255 255 255 255 255 255 255 255 255
255 255 255 255 255 255 255 255 255 255 255 255 255 255 255
255 255 255 255 255 255 255 255 255 255 255 255 255 255 255
255 255 255 255 255 255 255 255 255 255 255 255 255 255 255
255 255 255 255 255 255 255 255 255 255 255 255 255 255 255
255 255 255 255 255 255 255 255 255 255 255 255 255 255 255
255 255 255 255 255 255 255 255 255 255 255 255 255 255 255
255 255 255 255 255 255 255 255 255 255 255 255 255 255 255
255 255 255 255 255 255 255 255 255 255 255 255 255 255 255
255 255 255 255 255 255 255 255 255 255 255 255 255 255 255
255 255 255 255 255 255 255 255 255 255 255 255 255 255 255
255 255 255 255 255 255 255 255 255 255 255 255 255 255 255
255 255 255 255 255 255 255 255 255 255 255 255 255 255 255
255 255 255 255 255 255 255 255 255 255 255 255 255 255 255
255 255 255 255 255 255 255 255 255 255 255 255 255 255 255
255 255 255 255 255 255 255 255 255 255 255 255 255 255 255
255 255 255 255 255 255 255 255 255 255 255 255 255 255 255
255 255 255 255 255 255 255 255 255 255 255 255 255 255 255
255 255 255 255 255 255 255 255 255 255 255 255 255 255 255
255 255 255 255 255 255 255 255 255 255 255 255 255 255 255
255 255 255 255 255 255 255 255 255 255 255 255 255 255 255
255 255 255 255 255 255 255 255 255 255 255 255 255 255 255
255 255 255 255 255 255 255 255 255 255 255 255 255 255 255
255 255 255 255 255 255 255 255 255 255 255 255 255 255 255
255 255 255 255 255 255 255 255 255 255 255 255 255 255 255
255 255 255 255 255 255 255 255 255 255 255 255 255 255 255
255 255 255 255 255 255 255 255 255 255 255 255 255 255 255
255 255 255 255 255 255 255 255 255 255 255 255 255 255 255
255 255 255 255 255 255 255 255 255 255 255 255 255 255 255
255 255 255 255 255 255 255 255 255 255 255 255 255 255 255
255 255 255 255 255 255 255 255 255 255 255 255 255 255 255
255 255 255 255 255 255 255 255 255 255 255 255 255 255 255
255 255 255 255 255 255 255 255 255 255 255 255 255 255 255
255 255 255 255 255 255 255 255 255 255 255 255 255 255 255
255 255 255 255 255 255 255 255 255 255 255 255 255 255 255
255 255 255 255 255 255 255 255 255 255 255 255 255 255 255
255 255 255 255 255 255 255 255 255 255 255 255 255 255 255
255 255 255 255 255 255 255 255 255 255 255 255 255 255 255
255 255 255 255 255 255 255 255 255 255 255 255 255 255 255
255 255 255 255 255 255 255 255 255 255 255 255 255 255 255
255 255 255 255 255 255 255 255 255 255 255 255 255 255 255
255 255 255 255 255 255 255 255 255 255 255 255 255 255 255
255 255 255 255 255 255 255 255 255 255 255 255 255 255 255
255 255 255 255 255 255 255 255 255 255 255 255 255 255 255
255 255 255 255 255 255 255 255 255 255 255 255 255 255 255
255 255 255 255 255 255 255 255 255 255 255 255 255 255 255
255 255 255 255 255 255 255 255 255 255 255 255 255 255 255
255 255 255 255 255 255 255 255 255 255 255 255 255 255 255
255 255 255 255 255 255 255 255 255 255 255 255 255 255 255
255 255 255 255 255 255 255 255 255 255 255 255 255 255 255
255 255 255 255 255 255 255 255 255 255 255 255 255 255 255
255 255 255 255 255 255 255 255 255 255 255 255 255 255 255
255 255 255 255 255 255 255 255 255 255 255 255 254 254 254
255 255 255 255 255 255 255 255 255 255 255 255 255 255 255
255 255 255 255 255 255 255 255 255 255 255 255 255 255 255
255 255 255 255 255 255 255 255 255 255 255 255 255 255 255
248 248 248 248 248 248 250 250 250 253 253 253 255 255 255
255 255 255 255 255 255 255 255 255 255 255 255 255 255 255
255 255 255 255 255 255 253 253 253 254 254 254 255 255 255
255 255 255 254 254 254 255 255 255 255 255 255 255 255 255
255 255 255 255 255 255 255 255 255 255 255 255 255 255 255
255 255 255 255 255 255 255 255 255 255 255 255 255 255 255
255 255 255 255 255 255 255 255 255 255 255 255 255 255 255
255 255 255 255 255 255 255 255 255 255 255 255 255 255 255
255 255 255 255 255 255 255 255 255 255 255 255 255 255 255
255 255 255 255 255 255 255 255 255 255 255 255 255 255 255
255 255 255 255 255 255 255 255 255 255 255 255 255 255 255
255 255 255 255 255 255 255 255 255 255 255 255 255 255 255
255 255 255 255 255 255 255 255 255 255 255 255 255 255 255
255 255 255 255 255 255 255 255 255 255 255 255 255 255 255
255 255 255 255 255 255 255 255 255 255 255 255 255 255 255
255 255 255 255 255 255 255 255 255 255 255 255 255 255 255
255 255 255 255 255 255 255 255 255 255 255 255 255 255 255
255 255 255 255 255 255 255 255 255 255 255 255 255 255 255
255 255 255 255 255 255 255 255 255 255 255 255 255 255 255
255 255 255 255 255 255 255 255 255 255 255 255 255 255 255
255 255 255 255 255 255 255 255 255 255 255 255 255 255 255
255 255 255 255 255 255 255 255 255 255 255 255 255 255 255
255 255 255 255 255 255 255 255 255 255 255 255 255 255 255
255 255 255 255 255 255 255 255 255 255 255 255 255 255 255
255 255 255 255 255 255 255 255 255 255 255 255 255 255 255
255 255 255 255 255 255 255 255 255 255 255 255 255 255 255
255 255 255 255 255 255 255 255 255 255 255 255 255 255 255
255 255 255 255 255 255 255 255 255 255 255 255 255 255 255
255 255 255 255 255 255 255 255 255 255 255 255 255 255 255
255 255 255 255 255 255 255 255 255 255 255 255 255 255 255
255 255 255 255 255 255 255 255 255 255 255 255 255 255 255
255 255 255 255 255 255 255 255 255 255 255 255 255 255 255
255 255 255 255 255 255 255 255 255 255 255 255 255 255 255
255 255 255 255 255 255 255 255 255 255 255 255 255 255 255
255 255 255 255 255 255 255 255 255 255 255 255 255 255 255
255 255 255 255 255 255 255 255 255 255 255 255 255 255 255
255 255 255 255 255 255 255 255 255 255 255 255 255 255 255
255 255 255 255 255 255 255 255 255 255 255 255 255 255 255
255 255 255 255 255 255 255 255 255 255 255 255 255 255 255
255 255 255 255 255 255 255 255 255 255 255 255 255 255 255
255 255 255 255 255 255 255 255 255 255 255 255 255 255 255
255 255 255 255 255 255 255 255 255 255 255 255 255 255 255
255 255 255 255 255 255 255 255 255 255 255 255 255 255 255
255 255 255 255 255 255 255 255 255 255 255 255 255 255 255
255 255 255 255 255 255 255 255 255 255 255 255 255 255 255
255 255 255 255 255 255 255 255 255 255 255 255 255 255 255
255 255 255 255 255 255 255 255 255 255 255 255 255 255 255
255 255 255 255 255 255 255 255 255 255 255 255 255 255 255
255 255 255 255 255 255 255 255 255 255 255 255 255 255 255
255 255 255 255 255 255 255 255 255 255 255 255 255 255 255
255 255 255 255 255 255 255 255 255 255 255 255 255 255 255
255 255 255 255 255 255 255 255 255 255 255 255 255 255 255
255 255 255 255 255 255 255 255 255 255 255 255 255 255 255
255 255 255 255 255 255 255 255 255 255 255 255 255 255 255
255 255 255 255 255 255 255 255 255 255 255 255 255 255 255
255 255 255 255 255 255 255 255 255 255 255 255 255 255 255
255 255 255 255 255 255 255 255 255 255 255 255 255 255 255
255 255 255 255 255 255 255 255 255 255 255 255 255 255 255
255 255 255 255 255 255 255 255 255 255 255 255 255 255 255
255 255 255 255 255 255 255 255 255 255 255 255 255 255 255
255 255 255 255 255 255 255 255 255 255 255 255 255 255 255
255 255 255 255 255 255 255 255 255 255 255 255 255 255 255
255 255 255 255 255 255 255 255 255 255 255 255 255 255 255
255 255 255 255 255 255 255 255 255 255 255 255 255 255 255
255 255 255 255 255 255 255 255 255 255 255 255 255 255 255
255 255 255 255 255 255 255 255 255 255 255 255 255 255 255
255 255 255 255 255 255 255 255 255 255 255 255 255 255 255
255 255 255 255 255 255 255 255 255 255 255 255 255 255 255
255 255 255 255 255 255 255 255 255 255 255 255 255 255 255
255 255 255 255 255 255 255 255 255 255 255 255 255 255 255
255 255 255 255 255 255 255 255 255 255 255 255 255 255 255
255 255 255 255 255 255 255 255 255 255 255 255 255 255 255
255 255 255 255 255 255 255 255 255 255 255 255 255 255 255
255 255 255 255 255 255 255 255 255 254 254 254 255 255 255
255 255 255 255 255 255 255 255 255 254 254 254 252 252 252
250 250 250 253 253 253 253 253 253 253 253 253 253 253 253
254 254 254 255 255 255 255 255 255 255 255 255 255 255 255
255 255 255 255 255 255 255 255 255 255 255 255 255 255 255
253 253 253 249 249 249 253 253 253 255 255 255 255 255 255
255 255 255 255 255 255 252 252 252 252 252 252 252 252 252
251 251 251 251 251 251 252 252 252 253 253 253 254 254 254
255 255 255 255 255 255 255 255 255 255 255 255 255 255 255
255 255 255 255 255 255 255 255 255 255 255 255 255 255 255
255 255 255 255 255 255 255 255 255 255 255 255 255 255 255
255 255 255 255 255 255 255 255 255 255 255 255 255 255 255
255 255 255 255 255 255 255 255 255 255 255 255 255 255 255
255 255 255 255 255 255 255 255 255 255 255 255 255 255 255
255 255 255 255 255 255 255 255 255 255 255 255 255 255 255
255 255 255 255 255 255 255 255 255 255 255 255 255 255 255
255 255 255 255 255 255 255 255 255 255 255 255 255 255 255
255 255 255 255 255 255 255 255 255 255 255 255 255 255 255
255 255 255 255 255 255 255 255 255 255 255 255 255 255 255
255 255 255 255 255 255 255 255 255 255 255 255 255 255 255
255 255 255 255 255 255 255 255 255 255 255 255 255 255 255
255 255 255 255 255 255 255 255 255 255 255 255 255 255 255
255 255 255 255 255 255 255 255 255 255 255 255 255 255 255
255 255 255 255 255 255 255 255 255 255 255 255 255 255 255
255 255 255 255 255 255 255 255 255 255 255 255 255 255 255
255 255 255 255 255 255 255 255 255 255 255 255 255 255 255
255 255 255 255 255 255 255 255 255 255 255 255 255 255 255
255 255 255 255 255 255 255 255 255 255 255 255 255 255 255
255 255 255 255 255 255 255 255 255 255 255 255 255 255 255
255 255 255 255 255 255 255 255 255 255 255 255 255 255 255
255 255 255 255 255 255 255 255 255 255 255 255 255 255 255
255 255 255 255 255 255 255 255 255 255 255 255 255 255 255
255 255 255 255 255 255 255 255 255 255 255 255 255 255 255
255 255 255 255 255 255 255 255 255 255 255 255 255 255 255
255 255 255 255 255 255 255 255 255 255 255 255 255 255 255
255 255 255 255 255 255 255 255 255 255 255 255 255 255 255
255 255 255 255 255 255 255 255 255 255 255 255 255 255 255
255 255 255 255 255 255 255 255 255 255 255 255 255 255 255
255 255 255 255 255 255 255 255 255 255 255 255 255 255 255
255 255 255 255 255 255 255 255 255 255 255 255 255 255 255
255 255 255 255 255 255 255 255 255 255 255 255 255 255 255
255 255 255 255 255 255 255 255 255 255 255 255 255 255 255
255 255 255 255 255 255 255 255 255 255 255 255 255 255 255
255 255 255 255 255 255 255 255 255 255 255 255 255 255 255
255 255 255 255 255 255 255 255 255 255 255 255 255 255 255
255 255 255 255 255 255 255 255 255 255 255 255 255 255 255
255 255 255 255 255 255 255 255 255 255 255 255 255 255 255
255 255 255 255 255 255 255 255 255 255 255 255 255 255 255
255 255 255 255 255 255 255 255 255 255 255 255 255 255 255
255 255 255 255 255 255 255 255 255 255 255 255 255 255 255
255 255 255 255 255 255 255 255 255 255 255 255 255 255 255
255 255 255 255 255 255 255 255 255 255 255 255 255 255 255
255 255 255 255 255 255 255 255 255 255 255 255 255 255 255
255 255 255 255 255 255 255 255 255 255 255 255 255 255 255
255 255 255 255 255 255 255 255 255 255 255 255 255 255 255
255 255 255 255 255 255 255 255 255 255 255 255 255 255 255
255 255 255 255 255 255 255 255 255 255 255 255 255 255 255
255 255 255 255 255 255 255 255 255 255 255 255 255 255 255
255 255 255 255 255 255 255 255 255 255 255 255 255 255 255
255 255 255 255 255 255 255 255 255 255 255 255 255 255 255
255 255 255 255 255 255 255 255 255 255 255 255 255 255 255
255 255 255 255 255 255 255 255 255 255 255 255 255 255 255
255 255 255 255 255 255 255 255 255 255 255 255 255 255 255
255 255 255 255 255 255 255 255 255 255 255 255 255 255 255
255 255 255 255 255 255 255 255 255 255 255 255 255 255 255
255 255 255 255 255 255 255 255 255 255 255 255 255 255 255
255 255 255 255 255 255 255 255 255 255 255 255 255 255 255
255 255 255 255 255 255 255 255 255 255 255 255 255 255 255
255 255 255 255 255 255 255 255 255 255 255 255 255 255 255
255 255 255 255 255 255 255 255 255 255 255 255 255 255 255
255 255 255 255 255 255 255 255 255 255 255 255 255 255 255
255 255 255 255 255 255 255 255 255 255 255 255 255 255 255
255 255 255 255 255 255 255 255 255 255 255 255 255 255 255
255 255 255 255 255 255 255 255 255 255 255 255 255 255 255
255 255 255 255 255 255 255 255 255 255 255 255 255 255 255
255 255 255 255 255 255 255 255 255 255 255 255 255 255 255
255 255 255 255 255 255 255 255 255 255 255 255 255 255 255
255 255 255 255 255 255 253 253 251 253 253 251 254 254 252
253 253 253 252 250 251 249 247 248 247 245 246 245 243 246
247 245 248 248 246 249 248 246 249 249 249 251 251 251 253
253 253 253 254 254 255 255 255 255 212 212 214 189 189 191
159 157 160 136 136 138 130 128 131 132 132 134 138 136 139
139 139 139 156 154 157 171 171 171 197 195 198 219 219 219
238 236 239 247 247 247 254 252 255 255 255 255 246 246 246
247 247 247 248 248 248 249 249 249 250 250 250 251 251 251
252 252 252 253 253 253 255 255 255 255 255 255 255 255 255
255 255 255 255 255 255 255 255 255 255 255 255 255 255 255
255 255 255 255 255 255 255 255 255 255 255 255 255 255 255
255 255 255 255 255 255 255 255 255 255 255 255 255 255 255
255 255 255 255 255 255 255 255 255 255 255 255 255 255 255
255 255 255 255 255 255 255 255 255 255 255 255 255 255 255
255 255 255 255 255 255 255 255 255 255 255 255 255 255 255
255 255 255 255 255 255 255 255 255 255 255 255 255 255 255
255 255 255 255 255 255 255 255 255 255 255 255 255 255 255
255 255 255 255 255 255 255 255 255 255 255 255 255 255 255
255 255 255 255 255 255 255 255 255 255 255 255 255 255 255
255 255 255 255 255 255 255 255 255 255 255 255 255 255 255
255 255 255 255 255 255 255 255 255 255 255 255 255 255 255
255 255 255 255 255 255 255 255 255 255 255 255 255 255 255
255 255 255 255 255 255 255 255 255 255 255 255 255 255 255
255 255 255 255 255 255 255 255 255 255 255 255 255 255 255
255 255 255 255 255 255 255 255 255 255 255 255 255 255 255
255 255 255 255 255 255 255 255 255 255 255 255 255 255 255
255 255 255 255 255 255 255 255 255 255 255 255 255 255 255
255 255 255 255 255 255 255 255 255 255 255 255 255 255 255
255 255 255 255 255 255 255 255 255 255 255 255 255 255 255
255 255 255 255 255 255 255 255 255 255 255 255 255 255 255
255 255 255 255 255 255 255 255 255 255 255 255 255 255 255
255 255 255 255 255 255 255 255 255 255 255 255 255 255 255
255 255 255 255 255 255 255 255 255 255 255 255 255 255 255
255 255 255 255 255 255 255 255 255 255 255 255 255 255 255
255 255 255 255 255 255 255 255 255 255 255 255 255 255 255
255 255 255 255 255 255 255 255 255 255 255 255 255 255 255
255 255 255 255 255 255 255 255 255 255 255 255 255 255 255
255 255 255 255 255 255 255 255 255 255 255 255 255 255 255
255 255 255 255 255 255 255 255 255 255 255 255 255 255 255
255 255 255 255 255 255 255 255 255 255 255 255 255 255 255
255 255 255 255 255 255 255 255 255 255 255 255 255 255 255
255 255 255 255 255 255 255 255 255 255 255 255 255 255 255
255 255 255 255 255 255 255 255 255 255 255 255 255 255 255
255 255 255 255 255 255 255 255 255 255 255 255 255 255 255
255 255 255 255 255 255 255 255 255 255 255 255 255 255 255
255 255 255 255 255 255 255 255 255 255 255 255 255 255 255
255 255 255 255 255 255 255 255 255 255 255 255 255 255 255
255 255 255 255 255 255 255 255 255 255 255 255 255 255 255
255 255 255 255 255 255 255 255 255 255 255 255 255 255 255
255 255 255 255 255 255 255 255 255 255 255 255 255 255 255
255 255 255 255 255 255 255 255 255 255 255 255 255 255 255
255 255 255 255 255 255 255 255 255 255 255 255 255 255 255
255 255 255 255 255 255 255 255 255 255 255 255 255 255 255
255 255 255 255 255 255 255 255 255 255 255 255 255 255 255
255 255 255 255 255 255 255 255 255 255 255 255 255 255 255
255 255 255 255 255 255 255 255 255 255 255 255 255 255 255
255 255 255 255 255 255 255 255 255 255 255 255 255 255 255
255 255 255 255 255 255 255 255 255 255 255 255 255 255 255
255 255 255 255 255 255 255 255 255 255 255 255 255 255 255
255 255 255 255 255 255 255 255 255 255 255 255 255 255 255
255 255 255 255 255 255 255 255 255 255 255 255 255 255 255
255 255 255 255 255 255 255 255 255 255 255 255 255 255 255
255 255 255 255 255 255 255 255 255 255 255 255 255 255 255
255 255 255 255 255 255 255 255 255 255 255 255 255 255 255
255 255 255 255 255 255 255 255 255 255 255 255 255 255 255
255 255 255 255 255 255 255 255 255 255 255 255 255 255 255
255 255 255 255 255 255 255 255 255 255 255 255 255 255 255
255 255 255 255 255 255 255 255 255 255 255 255 255 255 255
255 255 255 255 255 255 255 255 255 255 255 255 255 255 255
255 255 255 255 255 255 255 255 255 255 255 255 255 255 255
255 255 255 255 255 255 255 255 255 255 255 255 255 255 255
255 255 255 255 255 255 255 255 255 255 255 255 255 255 255
255 255 255 255 255 255 255 255 255 255 255 255 255 255 255
255 255 255 255 255 255 255 255 255 255 255 255 255 255 255
255 255 255 255 255 255 255 255 255 254 254 254 254 254 254
255 255 255 255 255 255 255 255 255 255 255 255 255 255 255
255 255 255 255 255 255 255 255 255 254 254 254 254 254 254
254 254 252 254 255 251 255 255 251 249 250 245 246 245 243
251 247 248 255 253 254 255 251 255 251 244 251 255 251 255
243 238 244 235 230 236 244 242 247 252 251 255 224 225 227
158 159 163 99 100 104 101 99 104 131 129 134 140 135 141 139 137 142
156 151 157 152 150 155 143 138 144 148 146 149 151 146 152
146 144 147 139 134 140 112 110 113 90 85 91 98 96 99 149 144 150
195 193 196 236 234 235 242 240 241 247 245 246 248 246 247
244 242 243 241 239 240 244 242 243 248 246 247 251 249 250
253 251 252 255 254 255 255 254 255 255 254 255 255 254 255
255 253 254 254 252 253 254 254 254 254 254 254 254 254 254
254 254 254 254 254 254 254 254 254 254 254 254 254 254 254
255 255 255 255 255 255 255 255 255 255 255 255 255 255 255
255 255 255 255 255 255 255 255 255 255 255 255 255 255 255
255 255 255 255 255 255 255 255 255 255 255 255 255 255 255
255 255 255 255 255 255 255 255 255 255 255 255 255 255 255
255 255 255 255 255 255 255 255 255 255 255 255 255 255 255
255 255 255 255 255 255 255 255 255 255 255 255 255 255 255
255 255 255 255 255 255 255 255 255 255 255 255 255 255 255
255 255 255 255 255 255 255 255 255 255 255 255 255 255 255
255 255 255 255 255 255 255 255 255 255 255 255 255 255 255
255 255 255 255 255 255 255 255 255 255 255 255 255 255 255
255 255 255 255 255 255 255 255 255 255 255 255 255 255 255
255 255 255 255 255 255 255 255 255 255 255 255 255 255 255
255 255 255 255 255 255 255 255 255 255 255 255 255 255 255
255 255 255 255 255 255 255 255 255 255 255 255 255 255 255
255 255 255 255 255 255 255 255 255 255 255 255 255 255 255
255 255 255 255 255 255 255 255 255 255 255 255 255 255 255
255 255 255 255 255 255 255 255 255 255 255 255 255 255 255
255 255 255 255 255 255 255 255 255 255 255 255 255 255 255
255 255 255 255 255 255 255 255 255 255 255 255 255 255 255
255 255 255 255 255 255 255 255 255 255 255 255 255 255 255
255 255 255 255 255 255 255 255 255 255 255 255 255 255 255
255 255 255 255 255 255 255 255 255 255 255 255 255 255 255
255 255 255 255 255 255 255 255 255 255 255 255 255 255 255
255 255 255 255 255 255 255 255 255 255 255 255 255 255 255
255 255 255 255 255 255 255 255 255 255 255 255 255 255 255
255 255 255 255 255 255 255 255 255 255 255 255 255 255 255
255 255 255 255 255 255 255 255 255 255 255 255 255 255 255
255 255 255 255 255 255 255 255 255 255 255 255 255 255 255
255 255 255 255 255 255 255 255 255 255 255 255 255 255 255
255 255 255 255 255 255 255 255 255 255 255 255 255 255 255
255 255 255 255 255 255 255 255 255 255 255 255 255 255 255
255 255 255 255 255 255 255 255 255 255 255 255 255 255 255
255 255 255 255 255 255 255 255 255 255 255 255 255 255 255
255 255 255 255 255 255 255 255 255 255 255 255 255 255 255
255 255 255 255 255 255 255 255 255 255 255 255 255 255 255
255 255 255 255 255 255 255 255 255 255 255 255 255 255 255
255 255 255 255 255 255 255 255 255 255 255 255 255 255 255
255 255 255 255 255 255 255 255 255 255 255 255 255 255 255
255 255 255 255 255 255 255 255 255 255 255 255 255 255 255
255 255 255 255 255 255 255 255 255 255 255 255 255 255 255
255 255 255 255 255 255 255 255 255 255 255 255 255 255 255
255 255 255 255 255 255 255 255 255 255 255 255 255 255 255
255 255 255 255 255 255 255 255 255 255 255 255 255 255 255
255 255 255 255 255 255 255 255 255 255 255 255 255 255 255
255 255 255 255 255 255 255 255 255 255 255 255 255 255 255
255 255 255 255 255 255 255 255 255 255 255 255 255 255 255
255 255 255 255 255 255 255 255 255 255 255 255 255 255 255
255 255 255 255 255 255 255 255 255 255 255 255 255 255 255
255 255 255 255 255 255 255 255 255 255 255 255 255 255 255
255 255 255 255 255 255 255 255 255 255 255 255 255 255 255
255 255 255 255 255 255 255 255 255 255 255 255 255 255 255
255 255 255 255 255 255 255 255 255 255 255 255 255 255 255
255 255 255 255 255 255 255 255 255 255 255 255 255 255 255
255 255 255 255 255 255 255 255 255 255 255 255 255 255 255
255 255 255 255 255 255 255 255 255 255 255 255 255 255 255
255 255 255 255 255 255 255 255 255 255 255 255 255 255 255
255 255 255 255 255 255 255 255 255 255 255 255 255 255 255
255 255 255 255 255 255 255 255 255 255 255 255 255 255 255
255 255 255 255 255 255 255 255 255 255 255 255 255 255 255
255 255 255 255 255 255 255 255 255 255 255 255 255 255 255
255 255 255 255 255 255 255 255 255 255 255 255 255 255 255
255 255 255 255 255 255 255 255 255 255 255 255 255 255 255
255 255 255 255 255 255 255 255 255 255 255 255 254 254 254
254 254 254 254 254 254 254 254 254 255 255 255 255 255 255
254 254 254 254 254 254 254 254 254 254 254 254 254 254 254
254 254 254 254 254 254 254 254 252 255 255 251 254 255 249
252 251 247 254 253 251 255 251 253 252 246 250 251 241 249
251 241 250 249 242 250 249 242 250 248 242 252 219 216 223
151 150 156 91 92 97 94 95 100 131 132 137 172 169 176 197 192 199
209 203 213 208 203 210 218 213 220 232 227 234 228 223 230
213 208 214 178 173 179 144 139 145 145 140 146 195 190 196
203 198 204 173 168 174 153 148 154 122 117 121 98 96 97 134 132 133
184 182 183 227 225 226 253 251 252 255 254 255 255 253 254
245 243 244 248 246 247 250 248 249 253 251 252 255 253 254
255 254 255 255 254 255 255 254 255 255 253 254 254 254 254
254 254 254 254 254 254 254 254 254 254 254 254 254 254 254
254 254 254 254 254 254 255 255 255 255 255 255 255 255 255
255 255 255 255 255 255 255 255 255 255 255 255 255 255 255
255 255 255 255 255 255 255 255 255 255 255 255 255 255 255
255 255 255 255 255 255 255 255 255 255 255 255 255 255 255
255 255 255 255 255 255 255 255 255 255 255 255 255 255 255
255 255 255 255 255 255 255 255 255 255 255 255 255 255 255
255 255 255 255 255 255 255 255 255 255 255 255 255 255 255
255 255 255 255 255 255 255 255 255 255 255 255 255 255 255
255 255 255 255 255 255 255 255 255 255 255 255 255 255 255
255 255 255 255 255 255 255 255 255 255 255 255 255 255 255
255 255 255 255 255 255 255 255 255 255 255 255 255 255 255
255 255 255 255 255 255 255 255 255 255 255 255 255 255 255
255 255 255 255 255 255 255 255 255 255 255 255 255 255 255
255 255 255 255 255 255 255 255 255 255 255 255 255 255 255
255 255 255 255 255 255 255 255 255 255 255 255 255 255 255
255 255 255 255 255 255 255 255 255 255 255 255 255 255 255
255 255 255 255 255 255 255 255 255 255 255 255 255 255 255
255 255 255 255 255 255 255 255 255 255 255 255 255 255 255
255 255 255 255 255 255 255 255 255 255 255 255 255 255 255
255 255 255 255 255 255 255 255 255 255 255 255 255 255 255
255 255 255 255 255 255 255 255 255 255 255 255 255 255 255
255 255 255 255 255 255 255 255 255 255 255 255 255 255 255
255 255 255 255 255 255 255 255 255 255 255 255 255 255 255
255 255 255 255 255 255 255 255 255 255 255 255 255 255 255
255 255 255 255 255 255 255 255 255 255 255 255 255 255 255
255 255 255 255 255 255 255 255 255 255 255 255 255 255 255
255 255 255 255 255 255 255 255 255 255 255 255 255 255 255
255 255 255 255 255 255 255 255 255 255 255 255 255 255 255
255 255 255 255 255 255 255 255 255 255 255 255 255 255 255
255 255 255 255 255 255 255 255 255 255 255 255 255 255 255
255 255 255 255 255 255 255 255 255 255 255 255 255 255 255
255 255 255 255 255 255 255 255 255 255 255 255 255 255 255
255 255 255 255 255 255 255 255 255 255 255 255 255 255 255
255 255 255 255 255 255 255 255 255 255 255 255 255 255 255
255 255 255 255 255 255 255 255 255 255 255 255 255 255 255
255 255 255 255 255 255 255 255 255 255 255 255 255 255 255
255 255 255 255 255 255 255 255 255 255 255 255 255 255 255
255 255 255 255 255 255 255 255 255 255 255 255 255 255 255
255 255 255 255 255 255 255 255 255 255 255 255 255 255 255
255 255 255 255 255 255 255 255 255 255 255 255 255 255 255
255 255 255 255 255 255 255 255 255 255 255 255 255 255 255
255 255 255 255 255 255 255 255 255 255 255 255 255 255 255
255 255 255 255 255 255 255 255 255 255 255 255 255 255 255
255 255 255 255 255 255 255 255 255 255 255 255 255 255 255
255 255 255 255 255 255 255 255 255 255 255 255 255 255 255
255 255 255 255 255 255 255 255 255 255 255 255 255 255 255
255 255 255 255 255 255 255 255 255 255 255 255 255 255 255
255 255 255 255 255 255 255 255 255 255 255 255 255 255 255
255 255 255 255 255 255 255 255 255 255 255 255 255 255 255
255 255 255 255 255 255 255 255 255 255 255 255 255 255 255
255 255 255 255 255 255 255 255 255 255 255 255 255 255 255
255 255 255 255 255 255 255 255 255 255 255 255 255 255 255
255 255 255 255 255 255 255 255 255 255 255 255 255 255 255
255 255 255 255 255 255 255 255 255 255 255 255 255 255 255
255 255 255 255 255 255 255 255 255 255 255 255 255 255 255
255 255 255 255 255 255 255 255 255 255 255 255 255 255 255
255 255 255 255 255 255 255 255 255 255 255 255 255 255 255
255 255 255 255 255 255 255 255 255 255 255 255 255 255 255
255 255 255 255 255 255 255 255 255 255 255 255 255 255 255
255 255 255 255 255 255 255 255 255 255 255 255 255 255 255
255 255 255 255 255 255 255 255 255 255 255 255 255 255 255
255 255 255 255 255 255 255 255 255 255 255 255 255 255 255
255 255 255 255 255 255 255 255 255 255 255 255 255 254 255
255 254 255 255 253 254 255 253 254 255 253 254 255 253 254
255 254 255 255 254 255 255 253 254 255 253 254 255 253 254
255 253 254 255 253 254 255 253 254 255 253 254 254 254 252
247 248 243 254 255 249 255 255 251 250 249 247 246 240 242
248 242 246 255 248 255 255 251 255 255 251 255 221 213 224
152 146 158 98 95 104 103 102 110 149 149 157 188 188 196 199 199 207
217 214 223 224 221 230 231 228 239 230 227 236 234 231 240
243 240 247 222 219 226 179 176 183 152 149 156 169 166 173
199 197 202 238 236 241 245 243 248 249 247 252 238 236 239
175 173 176 59 57 58 125 123 124 201 199 200 242 240 241 252 250 251
254 252 253 253 251 252 250 248 249 245 243 244 247 245 246
250 248 249 253 251 252 255 253 254 255 254 255 255 254 255
255 254 255 254 254 254 254 254 254 254 254 254 254 254 254
254 254 254 254 254 254 254 254 254 254 254 254 255 255 255
255 255 255 255 255 255 255 255 255 255 255 255 255 255 255
255 255 255 255 255 255 255 255 255 255 255 255 255 255 255
255 255 255 255 255 255 255 255 255 255 255 255 255 255 255
255 255 255 255 255 255 255 255 255 255 255 255 255 255 255
255 255 255 255 255 255 255 255 255 255 255 255 255 255 255
255 255 255 255 255 255 255 255 255 255 255 255 255 255 255
255 255 255 255 255 255 255 255 255 255 255 255 255 255 255
255 255 255 255 255 255 255 255 255 255 255 255 255 255 255
255 255 255 255 255 255 255 255 255 255 255 255 255 255 255
255 255 255 255 255 255 255 255 255 255 255 255 255 255 255
255 255 255 255 255 255 255 255 255 255 255 255 255 255 255
255 255 255 255 255 255 255 255 255 255 255 255 255 255 255
255 255 255 255 255 255 255 255 255 255 255 255 255 255 255
255 255 255 255 255 255 255 255 255 255 255 255 255 255 255
255 255 255 255 255 255 255 255 255 255 255 255 255 255 255
255 255 255 255 255 255 255 255 255 255 255 255 255 255 255
255 255 255 255 255 255 255 255 255 255 255 255 255 255 255
255 255 255 255 255 255 255 255 255 255 255 255 255 255 255
255 255 255 255 255 255 255 255 255 255 255 255 255 255 255
255 255 255 255 255 255 255 255 255 255 255 255 255 255 255
255 255 255 255 255 255 255 255 255 255 255 255 255 255 255
255 255 255 255 255 255 255 255 255 255 255 255 255 255 255
255 255 255 255 255 255 255 255 255 255 255 255 255 255 255
255 255 255 255 255 255 255 255 255 255 255 255 255 255 255
255 255 255 255 255 255 255 255 255 255 255 255 255 255 255
255 255 255 255 255 255 255 255 255 255 255 255 255 255 255
255 255 255 255 255 255 255 255 255 255 255 255 255 255 255
255 255 255 255 255 255 255 255 255 255 255 255 255 255 255
255 255 255 255 255 255 255 255 255 255 255 255 255 255 255
255 255 255 255 255 255 255 255 255 255 255 255 255 255 255
255 255 255 255 255 255 255 255 255 255 255 255 255 255 255
255 255 255 255 255 255 255 255 255 255 255 255 255 255 255
255 255 255 255 255 255 255 255 255 255 255 255 255 255 255
255 255 255 255 255 255 255 255 255 255 255 255 255 255 255
255 255 255 255 255 255 255 255 255 255 255 255 255 255 255
255 255 255 255 255 255 255 255 255 255 255 255 255 255 255
255 255 255 255 255 255 255 255 255 255 255 255 255 255 255
255 255 255 255 255 255 255 255 255 255 255 255 255 255 255
255 255 255 255 255 255 255 255 255 255 255 255 255 255 255
255 255 255 255 255 255 255 255 255 255 255 255 255 255 255
255 255 255 255 255 255 255 255 255 255 255 255 255 255 255
255 255 255 255 255 255 255 255 255 255 255 255 255 255 255
255 255 255 255 255 255 255 255 255 255 255 255 255 255 255
255 255 255 255 255 255 255 255 255 255 255 255 255 255 255
255 255 255 255 255 255 255 255 255 255 255 255 255 255 255
255 255 255 255 255 255 255 255 255 255 255 255 255 255 255
255 255 255 255 255 255 255 255 255 255 255 255 255 255 255
255 255 255 255 255 255 255 255 255 255 255 255 255 255 255
255 255 255 255 255 255 255 255 255 255 255 255 255 255 255
255 255 255 255 255 255 255 255 255 255 255 255 255 255 255
255 255 255 255 255 255 255 255 255 255 255 255 255 255 255
255 255 255 255 255 255 255 255 255 255 255 255 255 255 255
255 255 255 255 255 255 255 255 255 255 255 255 255 255 255
255 255 255 255 255 255 255 255 255 255 255 255 255 255 255
255 255 255 255 255 255 255 255 255 255 255 255 255 255 255
255 255 255 255 255 255 255 255 255 255 255 255 255 255 255
255 255 255 255 255 255 255 255 255 255 255 255 255 255 255
255 255 255 255 255 255 255 255 255 255 255 255 255 255 255
255 255 255 255 255 255 255 255 255 255 255 255 255 255 255
255 255 255 255 255 255 255 255 255 255 255 255 255 255 255
255 255 255 255 255 255 255 255 255 255 255 255 255 255 255
255 255 255 255 255 255 255 255 255 255 255 255 255 255 255
255 255 255 255 254 255 255 253 254 255 253 254 255 253 254
255 253 254 255 253 254 255 253 254 255 254 255 255 253 254
255 253 254 255 253 254 255 253 254 255 254 255 255 254 255
255 254 255 255 255 253 255 255 251 253 254 248 238 237 233
227 223 222 240 234 238 255 252 255 254 244 253 228 218 229
156 145 159 126 115 131 114 106 121 148 142 156 200 196 210
230 228 241 232 230 241 225 223 234 212 210 223 212 208 222
214 210 224 227 224 235 239 236 247 222 219 228 178 175 184
144 141 148 132 129 136 202 199 206 255 254 255 249 247 252
238 236 241 248 246 249 215 213 216 157 155 158 96 94 95 163 161 162
230 228 229 251 249 250 245 243 244 246 244 245 254 252 253
255 254 255 246 244 245 248 246 247 250 248 249 253 251 252
255 253 254 255 254 255 255 254 255 255 254 255 254 254 254
254 254 254 254 254 254 254 254 254 254 254 254 254 254 254
254 254 254 254 254 254 255 255 255 255 255 255 255 255 255
255 255 255 255 255 255 255 255 255 255 255 255 255 255 255
255 255 255 255 255 255 255 255 255 255 255 255 255 255 255
255 255 255 255 255 255 255 255 255 255 255 255 255 255 255
255 255 255 255 255 255 255 255 255 255 255 255 255 255 255
255 255 255 255 255 255 255 255 255 255 255 255 255 255 255
255 255 255 255 255 255 255 255 255 255 255 255 255 255 255
255 255 255 255 255 255 255 255 255 255 255 255 255 255 255
255 255 255 255 255 255 255 255 255 255 255 255 255 255 255
255 255 255 255 255 255 255 255 255 255 255 255 255 255 255
255 255 255 255 255 255 255 255 255 255 255 255 255 255 255
255 255 255 255 255 255 255 255 255 255 255 255 255 255 255
255 255 255 255 255 255 255 255 255 255 255 255 255 255 255
255 255 255 255 255 255 255 255 255 255 255 255 255 255 255
255 255 255 255 255 255 255 255 255 255 255 255 255 255 255
255 255 255 255 255 255 255 255 255 255 255 255 255 255 255
255 255 255 255 255 255 255 255 255 255 255 255 255 255 255
255 255 255 255 255 255 255 255 255 255 255 255 255 255 255
255 255 255 255 255 255 255 255 255 255 255 255 255 255 255
255 255 255 255 255 255 255 255 255 255 255 255 255 255 255
255 255 255 255 255 255 255 255 255 255 255 255 255 255 255
255 255 255 255 255 255 255 255 255 255 255 255 255 255 255
255 255 255 255 255 255 255 255 255 255 255 255 255 255 255
255 255 255 255 255 255 255 255 255 255 255 255 255 255 255
255 255 255 255 255 255 255 255 255 255 255 255 255 255 255
255 255 255 255 255 255 255 255 255 255 255 255 255 255 255
255 255 255 255 255 255 255 255 255 255 255 255 255 255 255
255 255 255 255 255 255 255 255 255 255 255 255 255 255 255
255 255 255 255 255 255 255 255 255 255 255 255 255 255 255
255 255 255 255 255 255 255 255 255 255 255 255 255 255 255
255 255 255 255 255 255 255 255 255 255 255 255 255 255 255
255 255 255 255 255 255 255 255 255 255 255 255 255 255 255
255 255 255 255 255 255 255 255 255 255 255 255 255 255 255
255 255 255 255 255 255 255 255 255 255 255 255 255 255 255
255 255 255 255 255 255 255 255 255 255 255 255 255 255 255
255 255 255 255 255 255 255 255 255 255 255 255 255 255 255
255 255 255 255 255 255 255 255 255 255 255 255 255 255 255
255 255 255 255 255 255 255 255 255 255 255 255 255 255 255
255 255 255 255 255 255 255 255 255 255 255 255 255 255 255
255 255 255 255 255 255 255 255 255 255 255 255 255 255 255
255 255 255 255 255 255 255 255 255 255 255 255 255 255 255
255 255 255 255 255 255 255 255 255 255 255 255 255 255 255
255 255 255 255 255 255 255 255 255 255 255 255 255 255 255
255 255 255 255 255 255 255 255 255 255 255 255 255 255 255
255 255 255 255 255 255 255 255 255 255 255 255 255 255 255
255 255 255 255 255 255 255 255 255 255 255 255 255 255 255
255 255 255 255 255 255 255 255 255 255 255 255 255 255 255
255 255 255 255 255 255 255 255 255 255 255 255 255 255 255
255 255 255 255 255 255 255 255 255 255 255 255 255 255 255
255 255 255 255 255 255 255 255 255 255 255 255 255 255 255
255 255 255 255 255 255 255 255 255 255 255 255 255 255 255
255 255 255 255 255 255 255 255 255 255 255 255 255 255 255
255 255 255 255 255 255 255 255 255 255 255 255 255 255 255
255 255 255 255 255 255 255 255 255 255 255 255 255 255 255
255 255 255 255 255 255 255 255 255 255 255 255 255 255 255
255 255 255 255 255 255 255 255 255 255 255 255 255 255 255
255 255 255 255 255 255 255 255 255 255 255 255 255 255 255
255 255 255 255 255 255 255 255 255 255 255 255 255 255 255
255 255 255 255 255 255 255 255 255 255 255 255 255 255 255
255 255 255 255 255 255 255 255 255 255 255 255 255 255 255
255 255 255 255 255 255 255 255 255 255 255 255 255 255 255
255 255 255 255 255 255 255 255 255 255 255 255 255 255 255
255 255 255 255 255 255 255 255 255 255 255 255 255 253 254
255 253 254 255 253 254 254 252 253 254 252 253 255 253 254
255 253 254 255 253 254 255 254 255 255 254 255 255 254 255
255 254 255 255 254 255 255 254 255 255 254 255 255 255 253
253 252 248 247 246 242 243 239 238 249 245 244 255 250 254
235 228 235 178 168 179 123 112 126 114 103 119 148 137 154
196 187 204 231 224 240 236 229 245 219 215 230 212 208 223
215 213 227 221 219 233 225 223 237 221 219 233 232 230 243
233 231 244 183 181 192 142 140 151 155 154 162 204 203 209
221 220 226 255 254 255 245 244 249 246 246 248 215 215 217
118 118 120 90 90 90 162 160 161 202 200 201 239 237 238 251 249 250
253 251 252 255 254 255 254 252 253 244 242 243 250 248 249
251 249 250 253 251 252 254 252 253 255 253 254 255 254 255
255 254 255 255 253 254 254 254 254 254 254 254 254 254 254
254 254 254 254 254 254 254 254 254 254 254 254 254 254 254
255 255 255 255 255 255 255 255 255 255 255 255 255 255 255
255 255 255 255 255 255 255 255 255 255 255 255 255 255 255
255 255 255 255 255 255 255 255 255 255 255 255 255 255 255
255 255 255 255 255 255 255 255 255 255 255 255 255 255 255
255 255 255 255 255 255 255 255 255 255 255 255 255 255 255
255 255 255 255 255 255 255 255 255 255 255 255 255 255 255
255 255 255 255 255 255 255 255 255 255 255 255 255 255 255
255 255 255 255 255 255 255 255 255 255 255 255 255 255 255
255 255 255 255 255 255 255 255 255 255 255 255 255 255 255
255 255 255 255 255 255 255 255 255 255 255 255 255 255 255
255 255 255 255 255 255 255 255 255 255 255 255 255 255 255
255 255 255 255 255 255 255 255 255 255 255 255 255 255 255
255 255 255 255 255 255 255 255 255 255 255 255 255 255 255
255 255 255 255 255 255 255 255 255 255 255 255 255 255 255
255 255 255 255 255 255 255 255 255 255 255 255 255 255 255
255 255 255 255 255 255 255 255 255 255 255 255 255 255 255
255 255 255 255 255 255 255 255 255 255 255 255 255 255 255
255 255 255 255 255 255 255 255 255 255 255 255 255 255 255
255 255 255 255 255 255 255 255 255 255 255 255 255 255 255
255 255 255 255 255 255 255 255 255 255 255 255 255 255 255
255 255 255 255 255 255 255 255 255 255 255 255 255 255 255
255 255 255 255 255 255 255 255 255 255 255 255 255 255 255
255 255 255 255 255 255 255 255 255 255 255 255 255 255 255
255 255 255 255 255 255 255 255 255 255 255 255 255 255 255
255 255 255 255 255 255 255 255 255 255 255 255 255 255 255
255 255 255 255 255 255 255 255 255 255 255 255 255 255 255
255 255 255 255 255 255 255 255 255 255 255 255 255 255 255
255 255 255 255 255 255 255 255 255 255 255 255 255 255 255
255 255 255 255 255 255 255 255 255 255 255 255 255 255 255
255 255 255 255 255 255 255 255 255 255 255 255 255 255 255
255 255 255 255 255 255 255 255 255 255 255 255 255 255 255
255 255 255 255 255 255 255 255 255 255 255 255 255 255 255
255 255 255 255 255 255 255 255 255 255 255 255 255 255 255
255 255 255 255 255 255 255 255 255 255 255 255 255 255 255
255 255 255 255 255 255 255 255 255 255 255 255 255 255 255
255 255 255 255 255 255 255 255 255 255 255 255 255 255 255
255 255 255 255 255 255 255 255 255 255 255 255 255 255 255
255 255 255 255 255 255 255 255 255 255 255 255 255 255 255
255 255 255 255 255 255 255 255 255 255 255 255 255 255 255
255 255 255 255 255 255 255 255 255 255 255 255 255 255 255
255 255 255 255 255 255 255 255 255 255 255 255 255 255 255
255 255 255 255 255 255 255 255 255 255 255 255 255 255 255
255 255 255 255 255 255 255 255 255 255 255 255 255 255 255
255 255 255 255 255 255 255 255 255 255 255 255 255 255 255
255 255 255 255 255 255 255 255 255 255 255 255 255 255 255
255 255 255 255 255 255 255 255 255 255 255 255 255 255 255
255 255 255 255 255 255 255 255 255 255 255 255 255 255 255
255 255 255 255 255 255 255 255 255 255 255 255 255 255 255
255 255 255 255 255 255 255 255 255 255 255 255 255 255 255
255 255 255 255 255 255 255 255 255 255 255 255 255 255 255
255 255 255 255 255 255 255 255 255 255 255 255 255 255 255
255 255 255 255 255 255 255 255 255 255 255 255 255 255 255
255 255 255 255 255 255 255 255 255 255 255 255 255 255 255
255 255 255 255 255 255 255 255 255 255 255 255 255 255 255
255 255 255 255 255 255 255 255 255 255 255 255 255 255 255
255 255 255 255 255 255 255 255 255 255 255 255 255 255 255
255 255 255 255 255 255 255 255 255 255 255 255 255 255 255
255 255 255 255 255 255 255 255 255 255 255 255 255 255 255
255 255 255 255 255 255 255 255 255 255 255 255 255 255 255
255 255 255 255 255 255 255 255 255 255 255 255 255 255 255
255 255 255 255 255 255 255 255 255 255 255 255 255 255 255
255 255 255 255 255 255 255 255 255 255 255 255 255 255 255
255 255 255 255 255 255 255 253 254 255 253 254 254 252 253
254 252 253 254 252 253 254 252 253 255 253 254 255 253 254
255 254 255 255 254 255 255 254 255 255 254 255 255 254 255
255 253 254 255 253 254 255 253 254 249 248 246 255 254 252
255 254 253 243 239 240 188 181 188 130 123 131 115 107 120
132 121 137 208 197 214 230 218 238 232 223 242 213 204 223
207 199 220 223 216 234 231 223 244 222 218 235 228 225 244
236 233 250 230 227 244 218 216 230 190 188 202 143 141 154
141 139 152 190 188 199 255 254 255 240 239 245 251 250 255
238 237 242 226 226 228 181 181 181 112 112 112 131 131 131
228 226 227 246 244 245 255 254 255 253 251 252 247 245 246
249 247 248 250 248 249 245 243 244 254 252 253 254 252 253
255 253 254 255 254 255 255 254 255 255 254 255 255 254 255
255 253 254 254 254 254 254 254 254 254 254 254 254 254 254
254 254 254 254 254 254 254 254 254 254 254 254 255 255 255
255 255 255 255 255 255 255 255 255 255 255 255 255 255 255
255 255 255 255 255 255 255 255 255 255 255 255 255 255 255
255 255 255 255 255 255 255 255 255 255 255 255 255 255 255
255 255 255 255 255 255 255 255 255 255 255 255 255 255 255
255 255 255 255 255 255 255 255 255 255 255 255 255 255 255
255 255 255 255 255 255 255 255 255 255 255 255 255 255 255
255 255 255 255 255 255 255 255 255 255 255 255 255 255 255
255 255 255 255 255 255 255 255 255 255 255 255 255 255 255
255 255 255 255 255 255 255 255 255 255 255 255 255 255 255
255 255 255 255 255 255 255 255 255 255 255 255 255 255 255
255 255 255 255 255 255 255 255 255 255 255 255 255 255 255
255 255 255 255 255 255 255 255 255 255 255 255 255 255 255
255 255 255 255 255 255 255 255 255 255 255 255 255 255 255
255 255 255 255 255 255 255 255 255 255 255 255 255 255 255
255 255 255 255 255 255 255 255 255 255 255 255 255 255 255
255 255 255 255 255 255 255 255 255 255 255 255 255 255 255
255 255 255 255 255 255 255 255 255 255 255 255 255 255 255
255 255 255 255 255 255 255 255 255 255 255 255 255 255 255
255 255 255 255 255 255 255 255 255 255 255 255 255 255 255
255 255 255 255 255 255 255 255 255 255 255 255 255 255 255
255 255 255 255 255 255 255 255 255 255 255 255 255 255 255
255 255 255 255 255 255 255 255 255 255 255 255 255 255 255
255 255 255 255 255 255 255 255 255 255 255 255 255 255 255
255 255 255 255 255 255 255 255 255 255 255 255 255 255 255
255 255 255 255 255 255 255 255 255 255 255 255 255 255 255
255 255 255 255 255 255 255 255 255 255 255 255 255 255 255
255 255 255 255 255 255 255 255 255 255 255 255 255 255 255
255 255 255 255 255 255 255 255 255 255 255 255 255 255 255
255 255 255 255 255 255 255 255 255 255 255 255 255 255 255
255 255 255 255 255 255 255 255 255 255 255 255 255 255 255
255 255 255 255 255 255 255 255 255 255 255 255 255 255 255
255 255 255 255 255 255 255 255 255 255 255 255 255 255 255
255 255 255 255 255 255 255 255 255 255 255 255 255 255 255
255 255 255 255 255 255 255 255 255 255 255 255 255 255 255
255 255 255 255 255 255 255 255 255 255 255 255 255 255 255
255 255 255 255 255 255 255 255 255 255 255 255 255 255 255
255 255 255 255 255 255 255 255 255 255 255 255 255 255 255
255 255 255 255 255 255 255 255 255 255 255 255 255 255 255
255 255 255 255 255 255 255 255 255 255 255 255 255 255 255
255 255 255 255 255 255 255 255 255 255 255 255 255 255 255
255 255 255 255 255 255 255 255 255 255 255 255 255 255 255
255 255 255 255 255 255 255 255 255 255 255 255 255 255 255
255 255 255 255 255 255 255 255 255 255 255 255 255 255 255
255 255 255 255 255 255 255 255 255 255 255 255 255 255 255
255 255 255 255 255 255 255 255 255 255 255 255 255 255 255
255 255 255 255 255 255 255 255 255 255 255 255 255 255 255
255 255 255 255 255 255 255 255 255 255 255 255 255 255 255
255 255 255 255 255 255 255 255 255 255 255 255 255 255 255
255 255 255 255 255 255 255 255 255 255 255 255 255 255 255
255 255 255 255 255 255 255 255 255 255 255 255 255 255 255
255 255 255 255 255 255 255 255 255 255 255 255 255 255 255
255 255 255 255 255 255 255 255 255 255 255 255 255 255 255
255 255 255 255 255 255 255 255 255 255 255 255 255 255 255
255 255 255 255 255 255 255 255 255 255 255 255 255 255 255
255 255 255 255 255 255 255 255 255 255 255 255 255 255 255
255 255 255 255 255 255 255 255 255 255 255 255 255 255 255
255 255 255 255 255 255 255 255 255 255 255 255 255 255 255
255 255 255 255 255 255 255 255 255 255 255 255 255 255 255
255 255 255 255 255 255 255 255 255 255 255 255 255 255 255
255 255 255 255 255 255 255 255 255 255 255 255 255 255 255
255 255 255 255 255 255 255 255 255 255 255 255 255 255 255
255 255 255 255 255 255 255 255 255 255 255 255 255 255 255
255 255 255 255 253 254 255 253 254 254 252 253 254 252 253
254 252 253 254 252 253 255 253 254 255 253 254 255 254 255
255 254 255 255 253 254 255 253 254 254 252 253 253 251 252
252 250 251 252 250 251 255 255 253 239 238 236 200 198 199
147 145 148 105 100 107 108 102 112 167 161 175 230 221 238
221 212 231 212 203 224 215 206 227 230 221 242 233 223 247
223 214 235 220 210 234 227 219 240 216 211 233 216 213 232
217 214 233 189 186 203 149 146 163 158 156 170 208 206 219
243 241 252 240 239 247 249 248 254 255 254 255 232 231 236
162 162 164 121 121 121 151 151 151 195 195 193 241 239 240
249 247 248 251 249 250 243 241 242 236 234 235 241 239 240
253 251 252 255 254 255 255 253 254 255 253 254 255 253 254
255 253 254 255 254 255 255 254 255 255 254 255 255 254 255
254 254 254 254 254 254 254 254 254 254 254 254 254 254 254
254 254 254 254 254 254 254 254 254 255 255 255 255 255 255
255 255 255 255 255 255 255 255 255 255 255 255 255 255 255
255 255 255 255 255 255 255 255 255 255 255 255 255 255 255
255 255 255 255 255 255 255 255 255 255 255 255 255 255 255
255 255 255 255 255 255 255 255 255 255 255 255 255 255 255
255 255 255 255 255 255 255 255 255 255 255 255 255 255 255
255 255 255 255 255 255 255 255 255 255 255 255 255 255 255
255 255 255 255 255 255 255 255 255 255 255 255 255 255 255
255 255 255 255 255 255 255 255 255 255 255 255 255 255 255
255 255 255 255 255 255 255 255 255 255 255 255 255 255 255
255 255 255 255 255 255 255 255 255 255 255 255 255 255 255
255 255 255 255 255 255 255 255 255 255 255 255 255 255 255
255 255 255 255 255 255 255 255 255 255 255 255 255 255 255
255 255 255 255 255 255 255 255 255 255 255 255 255 255 255
255 255 255 255 255 255 255 255 255 255 255 255 255 255 255
255 255 255 255 255 255 255 255 255 255 255 255 255 255 255
255 255 255 255 255 255 255 255 255 255 255 255 255 255 255
255 255 255 255 255 255 255 255 255 255 255 255 255 255 255
255 255 255 255 255 255 255 255 255 255 255 255 255 255 255
255 255 255 255 255 255 255 255 255 255 255 255 255 255 255
255 255 255 255 255 255 255 255 255 255 255 255 255 255 255
255 255 255 255 255 255 255 255 255 255 255 255 255 255 255
255 255 255 255 255 255 255 255 255 255 255 255 255 255 255
255 255 255 255 255 255 255 255 255 255 255 255 255 255 255
255 255 255 255 255 255 255 255 255 255 255 255 255 255 255
255 255 255 255 255 255 255 255 255 255 255 255 255 255 255
255 255 255 255 255 255 255 255 255 255 255 255 255 255 255
255 255 255 255 255 255 255 255 255 255 255 255 255 255 255
255 255 255 255 255 255 255 255 255 255 255 255 255 255 255
255 255 255 255 255 255 255 255 255 255 255 255 255 255 255
255 255 255 255 255 255 255 255 255 255 255 255 255 255 255
255 255 255 255 255 255 255 255 255 255 255 255 255 255 255
255 255 255 255 255 255 255 255 255 255 255 255 255 255 255
255 255 255 255 255 255 255 255 255 255 255 255 255 255 255
255 255 255 255 255 255 255 255 255 255 255 255 255 255 255
255 255 255 255 255 255 255 255 255 255 255 255 255 255 255
255 255 255 255 255 255 255 255 255 255 255 255 255 255 255
255 255 255 255 255 255 255 255 255 255 255 255 255 255 255
255 255 255 255 255 255 255 255 255 255 255 255 255 255 255
255 255 255 255 255 255 255 255 255 255 255 255 255 255 255
255 255 255 255 255 255 255 255 255 255 255 255 255 255 255
255 255 255 255 255 255 255 255 255 255 255 255 255 255 255
255 255 255 255 255 255 255 255 255 255 255 255 255 255 255
255 255 255 255 255 255 255 255 255 255 255 255 255 255 255
255 255 255 255 255 255 255 255 255 255 255 255 255 255 255
255 255 255 255 255 255 255 255 255 255 255 255 255 255 255
255 255 255 255 255 255 255 255 255 255 255 255 255 255 255
255 255 255 255 255 255 255 255 255 255 255 255 255 255 255
255 255 255 255 255 255 255 255 255 255 255 255 255 255 255
255 255 255 255 255 255 255 255 255 255 255 255 255 255 255
255 255 255 255 255 255 255 255 255 255 255 255 255 255 255
255 255 255 255 255 255 255 255 255 255 255 255 255 255 255
255 255 255 255 255 255 255 255 255 255 255 255 255 255 255
255 255 255 255 255 255 255 255 255 255 255 255 255 255 255
255 255 255 255 255 255 255 255 255 255 255 255 255 255 255
255 255 255 255 255 255 255 255 255 255 255 255 255 255 255
255 255 255 255 255 255 255 255 255 255 255 255 255 255 255
255 255 255 255 255 255 255 255 255 255 255 255 255 255 255
255 255 255 255 255 255 255 255 255 255 255 255 255 255 255
255 255 255 255 255 255 255 255 255 255 255 255 255 255 255
255 255 255 255 255 255 255 255 255 255 255 255 255 255 255
255 255 255 255 255 255 255 255 255 255 255 255 255 255 255
255 255 255 255 255 255 255 255 255 255 255 255 255 255 255
255 253 254 254 252 253 254 252 253 253 251 252 253 251 252
254 252 253 254 252 253 255 253 254 255 253 254 255 253 254
254 252 253 253 251 252 252 250 251 250 248 249 250 248 249
249 247 248 227 225 226 173 171 172 105 103 106 88 86 91 148 145 154
226 223 234 248 241 255 225 218 236 211 203 224 220 211 232
219 209 233 212 202 226 217 207 231 232 222 246 234 224 248
224 216 239 224 219 241 208 205 224 208 205 224 168 165 182
122 119 136 179 177 191 254 252 255 247 245 255 255 254 255
245 244 250 223 222 227 204 204 206 107 107 107 79 79 79 202 202 200
255 255 253 255 253 254 248 246 247 243 241 242 247 245 246
254 252 253 255 254 255 255 253 254 251 249 250 253 251 252
254 252 253 254 252 253 255 253 254 255 253 254 255 254 255
255 254 255 255 254 255 254 254 254 254 254 254 254 254 254
254 254 254 254 254 254 254 254 254 254 254 254 254 254 254
255 255 255 255 255 255 255 255 255 255 255 255 255 255 255
255 255 255 255 255 255 255 255 255 255 255 255 255 255 255
255 255 255 255 255 255 255 255 255 255 255 255 255 255 255
255 255 255 255 255 255 255 255 255 255 255 255 255 255 255
255 255 255 255 255 255 255 255 255 255 255 255 255 255 255
255 255 255 255 255 255 255 255 255 255 255 255 255 255 255
255 255 255 255 255 255 255 255 255 255 255 255 255 255 255
255 255 255 255 255 255 255 255 255 255 255 255 255 255 255
255 255 255 255 255 255 255 255 255 255 255 255 255 255 255
255 255 255 255 255 255 255 255 255 255 255 255 255 255 255
255 255 255 255 255 255 255 255 255 255 255 255 255 255 255
255 255 255 255 255 255 255 255 255 255 255 255 255 255 255
255 255 255 255 255 255 255 255 255 255 255 255 255 255 255
255 255 255 255 255 255 255 255 255 255 255 255 255 255 255
255 255 255 255 255 255 255 255 255 255 255 255 255 255 255
255 255 255 255 255 255 255 255 255 255 255 255 255 255 255
255 255 255 255 255 255 255 255 255 255 255 255 255 255 255
255 255 255 255 255 255 255 255 255 255 255 255 255 255 255
255 255 255 255 255 255 255 255 255 255 255 255 255 255 255
255 255 255 255 255 255 255 255 255 255 255 255 255 255 255
255 255 255 255 255 255 255 255 255 255 255 255 255 255 255
255 255 255 255 255 255 255 255 255 255 255 255 255 255 255
255 255 255 255 255 255 255 255 255 255 255 255 255 255 255
255 255 255 255 255 255 255 255 255 255 255 255 255 255 255
255 255 255 255 255 255 255 255 255 255 255 255 255 255 255
255 255 255 255 255 255 255 255 255 255 255 255 255 255 255
255 255 255 255 255 255 255 255 255 255 255 255 255 255 255
255 255 255 255 255 255 255 255 255 255 255 255 255 255 255
255 255 255 255 255 255 255 255 255 255 255 255 255 255 255
255 255 255 255 255 255 255 255 255 255 255 255 255 255 255
255 255 255 255 255 255 255 255 255 255 255 255 255 255 255
255 255 255 255 255 255 255 255 255 255 255 255 255 255 255
255 255 255 255 255 255 255 255 255 255 255 255 255 255 255
255 255 255 255 255 255 255 255 255 255 255 255 255 255 255
255 255 255 255 255 255 255 255 255 255 255 255 255 255 255
255 255 255 255 255 255 255 255 255 255 255 255 255 255 255
255 255 255 255 255 255 255 255 255 255 255 255 255 255 255
255 255 255 255 255 255 255 255 255 255 255 255 255 255 255
255 255 255 255 255 255 255 255 255 255 255 255 255 255 255
255 255 255 255 255 255 255 255 255 255 255 255 255 255 255
255 255 255 255 255 255 255 255 255 255 255 255 255 255 255
255 255 255 255 255 255 255 255 255 255 255 255 255 255 255
255 255 255 255 255 255 255 255 255 255 255 255 255 255 255
255 255 255 255 255 255 255 255 255 255 255 255 255 255 255
255 255 255 255 255 255 255 255 255 255 255 255 255 255 255
255 255 255 255 255 255 255 255 255 255 255 255 255 255 255
255 255 255 255 255 255 255 255 255 255 255 255 255 255 255
255 255 255 255 255 255 255 255 255 255 255 255 255 255 255
255 255 255 255 255 255 255 255 255 255 255 255 255 255 255
255 255 255 255 255 255 255 255 255 255 255 255 255 255 255
255 255 255 255 255 255 255 255 255 255 255 255 255 255 255
255 255 255 255 255 255 255 255 255 255 255 255 255 255 255
255 255 255 255 255 255 255 255 255 255 255 255 255 255 255
255 255 255 255 255 255 255 255 255 255 255 255 255 255 255
255 255 255 255 255 255 255 255 255 255 255 255 255 255 255
255 255 255 255 255 255 255 255 255 255 255 255 255 255 255
255 255 255 255 255 255 255 255 255 255 255 255 255 255 255
255 255 255 255 255 255 255 255 255 255 255 255 255 255 255
255 255 255 255 255 255 255 255 255 255 255 255 255 255 255
255 255 255 255 255 255 255 255 255 255 255 255 255 255 255
255 255 255 255 255 255 254 254 254 253 253 253 253 253 253
253 253 253 253 253 253 253 253 253 253 253 253 253 253 253
253 253 253 253 253 253 255 254 255 255 254 255 255 254 255
255 251 252 254 250 251 255 251 252 255 251 252 253 249 250
252 248 249 255 254 255 244 240 241 250 246 247 249 245 246
250 246 247 246 242 243 188 186 187 116 114 115 94 94 96 122 121 126
201 200 206 250 249 255 239 237 248 222 218 233 226 222 239
231 226 246 234 226 249 225 217 241 213 205 229 218 208 233
232 222 247 233 223 248 221 213 236 237 232 254 201 198 217
123 120 139 127 124 141 194 191 208 233 231 245 252 250 255
245 243 254 248 247 255 255 254 255 176 175 180 104 104 106
120 120 120 177 177 177 235 235 233 249 249 247 243 241 242
246 244 245 249 247 248 252 250 251 253 251 252 253 251 252
252 250 251 250 248 249 255 253 254 255 254 255 255 254 255
255 254 255 255 254 255 255 254 255 255 254 255 255 254 255
255 255 255 255 255 255 255 255 255 255 255 255 255 255 255
255 255 255 255 255 255 255 255 255 255 255 255 255 255 255
255 255 255 255 255 255 255 255 255 255 255 255 255 255 255
255 255 255 255 255 255 255 255 255 255 255 255 255 255 255
255 255 255 255 255 255 255 255 255 255 255 255 255 255 255
255 255 255 255 255 255 255 255 255 255 255 255 255 255 255
255 255 255 255 255 255 255 255 255 255 255 255 255 255 255
255 255 255 255 255 255 255 255 255 255 255 255 255 255 255
255 255 255 255 255 255 255 255 255 255 255 255 255 255 255
255 255 255 255 255 255 255 255 255 255 255 255 255 255 255
255 255 255 255 255 255 255 255 255 255 255 255 255 255 255
255 255 255 255 255 255 255 255 255 255 255 255 255 255 255
255 255 255 255 255 255 255 255 255 255 255 255 255 255 255
255 255 255 255 255 255 255 255 255 255 255 255 255 255 255
255 255 255 255 255 255 255 255 255 255 255 255 255 255 255
255 255 255 255 255 255 255 255 255 255 255 255 255 255 255
255 255 255 255 255 255 255 255 255 255 255 255 255 255 255
255 255 255 255 255 255 255 255 255 255 255 255 255 255 255
255 255 255 255 255 255 255 255 255 255 255 255 255 255 255
255 255 255 255 255 255 255 255 255 255 255 255 255 255 255
255 255 255 255 255 255 255 255 255 255 255 255 255 255 255
255 255 255 255 255 255 255 255 255 255 255 255 255 255 255
255 255 255 255 255 255 255 255 255 255 255 255 255 255 255
255 255 255 255 255 255 255 255 255 255 255 255 255 255 255
255 255 255 255 255 255 255 255 255 255 255 255 255 255 255
255 255 255 255 255 255 255 255 255 255 255 255 255 255 255
255 255 255 255 255 255 255 255 255 255 255 255 255 255 255
255 255 255 255 255 255 255 255 255 255 255 255 255 255 255
255 255 255 255 255 255 255 255 255 255 255 255 255 255 255
255 255 255 255 255 255 255 255 255 255 255 255 255 255 255
255 255 255 255 255 255 255 255 255 255 255 255 255 255 255
255 255 255 255 255 255 255 255 255 255 255 255 255 255 255
255 255 255 255 255 255 255 255 255 255 255 255 255 255 255
255 255 255 255 255 255 255 255 255 255 255 255 255 255 255
255 255 255 255 255 255 255 255 255 255 255 255 255 255 255
255 255 255 255 255 255 255 255 255 255 255 255 255 255 255
255 255 255 255 255 255 255 255 255 255 255 255 255 255 255
255 255 255 255 255 255 255 255 255 255 255 255 255 255 255
255 255 255 255 255 255 255 255 255 255 255 255 255 255 255
255 255 255 255 255 255 255 255 255 255 255 255 255 255 255
255 255 255 255 255 255 255 255 255 255 255 255 255 255 255
255 255 255 255 255 255 255 255 255 255 255 255 255 255 255
255 255 255 255 255 255 255 255 255 255 255 255 255 255 255
255 255 255 255 255 255 255 255 255 255 255 255 255 255 255
255 255 255 255 255 255 255 255 255 255 255 255 255 255 255
255 255 255 255 255 255 255 255 255 255 255 255 255 255 255
255 255 255 255 255 255 255 255 255 255 255 255 255 255 255
255 255 255 255 255 255 255 255 255 255 255 255 255 255 255
255 255 255 255 255 255 255 255 255 255 255 255 255 255 255
255 255 255 255 255 255 255 255 255 255 255 255 255 255 255
255 255 255 255 255 255 255 255 255 255 255 255 255 255 255
255 255 255 255 255 255 255 255 255 255 255 255 255 255 255
255 255 255 255 255 255 255 255 255 255 255 255 255 255 255
255 255 255 255 255 255 255 255 255 255 255 255 255 255 255
255 255 255 255 255 255 255 255 255 255 255 255 255 255 255
255 255 255 255 255 255 255 255 255 255 255 255 255 255 255
255 255 255 255 255 255 255 255 255 255 255 255 255 255 255
255 255 255 255 255 255 255 255 255 255 255 255 255 255 255
255 255 255 255 255 255 255 255 255 255 255 255 255 255 255
255 255 255 255 255 255 255 255 255 255 255 255 255 255 255
255 255 255 255 255 255 255 255 255 255 255 255 255 255 255
255 255 255 255 255 255 255 255 255 255 255 255 255 255 255
254 254 254 253 253 253 255 255 255 255 255 255 255 255 255
255 255 255 255 255 255 255 255 255 255 255 255 255 254 255
254 250 251 250 246 247 254 250 251 255 254 255 255 254 255
252 248 249 249 245 246 254 250 251 255 254 255 248 244 245
255 254 255 255 254 255 235 231 232 206 202 203 141 137 138
104 100 101 118 118 120 178 179 183 225 226 231 226 226 234
219 219 229 227 227 239 230 229 245 220 219 237 218 215 236
217 212 234 227 222 245 240 232 255 233 225 249 218 208 232
218 208 232 232 224 247 196 191 211 171 168 185 160 156 173
179 177 191 223 219 234 245 243 255 240 237 248 239 238 246
246 243 250 215 214 219 125 123 126 80 80 80 163 161 162 247 247 247
255 255 253 255 255 253 247 245 246 248 246 247 250 248 249
252 250 251 253 251 252 253 251 252 253 251 252 252 250 251
250 248 249 251 249 250 252 250 251 254 252 253 255 253 254
255 254 255 255 254 255 255 254 255 255 255 255 255 255 255
255 255 255 255 255 255 255 255 255 255 255 255 255 255 255
255 255 255 255 255 255 255 255 255 255 255 255 255 255 255
255 255 255 255 255 255 255 255 255 255 255 255 255 255 255
255 255 255 255 255 255 255 255 255 255 255 255 255 255 255
255 255 255 255 255 255 255 255 255 255 255 255 255 255 255
255 255 255 255 255 255 255 255 255 255 255 255 255 255 255
255 255 255 255 255 255 255 255 255 255 255 255 255 255 255
255 255 255 255 255 255 255 255 255 255 255 255 255 255 255
255 255 255 255 255 255 255 255 255 255 255 255 255 255 255
255 255 255 255 255 255 255 255 255 255 255 255 255 255 255
255 255 255 255 255 255 255 255 255 255 255 255 255 255 255
255 255 255 255 255 255 255 255 255 255 255 255 255 255 255
255 255 255 255 255 255 255 255 255 255 255 255 255 255 255
255 255 255 255 255 255 255 255 255 255 255 255 255 255 255
255 255 255 255 255 255 255 255 255 255 255 255 255 255 255
255 255 255 255 255 255 255 255 255 255 255 255 255 255 255
255 255 255 255 255 255 255 255 255 255 255 255 255 255 255
255 255 255 255 255 255 255 255 255 255 255 255 255 255 255
255 255 255 255 255 255 255 255 255 255 255 255 255 255 255
255 255 255 255 255 255 255 255 255 255 255 255 255 255 255
255 255 255 255 255 255 255 255 255 255 255 255 255 255 255
255 255 255 255 255 255 255 255 255 255 255 255 255 255 255
255 255 255 255 255 255 255 255 255 255 255 255 255 255 255
255 255 255 255 255 255 255 255 255 255 255 255 255 255 255
255 255 255 255 255 255 255 255 255 255 255 255 255 255 255
255 255 255 255 255 255 255 255 255 255 255 255 255 255 255
255 255 255 255 255 255 255 255 255 255 255 255 255 255 255
255 255 255 255 255 255 255 255 255 255 255 255 255 255 255
255 255 255 255 255 255 255 255 255 255 255 255 255 255 255
255 255 255 255 255 255 255 255 255 255 255 255 255 255 255
255 255 255 255 255 255 255 255 255 255 255 255 255 255 255
255 255 255 255 255 255 255 255 255 255 255 255 255 255 255
255 255 255 255 255 255 255 255 255 255 255 255 255 255 255
255 255 255 255 255 255 255 255 255 255 255 255 255 255 255
255 255 255 255 255 255 255 255 255 255 255 255 255 255 255
255 255 255 255 255 255 255 255 255 255 255 255 255 255 255
255 255 255 255 255 255 255 255 255 255 255 255 255 255 255
255 255 255 255 255 255 255 255 255 255 255 255 255 255 255
255 255 255 255 255 255 255 255 255 255 255 255 255 255 255
255 255 255 255 255 255 255 255 255 255 255 255 255 255 255
255 255 255 255 255 255 255 255 255 255 255 255 255 255 255
255 255 255 255 255 255 255 255 255 255 255 255 255 255 255
255 255 255 255 255 255 255 255 255 255 255 255 255 255 255
255 255 255 255 255 255 255 255 255 255 255 255 255 255 255
255 255 255 255 255 255 255 255 255 255 255 255 255 255 255
255 255 255 255 255 255 255 255 255 255 255 255 255 255 255
255 255 255 255 255 255 255 255 255 255 255 255 255 255 255
255 255 255 255 255 255 255 255 255 255 255 255 255 255 255
255 255 255 255 255 255 255 255 255 255 255 255 255 255 255
255 255 255 255 255 255 255 255 255 255 255 255 255 255 255
255 255 255 255 255 255 255 255 255 255 255 255 255 255 255
255 255 255 255 255 255 255 255 255 255 255 255 255 255 255
255 255 255 255 255 255 255 255 255 255 255 255 255 255 255
255 255 255 255 255 255 255 255 255 255 255 255 255 255 255
255 255 255 255 255 255 255 255 255 255 255 255 255 255 255
255 255 255 255 255 255 255 255 255 255 255 255 255 255 255
255 255 255 255 255 255 255 255 255 255 255 255 255 255 255
255 255 255 255 255 255 255 255 255 255 255 255 255 255 255
255 255 255 255 255 255 255 255 255 255 255 255 255 255 255
255 255 255 255 255 255 255 255 255 255 255 255 255 255 255
255 255 255 255 255 255 255 255 255 255 255 255 255 255 255
255 255 255 255 255 255 255 255 255 254 254 254 253 253 253
255 255 255 255 255 255 255 255 255 255 255 255 255 255 255
255 255 255 255 255 255 255 254 255 255 254 255 255 253 255
254 248 250 244 238 240 244 238 240 251 245 247 255 249 251
252 246 248 243 237 239 243 237 239 240 234 236 223 217 219
207 201 203 136 130 132 87 81 83 155 150 154 209 208 213 230 233 238
239 242 249 228 231 240 227 229 241 237 239 252 230 232 247
209 210 228 215 213 234 226 224 245 228 225 246 221 216 238
225 217 240 236 228 249 235 226 247 221 212 231 158 151 167
137 133 148 192 185 201 234 230 244 249 243 255 247 244 255
237 231 241 254 251 255 207 202 209 116 114 119 123 118 122
171 169 170 218 214 215 252 251 249 251 247 246 250 249 247
251 249 250 252 250 251 252 250 251 252 250 251 253 251 252
253 251 252 253 251 252 253 251 252 250 248 249 251 249 250
252 250 251 254 252 253 255 253 254 255 254 255 255 254 255
255 254 255 255 255 255 255 255 255 255 255 255 255 255 255
255 255 255 255 255 255 255 255 255 255 255 255 255 255 255
255 255 255 255 255 255 255 255 255 255 255 255 255 255 255
255 255 255 255 255 255 255 255 255 255 255 255 255 255 255
255 255 255 255 255 255 255 255 255 255 255 255 255 255 255
255 255 255 255 255 255 255 255 255 255 255 255 255 255 255
255 255 255 255 255 255 255 255 255 255 255 255 255 255 255
255 255 255 255 255 255 255 255 255 255 255 255 255 255 255
255 255 255 255 255 255 255 255 255 255 255 255 255 255 255
255 255 255 255 255 255 255 255 255 255 255 255 255 255 255
255 255 255 255 255 255 255 255 255 255 255 255 255 255 255
255 255 255 255 255 255 255 255 255 255 255 255 255 255 255
255 255 255 255 255 255 255 255 255 255 255 255 255 255 255
255 255 255 255 255 255 255 255 255 255 255 255 255 255 255
255 255 255 255 255 255 255 255 255 255 255 255 255 255 255
255 255 255 255 255 255 255 255 255 255 255 255 255 255 255
255 255 255 255 255 255 255 255 255 255 255 255 255 255 255
255 255 255 255 255 255 255 255 255 255 255 255 255 255 255
255 255 255 255 255 255 255 255 255 255 255 255 255 255 255
255 255 255 255 255 255 255 255 255 255 255 255 255 255 255
255 255 255 255 255 255 255 255 255 255 255 255 255 255 255
255 255 255 255 255 255 255 255 255 255 255 255 255 255 255
255 255 255 255 255 255 255 255 255 255 255 255 255 255 255
255 255 255 255 255 255 255 255 255 255 255 255 255 255 255
255 255 255 255 255 255 255 255 255 255 255 255 255 255 255
255 255 255 255 255 255 255 255 255 255 255 255 255 255 255
255 255 255 255 255 255 255 255 255 255 255 255 255 255 255
255 255 255 255 255 255 255 255 255 255 255 255 255 255 255
255 255 255 255 255 255 255 255 255 255 255 255 255 255 255
255 255 255 255 255 255 255 255 255 255 255 255 255 255 255
255 255 255 255 255 255 255 255 255 255 255 255 255 255 255
255 255 255 255 255 255 255 255 255 255 255 255 255 255 255
255 255 255 255 255 255 255 255 255 255 255 255 255 255 255
255 255 255 255 255 255 255 255 255 255 255 255 255 255 255
255 255 255 255 255 255 255 255 255 255 255 255 255 255 255
255 255 255 255 255 255 255 255 255 255 255 255 255 255 255
255 255 255 255 255 255 255 255 255 255 255 255 255 255 255
255 255 255 255 255 255 255 255 255 255 255 255 255 255 255
255 255 255 255 255 255 255 255 255 255 255 255 255 255 255
255 255 255 255 255 255 255 255 255 255 255 255 255 255 255
255 255 255 255 255 255 255 255 255 255 255 255 255 255 255
255 255 255 255 255 255 255 255 255 255 255 255 255 255 255
255 255 255 255 255 255 255 255 255 255 255 255 255 255 255
255 255 255 255 255 255 255 255 255 255 255 255 255 255 255
255 255 255 255 255 255 255 255 255 255 255 255 255 255 255
255 255 255 255 255 255 255 255 255 255 255 255 255 255 255
255 255 255 255 255 255 255 255 255 255 255 255 255 255 255
255 255 255 255 255 255 255 255 255 255 255 255 255 255 255
255 255 255 255 255 255 255 255 255 255 255 255 255 255 255
255 255 255 255 255 255 255 255 255 255 255 255 255 255 255
255 255 255 255 255 255 255 255 255 255 255 255 255 255 255
255 255 255 255 255 255 255 255 255 255 255 255 255 255 255
255 255 255 255 255 255 255 255 255 255 255 255 255 255 255
255 255 255 255 255 255 255 255 255 255 255 255 255 255 255
255 255 255 255 255 255 255 255 255 255 255 255 255 255 255
255 255 255 255 255 255 255 255 255 255 255 255 255 255 255
255 255 255 255 255 255 255 255 255 255 255 255 255 255 255
255 255 255 255 255 255 255 255 255 255 255 255 255 255 255
255 255 255 255 255 255 255 255 255 255 255 255 255 255 255
255 255 255 255 255 255 255 255 255 255 255 255 255 255 255
255 255 255 255 255 255 255 255 255 255 255 255 255 255 255
255 255 255 255 255 255 255 255 255 255 255 255 255 255 255
255 255 255 254 254 254 253 253 253 254 254 254 254 254 254
254 254 254 254 254 254 254 254 254 254 254 254 254 254 254
255 253 254 252 248 249 255 253 255 255 253 255 255 250 252
248 242 244 247 241 243 250 244 246 253 247 249 249 243 245
251 245 247 201 195 197 135 129 131 83 77 79 110 104 106 206 200 202
241 236 240 251 252 255 234 239 245 231 235 244 237 244 254
234 240 252 218 224 238 214 220 236 223 229 245 232 235 254
221 222 242 206 204 225 203 200 219 221 216 236 233 226 244
209 200 219 172 163 180 148 140 155 163 157 169 224 216 229
246 240 252 241 233 244 253 247 255 248 241 249 228 223 229
170 163 170 92 87 91 140 134 136 232 228 229 253 247 247 245 241 240
245 239 239 249 245 244 255 253 254 254 252 253 252 250 251
252 250 251 251 249 250 252 250 251 253 251 252 253 251 252
255 253 254 255 254 255 255 254 255 255 254 255 255 254 255
255 254 255 255 254 255 255 254 255 255 255 255 255 255 255
255 255 255 255 255 255 255 255 255 255 255 255 255 255 255
255 255 255 255 255 255 255 255 255 255 255 255 255 255 255
255 255 255 255 255 255 255 255 255 255 255 255 255 255 255
255 255 255 255 255 255 255 255 255 255 255 255 255 255 255
255 255 255 255 255 255 255 255 255 255 255 255 255 255 255
255 255 255 255 255 255 255 255 255 255 255 255 255 255 255
255 255 255 255 255 255 255 255 255 255 255 255 255 255 255
255 255 255 255 255 255 255 255 255 255 255 255 255 255 255
255 255 255 255 255 255 255 255 255 255 255 255 255 255 255
255 255 255 255 255 255 255 255 255 255 255 255 255 255 255
255 255 255 255 255 255 255 255 255 255 255 255 255 255 255
255 255 255 255 255 255 255 255 255 255 255 255 255 255 255
255 255 255 255 255 255 255 255 255 255 255 255 255 255 255
255 255 255 255 255 255 255 255 255 255 255 255 255 255 255
255 255 255 255 255 255 255 255 255 255 255 255 255 255 255
255 255 255 255 255 255 255 255 255 255 255 255 255 255 255
255 255 255 255 255 255 255 255 255 255 255 255 255 255 255
255 255 255 255 255 255 255 255 255 255 255 255 255 255 255
255 255 255 255 255 255 255 255 255 255 255 255 255 255 255
255 255 255 255 255 255 255 255 255 255 255 255 255 255 255
255 255 255 255 255 255 255 255 255 255 255 255 255 255 255
255 255 255 255 255 255 255 255 255 255 255 255 255 255 255
255 255 255 255 255 255 255 255 255 255 255 255 255 255 255
255 255 255 255 255 255 255 255 255 255 255 255 255 255 255
255 255 255 255 255 255 255 255 255 255 255 255 255 255 255
255 255 255 255 255 255 255 255 255 255 255 255 255 255 255
255 255 255 255 255 255 255 255 255 255 255 255 255 255 255
255 255 255 255 255 255 255 255 255 255 255 255 255 255 255
255 255 255 255 255 255 255 255 255 255 255 255 255 255 255
255 255 255 255 255 255 255 255 255 255 255 255 255 255 255
255 255 255 255 255 255 255 255 255 255 255 255 255 255 255
255 255 255 255 255 255 255 255 255 255 255 255 255 255 255
255 255 255 255 255 255 255 255 255 255 255 255 255 255 255
255 255 255 255 255 255 255 255 255 255 255 255 255 255 255
255 255 255 255 255 255 255 255 255 255 255 255 255 255 255
255 255 255 255 255 255 255 255 255 255 255 255 255 255 255
255 255 255 255 255 255 255 255 255 255 255 255 255 255 255
255 255 255 255 255 255 255 255 255 255 255 255 255 255 255
255 255 255 255 255 255 255 255 255 255 255 255 255 255 255
255 255 255 255 255 255 255 255 255 255 255 255 255 255 255
255 255 255 255 255 255 255 255 255 255 255 255 255 255 255
255 255 255 255 255 255 255 255 255 255 255 255 255 255 255
255 255 255 255 255 255 255 255 255 255 255 255 255 255 255
255 255 255 255 255 255 255 255 255 255 255 255 255 255 255
255 255 255 255 255 255 255 255 255 255 255 255 255 255 255
255 255 255 255 255 255 255 255 255 255 255 255 255 255 255
255 255 255 255 255 255 255 255 255 255 255 255 255 255 255
255 255 255 255 255 255 255 255 255 255 255 255 255 255 255
255 255 255 255 255 255 255 255 255 255 255 255 255 255 255
255 255 255 255 255 255 255 255 255 255 255 255 255 255 255
255 255 255 255 255 255 255 255 255 255 255 255 255 255 255
255 255 255 255 255 255 255 255 255 255 255 255 255 255 255
255 255 255 255 255 255 255 255 255 255 255 255 255 255 255
255 255 255 255 255 255 255 255 255 255 255 255 255 255 255
255 255 255 255 255 255 255 255 255 255 255 255 255 255 255
255 255 255 255 255 255 255 255 255 255 255 255 255 255 255
255 255 255 255 255 255 255 255 255 255 255 255 255 255 255
255 255 255 255 255 255 255 255 255 255 255 255 255 255 255
255 255 255 255 255 255 255 255 255 255 255 255 255 255 255
255 255 255 255 255 255 255 255 255 255 255 255 255 255 255
255 255 255 255 255 255 255 255 255 255 255 255 255 255 255
255 255 255 255 255 255 255 255 255 254 254 254 253 253 253
254 254 254 254 254 254 254 254 254 254 254 254 254 254 254
254 254 254 254 254 254 255 253 254 254 250 251 252 246 248
255 252 254 255 253 255 255 253 255 244 238 240 248 242 244
255 253 255 225 219 221 185 179 181 96 90 92 91 85 87 167 161 163
236 230 232 255 253 255 236 234 237 230 233 238 227 234 242
235 242 250 241 250 255 233 241 252 215 223 236 208 215 231
214 221 237 211 217 233 219 225 241 216 217 235 203 202 218
206 202 217 203 199 213 162 156 170 109 101 114 175 167 178
230 222 233 253 243 252 239 232 240 239 229 238 255 252 255
240 230 238 139 133 137 91 82 87 169 163 165 211 202 205 240 234 236
255 252 253 255 251 251 252 243 244 255 252 252 255 253 254
254 252 253 252 250 251 251 249 250 250 248 249 250 248 249
251 249 250 252 250 251 255 253 254 255 254 255 255 254 255
255 254 255 255 254 255 255 254 255 255 254 255 255 254 255
255 255 255 255 255 255 255 255 255 255 255 255 255 255 255
255 255 255 255 255 255 255 255 255 255 255 255 255 255 255
255 255 255 255 255 255 255 255 255 255 255 255 255 255 255
255 255 255 255 255 255 255 255 255 255 255 255 255 255 255
255 255 255 255 255 255 255 255 255 255 255 255 255 255 255
255 255 255 255 255 255 255 255 255 255 255 255 255 255 255
255 255 255 255 255 255 255 255 255 255 255 255 255 255 255
255 255 255 255 255 255 255 255 255 255 255 255 255 255 255
255 255 255 255 255 255 255 255 255 255 255 255 255 255 255
255 255 255 255 255 255 255 255 255 255 255 255 255 255 255
255 255 255 255 255 255 255 255 255 255 255 255 255 255 255
255 255 255 255 255 255 255 255 255 255 255 255 255 255 255
255 255 255 255 255 255 255 255 255 255 255 255 255 255 255
255 255 255 255 255 255 255 255 255 255 255 255 255 255 255
255 255 255 255 255 255 255 255 255 255 255 255 255 255 255
255 255 255 255 255 255 255 255 255 255 255 255 255 255 255
255 255 255 255 255 255 255 255 255 255 255 255 255 255 255
255 255 255 255 255 255 255 255 255 255 255 255 255 255 255
255 255 255 255 255 255 255 255 255 255 255 255 255 255 255
255 255 255 255 255 255 255 255 255 255 255 255 255 255 255
255 255 255 255 255 255 255 255 255 255 255 255 255 255 255
255 255 255 255 255 255 255 255 255 255 255 255 255 255 255
255 255 255 255 255 255 255 255 255 255 255 255 255 255 255
255 255 255 255 255 255 255 255 255 255 255 255 255 255 255
255 255 255 255 255 255 255 255 255 255 255 255 255 255 255
255 255 255 255 255 255 255 255 255 255 255 255 255 255 255
255 255 255 255 255 255 255 255 255 255 255 255 255 255 255
255 255 255 255 255 255 255 255 255 255 255 255 255 255 255
255 255 255 255 255 255 255 255 255 255 255 255 255 255 255
255 255 255 255 255 255 255 255 255 255 255 255 255 255 255
255 255 255 255 255 255 255 255 255 255 255 255 255 255 255
255 255 255 255 255 255 255 255 255 255 255 255 255 255 255
255 255 255 255 255 255 255 255 255 255 255 255 255 255 255
255 255 255 255 255 255 255 255 255 255 255 255 255 255 255
255 255 255 255 255 255 255 255 255 255 255 255 255 255 255
255 255 255 255 255 255 255 255 255 255 255 255 255 255 255
255 255 255 255 255 255 255 255 255 255 255 255 255 255 255
255 255 255 255 255 255 255 255 255 255 255 255 255 255 255
255 255 255 255 255 255 255 255 255 255 255 255 255 255 255
255 255 255 255 255 255 255 255 255 255 255 255 255 255 255
255 255 255 255 255 255 255 255 255 255 255 255 255 255 255
255 255 255 255 255 255 255 255 255 255 255 255 255 255 255
255 255 255 255 255 255 255 255 255 255 255 255 255 255 255
255 255 255 255 255 255 255 255 255 255 255 255 255 255 255
255 255 255 255 255 255 255 255 255 255 255 255 255 255 255
255 255 255 255 255 255 255 255 255 255 255 255 255 255 255
255 255 255 255 255 255 255 255 255 255 255 255 255 255 255
255 255 255 255 255 255 255 255 255 255 255 255 255 255 255
255 255 255 255 255 255 255 255 255 255 255 255 255 255 255
255 255 255 255 255 255 255 255 255 255 255 255 255 255 255
255 255 255 255 255 255 255 255 255 255 255 255 255 255 255
255 255 255 255 255 255 255 255 255 255 255 255 255 255 255
255 255 255 255 255 255 255 255 255 255 255 255 255 255 255
255 255 255 255 255 255 255 255 255 255 255 255 255 255 255
255 255 255 255 255 255 255 255 255 255 255 255 255 255 255
255 255 255 255 255 255 255 255 255 255 255 255 255 255 255
255 255 255 255 255 255 255 255 255 255 255 255 255 255 255
255 255 255 255 255 255 255 255 255 255 255 255 255 255 255
255 255 255 255 255 255 255 255 255 255 255 255 255 255 255
255 255 255 255 255 255 255 255 255 255 255 255 255 255 255
255 255 255 255 255 255 255 255 255 255 255 255 255 255 255
255 255 255 255 255 255 255 255 255 255 255 255 255 255 255
254 254 254 253 253 253 255 255 255 255 255 255 255 255 255
255 255 255 255 255 255 255 255 255 255 255 255 255 254 255
255 254 255 255 253 255 253 247 249 251 245 247 255 253 255
255 253 255 234 228 230 195 189 191 125 119 121 73 67 69 145 139 141
230 224 226 248 242 244 255 252 254 255 249 251 248 246 249
242 245 252 224 233 242 219 228 237 228 238 248 233 243 255
222 232 244 209 218 233 204 213 228 200 209 224 211 219 232
227 230 245 224 226 239 195 193 206 159 156 167 148 142 154
156 148 159 223 213 222 255 245 253 247 237 245 255 248 253
255 251 255 237 228 233 182 173 178 98 89 94 89 80 83 223 214 217
255 252 255 255 249 252 255 248 249 254 245 246 255 252 253
254 248 248 255 254 255 254 252 253 253 251 252 251 249 250
251 249 250 251 249 250 251 249 250 252 250 251 250 248 249
251 249 250 252 250 251 254 252 253 255 253 254 255 254 255
255 254 255 255 254 255 255 255 255 255 255 255 255 255 255
255 255 255 255 255 255 255 255 255 255 255 255 255 255 255
255 255 255 255 255 255 255 255 255 255 255 255 255 255 255
255 255 255 255 255 255 255 255 255 255 255 255 255 255 255
255 255 255 255 255 255 255 255 255 255 255 255 255 255 255
255 255 255 255 255 255 255 255 255 255 255 255 255 255 255
255 255 255 255 255 255 255 255 255 255 255 255 255 255 255
255 255 255 255 255 255 255 255 255 255 255 255 255 255 255
255 255 255 255 255 255 255 255 255 255 255 255 255 255 255
255 255 255 255 255 255 255 255 255 255 255 255 255 255 255
255 255 255 255 255 255 255 255 255 255 255 255 255 255 255
255 255 255 255 255 255 255 255 255 255 255 255 255 255 255
255 255 255 255 255 255 255 255 255 255 255 255 255 255 255
255 255 255 255 255 255 255 255 255 255 255 255 255 255 255
255 255 255 255 255 255 255 255 255 255 255 255 255 255 255
255 255 255 255 255 255 255 255 255 255 255 255 255 255 255
255 255 255 255 255 255 255 255 255 255 255 255 255 255 255
255 255 255 255 255 255 255 255 255 255 255 255 255 255 255
255 255 255 255 255 255 255 255 255 255 255 255 255 255 255
255 255 255 255 255 255 255 255 255 255 255 255 255 255 255
255 255 255 255 255 255 255 255 255 255 255 255 255 255 255
255 255 255 255 255 255 255 255 255 255 255 255 255 255 255
255 255 255 255 255 255 255 255 255 255 255 255 255 255 255
255 255 255 255 255 255 255 255 255 255 255 255 255 255 255
255 255 255 255 255 255 255 255 255 255 255 255 255 255 255
255 255 255 255 255 255 255 255 255 255 255 255 255 255 255
255 255 255 255 255 255 255 255 255 255 255 255 255 255 255
255 255 255 255 255 255 255 255 255 255 255 255 255 255 255
255 255 255 255 255 255 255 255 255 255 255 255 255 255 255
255 255 255 255 255 255 255 255 255 255 255 255 255 255 255
255 255 255 255 255 255 255 255 255 255 255 255 255 255 255
255 255 255 255 255 255 255 255 255 255 255 255 255 255 255
255 255 255 255 255 255 255 255 255 255 255 255 255 255 255
255 255 255 255 255 255 255 255 255 255 255 255 255 255 255
255 255 255 255 255 255 255 255 255 255 255 255 255 255 255
255 255 255 255 255 255 255 255 255 255 255 255 255 255 255
255 255 255 255 255 255 255 255 255 255 255 255 255 255 255
255 255 255 255 255 255 255 255 255 255 255 255 255 255 255
255 255 255 255 255 255 255 255 255 255 255 255 255 255 255
255 255 255 255 255 255 255 255 255 255 255 255 255 255 255
255 255 255 255 255 255 255 255 255 255 255 255 255 255 255
255 255 255 255 255 255 255 255 255 255 255 255 255 255 255
255 255 255 255 255 255 255 255 255 255 255 255 255 255 255
255 255 255 255 255 255 255 255 255 255 255 255 255 255 255
255 255 255 255 255 255 255 255 255 255 255 255 255 255 255
255 255 255 255 255 255 255 255 255 255 255 255 255 255 255
255 255 255 255 255 255 255 255 255 255 255 255 255 255 255
255 255 255 255 255 255 255 255 255 255 255 255 255 255 255
255 255 255 255 255 255 255 255 255 255 255 255 255 255 255
255 255 255 255 255 255 255 255 255 255 255 255 255 255 255
255 255 255 255 255 255 255 255 255 255 255 255 255 255 255
255 255 255 255 255 255 255 255 255 255 255 255 255 255 255
255 255 255 255 255 255 255 255 255 255 255 255 255 255 255
255 255 255 255 255 255 255 255 255 255 255 255 255 255 255
255 255 255 255 255 255 255 255 255 255 255 255 255 255 255
255 255 255 255 255 255 255 255 255 255 255 255 255 255 255
255 255 255 255 255 255 255 255 255 255 255 255 255 255 255
255 255 255 255 255 255 255 255 255 255 255 255 255 255 255
255 255 255 255 255 255 255 255 255 255 255 255 255 255 255
255 255 255 255 255 255 255 255 255 255 255 255 255 255 255
255 255 255 255 255 255 255 255 255 255 255 255 255 255 255
255 255 255 255 255 255 255 255 255 255 255 255 255 255 255
255 255 255 255 255 255 254 254 254 253 253 253 252 252 252
252 252 252 252 252 252 252 252 252 252 252 252 252 252 252
252 252 252 253 251 252 248 244 245 255 251 253 255 252 254
252 246 248 249 243 245 229 223 225 173 167 169 116 110 112
131 125 127 171 165 167 231 225 227 245 239 241 252 246 248
252 246 248 231 225 227 246 244 249 243 247 255 230 238 249
226 234 245 226 236 246 217 227 239 202 214 226 207 219 231
222 234 246 225 235 247 195 203 216 203 207 219 227 229 241
190 188 199 130 127 136 162 156 166 250 243 251 253 244 249
251 240 246 242 231 237 255 251 255 255 247 253 173 162 166
118 107 111 140 129 133 216 205 209 235 224 228 249 239 240
247 237 238 244 234 235 255 250 251 255 252 253 254 245 246
255 254 255 255 253 254 254 252 253 253 251 252 253 251 252
253 251 252 253 251 252 253 251 252 250 248 249 251 249 250
252 250 251 254 252 253 255 253 254 255 254 255 255 254 255
255 254 255 255 255 255 255 255 255 255 255 255 255 255 255
255 255 255 255 255 255 255 255 255 255 255 255 255 255 255
255 255 255 255 255 255 255 255 255 255 255 255 255 255 255
255 255 255 255 255 255 255 255 255 255 255 255 255 255 255
255 255 255 255 255 255 255 255 255 255 255 255 255 255 255
255 255 255 255 255 255 255 255 255 255 255 255 255 255 255
255 255 255 255 255 255 255 255 255 255 255 255 255 255 255
255 255 255 255 255 255 255 255 255 255 255 255 255 255 255
255 255 255 255 255 255 255 255 255 255 255 255 255 255 255
255 255 255 255 255 255 255 255 255 255 255 255 255 255 255
255 255 255 255 255 255 255 255 255 255 255 255 255 255 255
255 255 255 255 255 255 255 255 255 255 255 255 255 255 255
255 255 255 255 255 255 255 255 255 255 255 255 255 255 255
255 255 255 255 255 255 255 255 255 255 255 255 255 255 255
255 255 255 255 255 255 255 255 255 255 255 255 255 255 255
255 255 255 255 255 255 255 255 255 255 255 255 255 255 255
255 255 255 255 255 255 255 255 255 255 255 255 255 255 255
255 255 255 255 255 255 255 255 255 255 255 255 255 255 255
255 255 255 255 255 255 255 255 255 255 255 255 255 255 255
255 255 255 255 255 255 255 255 255 255 255 255 255 255 255
255 255 255 255 255 255 255 255 255 255 255 255 255 255 255
255 255 255 255 255 255 255 255 255 255 255 255 255 255 255
255 255 255 255 255 255 255 255 255 255 255 255 255 255 255
255 255 255 255 255 255 255 255 255 255 255 255 255 255 255
255 255 255 255 255 255 255 255 255 255 255 255 255 255 255
255 255 255 255 255 255 255 255 255 255 255 255 255 255 255
255 255 255 255 255 255 255 255 255 255 255 255 255 255 255
255 255 255 255 255 255 255 255 255 255 255 255 255 255 255
255 255 255 255 255 255 255 255 255 255 255 255 255 255 255
255 255 255 255 255 255 255 255 255 255 255 255 255 255 255
255 255 255 255 255 255 255 255 255 255 255 255 255 255 255
255 255 255 255 255 255 255 255 255 255 255 255 255 255 255
255 255 255 255 255 255 255 255 255 255 255 255 255 255 255
255 255 255 255 255 255 255 255 255 255 255 255 255 255 255
255 255 255 255 255 255 255 255 255 255 255 255 255 255 255
255 255 255 255 255 255 255 255 255 255 255 255 255 255 255
255 255 255 255 255 255 255 255 255 255 255 255 255 255 255
255 255 255 255 255 255 255 255 255 255 255 255 255 255 255
255 255 255 255 255 255 255 255 255 255 255 255 255 255 255
255 255 255 255 255 255 255 255 255 255 255 255 255 255 255
255 255 255 255 255 255 255 255 255 255 255 255 255 255 255
255 255 255 255 255 255 255 255 255 255 255 255 255 255 255
255 255 255 255 255 255 255 255 255 255 255 255 255 255 255
255 255 255 255 255 255 255 255 255 255 255 255 255 255 255
255 255 255 255 255 255 255 255 255 255 255 255 255 255 255
255 255 255 255 255 255 255 255 255 255 255 255 255 255 255
255 255 255 255 255 255 255 255 255 255 255 255 255 255 255
255 255 255 255 255 255 255 255 255 255 255 255 255 255 255
255 255 255 255 255 255 255 255 255 255 255 255 255 255 255
255 255 255 255 255 255 255 255 255 255 255 255 255 255 255
255 255 255 255 255 255 255 255 255 255 255 255 255 255 255
255 255 255 255 255 255 255 255 255 255 255 255 255 255 255
255 255 255 255 255 255 255 255 255 255 255 255 255 255 255
255 255 255 255 255 255 255 255 255 255 255 255 255 255 255
255 255 255 255 255 255 255 255 255 255 255 255 255 255 255
255 255 255 255 255 255 255 255 255 255 255 255 255 255 255
255 255 255 255 255 255 255 255 255 255 255 255 255 255 255
255 255 255 255 255 255 255 255 255 255 255 255 255 255 255
255 255 255 255 255 255 255 255 255 255 255 255 255 255 255
255 255 255 255 255 255 255 255 255 255 255 255 255 255 255
255 255 255 255 255 255 255 255 255 255 255 255 255 255 255
254 255 255 254 255 255 254 255 255 254 255 255 254 255 255
255 255 255 254 254 254 253 253 253 248 248 250 248 248 248
248 248 248 248 248 248 248 248 248 248 248 248 248 248 248
249 247 248 255 253 255 245 239 241 244 238 240 242 236 236
190 184 184 121 115 115 117 111 111 159 153 153 209 203 203
255 252 253 252 248 249 249 245 246 252 247 251 243 238 242
247 242 248 228 227 233 231 235 247 234 242 255 229 239 251
217 227 239 214 224 236 221 231 243 217 227 239 206 216 228
201 209 220 225 232 242 216 218 230 166 166 174 139 138 146
167 164 171 213 208 214 236 230 234 254 245 248 255 251 255
255 251 255 238 229 232 205 196 199 121 112 115 88 79 82 185 176 179
252 243 246 254 245 248 255 252 255 253 244 245 255 252 255
255 252 253 245 236 239 255 253 255 255 254 255 255 254 255
255 254 255 255 253 254 255 253 254 254 252 253 254 252 253
254 252 253 255 253 254 255 254 255 255 254 255 255 254 255
255 254 255 255 254 255 255 254 255 255 254 255 255 255 255
255 255 255 255 255 255 255 255 255 255 255 255 255 255 255
255 255 255 255 255 255 255 255 255 255 255 255 255 255 255
255 255 255 255 255 255 255 255 255 255 255 255 255 255 255
255 255 255 255 255 255 255 255 255 255 255 255 255 255 255
255 255 255 255 255 255 255 255 255 255 255 255 255 255 255
255 255 255 255 255 255 255 255 255 255 255 255 255 255 255
255 255 255 255 255 255 255 255 255 255 255 255 255 255 255
255 255 255 255 255 255 255 255 255 255 255 255 255 255 255
255 255 255 255 255 255 255 255 255 255 255 255 255 255 255
255 255 255 255 255 255 255 255 255 255 255 255 255 255 255
255 255 255 255 255 255 255 255 255 255 255 255 255 255 255
255 255 255 255 255 255 255 255 255 255 255 255 255 255 255
255 255 255 255 255 255 255 255 255 255 255 255 255 255 255
255 255 255 255 255 255 255 255 255 255 255 255 255 255 255
255 255 255 255 255 255 255 255 255 255 255 255 255 255 255
255 255 255 255 255 255 255 255 255 255 255 255 255 255 255
255 255 255 255 255 255 255 255 255 255 255 255 255 255 255
255 255 255 255 255 255 255 255 255 255 255 255 255 255 255
255 255 255 255 255 255 255 255 255 255 255 255 255 255 255
255 255 255 255 255 255 255 255 255 255 255 255 255 255 255
255 255 255 255 255 255 255 255 255 255 255 255 255 255 255
255 255 255 255 255 255 255 255 255 255 255 255 255 255 255
255 255 255 255 255 255 255 255 255 255 255 255 255 255 255
255 255 255 255 255 255 255 255 255 255 255 255 255 255 255
255 255 255 255 255 255 255 255 255 255 255 255 255 255 255
255 255 255 255 255 255 255 255 255 255 255 255 255 255 255
255 255 255 255 255 255 255 255 255 255 255 255 255 255 255
255 255 255 255 255 255 255 255 255 255 255 255 255 255 255
255 255 255 255 255 255 255 255 255 255 255 255 255 255 255
255 255 255 255 255 255 255 255 255 255 255 255 255 255 255
255 255 255 255 255 255 255 255 255 255 255 255 255 255 255
255 255 255 255 255 255 255 255 255 255 255 255 255 255 255
255 255 255 255 255 255 255 255 255 255 255 255 255 255 255
255 255 255 255 255 255 255 255 255 255 255 255 255 255 255
255 255 255 255 255 255 255 255 255 255 255 255 255 255 255
255 255 255 255 255 255 255 255 255 255 255 255 255 255 255
255 255 255 255 255 255 255 255 255 255 255 255 255 255 255
255 255 255 255 255 255 255 255 255 255 255 255 255 255 255
255 255 255 255 255 255 255 255 255 255 255 255 255 255 255
255 255 255 255 255 255 255 255 255 255 255 255 255 255 255
255 255 255 255 255 255 255 255 255 255 255 255 255 255 255
255 255 255 255 255 255 255 255 255 255 255 255 255 255 255
255 255 255 255 255 255 255 255 255 255 255 255 255 255 255
255 255 255 255 255 255 255 255 255 255 255 255 255 255 255
255 255 255 255 255 255 255 255 255 255 255 255 255 255 255
255 255 255 255 255 255 255 255 255 255 255 255 255 255 255
255 255 255 255 255 255 255 255 255 255 255 255 255 255 255
255 255 255 255 255 255 255 255 255 255 255 255 255 255 255
255 255 255 255 255 255 255 255 255 255 255 255 255 255 255
255 255 255 255 255 255 255 255 255 255 255 255 255 255 255
255 255 255 255 255 255 255 255 255 255 255 255 255 255 255
255 255 255 255 255 255 255 255 255 255 255 255 255 255 255
255 255 255 255 255 255 255 255 255 255 255 255 255 255 255
255 255 255 255 255 255 255 255 255 255 255 255 255 255 255
255 255 255 255 255 255 255 255 255 255 255 255 255 255 255
255 255 255 255 255 255 255 255 255 255 255 255 255 255 255
255 255 255 255 255 255 255 255 255 255 255 255 255 255 255
255 255 255 255 255 255 255 255 255 255 255 255 255 255 255
255 255 255 255 255 255 255 255 255 255 255 255 255 255 255
255 255 255 255 255 255 255 255 255 255 255 255 255 255 255
255 255 255 255 255 255 254 255 255 251 255 252 251 255 252
251 255 252 251 255 254 250 254 253 250 251 253 247 248 250
246 247 249 252 251 255 250 250 252 248 248 250 246 246 246
244 242 243 242 241 239 243 242 240 247 243 242 255 248 249
254 245 246 217 208 209 151 143 141 107 102 99 127 122 119
182 178 175 226 222 219 255 253 250 250 249 247 242 242 242
236 236 238 234 235 239 236 236 244 241 241 251 243 245 255
233 239 255 230 237 255 227 234 252 224 231 249 218 224 240
214 220 234 219 222 237 225 227 240 210 212 224 223 223 231
188 187 195 132 130 135 143 138 144 216 210 214 255 249 251
245 236 239 255 252 253 242 233 234 254 245 246 203 197 197 99 95 94
127 123 122 183 181 182 227 225 226 249 247 248 249 247 248
250 248 249 252 250 251 255 253 255 255 254 255 255 253 255
255 254 255 255 254 255 255 255 255 255 255 255 255 255 255
255 255 255 255 255 255 255 255 255 255 255 255 255 255 255
255 255 255 255 255 255 255 255 255 255 255 255 255 255 255
255 255 255 255 255 255 255 255 255 255 255 255 255 255 255
255 255 255 255 255 255 255 255 255 255 255 255 255 255 255
255 255 255 255 255 255 255 255 255 255 255 255 255 255 255
255 255 255 255 255 255 255 255 255 255 255 255 255 255 255
255 255 255 255 255 255 255 255 255 255 255 255 255 255 255
255 255 255 255 255 255 255 255 255 255 255 255 255 255 255
255 255 255 255 255 255 255 255 255 255 255 255 255 255 255
255 255 255 255 255 255 255 255 255 255 255 255 255 255 255
255 255 255 255 255 255 255 255 255 255 255 255 255 255 255
255 255 255 255 255 255 255 255 255 255 255 255 255 255 255
255 255 255 255 255 255 255 255 255 255 255 255 255 255 255
255 255 255 255 255 255 255 255 255 255 255 255 255 255 255
255 255 255 255 255 255 255 255 255 255 255 255 255 255 255
255 255 255 255 255 255 255 255 255 255 255 255 255 255 255
255 255 255 255 255 255 255 255 255 255 255 255 255 255 255
255 255 255 255 255 255 255 255 255 255 255 255 255 255 255
255 255 255 255 255 255 255 255 255 255 255 255 255 255 255
255 255 255 255 255 255 255 255 255 255 255 255 255 255 255
255 255 255 255 255 255 255 255 255 255 255 255 255 255 255
255 255 255 255 255 255 255 255 255 255 255 255 255 255 255
255 255 255 255 255 255 255 255 255 255 255 255 255 255 255
255 255 255 255 255 255 255 255 255 255 255 255 255 255 255
255 255 255 255 255 255 255 255 255 255 255 255 255 255 255
255 255 255 255 255 255 255 255 255 255 255 255 255 255 255
255 255 255 255 255 255 255 255 255 255 255 255 255 255 255
255 255 255 255 255 255 255 255 255 255 255 255 255 255 255
255 255 255 255 255 255 255 255 255 255 255 255 255 255 255
255 255 255 255 255 255 255 255 255 255 255 255 255 255 255
255 255 255 255 255 255 255 255 255 255 255 255 255 255 255
255 255 255 255 255 255 255 255 255 255 255 255 255 255 255
255 255 255 255 255 255 255 255 255 255 255 255 255 255 255
255 255 255 255 255 255 255 255 255 255 255 255 255 255 255
255 255 255 255 255 255 255 255 255 255 255 255 255 255 255
255 255 255 255 255 255 255 255 255 255 255 255 255 255 255
255 255 255 255 255 255 255 255 255 255 255 255 255 255 255
255 255 255 255 255 255 255 255 255 255 255 255 255 255 255
255 255 255 255 255 255 255 255 255 255 255 255 255 255 255
255 255 255 255 255 255 255 255 255 255 255 255 255 255 255
255 255 255 255 255 255 255 255 255 255 255 255 255 255 255
255 255 255 255 255 255 255 255 255 255 255 255 255 255 255
255 255 255 255 255 255 255 255 255 255 255 255 255 255 255
255 255 255 255 255 255 255 255 255 255 255 255 255 255 255
255 255 255 255 255 255 255 255 255 255 255 255 255 255 255
255 255 255 255 255 255 255 255 255 255 255 255 255 255 255
255 255 255 255 255 255 255 255 255 255 255 255 255 255 255
255 255 255 255 255 255 255 255 255 255 255 255 255 255 255
255 255 255 255 255 255 255 255 255 255 255 255 255 255 255
255 255 255 255 255 255 255 255 255 255 255 255 255 255 255
255 255 255 255 255 255 255 255 255 255 255 255 255 255 255
255 255 255 255 255 255 255 255 255 255 255 255 255 255 255
255 255 255 255 255 255 255 255 255 255 255 255 255 255 255
255 255 255 255 255 255 255 255 255 255 255 255 255 255 255
255 255 255 255 255 255 255 255 255 255 255 255 255 255 255
255 255 255 255 255 255 255 255 255 255 255 255 255 255 255
255 255 255 255 255 255 255 255 255 255 255 255 255 255 255
255 255 255 255 255 255 255 255 255 255 255 255 255 255 255
255 255 255 255 255 255 255 255 255 255 255 255 255 255 255
255 255 255 255 255 255 255 255 255 255 255 255 255 255 255
255 255 255 255 255 255 255 255 255 255 255 255 255 255 255
255 255 255 255 255 255 255 255 255 254 254 254 255 255 255
255 255 255 255 255 255 255 255 255 255 255 255 255 255 255
253 255 252 252 255 253 251 255 251 251 255 253 252 255 253
251 255 255 250 254 255 250 251 255 248 249 253 255 254 255
250 249 254 248 248 250 251 251 251 254 252 253 252 251 249
251 250 246 254 250 247 253 244 245 172 164 162 104 96 94 111 106 103
168 163 159 218 215 210 242 239 234 249 248 244 248 247 243
249 249 247 249 250 252 244 248 251 238 241 248 235 238 247
234 236 249 235 238 253 236 241 255 228 235 254 217 224 243
210 215 234 214 217 234 221 224 239 226 225 239 223 223 235
218 216 227 164 161 168 139 134 141 174 169 173 224 215 220
239 230 233 239 230 231 244 235 236 243 234 235 242 233 234
222 216 216 160 156 155 91 87 86 143 142 140 236 236 236 255 255 255
246 248 247 246 248 247 248 248 250 251 251 253 255 253 255
255 254 255 255 253 255 255 254 255 255 255 255 255 255 255
255 255 255 255 255 255 255 255 255 255 255 255 255 255 255
255 255 255 255 255 255 255 255 255 255 255 255 255 255 255
255 255 255 255 255 255 255 255 255 255 255 255 255 255 255
255 255 255 255 255 255 255 255 255 255 255 255 255 255 255
255 255 255 255 255 255 255 255 255 255 255 255 255 255 255
255 255 255 255 255 255 255 255 255 255 255 255 255 255 255
255 255 255 255 255 255 255 255 255 255 255 255 255 255 255
255 255 255 255 255 255 255 255 255 255 255 255 255 255 255
255 255 255 255 255 255 255 255 255 255 255 255 255 255 255
255 255 255 255 255 255 255 255 255 255 255 255 255 255 255
255 255 255 255 255 255 255 255 255 255 255 255 255 255 255
255 255 255 255 255 255 255 255 255 255 255 255 255 255 255
255 255 255 255 255 255 255 255 255 255 255 255 255 255 255
255 255 255 255 255 255 255 255 255 255 255 255 255 255 255
255 255 255 255 255 255 255 255 255 255 255 255 255 255 255
255 255 255 255 255 255 255 255 255 255 255 255 255 255 255
255 255 255 255 255 255 255 255 255 255 255 255 255 255 255
255 255 255 255 255 255 255 255 255 255 255 255 255 255 255
255 255 255 255 255 255 255 255 255 255 255 255 255 255 255
255 255 255 255 255 255 255 255 255 255 255 255 255 255 255
255 255 255 255 255 255 255 255 255 255 255 255 255 255 255
255 255 255 255 255 255 255 255 255 255 255 255 255 255 255
255 255 255 255 255 255 255 255 255 255 255 255 255 255 255
255 255 255 255 255 255 255 255 255 255 255 255 255 255 255
255 255 255 255 255 255 255 255 255 255 255 255 255 255 255
255 255 255 255 255 255 255 255 255 255 255 255 255 255 255
255 255 255 255 255 255 255 255 255 255 255 255 255 255 255
255 255 255 255 255 255 255 255 255 255 255 255 255 255 255
255 255 255 255 255 255 255 255 255 255 255 255 255 255 255
255 255 255 255 255 255 255 255 255 255 255 255 255 255 255
255 255 255 255 255 255 255 255 255 255 255 255 255 255 255
255 255 255 255 255 255 255 255 255 255 255 255 255 255 255
255 255 255 255 255 255 255 255 255 255 255 255 255 255 255
255 255 255 255 255 255 255 255 255 255 255 255 255 255 255
255 255 255 255 255 255 255 255 255 255 255 255 255 255 255
255 255 255 255 255 255 255 255 255 255 255 255 255 255 255
255 255 255 255 255 255 255 255 255 255 255 255 255 255 255
255 255 255 255 255 255 255 255 255 255 255 255 255 255 255
255 255 255 255 255 255 255 255 255 255 255 255 255 255 255
255 255 255 255 255 255 255 255 255 255 255 255 255 255 255
255 255 255 255 255 255 255 255 255 255 255 255 255 255 255
255 255 255 255 255 255 255 255 255 255 255 255 255 255 255
255 255 255 255 255 255 255 255 255 255 255 255 255 255 255
255 255 255 255 255 255 255 255 255 255 255 255 255 255 255
255 255 255 255 255 255 255 255 255 255 255 255 255 255 255
255 255 255 255 255 255 255 255 255 255 255 255 255 255 255
255 255 255 255 255 255 255 255 255 255 255 255 255 255 255
255 255 255 255 255 255 255 255 255 255 255 255 255 255 255
255 255 255 255 255 255 255 255 255 255 255 255 255 255 255
255 255 255 255 255 255 255 255 255 255 255 255 255 255 255
255 255 255 255 255 255 255 255 255 255 255 255 255 255 255
255 255 255 255 255 255 255 255 255 255 255 255 255 255 255
255 255 255 255 255 255 255 255 255 255 255 255 255 255 255
255 255 255 255 255 255 255 255 255 255 255 255 255 255 255
255 255 255 255 255 255 255 255 255 255 255 255 255 255 255
255 255 255 255 255 255 255 255 255 255 255 255 255 255 255
255 255 255 255 255 255 255 255 255 255 255 255 255 255 255
255 255 255 255 255 255 255 255 255 255 255 255 255 255 255
255 255 255 255 255 255 255 255 255 255 255 255 255 255 255
255 255 255 255 255 255 255 255 255 255 255 255 255 255 255
255 255 255 255 255 255 255 255 255 255 255 255 255 255 255
255 255 255 255 255 255 255 255 255 255 255 255 255 255 255
254 254 254 254 254 254 255 255 255 255 255 255 255 255 255
255 255 255 254 254 254 253 255 252 252 255 253 252 255 251
252 255 253 254 255 253 254 255 255 252 253 255 252 251 255
250 249 254 237 235 240 250 248 253 251 249 252 243 241 242
250 246 247 255 254 253 253 249 246 230 226 223 134 129 126
107 102 99 118 113 110 185 180 176 250 245 241 255 255 250
254 250 247 243 242 238 244 244 242 247 249 248 250 251 255
245 248 253 238 241 250 230 234 245 229 233 245 231 234 251
227 232 251 226 233 252 219 224 244 209 214 233 216 219 236
227 230 245 225 224 238 211 211 223 193 191 202 149 146 153
144 139 146 196 191 195 245 236 241 249 240 243 245 236 237
254 245 246 255 249 250 237 228 229 130 124 124 92 88 87 167 163 162
222 221 219 255 255 255 249 249 249 245 247 246 245 247 246
247 247 249 250 250 252 255 253 255 255 254 255 255 254 255
255 254 255 255 255 255 255 255 255 255 255 255 255 255 255
255 255 255 255 255 255 255 255 255 255 255 255 255 255 255
255 255 255 255 255 255 255 255 255 255 255 255 255 255 255
255 255 255 255 255 255 255 255 255 255 255 255 255 255 255
255 255 255 255 255 255 255 255 255 255 255 255 255 255 255
255 255 255 255 255 255 255 255 255 255 255 255 255 255 255
255 255 255 255 255 255 255 255 255 255 255 255 255 255 255
255 255 255 255 255 255 255 255 255 255 255 255 255 255 255
255 255 255 255 255 255 255 255 255 255 255 255 255 255 255
255 255 255 255 255 255 255 255 255 255 255 255 255 255 255
255 255 255 255 255 255 255 255 255 255 255 255 255 255 255
255 255 255 255 255 255 255 255 255 255 255 255 255 255 255
255 255 255 255 255 255 255 255 255 255 255 255 255 255 255
255 255 255 255 255 255 255 255 255 255 255 255 255 255 255
255 255 255 255 255 255 255 255 255 255 255 255 255 255 255
255 255 255 255 255 255 255 255 255 255 255 255 255 255 255
255 255 255 255 255 255 255 255 255 255 255 255 255 255 255
255 255 255 255 255 255 255 255 255 255 255 255 255 255 255
255 255 255 255 255 255 255 255 255 255 255 255 255 255 255
255 255 255 255 255 255 255 255 255 255 255 255 255 255 255
255 255 255 255 255 255 255 255 255 255 255 255 255 255 255
255 255 255 255 255 255 255 255 255 255 255 255 255 255 255
255 255 255 255 255 255 255 255 255 255 255 255 255 255 255
255 255 255 255 255 255 255 255 255 255 255 255 255 255 255
255 255 255 255 255 255 255 255 255 255 255 255 255 255 255
255 255 255 255 255 255 255 255 255 255 255 255 255 255 255
255 255 255 255 255 255 255 255 255 255 255 255 255 255 255
255 255 255 255 255 255 255 255 255 255 255 255 255 255 255
255 255 255 255 255 255 255 255 255 255 255 255 255 255 255
255 255 255 255 255 255 255 255 255 255 255 255 255 255 255
255 255 255 255 255 255 255 255 255 255 255 255 255 255 255
255 255 255 255 255 255 255 255 255 255 255 255 255 255 255
255 255 255 255 255 255 255 255 255 255 255 255 255 255 255
255 255 255 255 255 255 255 255 255 255 255 255 255 255 255
255 255 255 255 255 255 255 255 255 255 255 255 255 255 255
255 255 255 255 255 255 255 255 255 255 255 255 255 255 255
255 255 255 255 255 255 255 255 255 255 255 255 255 255 255
255 255 255 255 255 255 255 255 255 255 255 255 255 255 255
255 255 255 255 255 255 255 255 255 255 255 255 255 255 255
255 255 255 255 255 255 255 255 255 255 255 255 255 255 255
255 255 255 255 255 255 255 255 255 255 255 255 255 255 255
255 255 255 255 255 255 255 255 255 255 255 255 255 255 255
255 255 255 255 255 255 255 255 255 255 255 255 255 255 255
255 255 255 255 255 255 255 255 255 255 255 255 255 255 255
255 255 255 255 255 255 255 255 255 255 255 255 255 255 255
255 255 255 255 255 255 255 255 255 255 255 255 255 255 255
255 255 255 255 255 255 255 255 255 255 255 255 255 255 255
255 255 255 255 255 255 255 255 255 255 255 255 255 255 255
255 255 255 255 255 255 255 255 255 255 255 255 255 255 255
255 255 255 255 255 255 255 255 255 255 255 255 255 255 255
255 255 255 255 255 255 255 255 255 255 255 255 255 255 255
255 255 255 255 255 255 255 255 255 255 255 255 255 255 255
255 255 255 255 255 255 255 255 255 255 255 255 255 255 255
255 255 255 255 255 255 255 255 255 255 255 255 255 255 255
255 255 255 255 255 255 255 255 255 255 255 255 255 255 255
255 255 255 255 255 255 255 255 255 255 255 255 255 255 255
255 255 255 255 255 255 255 255 255 255 255 255 255 255 255
255 255 255 255 255 255 255 255 255 255 255 255 255 255 255
255 255 255 255 255 255 255 255 255 255 255 255 255 255 255
255 255 255 255 255 255 255 255 255 255 255 255 255 255 255
255 255 255 255 255 255 255 255 255 255 255 255 255 255 255
255 255 255 255 255 255 255 255 255 255 255 255 255 255 255
255 255 255 255 255 255 255 255 255 254 254 254 254 254 254
255 255 255 255 255 255 255 255 255 255 255 255 254 254 254
254 254 254 253 255 252 253 255 250 254 255 253 254 255 253
254 254 255 252 252 254 251 250 255 250 249 254 255 254 255
252 250 255 245 243 246 250 248 249 255 254 255 240 236 235
176 172 169 114 110 107 100 96 93 156 152 149 222 217 213 254 251 246
254 251 246 244 243 238 245 244 240 250 250 248 246 248 247
242 246 247 239 242 247 233 238 244 229 233 244 228 232 244
229 232 247 229 235 251 223 228 247 227 234 252 223 228 247
213 219 235 216 219 234 223 225 238 214 214 226 192 192 202
122 119 128 166 163 170 217 212 218 241 236 240 247 241 243
250 241 244 251 242 243 251 242 243 228 219 220 179 170 171
107 101 101 125 121 120 234 230 229 250 249 247 247 247 247
247 247 247 245 247 246 245 247 246 247 247 249 250 250 252
255 253 255 255 254 255 255 254 255 255 254 255 255 255 255
255 255 255 255 255 255 255 255 255 255 255 255 255 255 255
255 255 255 255 255 255 255 255 255 255 255 255 255 255 255
255 255 255 255 255 255 255 255 255 255 255 255 255 255 255
255 255 255 255 255 255 255 255 255 255 255 255 255 255 255
255 255 255 255 255 255 255 255 255 255 255 255 255 255 255
255 255 255 255 255 255 255 255 255 255 255 255 255 255 255
255 255 255 255 255 255 255 255 255 255 255 255 255 255 255
255 255 255 255 255 255 255 255 255 255 255 255 255 255 255
255 255 255 255 255 255 255 255 255 255 255 255 255 255 255
255 255 255 255 255 255 255 255 255 255 255 255 255 255 255
255 255 255 255 255 255 255 255 255 255 255 255 255 255 255
255 255 255 255 255 255 255 255 255 255 255 255 255 255 255
255 255 255 255 255 255 255 255 255 255 255 255 255 255 255
255 255 255 255 255 255 255 255 255 255 255 255 255 255 255
255 255 255 255 255 255 255 255 255 255 255 255 255 255 255
255 255 255 255 255 255 255 255 255 255 255 255 255 255 255
255 255 255 255 255 255 255 255 255 255 255 255 255 255 255
255 255 255 255 255 255 255 255 255 255 255 255 255 255 255
255 255 255 255 255 255 255 255 255 255 255 255 255 255 255
255 255 255 255 255 255 255 255 255 255 255 255 255 255 255
255 255 255 255 255 255 255 255 255 255 255 255 255 255 255
255 255 255 255 255 255 255 255 255 255 255 255 255 255 255
255 255 255 255 255 255 255 255 255 255 255 255 255 255 255
255 255 255 255 255 255 255 255 255 255 255 255 255 255 255
255 255 255 255 255 255 255 255 255 255 255 255 255 255 255
255 255 255 255 255 255 255 255 255 255 255 255 255 255 255
255 255 255 255 255 255 255 255 255 255 255 255 255 255 255
255 255 255 255 255 255 255 255 255 255 255 255 255 255 255
255 255 255 255 255 255 255 255 255 255 255 255 255 255 255
255 255 255 255 255 255 255 255 255 255 255 255 255 255 255
255 255 255 255 255 255 255 255 255 255 255 255 255 255 255
255 255 255 255 255 255 255 255 255 255 255 255 255 255 255
255 255 255 255 255 255 255 255 255 255 255 255 255 255 255
255 255 255 255 255 255 255 255 255 255 255 255 255 255 255
255 255 255 255 255 255 255 255 255 255 255 255 255 255 255
255 255 255 255 255 255 255 255 255 255 255 255 255 255 255
255 255 255 255 255 255 255 255 255 255 255 255 255 255 255
255 255 255 255 255 255 255 255 255 255 255 255 255 255 255
255 255 255 255 255 255 255 255 255 255 255 255 255 255 255
255 255 255 255 255 255 255 255 255 255 255 255 255 255 255
255 255 255 255 255 255 255 255 255 255 255 255 255 255 255
255 255 255 255 255 255 255 255 255 255 255 255 255 255 255
255 255 255 255 255 255 255 255 255 255 255 255 255 255 255
255 255 255 255 255 255 255 255 255 255 255 255 255 255 255
255 255 255 255 255 255 255 255 255 255 255 255 255 255 255
255 255 255 255 255 255 255 255 255 255 255 255 255 255 255
255 255 255 255 255 255 255 255 255 255 255 255 255 255 255
255 255 255 255 255 255 255 255 255 255 255 255 255 255 255
255 255 255 255 255 255 255 255 255 255 255 255 255 255 255
255 255 255 255 255 255 255 255 255 255 255 255 255 255 255
255 255 255 255 255 255 255 255 255 255 255 255 255 255 255
255 255 255 255 255 255 255 255 255 255 255 255 255 255 255
255 255 255 255 255 255 255 255 255 255 255 255 255 255 255
255 255 255 255 255 255 255 255 255 255 255 255 255 255 255
255 255 255 255 255 255 255 255 255 255 255 255 255 255 255
255 255 255 255 255 255 255 255 255 255 255 255 255 255 255
255 255 255 255 255 255 255 255 255 255 255 255 255 255 255
255 255 255 255 255 255 255 255 255 255 255 255 255 255 255
255 255 255 255 255 255 255 255 255 255 255 255 255 255 255
255 255 255 255 255 255 255 255 255 255 255 255 255 255 255
255 255 255 255 255 255 255 255 255 255 255 255 255 255 255
255 255 255 255 255 255 255 255 255 255 255 255 255 255 255
255 255 255 255 255 255 255 255 255 255 255 255 255 255 255
255 255 255 255 255 255 255 255 255 255 255 255 255 255 253
255 255 253 255 255 253 255 255 253 255 253 255 254 252 255
252 250 253 251 249 252 253 248 252 250 245 249 255 252 255
255 254 255 222 216 218 158 152 152 117 111 111 109 105 102
199 195 192 234 233 228 255 255 250 254 253 248 244 243 239
247 248 243 253 253 251 250 252 249 247 248 250 238 242 245
230 233 240 226 230 239 229 233 245 230 236 250 230 236 252
228 233 252 227 232 251 224 229 248 219 222 241 213 216 233
214 216 231 208 210 223 185 185 197 157 157 167 132 129 138
194 191 198 251 246 252 255 253 255 247 241 243 245 239 241
250 241 242 250 241 242 167 158 159 93 84 85 149 143 143 219 215 214
243 239 238 246 245 243 255 255 255 244 246 245 246 248 247
245 247 246 247 248 250 249 250 252 254 254 255 255 255 255
255 254 255 255 254 255 255 255 255 255 255 255 255 255 255
255 255 255 255 255 255 255 255 255 255 255 255 255 255 255
255 255 255 255 255 255 255 255 255 255 255 255 255 255 255
255 255 255 255 255 255 255 255 255 255 255 255 255 255 255
255 255 255 255 255 255 255 255 255 255 255 255 255 255 255
255 255 255 255 255 255 255 255 255 255 255 255 255 255 255
255 255 255 255 255 255 255 255 255 255 255 255 255 255 255
255 255 255 255 255 255 255 255 255 255 255 255 255 255 255
255 255 255 255 255 255 255 255 255 255 255 255 255 255 255
255 255 255 255 255 255 255 255 255 255 255 255 255 255 255
255 255 255 255 255 255 255 255 255 255 255 255 255 255 255
255 255 255 255 255 255 255 255 255 255 255 255 255 255 255
255 255 255 255 255 255 255 255 255 255 255 255 255 255 255
255 255 255 255 255 255 255 255 255 255 255 255 255 255 255
255 255 255 255 255 255 255 255 255 255 255 255 255 255 255
255 255 255 255 255 255 255 255 255 255 255 255 255 255 255
255 255 255 255 255 255 255 255 255 255 255 255 255 255 255
255 255 255 255 255 255 255 255 255 255 255 255 255 255 255
255 255 255 255 255 255 255 255 255 255 255 255 255 255 255
255 255 255 255 255 255 255 255 255 255 255 255 255 255 255
255 255 255 255 255 255 255 255 255 255 255 255 255 255 255
255 255 255 255 255 255 255 255 255 255 255 255 255 255 255
255 255 255 255 255 255 255 255 255 255 255 255 255 255 255
255 255 255 255 255 255 255 255 255 255 255 255 255 255 255
255 255 255 255 255 255 255 255 255 255 255 255 255 255 255
255 255 255 255 255 255 255 255 255 255 255 255 255 255 255
255 255 255 255 255 255 255 255 255 255 255 255 255 255 255
255 255 255 255 255 255 255 255 255 255 255 255 255 255 255
255 255 255 255 255 255 255 255 255 255 255 255 255 255 255
255 255 255 255 255 255 255 255 255 255 255 255 255 255 255
255 255 255 255 255 255 255 255 255 255 255 255 255 255 255
255 255 255 255 255 255 255 255 255 255 255 255 255 255 255
255 255 255 255 255 255 255 255 255 255 255 255 255 255 255
255 255 255 255 255 255 255 255 255 255 255 255 255 255 255
255 255 255 255 255 255 255 255 255 255 255 255 255 255 255
255 255 255 255 255 255 255 255 255 255 255 255 255 255 255
255 255 255 255 255 255 255 255 255 255 255 255 255 255 255
255 255 255 255 255 255 255 255 255 255 255 255 255 255 255
255 255 255 255 255 255 255 255 255 255 255 255 255 255 255
255 255 255 255 255 255 255 255 255 255 255 255 255 255 255
255 255 255 255 255 255 255 255 255 255 255 255 255 255 255
255 255 255 255 255 255 255 255 255 255 255 255 255 255 255
255 255 255 255 255 255 255 255 255 255 255 255 255 255 255
255 255 255 255 255 255 255 255 255 255 255 255 255 255 255
255 255 255 255 255 255 255 255 255 255 255 255 255 255 255
255 255 255 255 255 255 255 255 255 255 255 255 255 255 255
255 255 255 255 255 255 255 255 255 255 255 255 255 255 255
255 255 255 255 255 255 255 255 255 255 255 255 255 255 255
255 255 255 255 255 255 255 255 255 255 255 255 255 255 255
255 255 255 255 255 255 255 255 255 255 255 255 255 255 255
255 255 255 255 255 255 255 255 255 255 255 255 255 255 255
255 255 255 255 255 255 255 255 255 255 255 255 255 255 255
255 255 255 255 255 255 255 255 255 255 255 255 255 255 255
255 255 255 255 255 255 255 255 255 255 255 255 255 255 255
255 255 255 255 255 255 255 255 255 255 255 255 255 255 255
255 255 255 255 255 255 255 255 255 255 255 255 255 255 255
255 255 255 255 255 255 255 255 255 255 255 255 255 255 255
255 255 255 255 255 255 255 255 255 255 255 255 255 255 255
255 255 255 255 255 255 255 255 255 255 255 255 255 255 255
255 255 255 255 255 255 255 255 255 255 255 255 255 255 255
255 255 255 255 255 255 255 255 255 255 255 255 255 255 255
255 255 255 255 255 255 255 255 255 255 255 255 255 255 255
255 255 255 255 255 255 255 255 255 255 255 255 254 254 254
254 254 254 255 255 255 255 255 255 255 255 255 255 255 255
254 254 254 254 254 254 255 255 253 255 255 253 255 255 253
255 254 255 255 254 255 254 252 255 251 249 252 250 248 251
242 237 241 250 245 249 234 229 233 181 177 178 128 122 124
122 116 116 170 164 164 221 217 216 255 255 251 253 254 248
252 253 247 253 254 248 255 255 251 254 255 253 251 253 250
240 244 243 242 246 249 234 239 243 228 232 241 229 236 246
235 241 255 237 243 255 231 236 255 225 230 249 217 222 241
211 217 233 214 217 234 221 224 239 215 217 230 186 188 200
152 152 162 129 128 136 213 210 217 239 237 242 249 244 248
236 231 235 239 233 235 251 245 247 234 225 226 198 189 190
131 122 123 103 97 97 194 188 188 250 246 245 247 246 244 255 255 253
254 255 255 240 242 241 248 250 249 247 249 248 248 249 251
250 251 253 255 255 255 255 255 255 255 254 255 255 254 255
255 255 255 255 255 255 255 255 255 255 255 255 255 255 255
255 255 255 255 255 255 255 255 255 255 255 255 255 255 255
255 255 255 255 255 255 255 255 255 255 255 255 255 255 255
255 255 255 255 255 255 255 255 255 255 255 255 255 255 255
255 255 255 255 255 255 255 255 255 255 255 255 255 255 255
255 255 255 255 255 255 255 255 255 255 255 255 255 255 255
255 255 255 255 255 255 255 255 255 255 255 255 255 255 255
255 255 255 255 255 255 255 255 255 255 255 255 255 255 255
255 255 255 255 255 255 255 255 255 255 255 255 255 255 255
255 255 255 255 255 255 255 255 255 255 255 255 255 255 255
255 255 255 255 255 255 255 255 255 255 255 255 255 255 255
255 255 255 255 255 255 255 255 255 255 255 255 255 255 255
255 255 255 255 255 255 255 255 255 255 255 255 255 255 255
255 255 255 255 255 255 255 255 255 255 255 255 255 255 255
255 255 255 255 255 255 255 255 255 255 255 255 255 255 255
255 255 255 255 255 255 255 255 255 255 255 255 255 255 255
255 255 255 255 255 255 255 255 255 255 255 255 255 255 255
255 255 255 255 255 255 255 255 255 255 255 255 255 255 255
255 255 255 255 255 255 255 255 255 255 255 255 255 255 255
255 255 255 255 255 255 255 255 255 255 255 255 255 255 255
255 255 255 255 255 255 255 255 255 255 255 255 255 255 255
255 255 255 255 255 255 255 255 255 255 255 255 255 255 255
255 255 255 255 255 255 255 255 255 255 255 255 255 255 255
255 255 255 255 255 255 255 255 255 255 255 255 255 255 255
255 255 255 255 255 255 255 255 255 255 255 255 255 255 255
255 255 255 255 255 255 255 255 255 255 255 255 255 255 255
255 255 255 255 255 255 255 255 255 255 255 255 255 255 255
255 255 255 255 255 255 255 255 255 255 255 255 255 255 255
255 255 255 255 255 255 255 255 255 255 255 255 255 255 255
255 255 255 255 255 255 255 255 255 255 255 255 255 255 255
255 255 255 255 255 255 255 255 255 255 255 255 255 255 255
255 255 255 255 255 255 255 255 255 255 255 255 255 255 255
255 255 255 255 255 255 255 255 255 255 255 255 255 255 255
255 255 255 255 255 255 255 255 255 255 255 255 255 255 255
255 255 255 255 255 255 255 255 255 255 255 255 255 255 255
255 255 255 255 255 255 255 255 255 255 255 255 255 255 255
255 255 255 255 255 255 255 255 255 255 255 255 255 255 255
255 255 255 255 255 255 255 255 255 255 255 255 255 255 255
255 255 255 255 255 255 255 255 255 255 255 255 255 255 255
255 255 255 255 255 255 255 255 255 255 255 255 255 255 255
255 255 255 255 255 255 255 255 255 255 255 255 255 255 255
255 255 255 255 255 255 255 255 255 255 255 255 255 255 255
255 255 255 255 255 255 255 255 255 255 255 255 255 255 255
255 255 255 255 255 255 255 255 255 255 255 255 255 255 255
255 255 255 255 255 255 255 255 255 255 255 255 255 255 255
255 255 255 255 255 255 255 255 255 255 255 255 255 255 255
255 255 255 255 255 255 255 255 255 255 255 255 255 255 255
255 255 255 255 255 255 255 255 255 255 255 255 255 255 255
255 255 255 255 255 255 255 255 255 255 255 255 255 255 255
255 255 255 255 255 255 255 255 255 255 255 255 255 255 255
255 255 255 255 255 255 255 255 255 255 255 255 255 255 255
255 255 255 255 255 255 255 255 255 255 255 255 255 255 255
255 255 255 255 255 255 255 255 255 255 255 255 255 255 255
255 255 255 255 255 255 255 255 255 255 255 255 255 255 255
255 255 255 255 255 255 255 255 255 255 255 255 255 255 255
255 255 255 255 255 255 255 255 255 255 255 255 255 255 255
255 255 255 255 255 255 255 255 255 255 255 255 255 255 255
255 255 255 255 255 255 255 255 255 255 255 255 255 255 255
255 255 255 255 255 255 255 255 255 255 255 255 255 255 255
255 255 255 255 255 255 255 255 255 255 255 255 255 255 255
255 255 255 255 255 255 255 255 255 255 255 255 255 255 255
255 255 255 255 255 255 255 255 255 255 255 255 255 255 255
255 255 255 255 255 255 252 252 252 252 252 252 253 253 253
253 253 253 253 253 253 253 253 253 252 252 252 252 252 252
255 254 255 255 254 255 255 254 255 255 252 253 255 251 252
252 248 249 249 245 246 248 244 245 255 249 251 213 207 209
152 146 148 117 111 113 137 131 133 192 186 188 237 231 233
253 249 248 254 255 250 250 253 246 248 250 245 248 250 245
246 248 245 241 246 242 244 248 249 248 253 255 237 242 246
233 238 244 230 234 245 231 237 249 236 242 255 236 243 255
229 236 254 224 229 248 211 217 233 211 214 229 220 222 237
220 222 235 190 189 203 150 150 162 149 147 158 173 172 180
238 235 242 254 252 255 255 251 255 244 239 243 251 245 247
247 241 241 187 178 179 110 101 102 128 122 122 199 193 193
242 236 236 249 245 244 248 247 245 247 247 245 235 237 236
254 255 255 248 252 251 247 251 250 250 251 253 252 253 255
255 255 255 255 255 255 255 254 255 255 254 255 255 255 255
255 255 255 255 255 255 255 255 255 255 255 255 255 255 255
255 255 255 255 255 255 255 255 255 255 255 255 255 255 255
255 255 255 255 255 255 255 255 255 255 255 255 255 255 255
255 255 255 255 255 255 255 255 255 255 255 255 255 255 255
255 255 255 255 255 255 255 255 255 255 255 255 255 255 255
255 255 255 255 255 255 255 255 255 255 255 255 255 255 255
255 255 255 255 255 255 255 255 255 255 255 255 255 255 255
255 255 255 255 255 255 255 255 255 255 255 255 255 255 255
255 255 255 255 255 255 255 255 255 255 255 255 255 255 255
255 255 255 255 255 255 255 255 255 255 255 255 255 255 255
255 255 255 255 255 255 255 255 255 255 255 255 255 255 255
255 255 255 255 255 255 255 255 255 255 255 255 255 255 255
255 255 255 255 255 255 255 255 255 255 255 255 255 255 255
255 255 255 255 255 255 255 255 255 255 255 255 255 255 255
255 255 255 255 255 255 255 255 255 255 255 255 255 255 255
255 255 255 255 255 255 255 255 255 255 255 255 255 255 255
255 255 255 255 255 255 255 255 255 255 255 255 255 255 255
255 255 255 255 255 255 255 255 255 255 255 255 255 255 255
255 255 255 255 255 255 255 255 255 255 255 255 255 255 255
255 255 255 255 255 255 255 255 255 255 255 255 255 255 255
255 255 255 255 255 255 255 255 255 255 255 255 255 255 255
255 255 255 255 255 255 255 255 255 255 255 255 255 255 255
255 255 255 255 255 255 255 255 255 255 255 255 255 255 255
255 255 255 255 255 255 255 255 255 255 255 255 255 255 255
255 255 255 255 255 255 255 255 255 255 255 255 255 255 255
255 255 255 255 255 255 255 255 255 255 255 255 255 255 255
255 255 255 255 255 255 255 255 255 255 255 255 255 255 255
255 255 255 255 255 255 255 255 255 255 255 255 255 255 255
255 255 255 255 255 255 255 255 255 255 255 255 255 255 255
255 255 255 255 255 255 255 255 255 255 255 255 255 255 255
255 255 255 255 255 255 255 255 255 255 255 255 255 255 255
255 255 255 255 255 255 255 255 255 255 255 255 255 255 255
255 255 255 255 255 255 255 255 255 255 255 255 255 255 255
255 255 255 255 255 255 255 255 255 255 255 255 255 255 255
255 255 255 255 255 255 255 255 255 255 255 255 255 255 255
255 255 255 255 255 255 255 255 255 255 255 255 255 255 255
255 255 255 255 255 255 255 255 255 255 255 255 255 255 255
255 255 255 255 255 255 255 255 255 255 255 255 255 255 255
255 255 255 255 255 255 255 255 255 255 255 255 255 255 255
255 255 255 255 255 255 255 255 255 255 255 255 255 255 255
255 255 255 255 255 255 255 255 255 255 255 255 255 255 255
255 255 255 255 255 255 255 255 255 255 255 255 255 255 255
255 255 255 255 255 255 255 255 255 255 255 255 255 255 255
255 255 255 255 255 255 255 255 255 255 255 255 255 255 255
255 255 255 255 255 255 255 255 255 255 255 255 255 255 255
255 255 255 255 255 255 255 255 255 255 255 255 255 255 255
255 255 255 255 255 255 255 255 255 255 255 255 255 255 255
255 255 255 255 255 255 255 255 255 255 255 255 255 255 255
255 255 255 255 255 255 255 255 255 255 255 255 255 255 255
255 255 255 255 255 255 255 255 255 255 255 255 255 255 255
255 255 255 255 255 255 255 255 255 255 255 255 255 255 255
255 255 255 255 255 255 255 255 255 255 255 255 255 255 255
255 255 255 255 255 255 255 255 255 255 255 255 255 255 255
255 255 255 255 255 255 255 255 255 255 255 255 255 255 255
255 255 255 255 255 255 255 255 255 255 255 255 255 255 255
255 255 255 255 255 255 255 255 255 255 255 255 255 255 255
255 255 255 255 255 255 255 255 255 255 255 255 255 255 255
255 255 255 255 255 255 255 255 255 255 255 255 255 255 255
255 255 255 255 255 255 255 255 255 255 255 255 255 255 255
255 255 255 255 255 255 255 255 255 255 255 255 255 255 255
255 255 255 255 255 255 255 255 255 255 255 255 255 255 255
255 255 255 255 255 255 255 255 255 255 255 255 255 255 255
255 255 255 250 250 250 250 250 250 251 251 251 251 251 251
251 251 251 251 251 251 250 250 250 251 249 250 254 250 251
254 250 251 254 250 251 252 248 249 250 246 247 247 243 244
244 240 241 243 239 240 185 179 181 123 117 119 105 99 101
166 160 162 231 225 227 248 242 244 250 244 246 255 254 253
241 242 237 247 252 246 252 255 251 248 253 249 244 249 245
244 248 247 238 243 246 232 237 241 237 242 248 233 237 246
228 234 246 228 234 248 229 236 252 230 237 255 228 235 254
226 231 250 228 231 246 226 228 241 225 227 240 200 202 214
142 142 154 110 110 120 169 168 176 255 254 255 241 239 244
243 241 244 250 245 249 254 250 251 247 241 241 209 203 203
150 141 142 100 91 92 173 167 167 254 248 248 248 244 243 248 247 245
249 248 246 254 254 252 248 250 249 251 253 252 249 253 252
249 253 252 251 252 254 253 254 255 255 255 255 255 255 255
255 254 255 255 253 255 255 255 255 255 255 255 255 255 255
255 255 255 255 255 255 255 255 255 255 255 255 255 255 255
255 255 255 255 255 255 255 255 255 255 255 255 255 255 255
255 255 255 255 255 255 255 255 255 255 255 255 255 255 255
255 255 255 255 255 255 255 255 255 255 255 255 255 255 255
255 255 255 255 255 255 255 255 255 255 255 255 255 255 255
255 255 255 255 255 255 255 255 255 255 255 255 255 255 255
255 255 255 255 255 255 255 255 255 255 255 255 255 255 255
255 255 255 255 255 255 255 255 255 255 255 255 255 255 255
255 255 255 255 255 255 255 255 255 255 255 255 255 255 255
255 255 255 255 255 255 255 255 255 255 255 255 255 255 255
255 255 255 255 255 255 255 255 255 255 255 255 255 255 255
255 255 255 255 255 255 255 255 255 255 255 255 255 255 255
255 255 255 255 255 255 255 255 255 255 255 255 255 255 255
255 255 255 255 255 255 255 255 255 255 255 255 255 255 255
255 255 255 255 255 255 255 255 255 255 255 255 255 255 255
255 255 255 255 255 255 255 255 255 255 255 255 255 255 255
255 255 255 255 255 255 255 255 255 255 255 255 255 255 255
255 255 255 255 255 255 255 255 255 255 255 255 255 255 255
255 255 255 255 255 255 255 255 255 255 255 255 255 255 255
255 255 255 255 255 255 255 255 255 255 255 255 255 255 255
255 255 255 255 255 255 255 255 255 255 255 255 255 255 255
255 255 255 255 255 255 255 255 255 255 255 255 255 255 255
255 255 255 255 255 255 255 255 255 255 255 255 255 255 255
255 255 255 255 255 255 255 255 255 255 255 255 255 255 255
255 255 255 255 255 255 255 255 255 255 255 255 255 255 255
255 255 255 255 255 255 255 255 255 255 255 255 255 255 255
255 255 255 255 255 255 255 255 255 255 255 255 255 255 255
255 255 255 255 255 255 255 255 255 255 255 255 255 255 255
255 255 255 255 255 255 255 255 255 255 255 255 255 255 255
255 255 255 255 255 255 255 255 255 255 255 255 255 255 255
255 255 255 255 255 255 255 255 255 255 255 255 255 255 255
255 255 255 255 255 255 255 255 255 255 255 255 255 255 255
255 255 255 255 255 255 255 255 255 255 255 255 255 255 255
255 255 255 255 255 255 255 255 255 255 255 255 255 255 255
255 255 255 255 255 255 255 255 255 255 255 255 255 255 255
255 255 255 255 255 255 255 255 255 255 255 255 255 255 255
255 255 255 255 255 255 255 255 255 255 255 255 255 255 255
255 255 255 255 255 255 255 255 255 255 255 255 255 255 255
255 255 255 255 255 255 255 255 255 255 255 255 255 255 255
255 255 255 255 255 255 255 255 255 255 255 255 255 255 255
255 255 255 255 255 255 255 255 255 255 255 255 255 255 255
255 255 255 255 255 255 255 255 255 255 255 255 255 255 255
255 255 255 255 255 255 255 255 255 255 255 255 255 255 255
255 255 255 255 255 255 255 255 255 255 255 255 255 255 255
255 255 255 255 255 255 255 255 255 255 255 255 255 255 255
255 255 255 255 255 255 255 255 255 255 255 255 255 255 255
255 255 255 255 255 255 255 255 255 255 255 255 255 255 255
255 255 255 255 255 255 255 255 255 255 255 255 255 255 255
255 255 255 255 255 255 255 255 255 255 255 255 255 255 255
255 255 255 255 255 255 255 255 255 255 255 255 255 255 255
255 255 255 255 255 255 255 255 255 255 255 255 255 255 255
255 255 255 255 255 255 255 255 255 255 255 255 255 255 255
255 255 255 255 255 255 255 255 255 255 255 255 255 255 255
255 255 255 255 255 255 255 255 255 255 255 255 255 255 255
255 255 255 255 255 255 255 255 255 255 255 255 255 255 255
255 255 255 255 255 255 255 255 255 255 255 255 255 255 255
255 255 255 255 255 255 255 255 255 255 255 255 255 255 255
255 255 255 255 255 255 255 255 255 255 255 255 255 255 255
255 255 255 255 255 255 255 255 255 255 255 255 255 255 255
255 255 255 255 255 255 255 255 255 255 255 255 255 255 255
255 255 255 254 254 254 254 254 254 254 254 254 255 255 255
255 255 255 255 255 255 255 255 255 255 255 255 241 241 241
255 255 255 255 255 255 250 250 250 255 255 255 255 255 255
248 248 248 255 254 255 255 254 255 241 235 237 246 240 242
252 246 248 243 237 239 245 239 241 211 205 207 136 130 132 75 71 72
133 129 130 202 198 199 241 237 238 253 249 250 255 253 254
255 253 254 253 252 250 238 240 235 243 250 243 244 250 246
239 245 243 238 244 244 241 246 249 236 241 245 226 231 237
229 236 246 227 233 245 224 230 244 227 233 249 228 233 252
218 223 242 213 220 239 224 229 248 226 228 243 245 245 255
209 209 221 122 122 132 125 123 134 196 195 203 230 227 236
252 249 255 246 241 247 243 238 242 241 236 240 255 253 254
225 219 219 100 94 94 109 104 101 188 183 180 244 238 238 248 242 242
254 250 249 255 255 253 255 255 253 255 255 253 250 252 251
245 249 248 244 248 247 244 248 247 246 250 251 248 252 253
254 255 255 254 255 255 255 255 255 255 255 255 255 255 255
255 255 255 255 255 255 255 255 255 255 255 255 255 255 255
255 255 255 255 255 255 255 255 255 255 255 255 255 255 255
255 255 255 255 255 255 255 255 255 255 255 255 255 255 255
255 255 255 255 255 255 255 255 255 255 255 255 255 255 255
255 255 255 255 255 255 255 255 255 255 255 255 255 255 255
255 255 255 255 255 255 255 255 255 255 255 255 255 255 255
255 255 255 255 255 255 255 255 255 255 255 255 255 255 255
255 255 255 255 255 255 255 255 255 255 255 255 255 255 255
255 255 255 255 255 255 255 255 255 255 255 255 255 255 255
255 255 255 255 255 255 255 255 255 255 255 255 255 255 255
255 255 255 255 255 255 254 254 254 254 254 254 254 254 254
255 255 255 255 255 255 255 255 255 255 255 255 255 255 255
255 255 255 255 255 255 255 255 255 255 255 255 255 255 255
255 255 255 255 255 255 255 255 255 255 255 255 255 255 255
255 255 255 255 255 255 255 255 255 255 255 255 255 255 255
255 255 255 255 255 255 255 255 255 255 255 255 255 255 255
255 255 255 255 255 255 255 255 255 255 255 255 255 255 255
255 255 255 255 255 255 255 255 255 255 255 255 255 255 255
255 255 255 255 255 255 255 255 255 255 255 255 255 255 255
255 255 255 255 255 255 255 255 255 255 255 255 255 255 255
255 255 255 255 255 255 255 255 255 255 255 255 255 255 255
255 255 255 255 255 255 255 255 255 255 255 255 255 255 255
255 255 255 255 255 255 255 255 255 255 255 255 255 255 255
255 255 255 255 255 255 255 255 255 255 255 255 255 255 255
255 255 255 255 255 255 255 255 255 255 255 255 255 255 255
255 255 255 255 255 255 255 255 255 255 255 255 255 255 255
255 255 255 255 255 255 255 255 255 255 255 255 255 255 255
255 255 255 255 255 255 255 255 255 255 255 255 255 255 255
255 255 255 255 255 255 255 255 255 255 255 255 255 255 255
255 255 255 255 255 255 255 255 255 255 255 255 255 255 255
255 255 255 255 255 255 255 255 255 255 255 255 255 255 255
255 255 255 255 255 255 255 255 255 255 255 255 255 255 255
255 255 255 255 255 255 255 255 255 255 255 255 255 255 255
255 255 255 255 255 255 255 255 255 255 255 255 255 255 255
255 255 255 255 255 255 255 255 255 255 255 255 255 255 255
255 255 255 255 255 255 255 255 255 255 255 255 255 255 255
255 255 255 255 255 255 255 255 255 255 255 255 255 255 255
255 255 255 255 255 255 255 255 255 255 255 255 255 255 255
255 255 255 255 255 255 255 255 255 255 255 255 255 255 255
255 255 255 255 255 255 255 255 255 255 255 255 255 255 255
255 255 255 255 255 255 255 255 255 255 255 255 255 255 255
255 255 255 255 255 255 255 255 255 255 255 255 255 255 255
255 255 255 255 255 255 255 255 255 255 255 255 255 255 255
255 255 255 255 255 255 255 255 255 255 255 255 255 255 255
255 255 255 255 255 255 255 255 255 255 255 255 255 255 255
255 255 255 255 255 255 255 255 255 255 255 255 255 255 255
255 255 255 255 255 255 255 255 255 255 255 255 255 255 255
255 255 255 255 255 255 255 255 255 255 255 255 255 255 255
255 255 255 255 255 255 255 255 255 255 255 255 255 255 255
255 255 255 255 255 255 255 255 255 255 255 255 255 255 255
255 255 255 255 255 255 255 255 255 255 255 255 255 255 255
255 255 255 255 255 255 255 255 255 255 255 255 255 255 255
255 255 255 255 255 255 255 255 255 255 255 255 255 255 255
255 255 255 255 255 255 255 255 255 255 255 255 255 255 255
255 255 255 255 255 255 255 255 255 255 255 255 255 255 255
255 255 255 255 255 255 255 255 255 255 255 255 255 255 255
255 255 255 255 255 255 255 255 255 255 255 255 255 255 255
255 255 255 255 255 255 255 255 255 255 255 255 255 255 255
255 255 255 255 255 255 255 255 255 255 255 255 255 255 255
255 255 255 255 255 255 255 255 255 255 255 255 255 255 255
255 255 255 255 255 255 255 255 255 255 255 255 255 255 255
255 255 255 255 255 255 254 254 254 254 254 254 254 254 254
254 254 254 255 255 255 250 250 250 248 248 248 248 248 248
237 237 237 248 248 248 255 255 255 249 247 248 242 238 239
255 253 255 255 253 255 250 244 246 238 232 234 169 163 165
108 102 104 113 109 110 170 166 167 205 201 202 241 237 238
253 249 250 250 246 247 249 245 246 250 246 247 246 246 246
240 245 241 247 253 249 247 253 251 239 245 245 233 238 241
235 240 244 234 239 245 229 233 242 219 225 237 237 243 255
243 249 255 230 236 252 220 225 244 219 224 243 215 220 239
207 213 229 218 220 233 209 209 219 165 165 175 129 129 137
180 179 187 238 237 243 241 238 245 255 253 255 240 235 239
248 244 245 248 244 245 210 206 207 156 150 150 100 94 94 134 129 126
225 220 217 252 246 246 252 248 247 253 249 248 253 252 250
254 254 252 254 255 253 252 255 255 252 255 255 248 252 251
247 251 250 247 251 252 249 253 254 253 254 255 254 255 255
255 255 255 255 255 255 255 255 255 255 255 255 255 255 255
255 255 255 255 255 255 255 255 255 255 255 255 255 255 255
255 255 255 255 255 255 255 255 255 255 255 255 255 255 255
255 255 255 255 255 255 255 255 255 255 255 255 255 255 255
255 255 255 255 255 255 255 255 255 255 255 255 255 255 255
255 255 255 255 255 255 255 255 255 255 255 255 255 255 255
255 255 255 255 255 255 255 255 255 255 255 255 255 255 255
255 255 255 255 255 255 255 255 255 255 255 255 255 255 255
255 255 255 255 255 255 255 255 255 255 255 255 255 255 255
254 254 254 254 254 254 254 254 254 255 255 255 255 255 255
255 255 255 255 255 255 254 254 254 254 254 254 254 254 254
254 254 254 254 254 254 254 254 254 254 254 254 255 255 255
255 255 255 255 255 255 255 255 255 255 255 255 255 255 255
254 254 254 255 255 255 255 255 255 255 255 255 255 255 255
255 255 255 255 255 255 255 255 255 255 255 255 255 255 255
255 255 255 255 255 255 255 255 255 255 255 255 255 255 255
255 255 255 255 255 255 255 255 255 255 255 255 255 255 255
255 255 255 255 255 255 255 255 255 255 255 255 255 255 255
255 255 255 255 255 255 255 255 255 255 255 255 255 255 255
255 255 255 255 255 255 255 255 255 255 255 255 255 255 255
255 255 255 255 255 255 255 255 255 255 255 255 255 255 255
255 255 255 255 255 255 255 255 255 255 255 255 255 255 255
255 255 255 255 255 255 255 255 255 255 255 255 255 255 255
255 255 255 255 255 255 255 255 255 255 255 255 255 255 255
255 255 255 255 255 255 255 255 255 255 255 255 255 255 255
255 255 255 255 255 255 255 255 255 255 255 255 255 255 255
255 255 255 255 255 255 255 255 255 255 255 255 255 255 255
255 255 255 255 255 255 255 255 255 255 255 255 255 255 255
255 255 255 255 255 255 255 255 255 255 255 255 255 255 255
255 255 255 255 255 255 255 255 255 255 255 255 255 255 255
255 255 255 255 255 255 255 255 255 255 255 255 255 255 255
255 255 255 255 255 255 255 255 255 255 255 255 255 255 255
255 255 255 255 255 255 255 255 255 255 255 255 255 255 255
255 255 255 255 255 255 255 255 255 255 255 255 255 255 255
255 255 255 255 255 255 255 255 255 255 255 255 255 255 255
255 255 255 255 255 255 255 255 255 255 255 255 255 255 255
255 255 255 255 255 255 255 255 255 255 255 255 255 255 255
255 255 255 255 255 255 255 255 255 255 255 255 255 255 255
255 255 255 255 255 255 255 255 255 255 255 255 255 255 255
255 255 255 255 255 255 255 255 255 255 255 255 255 255 255
255 255 255 255 255 255 255 255 255 255 255 255 255 255 255
255 255 255 255 255 255 255 255 255 255 255 255 255 255 255
255 255 255 255 255 255 255 255 255 255 255 255 255 255 255
255 255 255 255 255 255 255 255 255 255 255 255 255 255 255
255 255 255 255 255 255 255 255 255 255 255 255 255 255 255
255 255 255 255 255 255 255 255 255 255 255 255 255 255 255
255 255 255 255 255 255 255 255 255 255 255 255 255 255 255
255 255 255 255 255 255 255 255 255 255 255 255 255 255 255
255 255 255 255 255 255 255 255 255 255 255 255 255 255 255
255 255 255 255 255 255 255 255 255 255 255 255 255 255 255
255 255 255 255 255 255 255 255 255 255 255 255 255 255 255
255 255 255 255 255 255 255 255 255 255 255 255 255 255 255
255 255 255 255 255 255 255 255 255 255 255 255 255 255 255
255 255 255 255 255 255 255 255 255 255 255 255 255 255 255
255 255 255 255 255 255 255 255 255 255 255 255 255 255 255
255 255 255 255 255 255 255 255 255 255 255 255 255 255 255
255 255 255 255 255 255 255 255 255 255 255 255 255 255 255
255 255 255 255 255 255 255 255 255 255 255 255 255 255 255
255 255 255 255 255 255 255 255 255 255 255 255 255 255 255
255 255 255 255 255 255 255 255 255 254 254 254 254 254 254
254 254 254 254 254 254 254 254 254 255 255 255 255 255 255
255 255 255 255 255 255 255 255 255 255 255 255 255 255 255
254 254 254 254 254 254 254 254 254 253 253 253 252 252 252
240 240 240 246 246 246 247 247 247 242 242 242 255 255 255
255 255 255 243 241 242 255 253 255 253 247 251 255 250 254
232 226 228 156 152 153 100 96 95 124 120 119 180 176 175 239 235 234
250 249 247 255 255 253 252 250 251 244 242 243 244 242 245
246 244 247 245 245 247 240 244 243 246 252 252 245 250 253
234 239 243 226 231 237 226 230 239 229 233 244 228 232 244
236 239 254 231 234 251 231 234 251 226 229 248 212 215 234
211 214 233 226 229 248 237 240 255 216 216 228 127 126 134
129 128 136 192 191 199 225 222 231 243 240 247 249 246 253
247 245 250 255 253 255 255 254 255 232 226 228 132 126 126 96 90 90
168 162 162 218 213 210 255 254 251 255 251 250 254 250 249
254 250 249 253 252 250 253 253 251 254 255 253 252 255 255
252 255 255 250 255 254 248 254 252 248 252 253 248 252 253
252 253 255 254 255 255 254 255 255 254 255 255 255 255 255
255 255 255 255 255 255 255 255 255 255 255 255 255 255 255
255 255 255 255 255 255 255 255 255 255 255 255 255 255 255
255 255 255 255 255 255 255 255 255 255 255 255 255 255 255
255 255 255 255 255 255 255 255 255 255 255 255 255 255 255
255 255 255 255 255 255 255 255 255 255 255 255 255 255 255
255 255 255 255 255 255 255 255 255 255 255 255 255 255 255
255 255 255 255 255 255 255 255 255 255 255 255 255 255 255
255 255 255 255 255 255 255 255 255 255 255 255 255 255 255
254 254 254 254 254 254 254 254 254 254 254 254 254 254 254
255 255 255 255 255 255 254 254 254 254 254 254 254 254 254
254 254 254 254 254 254 255 255 255 255 255 255 255 255 255
254 254 254 254 254 254 255 255 255 255 255 255 255 255 255
255 255 255 254 254 254 254 254 254 255 255 255 255 255 255
255 255 255 255 255 255 255 255 255 255 255 255 255 255 255
255 255 255 255 255 255 255 255 255 255 255 255 255 255 255
255 255 255 255 255 255 255 255 255 255 255 255 255 255 255
255 255 255 255 255 255 255 255 255 255 255 255 255 255 255
255 255 255 255 255 255 255 255 255 255 255 255 255 255 255
255 255 255 255 255 255 255 255 255 255 255 255 255 255 255
255 255 255 255 255 255 255 255 255 255 255 255 255 255 255
255 255 255 255 255 255 255 255 255 255 255 255 255 255 255
255 255 255 255 255 255 255 255 255 255 255 255 255 255 255
255 255 255 255 255 255 255 255 255 255 255 255 255 255 255
255 255 255 255 255 255 255 255 255 255 255 255 255 255 255
255 255 255 255 255 255 255 255 255 255 255 255 255 255 255
255 255 255 255 255 255 255 255 255 255 255 255 255 255 255
255 255 255 255 255 255 255 255 255 255 255 255 255 255 255
255 255 255 255 255 255 255 255 255 255 255 255 255 255 255
255 255 255 255 255 255 255 255 255 255 255 255 255 255 255
255 255 255 255 255 255 255 255 255 255 255 255 255 255 255
255 255 255 255 255 255 255 255 255 255 255 255 255 255 255
255 255 255 255 255 255 255 255 255 255 255 255 255 255 255
255 255 255 255 255 255 255 255 255 255 255 255 255 255 255
255 255 255 255 255 255 255 255 255 255 255 255 255 255 255
255 255 255 255 255 255 255 255 255 255 255 255 255 255 255
255 255 255 255 255 255 255 255 255 255 255 255 255 255 255
255 255 255 255 255 255 255 255 255 255 255 255 255 255 255
255 255 255 255 255 255 255 255 255 255 255 255 255 255 255
255 255 255 255 255 255 255 255 255 255 255 255 255 255 255
255 255 255 255 255 255 255 255 255 255 255 255 255 255 255
255 255 255 255 255 255 255 255 255 255 255 255 255 255 255
255 255 255 255 255 255 255 255 255 255 255 255 255 255 255
255 255 255 255 255 255 255 255 255 255 255 255 255 255 255
255 255 255 255 255 255 255 255 255 255 255 255 255 255 255
255 255 255 255 255 255 255 255 255 255 255 255 255 255 255
255 255 255 255 255 255 255 255 255 255 255 255 255 255 255
255 255 255 255 255 255 255 255 255 255 255 255 255 255 255
255 255 255 255 255 255 255 255 255 255 255 255 255 255 255
255 255 255 255 255 255 255 255 255 255 255 255 255 255 255
255 255 255 255 255 255 255 255 255 255 255 255 255 255 255
255 255 255 255 255 255 255 255 255 255 255 255 255 255 255
255 255 255 255 255 255 255 255 255 255 255 255 255 255 255
255 255 255 255 255 255 255 255 255 255 255 255 255 255 255
255 255 255 255 255 255 255 255 255 255 255 255 255 255 255
255 255 255 255 255 255 255 255 255 255 255 255 255 255 255
255 255 255 255 255 255 255 255 255 255 255 255 255 255 255
255 255 255 255 255 255 255 255 255 255 255 255 255 255 255
255 255 255 255 255 255 255 255 255 255 255 255 255 255 255
255 255 255 255 255 255 255 255 255 255 255 255 255 255 255
254 254 254 254 254 254 254 254 254 255 255 255 255 255 255
255 255 255 255 255 255 255 255 255 255 255 255 255 255 255
255 255 255 255 255 255 255 255 255 255 255 255 255 255 255
255 255 255 249 249 249 255 255 255 251 251 251 246 246 246
251 251 251 238 238 238 237 237 237 255 254 255 249 244 248
255 253 255 203 197 201 122 118 119 122 118 119 171 167 166
216 212 211 250 249 247 245 244 242 249 248 246 249 248 246
245 245 243 245 243 246 248 248 250 249 249 251 246 247 249
241 245 248 243 248 251 241 246 250 233 238 244 227 231 240
228 232 243 229 233 245 227 230 245 237 240 255 229 232 249
235 238 255 240 243 255 228 231 250 215 218 235 206 209 226
197 199 212 187 185 196 123 122 130 168 167 175 248 247 253
249 246 253 242 240 245 255 254 255 252 250 253 242 238 239
230 226 227 182 176 176 120 114 114 113 107 107 215 209 209
255 251 248 255 250 247 250 246 245 252 248 247 253 252 250
255 255 253 255 255 253 254 255 253 250 254 253 249 253 252
250 255 254 248 254 252 246 250 251 246 250 251 250 251 253
253 254 255 254 255 255 254 255 255 255 255 255 255 255 255
255 255 255 255 255 255 255 255 255 255 255 255 255 255 255
255 255 255 255 255 255 255 255 255 255 255 255 255 255 255
255 255 255 255 255 255 255 255 255 255 255 255 255 255 255
255 255 255 255 255 255 255 255 255 255 255 255 255 255 255
255 255 255 255 255 255 255 255 255 255 255 255 255 255 255
255 255 255 255 255 255 255 255 255 255 255 255 255 255 255
255 255 255 255 255 255 255 255 255 255 255 255 255 255 255
255 255 255 255 255 255 255 255 255 255 255 255 255 255 255
254 254 254 254 254 254 254 254 254 255 255 255 255 255 255
255 255 255 254 254 254 255 255 255 255 255 255 255 255 255
255 255 255 255 255 255 255 255 255 255 255 255 254 254 254
254 254 254 255 255 255 255 255 255 255 255 255 255 255 255
254 254 254 254 254 254 255 255 255 255 255 255 255 255 255
255 255 255 255 255 255 255 255 255 255 255 255 255 255 255
255 255 255 255 255 255 255 255 255 255 255 255 255 255 255
255 255 255 255 255 255 255 255 255 255 255 255 255 255 255
255 255 255 255 255 255 255 255 255 255 255 255 255 255 255
255 255 255 255 255 255 255 255 255 255 255 255 255 255 255
255 255 255 255 255 255 255 255 255 255 255 255 255 255 255
255 255 255 255 255 255 255 255 255 255 255 255 255 255 255
255 255 255 255 255 255 255 255 255 255 255 255 255 255 255
255 255 255 255 255 255 255 255 255 255 255 255 255 255 255
255 255 255 255 255 255 255 255 255 255 255 255 255 255 255
255 255 255 255 255 255 255 255 255 255 255 255 255 255 255
255 255 255 255 255 255 255 255 255 255 255 255 255 255 255
255 255 255 255 255 255 255 255 255 255 255 255 255 255 255
255 255 255 255 255 255 255 255 255 255 255 255 255 255 255
255 255 255 255 255 255 255 255 255 255 255 255 255 255 255
255 255 255 255 255 255 255 255 255 255 255 255 255 255 255
255 255 255 255 255 255 255 255 255 255 255 255 255 255 255
255 255 255 255 255 255 255 255 255 255 255 255 255 255 255
255 255 255 255 255 255 255 255 255 255 255 255 255 255 255
255 255 255 255 255 255 255 255 255 255 255 255 255 255 255
255 255 255 255 255 255 255 255 255 255 255 255 255 255 255
255 255 255 255 255 255 255 255 255 255 255 255 255 255 255
255 255 255 255 255 255 255 255 255 255 255 255 255 255 255
255 255 255 255 255 255 255 255 255 255 255 255 255 255 255
255 255 255 255 255 255 255 255 255 255 255 255 255 255 255
255 255 255 255 255 255 255 255 255 255 255 255 255 255 255
255 255 255 255 255 255 255 255 255 255 255 255 255 255 255
255 255 255 255 255 255 255 255 255 255 255 255 255 255 255
255 255 255 255 255 255 255 255 255 255 255 255 255 255 255
255 255 255 255 255 255 255 255 255 255 255 255 255 255 255
255 255 255 255 255 255 255 255 255 255 255 255 255 255 255
255 255 255 255 255 255 255 255 255 255 255 255 255 255 255
255 255 255 255 255 255 255 255 255 255 255 255 255 255 255
255 255 255 255 255 255 255 255 255 255 255 255 255 255 255
255 255 255 255 255 255 255 255 255 255 255 255 255 255 255
255 255 255 255 255 255 255 255 255 255 255 255 255 255 255
255 255 255 255 255 255 255 255 255 255 255 255 255 255 255
255 255 255 255 255 255 255 255 255 255 255 255 255 255 255
255 255 255 255 255 255 255 255 255 255 255 255 255 255 255
255 255 255 255 255 255 255 255 255 255 255 255 255 255 255
255 255 255 255 255 255 255 255 255 255 255 255 255 255 255
255 255 255 255 255 255 255 255 255 255 255 255 255 255 255
255 255 255 255 255 255 255 255 255 255 255 255 255 255 255
255 255 255 255 255 255 255 255 255 255 255 255 255 255 255
255 255 255 255 255 255 255 255 255 255 255 255 255 255 255
255 255 255 255 255 255 255 255 255 255 255 255 255 255 255
255 255 255 255 255 255 255 255 255 255 255 255 255 255 255
255 255 255 255 255 255 255 255 255 255 255 255 255 255 255
255 255 255 255 255 255 255 255 255 255 255 255 255 255 255
254 254 254 246 246 246 232 232 232 247 247 247 255 255 255
255 255 255 240 240 240 251 249 250 219 214 218 164 159 165
118 113 117 132 128 129 192 188 189 242 241 239 254 253 249
245 244 240 248 247 243 247 248 243 245 245 243 244 246 243
248 248 250 250 251 253 248 249 253 241 245 248 244 249 253
243 248 254 240 244 253 238 242 253 239 241 254 240 242 255
236 237 255 232 233 251 220 221 241 235 236 255 237 238 255
223 224 244 223 224 242 229 231 246 199 201 216 149 151 163
127 126 134 197 194 201 227 224 231 229 227 232 248 243 249
255 251 255 253 248 254 255 250 254 255 254 255 165 161 162 89 83 83
140 134 134 193 188 185 245 240 237 255 254 251 249 244 241
250 246 245 251 247 246 251 250 248 252 252 250 253 253 251
251 253 250 247 251 250 245 251 249 248 254 252 246 252 250
244 250 250 244 250 250 248 252 253 251 255 255 254 255 255
254 255 255 255 255 255 255 255 255 255 255 255 255 255 255
255 255 255 255 255 255 255 255 255 255 255 255 255 255 255
255 255 255 255 255 255 255 255 255 255 255 255 255 255 255
255 255 255 255 255 255 255 255 255 255 255 255 255 255 255
255 255 255 255 255 255 255 255 255 255 255 255 255 255 255
255 255 255 255 255 255 255 255 255 255 255 255 255 255 255
255 255 255 255 255 255 255 255 255 255 255 255 255 255 255
255 255 255 255 255 255 255 255 255 255 255 255 255 255 255
255 255 255 255 255 255 255 255 255 255 255 255 255 255 255
255 255 255 255 255 255 255 255 255 255 255 255 255 255 255
255 255 255 255 255 255 255 255 255 255 255 255 255 255 255
255 255 255 255 255 255 255 255 255 255 255 255 255 255 255
255 255 255 255 255 255 255 255 255 255 255 255 255 255 255
255 255 255 255 255 255 255 255 255 255 255 255 255 255 255
255 255 255 255 255 255 255 255 255 255 255 255 255 255 255
255 255 255 255 255 255 255 255 255 255 255 255 255 255 255
255 255 255 255 255 255 255 255 255 255 255 255 255 255 255
255 255 255 255 255 255 255 255 255 255 255 255 255 255 255
255 255 255 255 255 255 255 255 255 255 255 255 255 255 255
255 255 255 255 255 255 255 255 255 255 255 255 255 255 255
255 255 255 255 255 255 255 255 255 255 255 255 255 255 255
255 255 255 255 255 255 255 255 255 255 255 255 255 255 255
255 255 255 255 255 255 255 255 255 255 255 255 255 255 255
255 255 255 255 255 255 255 255 255 255 255 255 255 255 255
255 255 255 255 255 255 255 255 255 255 255 255 255 255 255
255 255 255 255 255 255 255 255 255 255 255 255 255 255 255
255 255 255 255 255 255 255 255 255 255 255 255 255 255 255
255 255 255 255 255 255 255 255 255 255 255 255 255 255 255
255 255 255 255 255 255 255 255 255 255 255 255 255 255 255
255 255 255 255 255 255 255 255 255 255 255 255 255 255 255
255 255 255 255 255 255 255 255 255 255 255 255 255 255 255
255 255 255 255 255 255 255 255 255 255 255 255 255 255 255
255 255 255 255 255 255 255 255 255 255 255 255 255 255 255
255 255 255 255 255 255 255 255 255 255 255 255 255 255 255
255 255 255 255 255 255 255 255 255 255 255 255 255 255 255
255 255 255 255 255 255 255 255 255 255 255 255 255 255 255
255 255 255 255 255 255 255 255 255 255 255 255 255 255 255
255 255 255 255 255 255 255 255 255 255 255 255 255 255 255
255 255 255 255 255 255 255 255 255 255 255 255 255 255 255
255 255 255 255 255 255 255 255 255 255 255 255 255 255 255
255 255 255 255 255 255 255 255 255 255 255 255 255 255 255
255 255 255 255 255 255 255 255 255 255 255 255 255 255 255
255 255 255 255 255 255 255 255 255 255 255 255 255 255 255
255 255 255 255 255 255 255 255 255 255 255 255 255 255 255
255 255 255 255 255 255 255 255 255 255 255 255 255 255 255
255 255 255 255 255 255 255 255 255 255 255 255 255 255 255
255 255 255 255 255 255 255 255 255 255 255 255 255 255 255
255 255 255 255 255 255 255 255 255 255 255 255 255 255 255
255 255 255 255 255 255 255 255 255 255 255 255 255 255 255
255 255 255 255 255 255 255 255 255 255 255 255 255 255 255
255 255 255 255 255 255 255 255 255 255 255 255 255 255 255
255 255 255 255 255 255 255 255 255 255 255 255 255 255 255
255 255 255 255 255 255 255 255 255 255 255 255 255 255 255
255 255 255 255 255 255 255 255 255 255 255 255 255 255 255
255 255 255 255 255 255 255 255 255 255 255 255 255 255 255
255 255 255 255 255 255 255 255 255 255 255 255 255 255 255
255 255 255 255 255 255 255 255 255 255 255 255 255 255 255
255 255 255 255 255 255 255 255 255 255 255 255 255 255 255
255 255 255 255 255 255 255 255 255 255 255 255 255 255 255
255 255 255 255 255 255 255 255 255 255 255 255 255 255 255
255 255 255 254 254 254 254 254 254 254 254 254 253 253 253
254 254 254 254 254 254 255 255 255 255 255 255 255 255 255
255 255 255 255 255 255 255 255 255 243 243 243 253 253 253
255 255 255 234 234 234 220 220 220 250 250 250 254 254 254
209 209 209 135 133 138 76 71 77 134 129 133 237 235 236 247 245 246
237 236 234 253 252 248 248 249 244 255 255 251 250 252 247
246 248 245 245 247 244 246 247 249 245 249 250 243 247 250
241 244 249 241 246 252 238 242 251 236 240 251 238 242 254
243 245 255 243 244 255 238 239 255 232 233 253 230 231 251
233 234 254 219 220 240 206 207 225 210 212 227 200 202 215
169 171 184 147 147 159 143 140 149 228 225 232 247 245 250
227 225 230 238 233 239 255 250 254 255 251 255 241 237 238
207 203 204 128 124 125 86 80 80 180 174 174 250 245 242 255 254 251
255 254 251 254 249 246 255 252 251 254 250 249 250 249 247
247 247 245 247 249 246 246 251 247 249 253 252 249 255 253
247 253 251 245 251 249 244 250 250 245 251 251 249 253 254
252 255 255 254 255 255 254 255 255 255 255 255 255 255 255
255 255 255 255 255 255 255 255 255 255 255 255 255 255 255
255 255 255 255 255 255 255 255 255 255 255 255 255 255 255
255 255 255 255 255 255 255 255 255 255 255 255 255 255 255
255 255 255 255 255 255 255 255 255 255 255 255 255 255 255
255 255 255 255 255 255 255 255 255 255 255 255 255 255 255
255 255 255 255 255 255 255 255 255 255 255 255 255 255 255
255 255 255 255 255 255 255 255 255 255 255 255 255 255 255
255 255 255 255 255 255 255 255 255 255 255 255 255 255 255
255 255 255 254 254 254 254 254 254 254 254 254 254 254 254
254 254 254 255 255 255 254 254 254 254 254 254 254 254 254
253 253 253 253 253 253 253 253 253 252 252 252 254 254 254
254 254 254 255 255 255 255 255 255 255 255 255 255 255 255
254 254 254 254 254 254 255 255 255 255 255 255 255 255 255
255 255 255 255 255 255 255 255 255 255 255 255 255 255 255
255 255 255 255 255 255 255 255 255 255 255 255 255 255 255
255 255 255 255 255 255 255 255 255 255 255 255 255 255 255
255 255 255 255 255 255 255 255 255 255 255 255 255 255 255
255 255 255 255 255 255 255 255 255 255 255 255 255 255 255
255 255 255 255 255 255 255 255 255 255 255 255 255 255 255
255 255 255 255 255 255 255 255 255 255 255 255 255 255 255
255 255 255 255 255 255 255 255 255 255 255 255 255 255 255
255 255 255 255 255 255 255 255 255 255 255 255 255 255 255
255 255 255 255 255 255 255 255 255 255 255 255 255 255 255
255 255 255 255 255 255 255 255 255 255 255 255 255 255 255
255 255 255 255 255 255 255 255 255 255 255 255 255 255 255
255 255 255 255 255 255 255 255 255 255 255 255 255 255 255
255 255 255 255 255 255 255 255 255 255 255 255 255 255 255
255 255 255 255 255 255 255 255 255 255 255 255 255 255 255
255 255 255 255 255 255 255 255 255 255 255 255 255 255 255
255 255 255 255 255 255 255 255 255 255 255 255 255 255 255
255 255 255 255 255 255 255 255 255 255 255 255 255 255 255
255 255 255 255 255 255 255 255 255 255 255 255 255 255 255
255 255 255 255 255 255 255 255 255 255 255 255 255 255 255
255 255 255 255 255 255 255 255 255 255 255 255 255 255 255
255 255 255 255 255 255 255 255 255 255 255 255 255 255 255
255 255 255 255 255 255 255 255 255 255 255 255 255 255 255
255 255 255 255 255 255 255 255 255 255 255 255 255 255 255
255 255 255 255 255 255 255 255 255 255 255 255 255 255 255
255 255 255 255 255 255 255 255 255 255 255 255 255 255 255
255 255 255 255 255 255 255 255 255 255 255 255 255 255 255
255 255 255 255 255 255 255 255 255 255 255 255 255 255 255
255 255 255 255 255 255 255 255 255 255 255 255 255 255 255
255 255 255 255 255 255 255 255 255 255 255 255 255 255 255
255 255 255 255 255 255 255 255 255 255 255 255 255 255 255
255 255 255 255 255 255 255 255 255 255 255 255 255 255 255
255 255 255 255 255 255 255 255 255 255 255 255 255 255 255
255 255 255 255 255 255 255 255 255 255 255 255 255 255 255
255 255 255 255 255 255 255 255 255 255 255 255 255 255 255
255 255 255 255 255 255 255 255 255 255 255 255 255 255 255
255 255 255 255 255 255 255 255 255 255 255 255 255 255 255
255 255 255 255 255 255 255 255 255 255 255 255 255 255 255
255 255 255 255 255 255 255 255 255 255 255 255 255 255 255
255 255 255 255 255 255 255 255 255 255 255 255 255 255 255
255 255 255 255 255 255 255 255 255 255 255 255 255 255 255
255 255 255 255 255 255 255 255 255 255 255 255 255 255 255
255 255 255 255 255 255 255 255 255 255 255 255 255 255 255
255 255 255 255 255 255 255 255 255 255 255 255 255 255 255
255 255 255 255 255 255 255 255 255 255 255 255 255 255 255
255 255 255 255 255 255 255 255 255 255 255 255 255 255 255
254 254 254 254 254 254 253 253 253 252 252 252 251 251 251
250 250 250 250 250 250 254 254 254 254 254 254 253 253 253
252 252 252 252 252 252 251 251 251 250 250 250 250 250 250
247 247 247 245 245 245 253 253 253 254 254 254 252 252 252
244 244 244 172 172 172 65 65 65 94 92 97 174 172 177 227 225 228
242 240 241 255 253 254 249 249 247 246 247 242 255 255 251
255 255 251 251 253 248 247 249 246 243 248 244 243 247 248
241 247 247 240 245 248 240 245 249 236 239 248 233 235 248
233 235 248 236 238 253 238 239 255 237 238 255 234 235 255
232 233 254 241 239 255 235 233 254 221 219 240 225 224 242
218 217 233 158 157 171 121 120 134 147 147 157 217 214 221
238 233 239 252 247 253 255 253 255 252 247 251 248 243 247
247 242 246 205 201 202 85 81 82 127 123 122 196 190 190 244 238 238
255 253 250 248 243 240 255 251 248 252 247 244 255 254 253
255 253 252 253 252 250 251 251 249 250 252 249 249 254 250
250 254 253 251 255 255 249 255 253 248 254 252 248 254 254
249 255 255 252 255 255 252 255 255 254 255 255 254 255 255
255 255 255 255 255 255 255 255 255 255 255 255 255 255 255
255 255 255 255 255 255 255 255 255 255 255 255 255 255 255
255 255 255 255 255 255 255 255 255 255 255 255 255 255 255
255 255 255 255 255 255 255 255 255 255 255 255 255 255 255
255 255 255 255 255 255 255 255 255 255 255 255 254 254 254
254 254 254 254 254 254 254 254 254 254 254 254 254 254 254
254 254 254 254 254 254 254 254 254 254 254 254 254 254 254
254 254 254 254 254 254 254 254 254 254 254 254 254 254 254
255 255 255 255 255 255 253 253 253 252 252 252 251 251 251
251 251 251 251 251 251 251 251 251 253 253 253 252 252 252
252 252 252 251 251 251 250 250 250 249 249 249 248 248 248
248 248 248 252 252 252 252 252 252 253 253 253 253 253 253
253 253 253 253 253 253 252 252 252 252 252 252 255 255 255
255 255 255 255 255 255 255 255 255 255 255 255 255 255 255
255 255 255 255 255 255 255 255 255 255 255 255 255 255 255
255 255 255 255 255 255 255 255 255 255 255 255 255 255 255
255 255 255 255 255 255 255 255 255 255 255 255 255 255 255
255 255 255 255 255 255 255 255 255 255 255 255 255 255 255
255 255 255 255 255 255 255 255 255 255 255 255 255 255 255
255 255 255 255 255 255 255 255 255 255 255 255 255 255 255
255 255 255 255 255 255 255 255 255 255 255 255 255 255 255
255 255 255 255 255 255 255 255 255 255 255 255 255 255 255
255 255 255 255 255 255 255 255 255 255 255 255 255 255 255
255 255 255 255 255 255 255 255 255 255 255 255 255 255 255
255 255 255 255 255 255 255 255 255 255 255 255 255 255 255
255 255 255 255 255 255 255 255 255 255 255 255 255 255 255
255 255 255 255 255 255 255 255 255 255 255 255 255 255 255
255 255 255 255 255 255 255 255 255 255 255 255 255 255 255
255 255 255 255 255 255 255 255 255 255 255 255 255 255 255
255 255 255 255 255 255 255 255 255 255 255 255 255 255 255
255 255 255 255 255 255 255 255 255 255 255 255 255 255 255
255 255 255 255 255 255 255 255 255 255 255 255 255 255 255
255 255 255 255 255 255 255 255 255 255 255 255 255 255 255
255 255 255 255 255 255 255 255 255 255 255 255 255 255 255
255 255 255 255 255 255 255 255 255 255 255 255 255 255 255
255 255 255 255 255 255 255 255 255 255 255 255 255 255 255
255 255 255 255 255 255 255 255 255 255 255 255 255 255 255
255 255 255 255 255 255 255 255 255 255 255 255 255 255 255
255 255 255 255 255 255 255 255 255 255 255 255 255 255 255
255 255 255 255 255 255 255 255 255 255 255 255 255 255 255
255 255 255 255 255 255 255 255 255 255 255 255 255 255 255
255 255 255 255 255 255 255 255 255 255 255 255 255 255 255
255 255 255 255 255 255 255 255 255 255 255 255 255 255 255
255 255 255 255 255 255 255 255 255 255 255 255 255 255 255
255 255 255 255 255 255 255 255 255 255 255 255 255 255 255
255 255 255 255 255 255 255 255 255 255 255 255 255 255 255
255 255 255 255 255 255 255 255 255 255 255 255 255 255 255
255 255 255 255 255 255 255 255 255 255 255 255 255 255 255
255 255 255 255 255 255 255 255 255 255 255 255 255 255 255
255 255 255 255 255 255 255 255 255 255 255 255 255 255 255
255 255 255 255 255 255 255 255 255 255 255 255 255 255 255
255 255 255 255 255 255 255 255 255 255 255 255 255 255 255
255 255 255 255 255 255 255 255 255 255 255 255 255 255 255
255 255 255 255 255 255 255 255 255 255 255 255 255 255 255
255 255 255 255 255 255 255 255 255 255 255 255 255 255 255
255 255 255 255 255 255 255 255 255 255 255 255 255 255 255
255 255 255 255 255 255 255 255 255 255 255 255 255 255 255
255 255 255 255 255 255 255 255 255 255 255 255 255 255 255
255 255 255 255 255 255 255 255 255 255 255 255 255 255 255
255 255 255 254 254 254 253 253 253 252 252 252 251 251 251
250 250 252 249 249 249 248 248 250 247 247 247 254 254 254
253 253 253 252 252 252 250 250 250 249 249 249 247 247 245
246 246 244 245 245 243 247 247 245 244 243 241 247 246 244
255 254 252 209 208 206 114 112 113 93 91 92 157 155 156 219 214 218
246 241 245 255 252 255 248 246 247 251 249 250 255 255 253
254 254 252 249 251 248 254 255 253 253 255 254 250 254 253
249 253 254 245 249 252 240 244 247 237 240 245 237 240 247
237 236 250 237 236 252 237 236 252 237 238 255 238 236 255
234 235 255 237 235 255 238 236 255 224 222 244 232 230 251
212 211 229 200 199 213 193 193 205 149 149 159 142 142 152
201 200 208 236 234 239 255 253 255 245 240 246 250 245 249
255 253 255 237 232 236 199 195 196 151 147 148 114 110 109
161 157 156 246 240 240 252 246 246 255 253 253 255 251 248
255 249 249 255 254 253 255 251 250 255 255 253 255 255 253
255 255 253 254 255 253 254 255 253 251 255 254 248 252 251
252 255 255 252 255 255 252 255 255 252 255 255 252 255 255
254 255 255 254 255 255 253 255 254 255 255 255 255 255 253
255 255 255 255 255 255 255 255 255 255 255 255 255 255 255
255 255 255 255 255 255 255 255 255 255 255 255 255 255 255
255 255 255 255 255 255 255 255 255 255 255 255 255 255 255
254 255 255 255 255 255 254 255 255 255 255 255 254 255 255
255 255 255 254 255 255 253 253 253 252 254 253 253 253 253
252 254 253 253 253 253 252 254 253 253 253 253 252 254 253
253 253 253 252 254 253 253 253 253 253 253 253 253 253 253
253 253 253 253 253 253 253 253 253 254 254 254 253 253 253
252 252 252 250 250 248 249 249 249 248 248 246 249 247 248
248 248 246 251 251 249 250 250 248 250 250 248 248 248 248
247 247 247 246 246 246 245 245 245 244 244 244 250 250 252
250 250 250 251 251 251 251 251 251 251 251 251 251 251 251
250 250 250 250 250 248 255 255 255 255 255 253 255 255 255
255 255 253 255 255 255 255 255 255 255 255 255 255 255 255
255 255 255 255 255 255 255 255 255 255 255 255 255 255 255
255 255 255 255 255 255 255 255 255 255 255 255 255 255 255
255 255 255 255 255 255 255 255 255 255 255 255 255 255 255
255 255 255 255 255 255 255 255 255 255 255 255 255 255 255
255 255 255 255 255 255 255 255 255 255 255 255 255 255 255
255 255 255 255 255 255 255 255 255 255 255 255 255 255 255
255 255 255 255 255 255 255 255 255 255 255 255 255 255 255
255 255 255 255 255 255 255 255 255 255 255 255 255 255 255
255 255 255 255 255 255 255 255 255 255 255 255 255 255 255
255 255 255 255 255 255 255 255 255 255 255 255 255 255 255
255 255 255 255 255 255 255 255 255 255 255 255 255 255 255
255 255 255 255 255 255 255 255 255 255 255 255 255 255 255
255 255 255 255 255 255 255 255 255 255 255 255 255 255 255
255 255 255 255 255 255 255 255 255 255 255 255 255 255 255
255 255 255 255 255 255 255 255 255 255 255 255 255 255 255
255 255 255 255 255 255 255 255 255 255 255 255 255 255 255
255 255 255 255 255 255 255 255 255 255 255 255 255 255 255
255 255 255 255 255 255 255 255 255 255 255 255 255 255 255
255 255 255 255 255 255 255 255 255 255 255 255 255 255 255
255 255 255 255 255 255 255 255 255 255 255 255 255 255 255
255 255 255 255 255 255 255 255 255 255 255 255 255 255 255
255 255 255 255 255 255 255 255 255 255 255 255 255 255 255
255 255 255 255 255 255 255 255 255 255 255 255 255 255 255
255 255 255 255 255 255 255 255 255 255 255 255 255 255 255
255 255 255 255 255 255 255 255 255 255 255 255 255 255 255
255 255 255 255 255 255 255 255 255 255 255 255 255 255 255
255 255 255 255 255 255 255 255 255 255 255 255 255 255 255
255 255 255 255 255 255 255 255 255 255 255 255 255 255 255
255 255 255 255 255 255 255 255 255 255 255 255 255 255 255
255 255 255 255 255 255 255 255 255 255 255 255 255 255 255
255 255 255 255 255 255 255 255 255 255 255 255 255 255 255
255 255 255 255 255 255 255 255 255 255 255 255 255 255 255
255 255 255 255 255 255 255 255 255 255 255 255 255 255 255
255 255 255 255 255 255 255 255 255 255 255 255 255 255 255
255 255 255 255 255 255 255 255 255 255 255 255 255 255 255
255 255 255 255 255 255 255 255 255 255 255 255 255 255 255
255 255 255 255 255 255 255 255 255 255 255 255 255 255 255
255 255 255 255 255 255 255 255 255 255 255 255 255 255 255
255 255 255 255 255 255 255 255 255 255 255 255 255 255 255
255 255 255 255 255 255 255 255 255 255 255 255 255 255 255
255 255 255 255 255 255 255 255 255 255 255 255 255 255 255
255 255 255 255 255 255 255 255 255 255 255 255 255 255 255
255 255 255 255 255 255 255 255 255 255 255 255 255 255 255
255 255 255 255 254 252 255 254 252 255 254 255 255 254 255
255 254 255 255 254 255 255 253 255 255 253 255 255 254 255
255 254 255 255 253 255 253 251 254 252 250 255 250 248 251
249 247 252 247 247 249 255 255 255 247 248 250 242 242 242
245 245 245 253 253 251 255 255 251 254 253 249 250 249 245
249 248 244 242 238 235 215 211 208 169 165 162 127 123 120
127 123 122 176 170 170 228 222 222 255 253 255 254 248 250
248 242 244 246 242 243 248 246 247 252 252 254 255 255 255
254 255 255 251 252 255 247 251 254 246 247 252 243 243 251
240 240 248 239 239 249 240 240 250 241 241 253 237 234 251
241 238 255 233 230 249 234 232 253 251 248 255 245 243 255
228 224 247 223 221 243 213 211 232 224 223 241 235 234 248
188 188 198 120 120 128 135 136 141 203 207 210 246 247 249
252 250 253 245 241 242 255 253 255 250 246 247 243 239 240
232 228 229 117 113 114 102 98 99 178 174 175 221 217 218 251 247 248
255 252 253 255 254 255 255 254 253 255 254 255 255 253 254
254 252 253 254 254 254 255 255 255 255 255 255 255 255 255
255 255 255 254 255 255 254 255 255 254 255 255 254 255 255
254 255 255 254 255 255 254 255 255 255 255 255 255 255 255
255 255 255 254 255 253 254 255 251 254 255 253 254 255 253
254 255 253 254 255 253 254 255 253 254 255 253 254 255 255
254 255 255 254 255 255 254 255 255 254 255 255 254 255 255
254 255 255 254 255 255 254 255 255 252 255 255 254 255 255
252 255 255 254 255 255 252 255 255 254 255 255 252 255 255
253 254 255 252 255 255 254 255 255 252 255 255 251 252 254
247 251 252 250 252 251 250 254 253 250 252 251 249 253 252
252 254 253 253 255 254 254 255 255 254 255 255 250 250 248
243 243 241 238 238 236 240 240 238 244 243 241 248 247 243
252 251 249 253 252 248 254 250 249 250 249 245 255 255 251
255 255 251 255 254 250 245 244 242 243 241 242 250 248 249
252 250 253 249 247 250 245 243 248 255 254 255 245 243 246
249 247 248 255 254 255 253 252 250 255 255 253 250 249 245
252 252 250 254 255 250 255 255 253 255 255 251 255 255 253
254 254 252 255 255 253 255 255 253 255 255 253 255 255 253
255 255 255 254 254 254 254 254 254 255 255 255 255 255 255
255 255 255 255 255 255 255 255 255 255 255 255 255 255 255
255 255 255 255 255 255 255 255 255 255 255 255 255 255 255
255 255 255 255 255 255 255 255 255 255 255 255 255 255 255
255 255 255 255 255 255 255 255 255 255 255 255 255 255 255
255 255 255 255 255 255 255 255 255 255 255 255 255 255 255
255 255 255 255 255 255 255 255 255 255 255 255 255 255 255
255 255 255 255 255 255 255 255 255 255 255 255 255 255 255
255 255 255 255 255 255 255 255 255 255 255 255 255 255 255
255 255 255 255 255 255 255 255 255 255 255 255 255 255 255
255 255 255 255 255 255 255 255 255 255 255 255 255 255 255
255 255 255 255 255 255 255 255 255 255 255 255 255 255 255
255 255 255 255 255 255 255 255 255 255 255 255 255 255 255
255 255 255 255 255 255 255 255 255 255 255 255 255 255 255
255 255 255 255 255 255 255 255 255 255 255 255 255 255 255
255 255 255 255 255 255 255 255 255 255 255 255 255 255 255
255 255 255 255 255 255 255 255 255 255 255 255 255 255 255
255 255 255 255 255 255 255 255 255 255 255 255 255 255 255
255 255 255 255 255 255 255 255 255 255 255 255 255 255 255
255 255 255 255 255 255 255 255 255 255 255 255 255 255 255
255 255 255 255 255 255 255 255 255 255 255 255 255 255 255
255 255 255 255 255 255 255 255 255 255 255 255 255 255 255
255 255 255 255 255 255 255 255 255 255 255 255 255 255 255
255 255 255 255 255 255 255 255 255 255 255 255 255 255 255
255 255 255 255 255 255 255 255 255 255 255 255 255 255 255
255 255 255 255 255 255 255 255 255 255 255 255 255 255 255
255 255 255 255 255 255 255 255 255 255 255 255 255 255 255
255 255 255 255 255 255 255 255 255 255 255 255 255 255 255
255 255 255 255 255 255 255 255 255 255 255 255 255 255 255
255 255 255 255 255 255 255 255 255 255 255 255 255 255 255
255 255 255 255 255 255 255 255 255 255 255 255 255 255 255
255 255 255 255 255 255 255 255 255 255 255 255 255 255 255
255 255 255 255 255 255 255 255 255 255 255 255 255 255 255
255 255 255 255 255 255 255 255 255 255 255 255 255 255 255
255 255 255 255 255 255 255 255 255 255 255 255 255 255 255
255 255 255 255 255 255 255 255 255 255 255 255 255 255 255
255 255 255 255 255 255 255 255 255 255 255 255 255 255 255
255 255 255 255 255 255 255 255 255 255 255 255 255 255 255
255 255 255 255 255 255 255 255 255 255 255 255 255 255 255
255 255 255 255 255 255 255 255 255 255 255 255 255 255 255
255 255 255 255 255 255 255 255 255 255 255 255 255 255 255
255 255 255 255 255 255 255 255 255 255 255 255 255 255 255
255 255 255 255 255 255 255 255 255 255 255 255 255 255 253
255 255 253 255 254 255 255 254 255 255 254 255 255 254 255
255 254 255 255 254 255 255 254 255 255 253 255 254 252 255
253 251 255 252 250 255 251 249 254 251 249 254 250 249 254
249 249 251 254 255 255 255 255 255 253 253 251 248 249 244
246 247 242 237 236 231 224 223 218 232 229 224 226 223 218
180 175 171 122 117 113 125 120 117 190 185 182 244 235 236
254 245 246 255 252 253 255 250 252 251 245 247 250 246 247
251 249 252 254 254 255 253 254 255 250 253 255 245 248 253
242 245 252 241 241 251 236 236 246 233 233 245 232 232 244
235 233 246 236 234 248 239 236 255 248 245 255 243 240 255
229 226 247 226 222 245 228 224 247 230 226 249 234 231 252
217 216 234 224 223 239 176 176 188 154 154 162 152 153 158
182 183 185 247 248 250 253 255 254 252 250 251 249 245 246
241 237 238 243 239 240 231 227 228 166 162 163 103 99 100
141 137 138 221 217 218 250 246 247 255 254 255 254 250 251
252 248 249 254 250 251 255 252 253 255 254 255 254 252 253
254 254 254 255 255 255 255 255 255 255 255 255 255 255 255
255 255 255 255 255 255 255 255 255 255 255 255 255 255 255
255 255 255 255 255 255 255 255 255 255 255 255 255 255 255
254 255 253 254 255 251 254 255 251 254 255 251 254 255 253
254 255 253 254 255 253 254 255 253 254 255 255 254 255 255
254 255 255 254 255 255 254 255 255 254 255 255 254 255 255
254 255 255 252 255 255 252 255 255 252 255 255 252 255 255
252 255 255 252 255 255 252 255 255 251 255 255 249 253 254
250 254 255 251 255 255 251 255 255 251 255 255 252 255 255
252 255 255 252 255 255 248 252 251 252 255 255 252 255 255
252 255 255 247 249 248 242 244 243 243 243 243 246 246 244
254 254 254 255 255 253 255 255 253 255 255 253 252 248 247
248 244 243 246 242 241 245 241 238 243 242 238 240 239 235
252 251 249 255 255 253 245 243 244 209 207 210 196 194 199
207 205 210 227 225 230 247 245 250 248 246 249 246 244 245
246 244 245 244 243 241 250 249 245 250 249 245 252 253 248
254 255 250 255 255 251 255 255 251 255 255 251 254 255 250
255 255 253 255 255 253 255 255 253 255 255 253 255 255 255
254 254 254 254 254 254 255 255 255 255 255 255 255 255 255
255 255 255 255 255 255 255 255 255 255 255 255 255 255 255
255 255 255 255 255 255 255 255 255 255 255 255 255 255 255
255 255 255 255 255 255 255 255 255 255 255 255 255 255 255
255 255 255 255 255 255 255 255 255 255 255 255 255 255 255
255 255 255 255 255 255 255 255 255 255 255 255 255 255 255
255 255 255 255 255 255 255 255 255 255 255 255 255 255 255
255 255 255 255 255 255 255 255 255 255 255 255 255 255 255
255 255 255 255 255 255 255 255 255 255 255 255 255 255 255
255 255 255 255 255 255 255 255 255 255 255 255 255 255 255
255 255 255 255 255 255 255 255 255 255 255 255 255 255 255
255 255 255 255 255 255 255 255 255 255 255 255 255 255 255
255 255 255 255 255 255 255 255 255 255 255 255 255 255 255
255 255 255 255 255 255 255 255 255 255 255 255 255 255 255
255 255 255 255 255 255 255 255 255 255 255 255 255 255 255
255 255 255 255 255 255 255 255 255 255 255 255 255 255 255
255 255 255 255 255 255 255 255 255 255 255 255 255 255 255
255 255 255 255 255 255 255 255 255 255 255 255 255 255 255
255 255 255 255 255 255 255 255 255 255 255 255 255 255 255
255 255 255 255 255 255 255 255 255 255 255 255 255 255 255
255 255 255 255 255 255 255 255 255 255 255 255 255 255 255
255 255 255 255 255 255 255 255 255 255 255 255 255 255 255
255 255 255 255 255 255 255 255 255 255 255 255 255 255 255
255 255 255 255 255 255 255 255 255 255 255 255 255 255 255
255 255 255 255 255 255 255 255 255 255 255 255 255 255 255
255 255 255 255 255 255 255 255 255 255 255 255 255 255 255
255 255 255 255 255 255 255 255 255 255 255 255 255 255 255
255 255 255 255 255 255 255 255 255 255 255 255 255 255 255
255 255 255 255 255 255 255 255 255 255 255 255 255 255 255
255 255 255 255 255 255 255 255 255 255 255 255 255 255 255
255 255 255 255 255 255 255 255 255 255 255 255 255 255 255
255 255 255 255 255 255 255 255 255 255 255 255 255 255 255
255 255 255 255 255 255 255 255 255 255 255 255 255 255 255
255 255 255 255 255 255 255 255 255 255 255 255 255 255 255
255 255 255 255 255 255 255 255 255 255 255 255 255 255 255
255 255 255 255 255 255 255 255 255 255 255 255 255 255 255
255 255 255 255 255 255 255 255 255 255 255 255 255 255 255
255 255 255 255 255 255 255 255 255 255 255 255 255 255 255
255 255 255 255 255 255 255 255 255 255 255 255 255 255 255
255 255 255 255 255 255 255 255 255 255 255 255 255 255 255
255 255 255 255 255 255 255 255 255 255 255 255 255 255 255
255 255 255 255 255 255 255 255 255 255 255 255 255 255 255
255 255 255 255 255 255 255 255 255 255 255 253 255 255 253
255 254 255 255 254 255 255 254 255 255 254 255 255 254 255
255 254 255 255 254 255 255 253 255 253 251 255 251 249 254
251 249 254 252 250 255 253 251 255 253 252 255 251 251 253
244 246 245 242 242 242 244 244 242 246 247 242 244 245 240
242 241 236 241 241 233 190 187 180 122 119 112 92 89 84 149 146 141
230 225 222 255 254 251 255 253 253 251 245 245 253 247 249
251 245 249 248 243 247 247 245 248 250 248 253 251 250 255
249 250 255 245 248 253 244 247 254 240 244 253 236 239 248
232 234 246 230 232 245 230 232 245 233 232 246 234 233 247
237 236 254 239 238 255 245 243 255 244 242 255 234 232 253
230 228 249 227 224 245 219 216 237 235 232 251 207 205 219
119 117 130 126 125 133 224 223 229 255 255 255 238 238 240
233 233 233 243 241 242 253 249 250 255 254 255 240 236 237
158 154 155 98 94 95 156 152 153 198 194 195 241 237 238 255 253 254
255 252 253 244 240 241 243 239 240 249 245 246 253 249 250
255 254 255 254 252 253 254 254 254 255 255 255 255 255 255
255 255 255 255 255 255 255 255 255 255 255 255 255 255 255
255 255 255 255 255 255 255 255 255 255 255 255 255 255 255
255 255 255 255 255 255 254 255 253 254 255 253 254 255 253
254 255 253 254 255 253 254 255 253 254 255 253 254 255 253
254 255 253 254 255 253 254 255 255 254 255 255 254 255 255
254 255 255 254 255 255 254 255 255 254 255 255 254 255 255
254 255 255 254 255 255 254 255 255 254 255 255 253 255 254
253 255 254 254 255 255 254 255 255 254 255 255 252 254 253
249 251 250 246 248 247 246 248 247 246 248 247 254 255 255
252 254 253 248 250 249 251 253 252 254 255 255 254 255 255
255 255 255 255 255 255 250 250 252 249 249 249 251 249 250
253 251 252 255 253 254 254 252 253 250 248 249 246 244 245
248 246 247 221 220 218 199 197 198 176 174 177 127 125 128 71 69 74
54 52 57 70 67 74 181 178 185 210 208 213 250 248 251 253 251 252
242 240 241 246 245 243 250 249 245 255 254 249 252 253 248
254 255 250 255 255 251 255 255 251 255 255 251 254 255 250
255 255 253 255 255 253 255 255 253 255 255 253 255 255 255
254 254 254 254 254 254 255 255 255 255 255 255 255 255 255
255 255 255 255 255 255 255 255 255 255 255 255 255 255 255
255 255 255 255 255 255 255 255 255 255 255 255 255 255 255
255 255 255 255 255 255 255 255 255 255 255 255 255 255 255
255 255 255 255 255 255 255 255 255 255 255 255 255 255 255
255 255 255 255 255 255 255 255 255 255 255 255 255 255 255
255 255 255 255 255 255 255 255 255 255 255 255 255 255 255
255 255 255 255 255 255 255 255 255 255 255 255 255 255 255
255 255 255 255 255 255 255 255 255 255 255 255 255 255 255
255 255 255 255 255 255 255 255 255 255 255 255 255 255 255
255 255 255 255 255 255 255 255 255 255 255 255 255 255 255
255 255 255 255 255 255 255 255 255 255 255 255 255 255 255
255 255 255 255 255 255 255 255 255 255 255 255 255 255 255
255 255 255 255 255 255 255 255 255 255 255 255 255 255 255
255 255 255 255 255 255 255 255 255 255 255 255 255 255 255
255 255 255 255 255 255 255 255 255 255 255 255 255 255 255
255 255 255 255 255 255 255 255 255 255 255 255 255 255 255
255 255 255 255 255 255 255 255 255 255 255 255 255 255 255
255 255 255 255 255 255 255 255 255 255 255 255 255 255 255
255 255 255 255 255 255 255 255 255 255 255 255 255 255 255
255 255 255 255 255 255 255 255 255 255 255 255 255 255 255
255 255 255 255 255 255 255 255 255 255 255 255 255 255 255
255 255 255 255 255 255 255 255 255 255 255 255 255 255 255
255 255 255 255 255 255 255 255 255 255 255 255 255 255 255
255 255 255 255 255 255 255 255 255 255 255 255 255 255 255
255 255 255 255 255 255 255 255 255 255 255 255 255 255 255
255 255 255 255 255 255 255 255 255 255 255 255 255 255 255
255 255 255 255 255 255 255 255 255 255 255 255 255 255 255
255 255 255 255 255 255 255 255 255 255 255 255 255 255 255
255 255 255 255 255 255 255 255 255 255 255 255 255 255 255
255 255 255 255 255 255 255 255 255 255 255 255 255 255 255
255 255 255 255 255 255 255 255 255 255 255 255 255 255 255
255 255 255 255 255 255 255 255 255 255 255 255 255 255 255
255 255 255 255 255 255 255 255 255 255 255 255 255 255 255
255 255 255 255 255 255 255 255 255 255 255 255 255 255 255
255 255 255 255 255 255 255 255 255 255 255 255 255 255 255
255 255 255 255 255 255 255 255 255 255 255 255 255 255 255
255 255 255 255 255 255 255 255 255 255 255 255 255 255 255
255 255 255 255 255 255 255 255 255 255 255 255 255 255 255
255 255 255 255 255 255 255 255 255 255 255 255 255 255 255
255 255 255 255 255 255 255 255 255 255 255 255 255 255 255
255 255 255 255 255 255 255 255 255 255 255 255 255 255 255
255 255 255 255 255 255 255 255 255 255 255 253 255 255 253
255 254 255 255 254 255 255 254 255 255 254 255 255 254 255
255 254 255 255 254 255 255 253 255 252 250 255 249 247 252
249 247 252 250 248 253 252 250 255 253 251 254 250 250 250
254 255 253 248 248 246 234 235 230 242 243 238 247 248 242
206 206 198 149 149 141 87 84 77 128 125 118 190 187 182 238 235 230
252 247 244 247 242 239 252 246 246 255 253 255 249 244 248
248 243 249 246 244 249 246 245 250 248 247 253 248 249 254
244 247 254 240 245 251 242 246 255 239 243 254 234 238 249
232 234 247 231 233 246 232 234 247 235 234 248 236 235 251
235 234 250 228 227 245 238 236 255 247 245 255 238 236 255
236 234 255 234 231 252 220 217 236 173 170 187 127 125 139
146 144 157 181 180 188 243 242 248 255 254 255 226 224 227
255 254 255 255 253 254 244 240 241 240 236 237 199 195 196
120 116 117 93 89 90 204 200 201 255 254 255 243 239 240 253 249 250
251 247 248 245 241 242 248 244 245 252 248 249 253 249 250
255 254 255 254 252 253 254 254 254 255 255 255 255 255 255
255 255 255 255 255 255 255 255 255 255 255 255 255 255 255
255 255 255 255 255 255 255 255 255 255 255 255 255 255 255
255 255 255 255 255 255 254 255 253 254 255 253 254 255 253
254 255 253 254 255 253 254 255 253 254 255 253 254 255 253
254 255 253 254 255 253 254 255 253 254 255 253 254 255 255
254 255 253 254 255 255 254 255 255 254 255 255 254 255 255
255 255 255 254 255 255 255 255 255 254 255 255 254 254 254
253 255 254 251 251 251 252 254 253 255 255 255 254 255 255
255 255 255 254 255 255 255 255 255 253 255 254 253 253 253
253 255 254 255 255 255 251 252 254 245 245 247 238 238 240
239 239 241 243 242 247 255 254 255 253 252 255 243 242 247
237 236 241 229 227 232 207 206 211 177 175 180 153 151 156
112 110 115 98 96 99 96 94 99 127 125 130 175 172 179 202 199 206
190 187 194 165 162 169 120 117 124 158 156 161 238 236 241
255 254 255 248 246 247 255 254 250 252 251 247 255 254 249
252 253 248 254 255 250 255 255 251 255 255 251 255 255 251
254 255 250 255 255 253 255 255 253 255 255 253 255 255 253
255 255 255 254 254 254 254 254 254 255 255 255 255 255 255
255 255 255 255 255 255 255 255 255 255 255 255 255 255 255
255 255 255 255 255 255 255 255 255 255 255 255 255 255 255
255 255 255 255 255 255 255 255 255 255 255 255 255 255 255
255 255 255 255 255 255 255 255 255 255 255 255 255 255 255
255 255 255 255 255 255 255 255 255 255 255 255 255 255 255
255 255 255 255 255 255 255 255 255 255 255 255 255 255 255
255 255 255 255 255 255 255 255 255 255 255 255 255 255 255
255 255 255 255 255 255 255 255 255 255 255 255 255 255 255
255 255 255 255 255 255 255 255 255 255 255 255 255 255 255
255 255 255 255 255 255 255 255 255 255 255 255 255 255 255
255 255 255 255 255 255 255 255 255 255 255 255 255 255 255
255 255 255 255 255 255 255 255 255 255 255 255 255 255 255
255 255 255 255 255 255 255 255 255 255 255 255 255 255 255
255 255 255 255 255 255 255 255 255 255 255 255 255 255 255
255 255 255 255 255 255 255 255 255 255 255 255 255 255 255
255 255 255 255 255 255 255 255 255 255 255 255 255 255 255
255 255 255 255 255 255 255 255 255 255 255 255 255 255 255
255 255 255 255 255 255 255 255 255 255 255 255 255 255 255
255 255 255 255 255 255 255 255 255 255 255 255 255 255 255
255 255 255 255 255 255 255 255 255 255 255 255 255 255 255
255 255 255 255 255 255 255 255 255 255 255 255 255 255 255
255 255 255 255 255 255 255 255 255 255 255 255 255 255 255
255 255 255 255 255 255 255 255 255 255 255 255 255 255 255
255 255 255 255 255 255 255 255 255 255 255 255 255 255 255
255 255 255 255 255 255 255 255 255 255 255 255 255 255 255
255 255 255 255 255 255 255 255 255 255 255 255 255 255 255
255 255 255 255 255 255 255 255 255 255 255 255 255 255 255
255 255 255 255 255 255 255 255 255 255 255 255 255 255 255
255 255 255 255 255 255 255 255 255 255 255 255 255 255 255
255 255 255 255 255 255 255 255 255 255 255 255 255 255 255
255 255 255 255 255 255 255 255 255 255 255 255 255 255 255
255 255 255 255 255 255 255 255 255 255 255 255 255 255 255
255 255 255 255 255 255 255 255 255 255 255 255 255 255 255
255 255 255 255 255 255 255 255 255 255 255 255 255 255 255
255 255 255 255 255 255 255 255 255 255 255 255 255 255 255
255 255 255 255 255 255 255 255 255 255 255 255 255 255 255
255 255 255 255 255 255 255 255 255 255 255 255 255 255 255
255 255 255 255 255 255 255 255 255 255 255 255 255 255 255
255 255 255 255 255 255 255 255 255 255 255 255 255 255 255
255 255 255 255 255 255 255 255 255 255 255 255 255 255 255
255 255 255 255 255 255 255 255 255 255 255 255 255 255 255
255 255 255 255 255 255 255 255 255 255 255 255 255 255 253
255 255 253 255 253 254 255 253 254 255 253 254 255 253 254
255 254 255 255 254 255 255 254 255 255 253 255 252 250 255
249 247 252 247 245 250 248 246 251 249 247 252 250 248 251
247 247 247 244 244 242 252 252 250 255 255 251 239 240 235
181 182 176 120 120 112 85 85 77 161 161 153 217 217 209 255 254 249
249 248 243 245 241 238 255 254 253 255 254 255 243 239 240
254 252 255 252 251 255 251 250 255 249 250 255 246 249 255
243 248 254 240 244 253 235 242 252 235 242 252 232 238 250
228 234 246 229 232 247 231 234 249 233 236 251 234 236 251
233 235 250 232 234 249 232 234 249 232 233 251 220 221 239
214 213 231 231 230 248 234 231 250 207 204 221 138 134 151 99 95 109
200 197 208 252 249 255 231 228 235 248 243 249 249 244 248
255 250 254 251 247 248 249 245 246 182 178 179 92 88 89 130 126 127
187 183 184 232 228 229 255 254 255 254 250 251 255 254 255
255 253 254 255 251 252 255 254 255 255 254 255 254 250 251
255 254 255 254 252 253 254 254 254 255 255 255 255 255 255
255 255 255 255 255 255 255 255 255 255 255 255 255 255 255
255 255 255 255 255 255 255 255 255 255 255 255 255 255 255
255 255 255 255 255 255 254 255 253 254 255 253 254 255 253
254 255 253 254 255 253 254 255 253 254 255 253 254 255 253
254 255 251 254 255 251 254 255 251 254 255 251 254 255 253
254 255 251 254 255 253 254 255 253 255 255 253 255 255 253
255 254 255 255 255 253 255 254 252 254 254 252 255 254 252
254 254 252 253 252 250 252 252 250 253 252 250 252 252 250
254 253 251 253 253 251 254 253 251 252 252 252 255 254 255
252 252 254 254 252 255 255 254 255 255 254 255 255 254 255
242 241 246 233 232 238 219 218 224 214 213 219 194 193 201
158 158 166 122 120 131 103 103 113 109 107 118 120 119 127
159 156 165 187 184 193 206 203 212 205 202 211 204 201 210
207 204 213 198 195 204 179 176 185 88 85 92 124 122 127 210 208 213
247 245 246 248 246 247 255 254 250 246 245 241 248 247 242
252 253 248 254 255 250 255 255 251 255 255 251 255 255 251
254 255 250 255 255 253 255 255 253 255 255 253 255 255 253
255 255 255 254 254 254 254 254 254 255 255 255 255 255 255
255 255 255 255 255 255 255 255 255 255 255 255 255 255 255
255 255 255 255 255 255 255 255 255 255 255 255 255 255 255
255 255 255 255 255 255 255 255 255 255 255 255 255 255 255
255 255 255 255 255 255 255 255 255 255 255 255 255 255 255
255 255 255 255 255 255 255 255 255 255 255 255 255 255 255
255 255 255 255 255 255 255 255 255 255 255 255 255 255 255
255 255 255 255 255 255 255 255 255 255 255 255 255 255 255
255 255 255 255 255 255 255 255 255 255 255 255 255 255 255
255 255 255 255 255 255 255 255 255 255 255 255 255 255 255
255 255 255 255 255 255 255 255 255 255 255 255 255 255 255
255 255 255 255 255 255 255 255 255 255 255 255 255 255 255
255 255 255 255 255 255 255 255 255 255 255 255 255 255 255
255 255 255 255 255 255 255 255 255 255 255 255 255 255 255
255 255 255 255 255 255 255 255 255 255 255 255 255 255 255
255 255 255 255 255 255 255 255 255 255 255 255 255 255 255
255 255 255 255 255 255 255 255 255 255 255 255 255 255 255
255 255 255 255 255 255 255 255 255 255 255 255 255 255 255
255 255 255 255 255 255 255 255 255 255 255 255 255 255 255
255 255 255 255 255 255 255 255 255 255 255 255 255 255 255
255 255 255 255 255 255 255 255 255 255 255 255 255 255 255
255 255 255 255 255 255 255 255 255 255 255 255 255 255 255
255 255 255 255 255 255 255 255 255 255 255 255 255 255 255
255 255 255 255 255 255 255 255 255 255 255 255 255 255 255
255 255 255 255 255 255 255 255 255 255 255 255 255 255 255
255 255 255 255 255 255 255 255 255 255 255 255 255 255 255
255 255 255 255 255 255 255 255 255 255 255 255 255 255 255
255 255 255 255 255 255 255 255 255 255 255 255 255 255 255
255 255 255 255 255 255 255 255 255 255 255 255 255 255 255
255 255 255 255 255 255 255 255 255 255 255 255 255 255 255
255 255 255 255 255 255 255 255 255 255 255 255 255 255 255
255 255 255 255 255 255 255 255 255 255 255 255 255 255 255
255 255 255 255 255 255 255 255 255 255 255 255 255 255 255
255 255 255 255 255 255 255 255 255 255 255 255 255 255 255
255 255 255 255 255 255 255 255 255 255 255 255 255 255 255
255 255 255 255 255 255 255 255 255 255 255 255 255 255 255
255 255 255 255 255 255 255 255 255 255 255 255 255 255 255
255 255 255 255 255 255 255 255 255 255 255 255 255 255 255
255 255 255 255 255 255 255 255 255 255 255 255 255 255 255
255 255 255 255 255 255 255 255 255 255 255 255 255 255 255
255 255 255 255 255 255 255 255 255 255 255 255 255 255 255
255 255 255 255 255 255 255 255 255 255 255 255 255 255 255
255 255 255 255 255 255 255 255 255 255 255 255 255 255 253
255 254 252 254 252 253 253 251 252 253 251 252 254 252 253
255 253 255 255 254 255 255 254 255 255 253 255 253 251 255
250 248 253 248 246 251 248 246 251 248 246 251 249 247 250
254 254 254 248 248 246 247 248 243 226 227 222 161 162 156
103 104 98 125 125 117 184 184 176 248 248 240 252 252 244
255 255 250 255 255 251 254 250 249 249 245 244 252 248 249
255 254 255 255 254 255 253 253 255 250 250 255 243 246 255
238 242 251 233 240 250 230 237 247 228 236 247 234 240 252
232 238 250 230 236 250 230 236 250 235 238 253 236 239 255
236 237 255 234 235 253 229 231 246 239 241 255 233 235 250
215 217 232 220 219 237 231 230 246 193 190 207 126 124 138
154 150 165 192 188 202 226 223 232 255 251 255 255 250 255
251 244 251 255 253 255 246 240 244 243 239 240 196 192 193
136 132 133 85 81 82 161 157 158 252 248 249 250 246 247 241 237 238
254 250 251 255 252 253 251 247 248 251 247 248 255 253 254
255 251 252 253 249 250 255 254 255 253 253 253 254 254 254
255 255 255 255 255 255 255 255 255 255 255 255 255 255 255
255 255 255 255 255 255 255 255 255 255 255 255 255 255 255
255 255 255 255 255 255 255 255 255 255 255 255 254 255 253
254 255 253 254 255 253 254 255 253 254 255 253 254 255 253
254 255 253 254 255 253 252 254 249 252 254 249 252 254 249
252 254 249 252 254 249 252 254 249 252 254 249 253 254 249
254 253 251 254 253 251 254 253 251 254 253 251 254 253 251
255 254 252 255 254 252 255 254 252 255 255 253 255 255 253
251 250 248 249 248 246 249 248 246 251 250 248 253 252 250
253 251 252 255 254 255 255 254 255 249 247 252 248 246 251
238 236 241 213 210 217 184 183 189 168 167 175 128 126 137
107 105 116 91 91 103 105 105 117 144 143 157 181 180 194 198 197 211
199 198 212 192 190 204 189 185 199 185 181 195 188 184 198
200 196 210 209 205 219 201 198 209 186 183 194 110 107 116
127 125 130 180 178 183 226 224 225 246 245 243 250 249 245
244 243 238 246 245 240 252 253 248 254 255 250 255 255 251
255 255 251 255 255 251 254 255 250 255 255 253 255 255 253
255 255 253 255 255 253 255 255 255 254 254 254 254 254 254
255 255 255 255 255 255 255 255 255 255 255 255 255 255 255
255 255 255 255 255 255 255 255 255 255 255 255 255 255 255
255 255 255 255 255 255 255 255 255 255 255 255 255 255 255
255 255 255 255 255 255 255 255 255 255 255 255 255 255 255
255 255 255 255 255 255 255 255 255 255 255 255 255 255 255
255 255 255 255 255 255 255 255 255 255 255 255 255 255 255
255 255 255 255 255 255 255 255 255 255 255 255 255 255 255
255 255 255 255 255 255 255 255 255 255 255 255 255 255 255
255 255 255 255 255 255 255 255 255 255 255 255 255 255 255
255 255 255 255 255 255 255 255 255 255 255 255 255 255 255
255 255 255 255 255 255 255 255 255 255 255 255 255 255 255
255 255 255 255 255 255 255 255 255 255 255 255 255 255 255
255 255 255 255 255 255 255 255 255 255 255 255 255 255 255
255 255 255 255 255 255 255 255 255 255 255 255 255 255 255
255 255 255 255 255 255 255 255 255 255 255 255 255 255 255
255 255 255 255 255 255 255 255 255 255 255 255 255 255 255
255 255 255 255 255 255 255 255 255 255 255 255 255 255 255
255 255 255 255 255 255 255 255 255 255 255 255 255 255 255
255 255 255 255 255 255 255 255 255 255 255 255 255 255 255
255 255 255 255 255 255 255 255 255 255 255 255 255 255 255
255 255 255 255 255 255 255 255 255 255 255 255 255 255 255
255 255 255 255 255 255 255 255 255 255 255 255 255 255 255
255 255 255 255 255 255 255 255 255 255 255 255 255 255 255
255 255 255 255 255 255 255 255 255 255 255 255 255 255 255
255 255 255 255 255 255 255 255 255 255 255 255 255 255 255
255 255 255 255 255 255 255 255 255 255 255 255 255 255 255
255 255 255 255 255 255 255 255 255 255 255 255 255 255 255
255 255 255 255 255 255 255 255 255 255 255 255 255 255 255
255 255 255 255 255 255 255 255 255 255 255 255 255 255 255
255 255 255 255 255 255 255 255 255 255 255 255 255 255 255
255 255 255 255 255 255 255 255 255 255 255 255 255 255 255
255 255 255 255 255 255 255 255 255 255 255 255 255 255 255
255 255 255 255 255 255 255 255 255 255 255 255 255 255 255
255 255 255 255 255 255 255 255 255 255 255 255 255 255 255
255 255 255 255 255 255 255 255 255 255 255 255 255 255 255
255 255 255 255 255 255 255 255 255 255 255 255 255 255 255
255 255 255 255 255 255 255 255 255 255 255 255 255 255 255
255 255 255 255 255 255 255 255 255 255 255 255 255 255 255
255 255 255 255 255 255 255 255 255 255 255 255 255 255 255
255 255 255 255 255 255 255 255 255 255 255 255 255 255 255
255 255 255 255 255 255 255 255 255 255 255 255 255 255 255
255 255 255 255 255 255 255 255 255 255 255 255 255 255 255
255 255 255 255 254 252 254 253 251 252 250 251 251 249 250
251 249 250 252 250 251 254 252 255 255 253 255 255 254 255
255 253 255 254 252 255 252 250 255 251 249 254 251 249 254
250 248 253 250 248 251 250 250 250 250 250 248 206 207 202
130 131 126 99 100 94 144 145 139 212 213 207 249 250 244 245 246 240
250 251 245 251 250 246 250 249 245 255 255 253 255 254 255
255 254 255 247 245 250 250 250 255 245 248 255 241 243 255
235 239 250 231 235 246 227 233 245 227 235 246 227 237 249
234 242 255 232 240 253 230 237 253 232 239 255 236 242 255
235 240 255 233 236 255 229 232 249 231 234 249 234 237 252
229 232 247 226 230 242 225 227 242 201 200 214 151 149 163
111 109 122 167 163 177 255 253 255 250 244 254 243 236 244
255 252 255 253 243 251 255 250 255 255 253 255 224 220 221
107 105 106 111 109 110 188 186 187 220 218 219 238 236 237
237 235 236 255 254 255 246 244 245 247 245 246 243 241 242
246 244 245 253 251 252 250 248 249 248 246 247 255 254 255
253 253 253 254 254 254 255 255 255 255 255 255 255 255 255
255 255 255 255 255 255 255 255 255 255 255 255 255 255 255
255 255 255 255 255 255 255 255 255 255 255 255 255 255 255
255 255 255 255 255 255 255 255 255 255 255 255 255 255 255
255 255 255 255 255 255 255 255 253 255 255 253 252 253 248
252 253 248 252 253 248 252 253 248 252 253 247 252 253 247
252 253 247 252 253 247 252 251 247 254 250 247 254 250 247
255 251 248 255 251 250 255 252 251 255 252 251 255 253 252
255 252 251 255 251 250 255 252 253 255 253 254 255 254 255
255 252 253 251 247 248 247 243 244 221 216 222 217 212 219
206 201 208 181 176 183 138 135 142 105 102 111 99 97 108 110 108 119
140 138 151 171 169 183 202 201 217 212 211 227 198 199 217
187 188 206 191 192 212 203 202 220 202 199 218 205 200 220
207 203 220 208 204 221 206 202 217 202 198 213 196 192 206
191 188 199 149 146 155 145 143 148 154 152 157 206 204 205
250 249 247 250 249 245 247 246 241 248 247 242 252 253 248
254 255 250 255 255 251 255 255 251 255 255 251 254 255 250
255 255 253 255 255 253 255 255 253 255 255 253 255 255 255
254 254 254 254 254 254 255 255 255 255 255 255 255 255 255
255 255 255 255 255 255 255 255 255 255 255 255 255 255 255
255 255 255 255 255 255 255 255 255 255 255 255 255 255 255
255 255 255 255 255 255 255 255 255 255 255 255 255 255 255
255 255 255 255 255 255 255 255 255 255 255 255 255 255 255
255 255 255 255 255 255 255 255 255 255 255 255 255 255 255
255 255 255 255 255 255 255 255 255 255 255 255 255 255 255
255 255 255 255 255 255 255 255 255 255 255 255 255 255 255
255 255 255 255 255 255 255 255 255 255 255 255 255 255 255
255 255 255 255 255 255 255 255 255 255 255 255 255 255 255
255 255 255 255 255 255 255 255 255 255 255 255 255 255 255
255 255 255 255 255 255 255 255 255 255 255 255 255 255 255
255 255 255 255 255 255 255 255 255 255 255 255 255 255 255
255 255 255 255 255 255 255 255 255 255 255 255 255 255 255
255 255 255 255 255 255 255 255 255 255 255 255 255 255 255
255 255 255 255 255 255 255 255 255 255 255 255 255 255 255
255 255 255 255 255 255 255 255 255 255 255 255 255 255 255
255 255 255 255 255 255 255 255 255 255 255 255 255 255 255
255 255 255 255 255 255 255 255 255 255 255 255 255 255 255
255 255 255 255 255 255 255 255 255 255 255 255 255 255 255
255 255 255 255 255 255 255 255 255 255 255 255 255 255 255
255 255 255 255 255 255 255 255 255 255 255 255 255 255 255
255 255 255 255 255 255 255 255 255 255 255 255 255 255 255
255 255 255 255 255 255 255 255 255 255 255 255 255 255 255
255 255 255 255 255 255 255 255 255 255 255 255 255 255 255
255 255 255 255 255 255 255 255 255 255 255 255 255 255 255
255 255 255 255 255 255 255 255 255 255 255 255 255 255 255
255 255 255 255 255 255 255 255 255 255 255 255 255 255 255
255 255 255 255 255 255 255 255 255 255 255 255 255 255 255
255 255 255 255 255 255 255 255 255 255 255 255 255 255 255
255 255 255 255 255 255 255 255 255 255 255 255 255 255 255
255 255 255 255 255 255 255 255 255 255 255 255 255 255 255
255 255 255 255 255 255 255 255 255 255 255 255 255 255 255
255 255 255 255 255 255 255 255 255 255 255 255 255 255 255
255 255 255 255 255 255 255 255 255 255 255 255 255 255 255
255 255 255 255 255 255 255 255 255 255 255 255 255 255 255
255 255 255 255 255 255 255 255 255 255 255 255 255 255 255
255 255 255 255 255 255 255 255 255 255 255 255 255 255 255
255 255 255 255 255 255 255 255 255 255 255 255 255 255 255
255 255 255 255 255 255 255 255 255 255 255 255 255 255 255
255 255 255 255 255 255 255 255 255 255 255 255 255 255 255
255 255 255 255 255 255 255 255 255 255 255 255 255 255 255
255 255 255 255 255 255 255 255 255 254 253 251 253 252 250
251 249 250 250 248 249 250 248 249 251 249 250 253 251 254
254 252 255 255 253 255 255 253 255 255 253 255 255 253 255
254 252 255 254 252 255 253 251 255 253 251 254 233 233 233
151 151 149 85 85 83 105 106 101 178 179 174 236 237 231 252 253 247
248 249 243 253 254 248 251 252 247 252 253 248 255 255 253
255 254 255 252 252 254 252 250 253 253 252 255 243 246 255
240 244 255 236 240 252 230 236 248 228 234 246 229 237 250
232 242 254 236 246 255 229 239 251 227 237 249 227 234 250
229 236 252 232 237 255 230 235 254 226 229 248 221 224 241
239 242 255 227 231 243 221 225 237 223 227 239 196 198 211
142 142 154 145 143 156 203 201 212 236 233 244 239 233 243
250 243 251 245 238 246 242 232 240 255 249 255 248 239 244
206 200 204 150 146 147 108 106 107 134 132 133 220 218 219
248 246 247 255 254 255 241 239 240 244 242 243 255 253 254
255 254 255 254 252 253 255 254 255 255 254 255 253 251 252
247 245 246 255 254 255 253 253 253 254 254 254 255 255 255
255 255 255 255 255 255 255 255 255 255 255 255 255 255 255
255 255 255 255 255 255 255 255 255 255 255 255 255 255 255
255 255 255 255 255 255 255 255 255 255 255 255 255 255 255
255 255 255 255 255 255 255 255 255 255 255 255 255 255 253
255 255 253 251 251 249 251 252 247 251 252 247 251 252 247
251 252 247 251 252 246 251 252 247 251 252 247 252 248 245
252 248 245 253 249 248 254 250 249 255 251 250 255 252 251
255 252 251 255 253 254 255 253 254 255 253 254 255 252 253
251 246 250 236 231 235 212 207 211 186 181 185 169 164 168
147 142 149 110 104 114 84 78 88 102 96 106 143 140 151 177 174 185
190 188 201 194 192 206 198 196 210 198 195 212 197 196 214
198 196 217 197 198 218 196 197 218 193 194 215 192 190 212
198 194 217 203 198 220 199 194 216 191 186 206 197 193 210
209 205 220 207 203 217 195 192 203 168 165 174 152 150 155
133 131 134 193 191 192 254 253 251 251 250 246 249 248 244
248 247 242 252 253 248 254 255 250 255 255 251 255 255 251
255 255 251 254 255 250 255 255 253 255 255 253 255 255 253
255 255 253 255 255 255 254 254 254 254 254 254 255 255 255
255 255 255 255 255 255 255 255 255 255 255 255 255 255 255
255 255 255 255 255 255 255 255 255 255 255 255 255 255 255
255 255 255 255 255 255 255 255 255 255 255 255 255 255 255
255 255 255 255 255 255 255 255 255 255 255 255 255 255 255
255 255 255 255 255 255 255 255 255 255 255 255 255 255 255
255 255 255 255 255 255 255 255 255 255 255 255 255 255 255
255 255 255 255 255 255 255 255 255 255 255 255 255 255 255
255 255 255 255 255 255 255 255 255 255 255 255 255 255 255
255 255 255 255 255 255 255 255 255 255 255 255 255 255 255
255 255 255 255 255 255 255 255 255 255 255 255 255 255 255
255 255 255 255 255 255 255 255 255 255 255 255 255 255 255
255 255 255 255 255 255 255 255 255 255 255 255 255 255 255
255 255 255 255 255 255 255 255 255 255 255 255 255 255 255
255 255 255 255 255 255 255 255 255 255 255 255 255 255 255
255 255 255 255 255 255 255 255 255 255 255 255 255 255 255
255 255 255 255 255 255 255 255 255 255 255 255 255 255 255
255 255 255 255 255 255 255 255 255 255 255 255 255 255 255
255 255 255 255 255 255 255 255 255 255 255 255 255 255 255
255 255 255 255 255 255 255 255 255 255 255 255 255 255 255
255 255 255 255 255 255 255 255 255 255 255 255 255 255 255
255 255 255 255 255 255 255 255 255 255 255 255 255 255 255
255 255 255 255 255 255 255 255 255 255 255 255 255 255 255
255 255 255 255 255 255 255 255 255 255 255 255 255 255 255
255 255 255 255 255 255 255 255 255 255 255 255 255 255 255
255 255 255 255 255 255 255 255 255 255 255 255 255 255 255
255 255 255 255 255 255 255 255 255 255 255 255 255 255 255
255 255 255 255 255 255 255 255 255 255 255 255 255 255 255
255 255 255 255 255 255 255 255 255 255 255 255 255 255 255
255 255 255 255 255 255 255 255 255 255 255 255 255 255 255
255 255 255 255 255 255 255 255 255 255 255 255 255 255 255
255 255 255 255 255 255 255 255 255 255 255 255 255 255 255
255 255 255 255 255 255 255 255 255 255 255 255 255 255 255
255 255 255 255 255 255 255 255 255 255 255 255 255 255 255
255 255 255 255 255 255 255 255 255 255 255 255 255 255 255
255 255 255 255 255 255 255 255 255 255 255 255 255 255 255
255 255 255 255 255 255 255 255 255 255 255 255 255 255 255
255 255 255 255 255 255 255 255 255 255 255 255 255 255 255
255 255 255 255 255 255 255 255 255 255 255 255 255 255 255
255 255 255 255 255 255 255 255 255 255 255 255 255 255 255
255 255 255 255 255 255 255 255 255 255 255 255 255 255 255
255 255 255 255 255 255 255 255 255 255 255 255 255 255 255
254 254 254 253 253 253 252 252 252 250 250 250 250 250 250
253 252 250 251 250 248 250 248 249 254 252 253 255 254 255
255 254 255 255 253 255 254 252 255 246 244 247 255 254 255
254 252 255 249 247 252 246 244 249 255 254 255 255 254 255
205 203 206 131 131 131 91 91 89 107 107 105 192 193 188 253 254 249
251 252 247 246 247 242 255 255 251 253 254 249 255 255 253
255 255 253 254 255 255 254 254 255 249 250 254 245 244 250
241 241 249 232 234 246 233 236 251 234 237 252 233 239 253
233 239 253 230 237 253 227 236 251 225 234 249 234 243 255
231 240 255 227 234 252 224 231 249 229 234 253 236 239 255
235 236 255 230 231 249 230 233 248 225 229 241 218 220 233
196 198 210 158 158 170 139 139 149 176 174 185 228 227 235
243 240 249 254 249 255 243 236 244 243 236 243 251 241 249
247 237 245 250 239 247 136 127 132 82 78 79 167 165 166 225 223 224
242 240 241 255 254 255 255 254 255 246 244 245 243 241 242
252 250 251 254 252 253 255 253 254 254 252 253 250 248 249
247 245 246 246 244 245 247 245 246 255 255 255 255 255 255
255 255 255 255 255 255 255 255 255 254 254 254 254 254 254
254 254 254 255 255 255 255 255 255 255 255 255 253 253 253
251 251 251 252 252 252 254 254 254 255 255 255 255 255 255
255 255 255 253 253 253 253 253 253 254 254 254 255 255 255
255 255 255 255 255 255 255 255 255 254 254 252 251 251 249
251 251 249 254 254 252 255 255 251 249 249 247 239 239 237
253 249 248 255 252 251 255 253 254 255 253 254 255 254 255
255 254 255 253 249 250 247 242 246 232 227 231 212 207 211
189 184 188 169 164 170 143 138 144 114 109 115 94 89 95 89 84 91
141 135 145 167 161 173 196 190 202 209 203 215 202 198 212
195 191 206 195 193 207 200 197 214 202 199 218 197 194 215
195 193 214 199 197 219 198 199 220 196 196 220 197 197 221
203 201 225 218 214 239 208 203 226 203 198 221 206 201 223
202 197 217 194 190 205 197 193 207 208 205 216 181 178 187
133 131 136 127 125 128 189 187 188 248 247 245 255 255 251
250 249 245 251 250 246 252 253 248 254 255 250 255 255 251
255 255 251 255 255 251 254 255 250 255 255 253 255 255 253
255 255 253 255 255 253 255 255 255 255 255 255 255 255 255
255 255 255 255 255 255 255 255 255 255 255 255 255 255 255
255 255 255 255 255 255 255 255 255 255 255 255 255 255 255
255 255 255 255 255 255 255 255 255 255 255 255 255 255 255
255 255 255 255 255 255 255 255 255 255 255 255 255 255 255
255 255 255 255 255 255 255 255 255 255 255 255 255 255 255
255 255 255 255 255 255 255 255 255 255 255 255 255 255 255
255 255 255 255 255 255 255 255 255 255 255 255 255 255 255
255 255 255 255 255 255 255 255 255 255 255 255 255 255 255
255 255 255 255 255 255 255 255 255 255 255 255 255 255 255
255 255 255 255 255 255 255 255 255 255 255 255 255 255 255
255 255 255 255 255 255 255 255 255 255 255 255 255 255 255
255 255 255 255 255 255 255 255 255 255 255 255 255 255 255
255 255 255 255 255 255 255 255 255 255 255 255 255 255 255
255 255 255 255 255 255 255 255 255 255 255 255 255 255 255
255 255 255 255 255 255 255 255 255 255 255 255 255 255 255
255 255 255 255 255 255 255 255 255 255 255 255 255 255 255
255 255 255 255 255 255 255 255 255 255 255 255 255 255 255
255 255 255 255 255 255 255 255 255 255 255 255 255 255 255
255 255 255 255 255 255 255 255 255 255 255 255 255 255 255
255 255 255 255 255 255 255 255 255 255 255 255 255 255 255
255 255 255 255 255 255 255 255 255 255 255 255 255 255 255
255 255 255 255 255 255 255 255 255 255 255 255 255 255 255
255 255 255 255 255 255 255 255 255 255 255 255 255 255 255
255 255 255 255 255 255 255 255 255 255 255 255 255 255 255
255 255 255 255 255 255 255 255 255 255 255 255 255 255 255
255 255 255 255 255 255 255 255 255 255 255 255 255 255 255
255 255 255 255 255 255 255 255 255 255 255 255 255 255 255
255 255 255 255 255 255 255 255 255 255 255 255 255 255 255
255 255 255 255 255 255 255 255 255 255 255 255 255 255 255
255 255 255 255 255 255 255 255 255 255 255 255 255 255 255
255 255 255 255 255 255 255 255 255 255 255 255 255 255 255
255 255 255 255 255 255 255 255 255 255 255 255 255 255 255
255 255 255 255 255 255 255 255 255 255 255 255 255 255 255
255 255 255 255 255 255 255 255 255 255 255 255 255 255 255
255 255 255 255 255 255 255 255 255 255 255 255 255 255 255
255 255 255 255 255 255 255 255 255 255 255 255 255 255 255
255 255 255 255 255 255 255 255 255 255 255 255 255 255 255
255 255 255 255 255 255 255 255 255 255 255 255 255 255 255
255 255 255 255 255 255 255 255 255 255 255 255 255 255 255
255 255 255 255 255 255 255 255 255 255 255 255 255 255 255
255 255 255 255 255 255 255 255 255 255 255 255 255 255 255
255 255 255 255 255 255 254 254 254 253 253 253 251 251 251
251 251 251 255 254 252 254 253 251 252 250 251 253 251 252
253 251 252 254 252 253 255 253 255 255 254 255 255 254 255
254 252 255 249 247 252 243 241 246 255 254 255 246 244 249
154 152 157 123 121 126 84 84 86 168 168 168 246 246 246 255 255 253
248 248 246 246 247 242 251 251 249 252 252 250 255 255 253
255 255 255 252 254 253 250 251 253 246 247 251 243 244 249
240 240 248 236 238 250 232 236 248 232 235 250 230 236 250
230 236 250 228 235 251 228 235 251 226 235 250 226 235 250
232 241 255 233 242 255 234 241 255 233 238 255 234 237 255
233 236 255 227 228 248 220 221 239 204 206 221 236 238 250
217 219 231 150 150 160 125 125 135 176 176 184 231 230 238
245 242 249 255 253 255 232 227 233 235 228 235 251 244 251
254 244 252 232 222 230 189 178 186 118 108 116 116 111 115
198 196 197 252 250 251 255 253 254 252 250 251 246 244 245
249 247 248 255 254 255 254 252 253 253 251 252 251 249 250
247 245 246 246 244 245 248 246 247 253 251 252 255 254 255
254 254 254 254 254 254 254 254 254 255 255 255 255 255 255
255 255 255 255 255 255 255 255 255 253 253 253 254 254 254
255 255 255 255 255 255 255 255 255 255 255 255 252 252 252
249 249 249 247 247 247 249 249 249 252 252 252 255 255 255
255 255 255 255 255 255 254 254 254 250 250 250 252 252 252
255 255 255 255 255 255 252 252 252 252 252 252 254 254 254
253 253 253 252 250 251 245 243 246 247 242 246 249 244 248
252 247 251 249 244 248 228 223 227 191 186 192 159 154 160
144 139 146 124 119 126 103 98 105 100 95 102 121 115 125 159 153 163
203 197 207 233 227 239 200 194 206 202 196 210 203 197 211
199 192 208 193 189 204 195 191 208 200 197 214 207 204 223
200 197 218 196 193 214 196 194 216 202 200 222 204 204 228
202 202 226 202 202 228 205 202 229 186 182 207 199 193 219
200 195 218 189 184 206 192 187 207 207 203 218 208 204 218
195 192 201 140 137 144 130 128 133 152 150 153 207 205 206
246 245 243 251 250 248 249 248 244 255 254 250 252 253 248
254 255 250 255 255 251 255 255 251 255 255 251 254 255 250
255 255 253 255 255 253 255 255 253 255 255 253 255 255 255
255 255 255 255 255 255 255 255 255 255 255 255 255 255 255
255 255 255 255 255 255 255 255 255 255 255 255 255 255 255
255 255 255 255 255 255 255 255 255 255 255 255 255 255 255
255 255 255 255 255 255 255 255 255 255 255 255 255 255 255
255 255 255 255 255 255 255 255 255 255 255 255 255 255 255
255 255 255 255 255 255 255 255 255 255 255 255 255 255 255
255 255 255 255 255 255 255 255 255 255 255 255 255 255 255
255 255 255 255 255 255 255 255 255 255 255 255 255 255 255
255 255 255 255 255 255 255 255 255 255 255 255 255 255 255
255 255 255 255 255 255 255 255 255 255 255 255 255 255 255
255 255 255 255 255 255 255 255 255 255 255 255 255 255 255
255 255 255 255 255 255 255 255 255 255 255 255 255 255 255
255 255 255 255 255 255 255 255 255 255 255 255 255 255 255
255 255 255 255 255 255 255 255 255 255 255 255 255 255 255
255 255 255 255 255 255 255 255 255 255 255 255 255 255 255
255 255 255 255 255 255 255 255 255 255 255 255 255 255 255
255 255 255 255 255 255 255 255 255 255 255 255 255 255 255
255 255 255 255 255 255 255 255 255 255 255 255 255 255 255
255 255 255 255 255 255 255 255 255 255 255 255 255 255 255
255 255 255 255 255 255 255 255 255 255 255 255 255 255 255
255 255 255 255 255 255 255 255 255 255 255 255 255 255 255
255 255 255 255 255 255 255 255 255 255 255 255 255 255 255
255 255 255 255 255 255 255 255 255 255 255 255 255 255 255
255 255 255 255 255 255 255 255 255 255 255 255 255 255 255
255 255 255 255 255 255 255 255 255 255 255 255 255 255 255
255 255 255 255 255 255 255 255 255 255 255 255 255 255 255
255 255 255 255 255 255 255 255 255 255 255 255 255 255 255
255 255 255 255 255 255 255 255 255 255 255 255 255 255 255
255 255 255 255 255 255 255 255 255 255 255 255 255 255 255
255 255 255 255 255 255 255 255 255 255 255 255 255 255 255
255 255 255 255 255 255 255 255 255 255 255 255 255 255 255
255 255 255 255 255 255 255 255 255 255 255 255 255 255 255
255 255 255 255 255 255 255 255 255 255 255 255 255 255 255
255 255 255 255 255 255 255 255 255 255 255 255 255 255 255
255 255 255 255 255 255 255 255 255 255 255 255 255 255 255
255 255 255 255 255 255 255 255 255 255 255 255 255 255 255
255 255 255 255 255 255 255 255 255 255 255 255 255 255 255
255 255 255 255 255 255 255 255 255 255 255 255 255 255 255
255 255 255 255 255 255 255 255 255 255 255 255 255 255 255
255 255 255 255 255 255 255 255 255 255 255 255 255 255 255
255 255 255 255 255 255 255 255 255 255 255 255 255 255 255
255 255 255 255 255 255 255 255 255 255 255 255 255 255 255
254 254 254 253 253 253 252 252 252 252 251 249 254 253 251
255 254 255 255 253 254 255 253 254 255 253 254 255 254 255
255 254 255 254 252 255 234 232 235 255 254 255 255 254 255
208 206 211 146 144 149 103 101 106 122 120 125 203 202 207
237 237 239 254 254 255 243 243 243 242 242 242 255 255 253
254 255 255 247 249 248 254 255 255 252 253 255 247 248 252
243 244 249 237 240 247 235 238 247 234 236 248 233 235 248
234 237 252 231 237 253 230 236 252 229 235 251 227 234 250
228 235 251 228 237 252 229 238 253 231 238 254 235 242 255
238 244 255 235 241 255 233 236 253 231 232 250 227 226 244
221 220 236 223 222 236 199 199 211 154 154 166 129 127 138
161 160 168 224 223 229 255 253 255 252 250 255 244 239 245
249 244 248 255 249 253 246 240 244 241 231 239 174 164 172 88 78 87
139 132 139 196 194 197 236 236 236 255 255 255 251 251 251
253 253 253 249 249 249 247 247 247 255 255 255 253 253 253
251 251 251 248 248 248 246 246 246 246 246 246 249 249 249
255 255 255 255 255 255 252 252 252 253 253 253 254 254 254
254 254 254 255 255 255 255 255 255 255 255 255 255 255 255
255 255 255 255 255 255 252 252 252 252 252 252 255 255 255
255 255 255 255 255 255 255 255 255 255 254 255 255 254 255
255 253 254 253 251 252 253 251 254 253 251 254 252 250 253
251 249 252 255 254 255 255 254 255 252 250 255 248 246 251
250 248 253 253 251 255 251 249 254 246 244 249 241 239 244
220 218 223 188 186 191 158 156 161 140 137 144 125 122 129
108 105 114 92 89 98 128 125 136 147 144 155 173 169 183 196 192 206
209 205 219 210 206 220 200 196 211 188 184 199 211 207 222
205 201 216 200 196 211 197 193 210 198 194 211 197 192 212
192 189 208 188 185 204 189 186 207 185 182 203 182 180 202
184 182 204 187 185 209 188 186 210 190 188 212 193 191 215
191 187 212 204 198 224 203 198 221 191 186 206 197 193 210
210 206 220 197 194 205 168 165 174 83 81 86 125 123 126 189 187 188
240 238 239 255 255 253 252 251 249 248 247 245 252 251 249
252 253 248 254 255 250 255 255 251 255 255 251 255 255 251
254 255 250 255 255 253 255 255 253 255 255 253 255 255 253
255 255 255 255 255 255 255 255 255 255 255 255 255 255 255
255 255 255 255 255 255 255 255 255 255 255 255 255 255 255
255 255 255 255 255 255 255 255 255 255 255 255 255 255 255
255 255 255 255 255 255 255 255 255 255 255 255 255 255 255
255 255 255 255 255 255 255 255 255 255 255 255 255 255 255
255 255 255 255 255 255 255 255 255 255 255 255 255 255 255
255 255 255 255 255 255 255 255 255 255 255 255 255 255 255
255 255 255 255 255 255 255 255 255 255 255 255 255 255 255
255 255 255 255 255 255 255 255 255 255 255 255 255 255 255
255 255 255 255 255 255 255 255 255 255 255 255 255 255 255
255 255 255 255 255 255 255 255 255 255 255 255 255 255 255
255 255 255 255 255 255 255 255 255 255 255 255 255 255 255
255 255 255 255 255 255 255 255 255 255 255 255 255 255 255
255 255 255 255 255 255 255 255 255 255 255 255 255 255 255
255 255 255 255 255 255 255 255 255 255 255 255 255 255 255
255 255 255 255 255 255 255 255 255 255 255 255 255 255 255
255 255 255 255 255 255 255 255 255 255 255 255 255 255 255
255 255 255 255 255 255 255 255 255 255 255 255 255 255 255
255 255 255 255 255 255 255 255 255 255 255 255 255 255 255
255 255 255 255 255 255 255 255 255 255 255 255 255 255 255
255 255 255 255 255 255 255 255 255 255 255 255 255 255 255
255 255 255 255 255 255 255 255 255 255 255 255 255 255 255
255 255 255 255 255 255 255 255 255 255 255 255 255 255 255
255 255 255 255 255 255 255 255 255 255 255 255 255 255 255
255 255 255 255 255 255 255 255 255 255 255 255 255 255 255
255 255 255 255 255 255 255 255 255 255 255 255 255 255 255
255 255 255 255 255 255 255 255 255 255 255 255 255 255 255
255 255 255 255 255 255 255 255 255 255 255 255 255 255 255
255 255 255 255 255 255 255 255 255 255 255 255 255 255 255
255 255 255 255 255 255 255 255 255 255 255 255 255 255 255
255 255 255 255 255 255 255 255 255 255 255 255 255 255 255
255 255 255 255 255 255 255 255 255 255 255 255 255 255 255
255 255 255 255 255 255 255 255 255 255 255 255 255 255 255
255 255 255 255 255 255 255 255 255 255 255 255 255 255 255
255 255 255 255 255 255 255 255 255 255 255 255 255 255 255
255 255 255 255 255 255 255 255 255 255 255 255 255 255 255
255 255 255 255 255 255 255 255 255 255 255 255 255 255 255
255 255 255 255 255 255 255 255 255 255 255 255 255 255 255
255 255 255 255 255 255 255 255 255 255 255 255 255 255 255
255 255 255 255 255 255 255 255 255 255 255 255 255 255 255
255 255 255 255 255 255 255 255 255 255 255 255 255 255 255
255 255 255 255 255 255 255 255 255 255 255 255 255 255 255
255 255 255 255 255 255 254 254 254 254 254 254 251 250 248
255 254 252 255 254 255 255 254 255 254 252 253 253 251 252
252 250 253 250 248 251 253 251 254 255 254 255 237 235 240
197 195 200 116 114 119 94 92 97 171 169 174 210 208 213 255 254 255
247 246 251 234 233 238 238 238 240 246 246 248 250 250 252
248 249 251 248 249 251 248 249 253 246 247 251 242 243 248
237 240 247 234 237 246 233 235 247 233 235 248 232 235 250
235 238 255 233 239 255 232 238 254 232 238 254 231 238 254
231 238 254 230 239 254 231 240 255 228 235 251 232 239 255
234 240 255 232 235 252 230 231 249 230 231 249 230 229 247
227 226 242 226 224 238 147 145 156 108 106 117 163 162 170
232 229 236 250 248 253 243 241 246 244 242 245 239 234 238
255 253 255 255 251 255 226 220 224 190 183 190 138 131 138 88 78 87
181 174 181 255 254 255 254 254 254 243 243 243 242 242 242
255 255 255 255 255 255 247 247 247 244 244 244 250 250 250
251 251 251 251 251 251 251 251 251 251 251 251 252 252 252
253 253 253 254 254 254 253 253 253 253 253 253 254 254 254
254 254 254 255 255 255 255 255 255 255 255 255 255 255 255
255 255 255 255 255 255 254 254 254 252 252 252 252 252 252
253 253 253 254 254 254 255 255 255 250 248 249 250 248 249
250 248 249 252 250 251 254 252 255 255 253 255 254 252 255
253 251 255 244 242 247 249 246 253 255 252 255 255 253 255
255 253 255 230 227 236 186 183 192 148 145 154 134 131 140
128 127 135 117 114 123 105 104 112 112 109 120 142 140 151
185 181 195 212 210 223 207 203 218 209 207 221 205 201 218
196 193 210 196 192 209 202 199 216 205 200 220 200 197 216
192 187 207 192 189 206 196 191 211 198 195 214 198 193 213
189 186 205 176 173 192 166 163 182 168 165 186 172 169 190
179 175 198 185 183 205 192 188 211 195 193 217 201 197 222
205 201 226 205 199 225 189 184 207 185 180 202 202 197 217
213 209 224 189 185 199 140 137 146 101 98 105 101 99 102 161 159 160
228 226 227 255 254 255 255 255 253 255 254 252 252 251 249
250 249 247 252 253 248 254 255 250 255 255 251 255 255 251
255 255 251 254 255 250 255 255 253 255 255 253 255 255 253
255 255 253 255 255 255 255 255 255 255 255 255 255 255 255
255 255 255 255 255 255 255 255 255 255 255 255 255 255 255
255 255 255 255 255 255 255 255 255 255 255 255 255 255 255
255 255 255 255 255 255 255 255 255 255 255 255 255 255 255
255 255 255 255 255 255 255 255 255 255 255 255 255 255 255
255 255 255 255 255 255 255 255 255 255 255 255 255 255 255
255 255 255 255 255 255 255 255 255 255 255 255 255 255 255
255 255 255 255 255 255 255 255 255 255 255 255 255 255 255
255 255 255 255 255 255 255 255 255 255 255 255 255 255 255
255 255 255 255 255 255 255 255 255 255 255 255 255 255 255
255 255 255 255 255 255 255 255 255 255 255 255 255 255 255
255 255 255 255 255 255 255 255 255 255 255 255 255 255 255
255 255 255 255 255 255 255 255 255 255 255 255 255 255 255
255 255 255 255 255 255 255 255 255 255 255 255 255 255 255
255 255 255 255 255 255 255 255 255 255 255 255 255 255 255
255 255 255 255 255 255 255 255 255 255 255 255 255 255 255
255 255 255 255 255 255 255 255 255 255 255 255 255 255 255
255 255 255 255 255 255 255 255 255 255 255 255 255 255 255
255 255 255 255 255 255 255 255 255 255 255 255 255 255 255
255 255 255 255 255 255 255 255 255 255 255 255 255 255 255
255 255 255 255 255 255 255 255 255 255 255 255 255 255 255
255 255 255 255 255 255 255 255 255 255 255 255 255 255 255
255 255 255 255 255 255 255 255 255 255 255 255 255 255 255
255 255 255 255 255 255 255 255 255 255 255 255 255 255 255
255 255 255 255 255 255 255 255 255 255 255 255 255 255 255
255 255 255 255 255 255 255 255 255 255 255 255 255 255 255
255 255 255 255 255 255 255 255 255 255 255 255 255 255 255
255 255 255 255 255 255 255 255 255 255 255 255 255 255 255
255 255 255 255 255 255 255 255 255 255 255 255 255 255 255
255 255 255 255 255 255 255 255 255 255 255 255 255 255 255
255 255 255 255 255 255 255 255 255 255 255 255 255 255 255
255 255 255 255 255 255 255 255 255 255 255 255 255 255 255
255 255 255 255 255 255 255 255 255 255 255 255 255 255 255
255 255 255 255 255 255 255 255 255 255 255 255 255 255 255
255 255 255 255 255 255 255 255 255 255 255 255 255 255 255
255 255 255 255 255 255 255 255 255 255 255 255 255 255 255
255 255 255 255 255 255 255 255 255 255 255 255 255 255 255
255 255 255 255 255 255 255 255 255 255 255 255 255 255 255
255 255 255 255 255 255 255 255 255 255 255 255 255 255 255
255 255 255 255 255 255 255 255 255 255 255 255 255 255 255
255 255 255 255 255 255 255 255 255 255 255 255 255 255 255
255 255 255 255 255 255 255 255 255 255 255 255 255 255 255
255 255 255 255 255 255 255 255 255 254 254 254 254 254 254
255 255 253 255 255 253 255 254 255 252 250 251 251 249 250
253 251 252 249 247 250 243 241 244 248 246 249 244 242 245
154 152 157 98 96 101 125 123 128 181 179 184 243 241 246 255 254 255
231 228 235 243 240 247 253 252 255 252 251 255 245 244 249
240 239 244 242 243 247 246 247 251 236 239 244 236 239 246
236 239 248 236 238 250 236 238 251 235 238 253 234 237 254
234 237 254 232 235 252 234 237 254 233 239 255 234 240 255
233 240 255 232 239 255 231 238 254 230 237 253 226 232 248
228 234 250 231 234 249 230 233 248 230 232 247 229 228 244
223 220 237 216 214 228 157 153 167 144 141 152 161 158 169
213 210 219 250 245 252 249 244 250 241 236 240 244 240 241
246 242 243 242 238 239 248 243 247 208 203 207 107 102 108
124 119 125 192 185 193 238 233 239 254 252 255 251 251 251
245 245 245 246 246 246 252 252 252 253 253 253 252 252 252
255 255 255 250 250 250 250 250 250 250 250 250 251 251 251
252 252 252 253 253 253 253 253 253 253 253 253 254 254 254
254 254 254 254 254 254 254 254 254 254 254 254 254 254 254
254 254 254 254 254 254 249 249 249 254 254 254 255 255 255
255 255 255 254 254 254 250 250 250 248 248 248 247 247 247
255 254 255 255 254 255 255 254 255 254 252 253 254 252 255
255 253 255 255 254 255 255 253 255 255 253 255 242 239 248
192 189 200 147 143 157 123 119 133 118 114 129 117 113 128
115 111 125 113 111 124 143 143 153 180 178 191 196 196 208
199 197 211 198 197 211 201 198 215 204 203 219 199 196 215
202 201 219 200 197 218 192 190 211 194 190 213 201 199 221
206 202 227 203 201 223 200 197 218 200 199 217 198 195 216
190 188 209 182 179 200 176 173 194 175 172 193 176 173 194
175 172 193 184 181 202 193 190 211 198 195 216 199 194 216
198 194 217 200 195 218 200 195 218 208 203 226 207 202 224
214 209 229 210 206 223 168 164 178 113 110 121 91 88 95 102 100 105
195 193 196 229 227 228 255 254 255 254 253 251 247 245 246
251 249 250 255 253 254 252 251 249 252 253 248 254 255 250
255 255 251 255 255 251 255 255 251 254 255 250 255 255 253
255 255 253 255 255 253 255 255 253 255 255 255 255 255 255
255 255 255 255 255 255 255 255 255 255 255 255 255 255 255
255 255 255 255 255 255 255 255 255 255 255 255 255 255 255
255 255 255 255 255 255 255 255 255 255 255 255 255 255 255
255 255 255 255 255 255 255 255 255 255 255 255 255 255 255
255 255 255 255 255 255 255 255 255 255 255 255 255 255 255
255 255 255 255 255 255 255 255 255 255 255 255 255 255 255
255 255 255 255 255 255 255 255 255 255 255 255 255 255 255
255 255 255 255 255 255 255 255 255 255 255 255 255 255 255
255 255 255 255 255 255 255 255 255 255 255 255 255 255 255
255 255 255 255 255 255 255 255 255 255 255 255 255 255 255
255 255 255 255 255 255 255 255 255 255 255 255 255 255 255
255 255 255 255 255 255 255 255 255 255 255 255 255 255 255
255 255 255 255 255 255 255 255 255 255 255 255 255 255 255
255 255 255 255 255 255 255 255 255 255 255 255 255 255 255
255 255 255 255 255 255 255 255 255 255 255 255 255 255 255
255 255 255 255 255 255 255 255 255 255 255 255 255 255 255
255 255 255 255 255 255 255 255 255 255 255 255 255 255 255
255 255 255 255 255 255 255 255 255 255 255 255 255 255 255
255 255 255 255 255 255 255 255 255 255 255 255 255 255 255
255 255 255 255 255 255 255 255 255 255 255 255 255 255 255
255 255 255 255 255 255 255 255 255 255 255 255 255 255 255
255 255 255 255 255 255 255 255 255 255 255 255 255 255 255
255 255 255 255 255 255 255 255 255 255 255 255 255 255 255
255 255 255 255 255 255 255 255 255 255 255 255 255 255 255
255 255 255 255 255 255 255 255 255 255 255 255 255 255 255
255 255 255 255 255 255 255 255 255 255 255 255 255 255 255
255 255 255 255 255 255 255 255 255 255 255 255 255 255 255
255 255 255 255 255 255 255 255 255 255 255 255 255 255 255
255 255 255 255 255 255 255 255 255 255 255 255 255 255 255
255 255 255 255 255 255 255 255 255 255 255 255 255 255 255
255 255 255 255 255 255 255 255 255 255 255 255 255 255 255
255 255 255 255 255 255 255 255 255 255 255 255 255 255 255
255 255 255 255 255 255 255 255 255 255 255 255 255 255 255
255 255 255 255 255 255 255 255 255 255 255 255 255 255 255
255 255 255 255 255 255 255 255 255 255 255 255 255 255 255
255 255 255 255 255 255 255 255 255 255 255 255 255 255 255
255 255 255 255 255 255 255 255 255 255 255 255 255 255 255
255 255 255 255 255 255 255 255 255 255 255 255 255 255 255
255 255 255 255 255 255 255 255 255 255 255 255 255 255 255
255 255 255 255 255 255 255 255 255 255 255 255 255 255 255
255 255 255 255 255 255 255 255 255 255 255 255 255 255 255
255 255 255 255 255 255 255 255 255 255 255 255 254 254 254
253 253 253 252 252 252 255 255 253 255 254 252 250 248 249
249 247 248 255 253 254 255 254 255 250 248 251 235 233 236
189 187 190 129 127 130 108 106 111 131 129 134 202 200 205
254 252 255 244 242 247 250 247 254 252 249 255 250 247 255
246 245 253 243 242 248 242 241 247 241 240 246 242 243 248
243 243 251 230 233 240 232 235 244 234 236 248 237 239 252
237 240 255 236 239 255 235 238 255 235 238 255 229 232 249
230 233 250 231 237 253 232 238 254 232 239 255 230 237 253
228 235 251 227 234 250 225 231 247 226 232 248 228 231 246
229 231 246 230 229 245 219 218 234 198 195 212 179 175 190
120 114 128 174 168 180 228 222 232 247 242 249 243 238 244
242 237 241 249 245 246 254 250 251 255 254 255 234 230 231
188 183 187 144 139 143 102 97 103 161 156 162 253 248 255
255 254 255 250 250 252 248 248 248 250 250 250 251 251 251
251 251 251 251 251 251 254 254 254 255 255 255 252 252 252
249 249 249 246 246 246 246 246 246 249 249 249 253 253 253
255 255 255 255 255 255 253 253 253 253 253 253 253 253 253
252 252 252 252 252 252 252 252 252 251 251 251 251 251 251
249 249 249 250 250 250 251 251 251 251 251 251 252 252 252
254 254 254 255 255 255 255 255 255 236 234 235 244 242 243
253 251 252 255 254 255 247 245 248 225 223 228 198 195 202
180 177 186 132 129 140 132 128 142 125 121 135 114 110 125
116 112 129 138 133 153 170 165 185 192 189 206 204 203 217
206 205 219 203 202 216 196 195 211 193 192 208 199 198 216
206 205 223 211 209 230 205 203 225 210 208 230 211 209 233
208 206 230 204 201 228 202 199 226 198 195 224 194 191 218
204 202 224 205 203 224 200 198 219 190 188 209 179 177 198
177 175 196 187 184 205 196 193 214 197 194 215 197 194 215
194 189 211 189 184 206 191 186 208 198 193 215 205 200 222
208 203 225 207 202 224 195 190 210 172 168 185 139 135 150
107 103 117 108 105 114 153 150 157 203 201 204 250 248 249
255 254 255 255 255 253 249 248 246 245 243 244 252 250 251
254 252 253 248 246 247 252 252 250 254 255 250 255 255 251
255 255 251 255 255 251 254 255 250 255 255 253 255 255 253
255 255 253 255 255 253 255 255 255 255 255 255 255 255 255
255 255 255 255 255 255 255 255 255 255 255 255 255 255 255
255 255 255 255 255 255 255 255 255 255 255 255 255 255 255
255 255 255 255 255 255 255 255 255 255 255 255 255 255 255
255 255 255 255 255 255 255 255 255 255 255 255 255 255 255
255 255 255 255 255 255 255 255 255 255 255 255 255 255 255
255 255 255 255 255 255 255 255 255 255 255 255 255 255 255
255 255 255 255 255 255 255 255 255 255 255 255 255 255 255
255 255 255 255 255 255 255 255 255 255 255 255 255 255 255
255 255 255 255 255 255 255 255 255 255 255 255 255 255 255
255 255 255 255 255 255 255 255 255 255 255 255 255 255 255
255 255 255 255 255 255 255 255 255 255 255 255 255 255 255
255 255 255 255 255 255 255 255 255 255 255 255 255 255 255
255 255 255 255 255 255 255 255 255 255 255 255 255 255 255
255 255 255 255 255 255 255 255 255 255 255 255 255 255 255
255 255 255 255 255 255 255 255 255 255 255 255 255 255 255
255 255 255 255 255 255 255 255 255 255 255 255 255 255 255
255 255 255 255 255 255 255 255 255 255 255 255 255 255 255
255 255 255 255 255 255 255 255 255 255 255 255 255 255 255
255 255 255 255 255 255 255 255 255 255 255 255 255 255 255
255 255 255 255 255 255 255 255 255 255 255 255 255 255 255
255 255 255 255 255 255 255 255 255 255 255 255 255 255 255
255 255 255 255 255 255 255 255 255 255 255 255 255 255 255
255 255 255 255 255 255 255 255 255 255 255 255 255 255 255
255 255 255 255 255 255 255 255 255 255 255 255 255 255 255
255 255 255 255 255 255 255 255 255 255 255 255 255 255 255
255 255 255 255 255 255 255 255 255 255 255 255 255 255 255
255 255 255 255 255 255 255 255 255 255 255 255 255 255 255
255 255 255 255 255 255 255 255 255 255 255 255 255 255 255
255 255 255 255 255 255 255 255 255 255 255 255 255 255 255
255 255 255 255 255 255 255 255 255 255 255 255 255 255 255
255 255 255 255 255 255 255 255 255 255 255 255 255 255 255
255 255 255 255 255 255 255 255 255 255 255 255 255 255 255
255 255 255 255 255 255 255 255 255 255 255 255 255 255 255
255 255 255 255 255 255 255 255 255 255 255 255 255 255 255
255 255 255 255 255 255 255 255 255 255 255 255 255 255 255
255 255 255 255 255 255 255 255 255 255 255 255 255 255 255
255 255 255 255 255 255 255 255 255 255 255 255 255 255 255
255 255 255 255 255 255 255 255 255 255 255 255 255 255 255
255 255 255 255 255 255 255 255 255 255 255 255 255 255 255
255 255 255 255 255 255 255 255 255 255 255 255 255 255 255
255 255 255 255 255 255 255 255 255 255 255 255 255 255 255
255 255 255 255 255 255 254 254 254 253 253 253 251 251 251
251 251 251 247 246 244 247 246 244 246 244 245 250 248 249
255 254 255 248 246 247 216 214 217 182 180 183 130 128 131 94 92 95
156 154 159 224 222 227 243 241 246 247 245 250 233 231 236
236 233 240 253 250 255 250 247 255 249 248 255 250 249 255
242 241 249 230 229 237 230 230 238 239 239 247 231 234 243
232 234 246 233 237 249 234 237 252 235 238 255 234 237 255
231 236 255 231 236 255 229 232 251 230 233 250 229 235 251
230 236 252 230 236 252 230 236 252 230 236 250 229 235 249
231 237 251 225 231 245 221 224 239 220 222 237 220 219 233
204 202 216 170 166 181 139 135 150 162 156 170 209 201 214
250 242 253 255 251 255 249 242 249 248 242 246 253 249 250
255 252 251 255 254 253 212 208 207 105 101 102 84 79 83 180 178 183
238 236 241 250 247 254 244 242 247 255 255 255 250 250 250
248 248 248 250 250 250 252 252 252 255 255 255 254 254 254
245 245 245 251 251 251 249 249 249 246 246 246 246 246 246
249 249 249 252 252 252 253 253 253 253 253 253 250 250 250
250 250 250 250 250 250 250 250 250 251 251 251 251 251 251
251 251 251 251 251 251 253 253 253 249 249 249 246 246 246
246 246 246 248 248 248 248 248 248 244 244 244 240 240 240
255 255 253 241 240 238 200 198 199 158 156 157 128 126 129
114 112 117 109 106 113 109 106 115 128 125 136 148 144 158
171 167 184 183 178 198 189 184 204 197 192 214 208 203 225
214 211 232 210 209 227 207 209 224 203 205 220 199 200 218
199 200 218 201 202 222 199 200 221 193 194 215 194 194 218
193 193 217 195 195 221 197 197 223 197 197 225 197 197 225
201 200 231 207 207 235 193 193 217 195 196 217 197 198 219
196 197 218 195 193 215 193 191 213 197 194 215 200 197 218
199 196 217 194 191 212 190 185 205 191 186 206 203 195 216
214 206 227 212 204 225 204 196 217 161 156 176 120 115 135 88 84 101
101 97 111 154 151 162 210 207 214 246 244 249 255 254 255
251 249 250 253 252 250 254 253 251 254 253 251 255 253 254
255 254 255 252 250 253 246 244 245 252 252 250 254 255 250
255 255 251 255 255 251 255 255 251 254 255 250 255 255 253
255 255 253 255 255 253 255 255 253 255 255 255 255 255 255
255 255 255 255 255 255 255 255 255 255 255 255 255 255 255
255 255 255 255 255 255 255 255 255 255 255 255 255 255 255
255 255 255 255 255 255 255 255 255 255 255 255 255 255 255
255 255 255 255 255 255 255 255 255 255 255 255 255 255 255
255 255 255 255 255 255 255 255 255 255 255 255 255 255 255
255 255 255 255 255 255 255 255 255 255 255 255 255 255 255
255 255 255 255 255 255 255 255 255 255 255 255 255 255 255
255 255 255 255 255 255 255 255 255 255 255 255 255 255 255
255 255 255 255 255 255 255 255 255 255 255 255 255 255 255
255 255 255 255 255 255 255 255 255 255 255 255 255 255 255
255 255 255 255 255 255 255 255 255 255 255 255 255 255 255
255 255 255 255 255 255 255 255 255 255 255 255 255 255 255
255 255 255 255 255 255 255 255 255 255 255 255 255 255 255
255 255 255 255 255 255 255 255 255 255 255 255 255 255 255
255 255 255 255 255 255 255 255 255 255 255 255 255 255 255
255 255 255 255 255 255 255 255 255 255 255 255 255 255 255
255 255 255 255 255 255 255 255 255 255 255 255 255 255 255
255 255 255 255 255 255 255 255 255 255 255 255 255 255 255
255 255 255 255 255 255 255 255 255 255 255 255 255 255 255
255 255 255 255 255 255 255 255 255 255 255 255 255 255 255
255 255 255 255 255 255 255 255 255 255 255 255 255 255 255
255 255 255 255 255 255 255 255 255 255 255 255 255 255 255
255 255 255 255 255 255 255 255 255 255 255 255 255 255 255
255 255 255 255 255 255 255 255 255 255 255 255 255 255 255
255 255 255 255 255 255 255 255 255 255 255 255 255 255 255
255 255 255 255 255 255 255 255 255 255 255 255 255 255 255
255 255 255 255 255 255 255 255 255 255 255 255 255 255 255
255 255 255 255 255 255 255 255 255 255 255 255 255 255 255
255 255 255 255 255 255 255 255 255 255 255 255 255 255 255
255 255 255 255 255 255 255 255 255 255 255 255 255 255 255
255 255 255 255 255 255 255 255 255 255 255 255 255 255 255
255 255 255 255 255 255 255 255 255 255 255 255 255 255 255
255 255 255 255 255 255 255 255 255 255 255 255 255 255 255
255 255 255 255 255 255 255 255 255 255 255 255 255 255 255
255 255 255 255 255 255 255 255 255 255 255 255 255 255 255
255 255 255 255 255 255 255 255 255 255 255 255 255 255 255
255 255 255 255 255 255 255 255 255 255 255 255 255 255 255
255 255 255 255 255 255 255 255 255 255 255 255 255 255 255
255 255 255 255 255 255 255 255 255 255 255 255 255 255 255
255 255 255 255 255 255 254 255 255 255 255 255 255 255 255
255 255 255 255 255 255 255 255 255 255 255 255 255 255 255
255 255 255 255 255 255 254 254 254 253 253 253 252 252 252
251 249 250 251 249 250 241 240 238 244 243 241 246 244 245
250 248 249 247 245 246 218 216 219 160 155 159 103 101 106
128 126 131 201 199 204 225 222 229 236 235 241 244 243 249
240 239 247 247 247 255 237 237 245 236 234 247 245 243 255
242 242 254 229 229 239 227 227 239 238 238 248 240 240 252
230 232 244 234 236 249 234 236 249 233 236 251 233 236 253
232 235 254 231 234 253 228 233 253 228 233 253 230 236 252
230 236 252 229 235 251 229 235 251 230 236 252 231 237 253
232 238 254 233 239 253 239 245 255 228 231 246 214 216 231
210 209 223 208 206 220 190 188 201 153 149 163 118 115 126
212 206 216 241 233 244 255 252 255 254 247 254 250 244 248
255 251 252 255 252 253 247 243 242 215 211 210 173 169 168
111 107 108 110 108 109 220 218 221 250 248 251 248 246 251
255 254 255 249 249 249 247 247 245 250 250 250 251 251 249
248 248 248 255 255 255 255 255 255 251 251 251 249 249 249
249 249 249 250 250 250 253 253 253 254 254 254 252 252 252
247 247 247 242 242 242 247 247 247 248 248 248 248 248 250
250 248 249 251 249 252 252 250 253 252 250 253 253 251 254
252 247 251 250 248 251 253 251 254 255 254 255 254 252 255
232 232 234 200 200 202 175 173 176 120 118 119 116 114 117
113 111 114 118 116 121 132 129 136 152 149 158 172 169 180
183 179 193 206 202 217 205 201 218 203 198 218 199 196 217
201 197 220 205 201 224 204 200 223 201 197 220 194 195 215
194 197 214 192 193 211 186 187 207 184 185 205 187 188 209
191 191 215 192 192 216 202 202 228 194 194 220 189 189 217
189 189 217 185 184 215 180 179 210 187 183 216 198 195 224
199 197 221 198 196 218 199 197 219 202 200 221 204 202 223
204 201 222 199 196 217 195 192 211 200 197 216 200 197 214
202 198 215 207 203 220 210 203 221 192 185 201 150 143 161
110 106 121 97 93 108 112 108 122 157 153 167 217 214 225 253 250 255
254 252 255 247 245 248 248 246 247 255 253 254 252 251 249
252 251 249 255 255 253 255 254 255 255 253 254 255 253 255
255 254 255 252 252 250 254 255 250 255 255 253 255 255 251
255 255 253 254 254 252 255 255 253 255 255 253 255 255 253
255 255 253 255 255 255 255 255 255 255 255 255 255 255 255
255 255 255 255 255 255 255 255 255 255 255 255 255 255 255
255 255 255 255 255 255 255 255 255 255 255 255 255 255 255
255 255 255 255 255 255 255 255 255 255 255 255 255 255 255
255 255 255 255 255 255 255 255 255 255 255 255 255 255 255
255 255 255 255 255 255 255 255 255 255 255 255 255 255 255
255 255 255 255 255 255 255 255 255 255 255 255 255 255 255
255 255 255 255 255 255 255 255 255 255 255 255 255 254 255
255 254 255 255 254 255 255 254 255 255 254 255 255 254 255
255 254 255 255 254 255 255 254 255 255 254 255 255 254 255
255 254 255 255 254 255 255 254 255 255 254 255 255 254 255
255 255 255 255 255 255 255 255 255 255 255 255 255 255 255
255 255 255 255 255 255 255 255 255 255 255 255 255 255 255
255 255 255 255 255 255 255 255 255 255 255 255 255 255 255
255 255 255 255 255 255 255 255 255 255 255 255 255 255 255
255 255 255 255 255 255 255 255 255 255 255 255 255 255 255
255 255 255 255 255 255 255 255 255 255 255 255 255 255 255
255 255 255 255 255 255 255 255 255 255 255 255 255 255 255
255 255 255 255 255 255 255 255 255 255 255 255 255 255 255
255 255 255 255 255 255 255 255 255 255 255 255 255 255 255
255 255 255 255 255 255 255 255 255 255 255 255 255 255 255
255 255 255 255 255 255 255 255 255 255 255 255 255 255 255
255 255 255 255 255 255 255 255 255 255 255 255 255 255 255
255 255 255 255 255 255 255 255 255 255 255 255 255 255 255
255 255 255 255 255 255 255 255 255 255 255 255 255 255 255
255 255 255 255 255 255 255 255 255 255 255 255 255 255 255
255 255 255 255 255 255 255 255 255 255 255 255 255 255 255
255 255 255 255 255 255 255 255 255 255 255 255 255 255 255
255 255 255 255 255 255 255 255 255 255 255 255 255 255 255
255 255 255 255 255 255 255 255 255 255 255 255 255 255 255
255 255 255 255 255 255 255 255 255 255 255 255 255 255 255
255 255 255 255 255 255 255 255 255 255 255 255 255 255 255
255 255 255 255 255 255 255 255 255 255 255 255 255 255 255
255 255 255 255 255 255 255 255 255 255 255 255 255 255 255
255 255 255 255 255 255 255 255 255 255 255 255 255 255 255
255 255 255 255 255 255 255 255 255 255 255 255 255 255 255
255 255 255 255 255 255 255 255 255 255 255 255 255 255 255
255 255 255 255 255 255 255 255 255 255 255 255 255 255 255
255 255 255 255 255 255 255 255 255 255 255 255 255 255 255
255 255 255 255 255 255 255 255 255 255 255 255 253 255 254
251 255 254 254 255 255 254 255 255 254 255 255 254 255 255
254 254 254 254 254 254 255 255 255 255 255 255 254 252 255
251 249 252 253 251 254 255 254 255 251 246 250 238 236 237
240 239 237 255 255 253 255 252 253 234 230 231 189 184 188
115 110 114 103 96 103 164 159 166 222 216 226 240 237 246
240 238 249 234 234 246 242 244 255 241 245 255 232 238 250
235 241 255 233 236 251 232 233 251 230 231 249 228 230 245
228 229 247 230 232 247 232 233 251 233 236 253 230 233 250
231 234 251 232 235 252 232 235 254 233 236 255 232 235 254
232 235 254 230 235 254 234 240 254 228 236 249 226 234 247
228 236 249 232 238 254 230 236 252 228 231 248 226 229 246
231 234 251 217 219 234 220 222 235 236 236 248 172 170 181
113 112 120 163 160 169 216 213 220 229 224 230 249 244 250
244 239 245 253 248 252 252 247 251 240 236 237 252 248 249
251 249 250 155 154 152 57 56 54 154 153 151 230 230 228 233 233 233
255 255 255 242 242 242 241 241 241 248 248 246 244 245 240
240 240 238 243 244 239 249 249 247 254 254 252 255 255 253
254 254 252 252 252 250 255 255 253 255 255 255 251 251 251
252 252 252 255 255 255 251 251 251 238 238 238 249 247 250
248 246 249 254 252 255 255 253 255 255 252 255 249 239 247
247 237 245 254 244 252 255 251 255 246 236 244 208 198 207
168 161 169 125 120 127 95 92 99 98 95 102 118 115 122 136 131 138
148 143 150 168 162 172 188 182 194 203 197 211 211 204 220
211 206 226 211 206 228 204 201 222 205 201 224 205 201 226
203 201 225 199 197 221 197 195 219 196 194 218 194 194 218
191 194 213 188 193 212 190 193 212 191 193 214 193 195 216
194 196 217 194 196 219 194 196 219 203 203 229 199 199 225
196 193 222 194 191 220 193 190 221 192 189 220 193 188 220
195 190 220 192 188 213 203 200 221 209 206 227 204 201 220
201 198 217 204 200 217 202 198 215 195 191 206 191 187 202
201 197 211 203 199 213 172 169 180 116 113 124 83 80 89 107 104 115
151 148 157 203 200 207 221 220 225 244 243 248 255 254 255
252 252 254 245 245 247 243 243 243 245 245 245 250 250 250
252 252 252 254 254 254 253 253 253 251 251 251 250 250 250
253 253 253 255 255 255 255 255 255 255 255 253 255 255 255
255 255 253 255 255 255 255 255 255 254 254 254 253 253 253
255 255 255 255 255 255 255 255 255 255 255 255 255 255 255
255 255 255 255 255 255 255 255 255 255 255 255 255 255 255
255 255 255 255 255 255 255 255 255 255 255 255 255 255 255
255 255 255 255 255 255 255 255 255 255 255 255 255 255 255
255 255 255 255 255 255 255 255 255 255 255 255 255 255 255
255 255 255 255 255 255 255 255 255 255 255 255 255 255 255
255 255 255 255 255 255 255 255 255 255 255 255 255 255 255
255 255 255 255 255 255 255 255 255 255 255 255 255 255 255
255 254 255 255 254 255 255 254 255 255 254 255 255 254 255
255 254 255 255 254 255 255 254 255 255 254 255 255 254 255
255 254 255 255 254 255 255 254 255 255 254 255 255 254 255
255 254 255 255 255 255 255 255 255 255 255 255 255 255 255
255 255 255 255 255 255 255 255 255 255 255 255 255 255 255
255 255 255 255 255 255 255 255 255 255 255 255 255 255 255
255 255 255 255 255 255 255 255 255 255 255 255 255 255 255
255 255 255 255 255 255 255 255 255 255 255 255 255 255 255
255 255 255 255 255 255 255 255 255 255 255 255 255 255 255
255 255 255 255 255 255 255 255 255 255 255 255 255 255 255
255 255 255 255 255 255 255 255 255 255 255 255 255 255 255
255 255 255 255 255 255 255 255 255 255 255 255 255 255 255
255 255 255 255 255 255 255 255 255 255 255 255 255 255 255
255 255 255 255 255 255 255 255 255 255 255 255 255 255 255
255 255 255 255 255 255 255 255 255 255 255 255 255 255 255
255 255 255 255 255 255 255 255 255 255 255 255 255 255 255
255 255 255 255 255 255 255 255 255 255 255 255 255 255 255
255 255 255 255 255 255 255 255 255 255 255 255 255 255 255
255 255 255 255 255 255 255 255 255 255 255 255 255 255 255
255 255 255 255 255 255 255 255 255 255 255 255 255 255 255
255 255 255 255 255 255 255 255 255 255 255 255 255 255 255
255 255 255 255 255 255 255 255 255 255 255 255 255 255 255
255 255 255 255 255 255 255 255 255 255 255 255 255 255 255
255 255 255 255 255 255 255 255 255 255 255 255 255 255 255
255 255 255 255 255 255 255 255 255 255 255 255 255 255 255
255 255 255 255 255 255 255 255 255 255 255 255 255 255 255
255 255 255 255 255 255 255 255 255 255 255 255 255 255 255
255 255 255 255 255 255 255 255 255 255 255 255 255 255 255
255 255 255 255 255 255 255 255 255 255 255 255 255 255 255
255 255 255 255 255 255 255 255 255 255 255 255 255 255 255
255 255 255 255 255 255 255 255 255 255 255 255 255 255 255
255 255 255 255 255 255 255 255 255 255 255 255 254 255 255
254 255 255 252 255 255 251 255 254 251 255 254 253 255 254
253 255 254 255 255 255 255 255 255 255 255 255 252 252 254
254 252 255 255 254 255 255 253 255 253 248 252 250 245 249
253 248 252 254 252 253 245 244 242 223 219 220 158 154 155 95 89 93
118 111 118 190 183 191 227 221 231 240 234 246 243 239 253
237 235 249 228 230 243 230 233 248 229 237 250 229 236 252
232 239 255 231 236 255 232 235 254 231 234 253 230 233 252
230 233 252 231 234 253 232 235 254 233 236 255 235 238 255
234 237 255 232 235 254 231 234 253 230 233 252 231 234 253
232 235 254 231 237 253 229 235 249 224 232 243 226 234 247
232 240 253 231 237 253 222 228 244 220 223 242 223 226 243
208 209 227 222 224 239 216 215 229 191 191 201 156 155 163
144 143 149 197 195 200 254 252 255 255 253 255 247 243 244
230 225 229 245 241 242 255 253 254 251 247 248 227 223 224
169 167 168 118 117 115 119 118 116 194 193 191 244 244 242
247 247 245 255 255 253 255 255 253 255 255 253 248 248 246
254 255 250 255 255 251 255 255 251 254 254 252 252 252 250
254 254 252 255 255 253 255 255 253 248 248 248 245 245 245
250 250 250 244 244 246 235 235 235 246 246 248 255 255 255
255 254 255 255 254 255 254 249 255 246 241 247 255 247 255
255 250 255 234 222 232 196 184 194 117 104 114 113 101 113
118 106 118 127 117 128 132 126 136 139 136 145 156 153 164
174 171 180 197 191 203 199 193 205 201 195 209 201 197 212
205 198 216 205 200 220 206 201 224 205 201 226 193 189 214
194 190 217 194 191 218 194 191 218 190 190 216 190 190 216
192 192 218 193 193 217 189 191 212 188 193 212 189 194 214
192 197 217 196 198 219 197 199 220 198 200 223 198 198 222
188 188 214 192 192 218 201 198 225 208 205 234 212 207 237
209 204 234 204 199 229 201 197 224 199 194 217 185 180 200
183 178 198 196 192 209 203 199 216 200 196 211 202 198 213
210 206 220 193 190 201 143 140 149 93 90 99 84 81 88 114 111 118
160 157 164 205 202 209 233 231 236 238 238 240 245 245 245
253 253 253 255 255 255 252 252 252 249 249 249 247 247 247
248 248 248 251 251 251 252 252 252 252 252 252 252 252 252
251 251 251 251 251 251 253 253 253 254 254 254 255 255 255
255 255 255 255 255 255 255 255 255 255 255 255 255 255 255
254 254 254 254 254 254 255 255 255 255 255 255 255 255 255
255 255 255 255 255 255 255 255 255 255 255 255 255 255 255
255 255 255 255 255 255 255 255 255 255 255 255 255 255 255
255 255 255 255 255 255 255 255 255 255 255 255 255 255 255
255 255 255 255 255 255 255 255 255 255 255 255 255 255 255
255 255 255 255 255 255 255 255 255 255 255 255 255 255 255
255 255 255 255 255 255 255 255 255 255 255 255 255 255 255
255 255 255 255 255 255 255 255 255 255 255 255 255 255 255
255 255 255 255 255 255 255 255 255 255 255 255 255 255 255
255 255 255 255 255 255 255 255 255 255 255 255 255 255 255
255 255 255 255 255 255 255 255 255 255 255 255 255 255 255
255 255 255 255 255 255 255 255 255 255 255 255 255 255 255
255 255 255 255 255 255 255 255 255 255 255 255 255 255 255
255 255 255 255 255 255 255 255 255 255 255 255 255 255 255
255 255 255 255 255 255 255 255 255 255 255 255 255 255 255
255 255 255 255 255 255 255 255 255 255 255 255 255 255 255
255 255 255 255 255 255 255 255 255 255 255 255 255 255 255
255 255 255 255 255 255 255 255 255 255 255 255 255 255 255
255 255 255 255 255 255 255 255 255 255 255 255 255 255 255
255 255 255 255 255 255 255 255 255 255 255 255 255 255 255
255 255 255 255 255 255 255 255 255 255 255 255 255 255 255
255 255 255 255 255 255 255 255 255 255 255 255 255 255 255
255 255 255 255 255 255 255 255 255 255 255 255 255 255 255
255 255 255 255 255 255 255 255 255 255 255 255 255 255 255
255 255 255 255 255 255 255 255 255 255 255 255 255 255 255
255 255 255 255 255 255 255 255 255 255 255 255 255 255 255
255 255 255 255 255 255 255 255 255 255 255 255 255 255 255
255 255 255 255 255 255 255 255 255 255 255 255 255 255 255
255 255 255 255 255 255 255 255 255 255 255 255 255 255 255
255 255 255 255 255 255 255 255 255 255 255 255 255 255 255
255 255 255 255 255 255 255 255 255 255 255 255 255 255 255
255 255 255 255 255 255 255 255 255 255 255 255 255 255 255
255 255 255 255 255 255 255 255 255 255 255 255 255 255 255
255 255 255 255 255 255 255 255 255 255 255 255 255 255 255
255 255 255 255 255 255 255 255 255 255 255 255 255 255 255
255 255 255 255 255 255 255 255 255 255 255 255 255 255 255
255 255 255 255 255 255 255 255 255 255 255 255 255 255 255
255 255 255 255 255 255 255 255 255 255 255 255 255 255 255
255 255 255 255 255 255 255 255 255 255 255 255 255 255 255
255 255 255 255 255 255 255 255 255 255 255 255 255 255 255
255 255 255 254 255 255 254 255 253 252 255 253 251 255 252
250 255 251 252 254 253 253 255 254 255 255 255 255 255 255
254 254 254 255 255 255 255 254 255 246 244 247 246 241 245
255 253 255 255 253 255 247 242 246 254 252 253 184 182 183
114 109 113 101 96 100 147 142 148 203 198 204 235 230 237
242 236 246 247 241 253 232 228 242 224 222 236 218 220 233
214 217 232 217 224 240 228 235 251 231 238 254 232 237 255
234 237 255 233 236 255 233 236 255 233 236 255 233 236 255
234 237 255 234 237 255 234 237 255 234 237 255 233 236 255
232 235 254 231 234 253 231 234 253 231 234 253 229 235 251
228 234 248 232 240 253 229 235 251 223 229 245 229 235 251
238 244 255 228 231 248 207 210 227 212 213 231 225 227 240
183 183 195 122 120 131 147 146 154 210 209 215 235 233 238
246 244 247 254 250 251 248 242 242 240 234 236 248 242 242
255 249 249 245 241 240 182 178 177 77 73 72 130 126 127 213 211 212
242 240 241 251 249 250 253 251 252 241 239 240 250 248 249
245 244 242 253 253 251 245 245 243 240 240 238 243 243 241
251 251 251 255 255 255 254 254 254 249 249 249 251 251 251
250 250 252 248 248 250 249 249 251 253 252 255 254 254 255
247 246 251 237 236 241 241 240 245 242 241 247 233 230 237
200 195 202 149 142 150 109 99 110 96 86 97 101 91 102 150 138 150
155 144 158 168 157 171 183 175 188 197 191 203 206 203 214
210 206 220 210 207 218 205 201 215 206 202 216 207 203 218
206 203 220 203 198 218 196 193 214 189 185 208 185 181 206
196 192 219 196 193 222 198 195 224 198 195 224 198 195 224
199 196 225 198 198 226 200 200 226 197 199 220 197 200 219
198 200 221 198 200 221 197 198 219 195 196 217 192 193 214
193 191 213 194 192 216 194 192 216 196 192 217 198 194 221
201 195 223 203 197 225 202 196 224 200 194 220 200 195 217
205 201 218 206 202 219 205 201 218 209 205 222 201 197 212
165 161 175 127 124 135 89 86 97 106 103 112 142 139 148 190 187 194
235 232 239 255 254 255 254 252 255 243 241 246 254 254 255
253 253 253 252 252 252 253 253 253 255 255 255 255 255 255
255 255 255 255 255 255 254 254 254 252 252 252 251 251 251
251 251 251 252 252 252 252 252 252 252 252 252 251 251 251
254 254 254 254 254 254 255 255 255 255 255 255 255 255 255
255 255 255 255 255 255 255 255 255 255 255 255 255 255 255
255 255 255 255 255 255 255 255 255 255 255 255 255 255 255
255 255 255 255 255 255 255 255 255 255 255 255 255 255 255
255 255 255 255 255 255 255 255 255 255 255 255 255 255 255
255 255 255 255 255 255 255 255 255 255 255 255 255 255 255
255 255 255 255 255 255 255 255 255 255 255 255 255 255 255
255 255 255 255 255 255 255 255 255 255 255 255 255 255 255
255 255 255 255 255 255 255 255 255 255 255 255 255 255 255
255 255 255 255 255 255 255 255 255 255 255 255 255 255 255
255 255 255 255 255 255 255 255 255 255 255 255 255 255 255
255 255 255 255 255 255 255 255 255 255 255 255 255 255 255
255 255 255 255 255 255 255 255 255 255 255 255 255 255 255
255 255 255 255 255 255 255 255 255 255 255 255 255 255 255
255 255 255 255 255 255 255 255 255 255 255 255 255 255 255
255 255 255 255 255 255 255 255 255 255 255 255 255 255 255
255 255 255 255 255 255 255 255 255 255 255 255 255 255 255
255 255 255 255 255 255 255 255 255 255 255 255 255 255 255
255 255 255 255 255 255 255 255 255 255 255 255 255 255 255
255 255 255 255 255 255 255 255 255 255 255 255 255 255 255
255 255 255 255 255 255 255 255 255 255 255 255 255 255 255
255 255 255 255 255 255 255 255 255 255 255 255 255 255 255
255 255 255 255 255 255 255 255 255 255 255 255 255 255 255
255 255 255 255 255 255 255 255 255 255 255 255 255 255 255
255 255 255 255 255 255 255 255 255 255 255 255 255 255 255
255 255 255 255 255 255 255 255 255 255 255 255 255 255 255
255 255 255 255 255 255 255 255 255 255 255 255 255 255 255
255 255 255 255 255 255 255 255 255 255 255 255 255 255 255
255 255 255 255 255 255 255 255 255 255 255 255 255 255 255
255 255 255 255 255 255 255 255 255 255 255 255 255 255 255
255 255 255 255 255 255 255 255 255 255 255 255 255 255 255
255 255 255 255 255 255 255 255 255 255 255 255 255 255 255
255 255 255 255 255 255 255 255 255 255 255 255 255 255 255
255 255 255 255 255 255 255 255 255 255 255 255 255 255 255
255 255 255 255 255 255 255 255 255 255 255 255 255 255 255
255 255 255 255 255 255 255 255 255 255 255 255 255 255 255
255 255 255 255 255 255 255 255 255 255 255 255 255 255 255
255 255 255 255 255 255 255 255 255 255 255 255 255 255 255
255 255 255 255 255 255 255 255 255 255 255 255 255 255 255
255 255 255 255 255 255 255 255 255 255 255 255 255 255 255
255 255 255 255 255 255 255 255 255 255 255 255 255 255 255
255 255 255 255 255 255 255 255 255 254 255 253 252 255 253
252 255 253 252 255 253 254 255 255 254 255 255 255 255 255
255 255 255 252 252 252 254 254 254 255 254 255 255 254 255
255 250 254 245 240 244 245 240 244 249 247 250 159 157 158
121 119 120 111 106 110 164 159 163 228 223 229 243 238 245
235 229 239 240 237 248 235 231 245 212 210 223 208 207 221
211 213 228 207 210 227 213 219 235 229 236 252 231 238 254
231 236 255 233 236 255 234 237 255 235 238 255 235 238 255
234 237 255 233 236 255 233 236 255 230 233 252 231 234 253
232 235 254 233 236 255 233 236 255 232 235 254 230 233 252
229 232 251 229 235 251 231 238 254 230 236 252 227 233 249
228 234 250 230 236 252 226 229 246 215 218 233 205 207 222
180 179 193 147 145 156 121 120 128 172 171 177 243 242 247
255 254 255 255 254 255 255 251 251 251 245 245 247 241 241
250 244 244 230 224 224 181 175 175 134 128 128 106 102 101
170 166 167 253 249 250 250 246 247 239 237 238 249 247 248
244 242 243 255 253 255 249 247 248 242 242 242 249 249 249
255 255 255 255 255 255 255 255 255 253 253 255 249 249 251
247 247 249 253 252 255 254 253 255 250 249 254 245 244 250
249 248 254 249 248 254 228 227 233 201 200 206 137 136 144
103 102 110 81 80 88 97 94 103 131 125 135 159 151 164 182 174 187
200 192 205 199 191 204 204 196 211 206 198 213 203 197 211
204 200 214 206 204 217 200 198 212 191 189 203 197 195 209
200 198 212 204 201 218 206 205 223 206 203 224 201 199 221
196 192 217 192 189 216 192 189 218 195 192 221 197 194 225
197 194 223 196 193 222 193 190 219 193 190 219 190 190 216
199 200 221 201 202 222 202 203 224 201 202 223 197 198 219
195 193 215 191 189 211 189 187 209 199 195 218 197 193 216
195 191 214 196 192 215 203 198 221 208 203 226 204 199 222
198 193 215 204 200 217 188 184 199 187 183 198 188 184 199
151 147 162 96 92 106 85 82 93 111 108 117 170 167 176 206 203 210
242 239 246 251 249 254 245 243 248 245 243 246 255 253 255
255 254 255 248 248 248 248 248 248 249 249 249 253 253 253
255 255 255 255 255 255 255 255 255 254 254 254 255 255 255
253 253 253 250 250 250 250 250 250 252 252 252 253 253 253
252 252 252 249 249 249 253 253 253 254 254 254 255 255 255
255 255 255 255 255 255 255 255 255 255 255 255 255 255 255
255 255 255 255 255 255 255 255 255 255 255 255 255 255 255
255 255 255 255 255 255 255 255 255 255 255 255 255 255 255
255 255 255 255 255 255 255 255 255 255 255 255 255 255 255
255 255 255 255 255 255 255 255 255 255 255 255 255 255 255
255 255 255 255 255 255 255 255 255 255 255 255 255 255 255
255 255 255 255 255 255 255 255 255 255 255 255 255 255 255
255 255 255 255 255 255 255 255 255 255 255 255 255 255 255
255 255 255 255 255 255 255 255 255 255 255 255 255 255 255
255 255 255 255 255 255 255 255 255 255 255 255 255 255 255
255 255 255 255 255 255 255 255 255 255 255 255 255 255 255
255 255 255 255 255 255 255 255 255 255 255 255 255 255 255
255 255 255 255 255 255 255 255 255 255 255 255 255 255 255
255 255 255 255 255 255 255 255 255 255 255 255 255 255 255
255 255 255 255 255 255 255 255 255 255 255 255 255 255 255
255 255 255 255 255 255 255 255 255 255 255 255 255 255 255
255 255 255 255 255 255 255 255 255 255 255 255 255 255 255
255 255 255 255 255 255 255 255 255 255 255 255 255 255 255
255 255 255 255 255 255 255 255 255 255 255 255 255 255 255
255 255 255 255 255 255 255 255 255 255 255 255 255 255 255
255 255 255 255 255 255 255 255 255 255 255 255 255 255 255
255 255 255 255 255 255 255 255 255 255 255 255 255 255 255
255 255 255 255 255 255 255 255 255 255 255 255 255 255 255
255 255 255 255 255 255 255 255 255 255 255 255 255 255 255
255 255 255 255 255 255 255 255 255 255 255 255 255 255 255
255 255 255 255 255 255 255 255 255 255 255 255 255 255 255
255 255 255 255 255 255 255 255 255 255 255 255 255 255 255
255 255 255 255 255 255 255 255 255 255 255 255 255 255 255
255 255 255 255 255 255 255 255 255 255 255 255 255 255 255
255 255 255 255 255 255 255 255 255 255 255 255 255 255 255
255 255 255 255 255 255 255 255 255 255 255 255 255 255 255
255 255 255 255 255 255 255 255 255 255 255 255 255 255 255
255 255 255 255 255 255 255 255 255 255 255 255 255 255 255
255 255 255 255 255 255 255 255 255 255 255 255 255 255 255
255 255 255 255 255 255 255 255 255 255 255 255 255 255 255
255 255 255 255 255 255 255 255 255 255 255 255 255 255 255
255 255 255 255 255 255 255 255 255 255 255 255 255 255 255
255 255 255 255 255 255 255 255 255 255 255 255 255 255 255
255 255 255 255 255 255 255 255 255 255 255 255 255 255 255
255 255 255 255 255 255 255 255 255 255 255 255 255 255 255
255 255 255 255 255 255 255 255 255 255 255 255 255 255 255
252 254 251 253 255 250 254 255 251 254 255 251 254 255 253
254 255 253 254 254 252 253 253 251 253 253 253 248 248 248
247 245 246 255 253 254 255 254 255 255 254 255 208 206 209
157 155 158 103 101 104 126 126 128 199 197 202 239 237 242
220 217 224 228 225 232 250 247 255 234 231 242 230 226 240
210 208 221 210 209 223 218 220 235 214 217 234 218 224 240
229 236 252 229 236 252 229 234 253 232 235 254 234 237 255
235 238 255 235 238 255 234 237 255 232 235 254 231 234 253
231 234 253 230 233 252 229 232 251 227 230 249 228 231 250
230 233 252 232 235 254 233 236 255 231 236 255 223 228 247
227 232 251 236 241 255 228 231 248 208 211 228 212 214 229
230 232 247 195 194 208 121 121 133 134 132 143 201 200 208
251 249 254 255 254 255 236 234 237 243 239 240 254 246 244
246 238 236 251 243 241 255 253 251 219 211 209 120 112 110 104 95 96
188 182 182 228 222 224 255 250 252 252 246 250 243 238 242
247 242 246 249 244 248 255 251 255 253 251 254 255 255 255
247 247 249 241 241 243 243 242 247 251 250 255 255 254 255
251 250 255 245 244 249 245 244 250 241 240 246 236 235 241
212 211 219 156 155 163 97 96 104 80 79 87 94 93 101 121 121 131
151 151 161 176 176 186 183 181 192 187 184 195 198 192 206
199 193 207 191 185 199 198 192 206 205 198 214 207 200 216
200 196 211 200 198 212 206 205 219 207 206 222 202 201 217
202 204 219 199 200 218 195 196 216 193 194 215 194 192 216
195 195 221 201 198 227 204 201 232 194 191 222 198 195 226
202 198 231 203 200 231 200 197 228 196 193 224 192 189 218
190 187 214 195 193 215 198 196 217 202 200 221 203 201 222
202 200 221 201 198 219 200 197 218 200 197 218 218 213 235
211 206 228 200 195 217 196 191 213 205 197 218 213 205 226
211 203 224 203 196 214 180 176 191 161 157 171 123 119 133 90 87 98
96 93 104 145 142 151 201 198 207 232 229 236 248 245 252 255 254 255
255 254 255 251 249 252 245 243 246 247 245 246 245 243 246
239 237 238 250 250 250 252 252 252 253 253 253 254 254 254
254 254 254 252 252 252 250 250 250 248 248 248 255 255 255
253 253 253 251 251 251 251 251 251 253 253 253 254 254 254
252 252 252 250 250 250 253 253 253 254 254 254 255 255 255
255 255 255 255 255 255 255 255 255 255 255 255 255 255 255
255 255 255 255 255 255 255 255 255 255 255 255 255 255 255
255 255 255 255 255 255 255 255 255 255 255 255 255 255 255
255 255 255 255 255 255 255 255 255 255 255 255 255 255 255
255 255 255 255 255 255 255 255 255 255 255 255 255 255 255
255 255 255 255 255 255 255 255 255 255 255 255 255 255 255
255 255 255 255 255 255 255 255 255 255 255 255 255 255 255
255 255 255 255 255 255 255 255 255 255 255 255 255 255 255
255 255 255 255 255 255 255 255 255 255 255 255 255 255 255
255 255 255 255 255 255 255 255 255 255 255 255 255 255 255
255 255 255 255 255 255 255 255 255 255 255 255 255 255 255
255 255 255 255 255 255 255 255 255 255 255 255 255 255 255
255 255 255 255 255 255 255 255 255 255 255 255 255 255 255
255 255 255 255 255 255 255 255 255 255 255 255 255 255 255
255 255 255 255 255 255 255 255 255 255 255 255 255 255 255
255 255 255 255 255 255 255 255 255 255 255 255 255 255 255
255 255 255 255 255 255 255 255 255 255 255 255 255 255 255
255 255 255 255 255 255 255 255 255 255 255 255 255 255 255
255 255 255 255 255 255 255 255 255 255 255 255 255 255 255
255 255 255 255 255 255 255 255 255 255 255 255 255 255 255
255 255 255 255 255 255 255 255 255 255 255 255 255 255 255
255 255 255 255 255 255 255 255 255 255 255 255 255 255 255
255 255 255 255 255 255 255 255 255 255 255 255 255 255 255
255 255 255 255 255 255 255 255 255 255 255 255 255 255 255
255 255 255 255 255 255 255 255 255 255 255 255 255 255 255
255 255 255 255 255 255 255 255 255 255 255 255 255 255 255
255 255 255 255 255 255 255 255 255 255 255 255 255 255 255
255 255 255 255 255 255 255 255 255 255 255 255 255 255 255
255 255 255 255 255 255 255 255 255 255 255 255 255 255 255
255 255 255 255 255 255 255 255 255 255 255 255 255 255 255
255 255 255 255 255 255 255 255 255 255 255 255 255 255 255
255 255 255 255 255 255 255 255 255 255 255 255 255 255 255
255 255 255 255 255 255 255 255 255 255 255 255 255 255 255
255 255 255 255 255 255 255 255 255 255 255 255 255 255 255
255 255 255 255 255 255 255 255 255 255 255 255 255 255 255
255 255 255 255 255 255 255 255 255 255 255 255 255 255 255
255 255 255 255 255 255 255 255 255 255 255 255 255 255 255
255 255 255 255 255 255 255 255 255 255 255 255 255 255 255
255 255 255 255 255 255 255 255 255 255 255 255 255 255 255
255 255 255 255 255 255 255 255 255 255 255 255 255 255 255
255 255 255 255 255 255 255 255 255 255 255 255 255 255 253
251 253 248 252 254 249 253 255 250 254 255 251 254 255 253
253 255 252 253 253 251 252 252 250 255 255 255 254 254 254
255 254 255 254 252 253 235 233 236 189 187 190 129 127 130 85 85 87
164 164 166 197 196 201 236 235 240 243 242 248 233 230 237
238 237 245 244 241 252 229 227 238 235 233 246 227 226 240
227 229 244 230 233 248 226 232 248 226 232 248 228 235 251
228 234 250 231 234 253 232 235 254 233 236 255 234 237 255
234 237 255 233 236 255 232 235 254 231 234 253 237 240 255
233 236 255 227 230 249 223 226 245 223 226 245 228 231 250
234 237 255 238 241 255 233 238 255 233 238 255 226 231 250
217 222 241 223 226 243 229 232 249 214 216 231 191 193 206
178 178 190 140 140 150 168 167 175 218 217 223 234 232 237
239 237 240 247 245 246 255 251 250 241 233 231 251 241 239
244 234 233 209 201 199 168 160 158 123 115 113 141 132 133
234 225 228 255 252 255 252 246 250 255 253 255 255 252 255
247 242 248 247 242 249 250 245 252 252 247 254 254 251 255
247 246 252 243 242 248 246 245 251 250 249 255 245 244 252
230 229 237 216 215 223 163 161 172 113 111 122 71 69 80 78 76 87
116 114 127 150 148 161 168 166 179 174 172 185 190 190 202
194 194 206 197 196 210 197 196 210 198 196 210 200 198 212
201 199 213 200 197 214 194 190 207 200 197 214 202 199 216
197 194 213 193 192 210 196 195 213 196 195 213 192 193 211
193 196 215 192 195 214 191 193 214 190 190 214 190 190 216
192 192 220 193 192 223 195 194 225 198 194 227 202 198 231
207 203 236 209 206 237 207 204 235 202 199 230 199 194 224
197 193 220 198 194 217 202 199 220 206 201 223 205 202 221
204 199 219 202 197 217 202 197 217 203 199 216 186 182 199
191 187 204 195 191 208 196 192 209 200 193 209 195 188 204
177 170 186 158 152 166 93 90 101 82 79 88 108 105 114 174 171 180
225 222 231 239 236 243 245 242 249 255 254 255 251 249 254
253 251 254 250 248 251 246 244 245 249 247 248 255 254 255
255 254 255 254 252 253 255 255 255 255 255 255 255 255 255
254 254 254 251 251 251 250 250 250 254 254 254 255 255 255
255 255 255 254 254 254 253 253 253 253 253 253 253 253 253
254 254 254 254 254 254 253 253 253 254 254 254 254 254 254
255 255 255 255 255 255 255 255 255 255 255 255 255 255 255
255 255 255 255 255 255 255 255 255 255 255 255 255 255 255
255 255 255 255 255 255 255 255 255 255 255 255 255 255 255
255 255 255 255 255 255 255 255 255 255 255 255 255 255 255
255 255 255 255 255 255 255 255 255 255 255 255 255 255 255
255 255 255 255 255 255 255 255 255 255 255 255 255 255 255
255 255 255 255 255 255 255 255 255 255 255 255 255 255 255
255 255 255 255 255 255 255 255 255 255 255 255 255 255 255
255 255 255 255 255 255 255 255 255 255 255 255 255 255 255
255 255 255 254 255 255 254 255 255 254 255 255 254 255 255
254 255 255 254 255 255 254 255 255 254 255 255 254 255 255
254 255 255 254 255 255 254 255 255 254 255 255 254 255 255
254 255 255 254 255 255 255 255 255 255 255 255 255 255 255
255 255 255 255 255 255 255 255 255 255 255 255 255 255 255
255 255 255 255 255 255 255 255 255 255 255 255 255 255 255
255 255 255 255 255 255 255 255 255 255 255 255 255 255 255
255 255 255 255 255 255 255 255 255 255 255 255 255 255 255
255 255 255 255 255 255 255 255 255 255 255 255 255 255 255
255 255 255 255 255 255 255 255 255 255 255 255 255 255 255
255 255 255 255 255 255 255 255 255 255 255 255 255 255 255
255 255 255 255 255 255 255 255 255 255 255 255 255 255 255
255 255 255 255 255 255 255 255 255 255 255 255 255 255 255
255 255 255 255 255 255 255 255 255 255 255 255 255 255 255
255 255 255 255 255 255 255 255 255 255 255 255 255 255 255
255 255 255 255 255 255 255 255 255 255 255 255 255 255 255
255 255 255 255 255 255 255 255 255 255 255 255 255 255 255
255 255 255 255 255 255 255 255 255 255 255 255 255 255 255
255 255 255 255 255 255 255 255 255 255 255 255 255 255 255
255 255 255 255 255 255 255 255 255 255 255 255 255 255 255
255 255 255 255 255 255 255 255 255 255 255 255 255 255 255
255 255 255 255 255 255 255 255 255 255 255 255 255 255 255
255 255 255 255 255 255 255 255 255 255 255 255 255 255 255
255 255 255 255 255 255 255 255 255 255 255 255 255 255 255
255 255 255 255 255 255 255 255 255 255 255 255 255 255 255
255 255 255 255 255 255 255 255 255 255 255 255 255 255 255
255 255 255 255 255 255 255 255 255 255 255 255 255 255 255
255 255 255 255 255 255 255 255 255 255 255 255 255 255 255
255 255 255 255 255 255 255 255 255 255 255 255 255 255 255
255 255 255 255 255 255 255 255 255 255 255 255 255 255 255
255 255 255 255 255 255 255 255 255 255 255 255 255 255 255
255 255 255 255 255 255 255 255 255 255 255 255 255 255 255
255 255 253 252 253 248 251 252 246 249 250 245 248 249 244
248 249 244 249 250 245 251 251 249 252 252 250 250 250 250
241 241 241 247 247 249 236 236 238 159 158 163 81 80 85 100 99 104
176 175 180 221 220 225 247 248 253 240 241 246 234 234 242
251 250 255 236 236 246 220 218 229 241 241 253 235 234 248
240 242 255 239 241 255 233 236 251 233 239 255 232 238 254
229 234 253 230 235 254 232 235 254 232 235 254 233 236 255
233 236 255 233 236 255 233 236 255 232 235 254 232 235 254
235 238 255 234 237 255 233 236 255 231 234 253 230 233 252
230 233 252 231 234 253 231 234 253 227 232 252 235 240 255
223 228 247 204 209 228 218 221 238 233 236 253 199 201 216
142 144 157 91 91 103 175 175 185 247 246 254 255 254 255 242 240 245
238 236 239 255 252 253 253 247 247 254 244 243 251 241 239
217 207 205 131 121 120 104 94 93 165 155 156 224 213 217 255 250 253
251 242 247 244 234 242 248 241 248 255 252 255 254 247 255
254 246 255 255 251 255 254 248 255 239 236 245 245 244 252
241 240 248 211 210 218 162 160 171 115 113 124 87 85 96 77 75 86
128 126 139 146 144 157 163 161 174 173 171 184 185 183 197
199 197 211 206 204 218 204 202 216 204 203 217 189 191 204
188 190 205 199 201 216 202 201 217 190 189 205 189 188 204
199 198 216 198 195 214 200 199 217 201 200 218 200 198 219
197 198 218 196 197 217 195 196 216 194 195 215 191 193 214
192 197 219 196 201 223 201 203 228 202 204 229 200 201 229
199 198 229 196 195 227 192 188 221 195 191 224 198 195 226
198 195 226 197 192 224 194 189 219 193 186 217 192 186 214
202 197 219 205 200 220 209 201 222 204 200 217 201 194 212
198 191 209 199 192 210 201 194 210 209 202 218 215 208 224
210 204 218 186 180 194 158 150 163 128 120 133 97 89 102 73 67 77
145 142 149 188 187 193 232 231 237 249 248 254 253 252 255
255 254 255 255 254 255 254 254 255 254 254 255 255 255 255
255 255 255 255 255 255 251 251 251 248 248 246 253 253 251
255 255 253 255 255 255 255 255 255 255 255 255 253 253 253
253 253 253 255 255 255 255 255 255 255 255 255 254 254 254
255 255 255 255 255 255 255 255 255 254 254 254 254 254 254
255 255 255 255 255 255 255 255 255 255 255 255 255 255 255
255 255 255 255 255 255 255 255 255 254 254 254 254 254 254
255 255 255 255 255 255 255 255 255 255 255 255 255 255 255
255 255 255 255 255 255 255 255 255 255 255 255 255 255 255
255 255 255 255 255 255 255 255 255 255 255 255 255 255 255
255 255 255 255 255 255 255 255 255 255 255 255 255 255 255
255 255 255 255 255 255 255 255 255 255 255 255 255 255 255
255 255 255 255 255 255 255 255 255 255 255 255 255 255 255
255 255 255 255 255 255 255 255 255 255 255 255 255 255 255
255 255 255 255 255 255 255 255 255 255 255 255 255 255 255
254 255 255 254 255 255 254 255 255 254 255 255 254 255 255
254 255 255 254 255 255 254 255 255 254 255 255 254 255 255
254 255 255 254 255 255 254 255 255 254 255 255 254 255 255
254 255 255 255 255 255 255 255 255 255 255 255 255 255 255
255 255 255 255 255 255 255 255 255 255 255 255 255 255 255
255 255 255 255 255 255 255 255 255 255 255 255 255 255 255
255 255 255 255 255 255 255 255 255 255 255 255 255 255 255
255 255 255 255 255 255 255 255 255 255 255 255 255 255 255
255 255 255 255 255 255 255 255 255 255 255 255 255 255 255
255 255 255 255 255 255 255 255 255 255 255 255 255 255 255
255 255 255 255 255 255 255 255 255 255 255 255 255 255 255
255 255 255 255 255 255 255 255 255 255 255 255 255 255 255
255 255 255 255 255 255 255 255 255 255 255 255 255 255 255
255 255 255 255 255 255 255 255 255 255 255 255 255 255 255
255 255 255 255 255 255 255 255 255 255 255 255 255 255 255
255 255 255 255 255 255 255 255 255 255 255 255 255 255 255
255 255 255 255 255 255 255 255 255 255 255 255 255 255 255
255 255 255 255 255 255 255 255 255 255 255 255 255 255 255
255 255 255 255 255 255 255 255 255 255 255 255 255 255 255
255 255 255 255 255 255 255 255 255 255 255 255 255 255 255
255 255 255 255 255 255 255 255 255 255 255 255 255 255 255
255 255 255 255 255 255 255 255 255 255 255 255 255 255 255
255 255 255 255 255 255 255 255 255 255 255 255 255 255 255
255 255 255 255 255 255 255 255 255 255 255 255 255 255 255
255 255 255 255 255 255 255 255 255 255 255 255 255 255 255
255 255 255 255 255 255 255 255 255 255 255 255 255 255 255
255 255 255 255 255 255 255 255 255 255 255 255 255 255 255
255 255 255 255 255 255 255 255 255 255 255 255 255 255 255
255 255 255 255 255 255 255 255 255 255 255 255 255 255 255
255 255 255 255 255 255 255 255 255 255 255 255 255 255 255
255 255 255 255 255 255 255 255 255 255 255 255 255 255 255
255 255 255 255 255 255 255 255 255 255 255 255 255 255 253
253 254 249 250 251 245 246 247 242 242 243 238 242 243 238
246 247 242 250 250 248 253 253 251 241 241 241 241 241 241
196 196 198 121 121 123 93 92 97 141 140 145 207 206 211 241 240 246
241 242 247 239 239 247 234 234 242 230 230 240 232 232 242
236 239 248 235 235 247 223 225 237 226 228 241 242 246 255
238 241 255 228 231 246 233 239 255 234 240 255 229 234 253
234 239 255 233 236 255 233 236 255 233 236 255 233 236 255
233 236 255 233 236 255 233 236 255 233 236 255 228 231 250
233 236 255 240 243 255 245 248 255 243 246 255 235 238 255
225 228 247 218 221 240 216 221 241 212 217 236 217 222 241
224 230 246 215 218 235 183 186 201 153 155 168 140 142 154
176 176 186 233 233 241 238 237 243 240 239 244 254 252 255
250 248 251 250 246 247 237 231 231 245 235 234 218 206 206
201 191 190 142 132 131 124 114 115 206 195 199 255 248 252
250 239 245 254 244 252 255 249 255 241 234 242 248 240 251
252 244 255 246 238 251 250 242 255 227 221 233 194 190 204
144 142 155 90 88 101 76 74 87 106 104 117 145 143 157 166 164 178
169 167 181 190 188 202 188 185 202 199 196 213 213 210 227
206 203 220 184 181 198 182 179 198 195 194 210 189 190 208
200 202 217 202 203 221 194 195 213 191 192 210 196 197 215
199 200 218 196 197 217 196 197 217 193 194 214 192 193 213
195 196 217 198 199 220 198 199 220 199 200 221 199 201 224
195 200 222 193 198 220 190 194 219 188 192 217 190 191 219
192 193 221 196 195 226 199 198 230 200 196 229 200 197 228
200 197 228 198 195 224 196 191 221 194 190 217 195 189 217
195 189 215 196 188 209 199 192 210 201 194 210 200 193 209
197 190 206 196 190 204 199 193 207 203 197 211 196 190 202
175 169 181 133 127 137 91 85 95 86 79 87 127 120 128 186 179 187
223 218 225 246 244 249 244 243 248 243 242 247 244 244 246
247 246 251 250 250 252 252 252 254 253 253 253 255 255 255
251 251 251 249 249 249 254 254 254 255 255 253 255 255 253
255 255 253 254 254 252 255 255 255 255 255 255 255 255 255
255 255 255 255 255 255 255 255 255 252 252 252 251 251 251
253 253 253 255 255 255 255 255 255 255 255 255 254 254 254
254 254 254 255 255 255 255 255 255 255 255 255 255 255 255
255 255 255 255 255 255 255 255 255 255 255 255 254 254 254
253 253 253 255 255 255 255 255 255 255 255 255 255 255 255
255 255 255 255 255 255 255 255 255 255 255 255 255 255 255
255 255 255 255 255 255 255 255 255 255 255 255 255 255 255
255 255 255 255 255 255 255 255 255 255 255 255 255 255 255
255 255 255 255 255 255 255 255 255 255 255 255 255 255 255
255 255 255 255 255 255 255 255 255 255 255 255 255 255 255
255 255 255 255 255 255 255 255 255 255 255 255 255 255 255
255 255 255 255 255 255 255 255 255 255 255 255 255 255 255
255 255 255 254 255 255 254 255 255 254 255 255 254 255 255
254 255 255 254 255 255 254 255 255 254 255 255 254 255 255
254 255 255 254 255 255 254 255 255 254 255 255 254 255 255
254 255 255 254 255 255 255 255 255 255 255 255 255 255 255
255 255 255 255 255 255 255 255 255 255 255 255 255 255 255
255 255 255 255 255 255 255 255 255 255 255 255 255 255 255
255 255 255 255 255 255 255 255 255 255 255 255 255 255 255
255 255 255 255 255 255 255 255 255 255 255 255 255 255 255
255 255 255 255 255 255 255 255 255 255 255 255 255 255 255
255 255 255 255 255 255 255 255 255 255 255 255 255 255 255
255 255 255 255 255 255 255 255 255 255 255 255 255 255 255
255 255 255 255 255 255 255 255 255 255 255 255 255 255 255
255 255 255 255 255 255 255 255 255 255 255 255 255 255 255
255 255 255 255 255 255 255 255 255 255 255 255 255 255 255
255 255 255 255 255 255 255 255 255 255 255 255 255 255 255
255 255 255 255 255 255 255 255 255 255 255 255 255 255 255
255 255 255 255 255 255 255 255 255 255 255 255 255 255 255
255 255 255 255 255 255 255 255 255 255 255 255 255 255 255
255 255 255 255 255 255 255 255 255 255 255 255 255 255 255
255 255 255 255 255 255 255 255 255 255 255 255 255 255 255
255 255 255 255 255 255 255 255 255 255 255 255 255 255 255
255 255 255 255 255 255 255 255 255 255 255 255 255 255 255
255 255 255 255 255 255 255 255 255 255 255 255 255 255 255
255 255 255 255 255 255 255 255 255 255 255 255 255 255 255
255 255 255 255 255 255 255 255 255 255 255 255 255 255 255
255 255 255 255 255 255 255 255 255 255 255 255 255 255 255
255 255 255 255 255 255 255 255 255 255 255 255 255 255 255
255 255 255 255 255 255 255 255 255 255 255 255 255 255 255
255 255 255 255 255 255 255 255 255 255 255 255 255 255 255
253 253 253 254 254 254 255 255 255 255 255 255 255 255 255
255 255 255 255 255 255 255 255 255 255 255 255 255 255 255
255 255 255 250 250 250 250 250 250 255 255 255 255 255 255
254 254 252 255 255 251 251 252 246 248 249 244 249 250 245
252 252 250 251 251 249 253 253 253 255 255 255 231 231 233
180 180 182 121 120 125 110 109 114 162 161 167 224 223 229
242 241 247 226 225 233 249 249 255 243 246 255 235 238 247
230 232 244 232 234 246 236 240 251 238 240 253 233 237 249
228 231 246 227 233 247 228 234 250 230 236 252 230 235 254
230 235 254 230 235 254 229 234 253 234 237 255 234 237 255
234 237 255 233 236 255 233 236 255 232 235 254 232 235 254
232 235 254 227 230 249 230 233 252 232 235 254 234 237 255
240 243 255 241 244 255 228 231 250 212 215 234 207 210 229
204 207 226 219 222 241 216 219 236 201 202 220 153 155 170
117 117 129 157 157 167 241 239 250 248 247 255 245 242 249
251 249 254 250 245 249 242 237 241 250 245 249 250 244 246
239 229 230 181 169 171 75 65 66 127 116 120 230 219 223 242 231 237
254 243 249 253 242 250 240 230 239 243 233 244 243 235 246
232 224 237 200 192 205 152 144 159 106 98 113 78 72 86 86 82 97
123 121 135 166 164 178 192 190 204 204 202 216 209 206 223
206 203 220 198 195 212 206 203 220 200 197 216 188 185 204
182 179 198 193 190 209 209 206 225 211 208 229 201 200 218
194 195 215 194 197 214 194 197 216 195 198 217 195 198 217
196 199 218 196 199 218 196 198 219 194 196 217 194 196 217
196 198 219 196 198 221 197 199 222 197 199 222 196 198 221
196 198 221 196 201 223 197 202 224 197 199 224 195 197 222
192 193 221 193 194 222 198 197 228 202 201 232 204 201 232
199 196 227 198 193 223 198 194 221 197 191 219 196 190 216
202 196 222 212 207 229 205 198 214 198 190 205 195 187 202
203 195 208 210 202 215 203 195 208 181 173 184 161 153 164
112 105 113 110 103 111 122 115 122 160 153 160 210 205 211
245 240 246 252 247 251 246 241 245 248 246 249 248 248 250
249 249 251 251 251 251 252 252 254 254 254 254 255 255 255
255 255 255 255 255 255 255 255 253 255 255 253 255 255 253
255 255 253 255 255 253 255 255 253 255 255 253 255 255 255
255 255 255 255 255 255 255 255 255 255 255 255 255 255 255
255 255 255 255 255 255 255 255 255 255 255 255 255 255 255
255 255 255 255 255 255 255 255 255 255 255 255 255 255 255
255 255 255 255 255 255 255 255 255 255 255 255 255 255 255
255 255 255 255 255 255 255 255 255 255 255 255 255 255 255
255 255 255 255 255 255 255 255 255 255 255 255 255 255 255
255 255 255 255 255 255 255 255 255 255 255 255 255 255 255
255 255 255 255 255 255 255 255 255 255 255 255 255 255 255
255 255 255 255 255 255 255 255 255 255 255 255 255 255 255
255 255 255 255 255 255 255 255 255 255 255 255 255 255 255
255 255 255 255 255 255 255 255 255 255 255 255 255 255 255
255 255 255 255 255 255 255 255 255 255 255 255 255 255 255
255 255 255 255 255 255 255 255 255 254 255 255 254 255 255
254 255 255 254 255 255 254 255 255 254 255 255 254 255 255
254 255 255 254 255 255 254 255 255 254 255 255 254 255 255
254 255 255 254 255 255 254 255 255 254 255 255 255 255 255
255 255 255 255 255 255 255 255 255 255 255 255 255 255 255
255 255 255 255 255 255 255 255 255 255 255 255 255 255 255
255 255 255 255 255 255 255 255 255 255 255 255 255 255 255
255 255 255 255 255 255 255 255 255 255 255 255 255 255 255
255 255 255 255 255 255 255 255 255 255 255 255 255 255 255
255 255 255 255 255 255 255 255 255 255 255 255 255 255 255
255 255 255 255 255 255 255 255 255 255 255 255 255 255 255
255 255 255 255 255 255 255 255 255 255 255 255 255 255 255
255 255 255 255 255 255 255 255 255 255 255 255 255 255 255
255 255 255 255 255 255 255 255 255 255 255 255 255 255 255
255 255 255 255 255 255 255 255 255 255 255 255 255 255 255
255 255 255 255 255 255 255 255 255 255 255 255 255 255 255
255 255 255 255 255 255 255 255 255 255 255 255 255 255 255
255 255 255 255 255 255 255 255 255 255 255 255 255 255 255
255 255 255 255 255 255 255 255 255 255 255 255 255 255 255
255 255 255 255 255 255 255 255 255 255 255 255 255 255 255
255 255 255 255 255 255 255 255 255 255 255 255 255 255 255
255 255 255 255 255 255 255 255 255 255 255 255 255 255 255
255 255 255 255 255 255 255 255 255 255 255 255 255 255 255
255 255 255 255 255 255 255 255 255 255 255 255 255 255 255
255 255 255 255 255 255 255 255 255 255 255 255 255 255 255
255 255 255 255 255 255 255 255 255 255 255 255 255 255 255
255 255 255 255 255 255 255 255 255 255 255 255 255 255 255
255 255 255 255 255 255 255 255 255 255 255 255 255 255 255
255 255 255 255 255 255 255 255 255 255 255 255 255 255 255
255 255 255 255 255 255 254 254 254 255 255 255 255 255 255
255 255 255 254 254 254 253 253 253 253 253 253 253 253 253
249 249 249 255 255 255 255 255 255 255 255 255 255 255 255
255 255 255 255 255 255 254 254 252 239 240 235 232 233 228
249 250 245 250 251 246 237 237 235 255 255 255 255 255 255
200 200 202 155 155 157 100 99 104 111 110 115 198 197 203
243 242 250 220 219 227 220 218 229 254 254 255 235 238 247
234 236 248 230 232 244 227 231 242 230 234 245 232 238 250
230 236 248 225 231 243 228 234 248 229 235 249 230 236 252
232 238 254 232 237 255 232 237 255 232 237 255 231 236 255
233 236 255 233 236 255 233 236 255 233 236 255 233 236 255
233 236 255 232 235 254 232 235 254 228 231 250 229 232 251
229 232 251 230 233 252 232 235 254 230 233 252 223 226 245
215 218 237 208 211 230 206 209 226 216 219 236 204 207 222
150 152 167 135 137 150 185 185 195 221 221 229 241 240 248
248 247 253 247 245 250 254 252 255 250 245 251 239 234 238
249 244 250 252 246 250 191 180 186 133 122 126 114 103 109
180 169 175 249 238 246 255 246 254 239 227 237 230 220 229
205 195 206 163 152 166 105 97 110 71 63 78 77 69 84 116 107 124
161 152 169 187 180 196 197 193 208 207 204 221 211 208 225
202 199 216 194 191 208 195 192 209 197 194 213 195 192 211
199 196 215 196 193 212 194 191 212 198 195 216 203 200 221
202 199 220 199 196 217 196 194 215 197 198 218 196 199 218
196 199 218 195 198 217 195 198 217 192 197 216 191 196 216
191 196 216 192 197 217 192 197 217 193 195 218 193 195 218
194 196 219 194 196 219 195 197 222 195 197 222 194 196 219
191 193 216 191 193 218 196 196 222 202 202 228 202 202 230
195 195 223 191 188 217 195 192 221 196 193 222 196 192 219
193 189 214 197 192 215 203 198 221 202 197 219 199 192 210
191 183 196 190 182 193 197 189 200 195 187 198 161 154 162
110 103 111 82 75 82 82 75 82 156 149 156 195 189 193 241 235 239
255 254 255 251 246 250 240 236 237 243 239 240 251 249 250
248 248 250 248 248 250 250 250 250 251 251 251 252 252 252
254 254 254 255 255 255 255 255 255 255 255 253 255 255 253
255 255 253 255 255 253 255 255 253 255 255 253 255 255 253
255 255 253 255 255 255 255 255 255 255 255 255 255 255 255
255 255 255 255 255 255 255 255 255 255 255 255 255 255 255
255 255 255 255 255 255 255 255 255 255 255 255 255 255 255
255 255 255 255 255 255 255 255 255 255 255 255 255 255 255
255 255 255 255 255 255 255 255 255 255 255 255 255 255 255
255 255 255 255 255 255 255 255 255 255 255 255 255 255 255
255 255 255 255 255 255 255 255 255 255 255 255 255 255 255
255 255 255 255 255 255 255 255 255 255 255 255 255 255 255
255 255 255 255 255 255 255 255 255 255 255 255 255 255 255
255 255 255 255 255 255 255 255 255 255 255 255 255 255 255
255 255 255 255 255 255 255 255 255 255 255 255 255 255 255
255 255 255 255 255 255 255 255 255 255 255 255 255 255 255
255 255 255 254 254 254 254 254 254 254 254 254 254 254 254
254 255 255 252 255 255 252 255 255 252 255 255 252 255 255
252 255 255 252 255 255 252 255 255 252 255 255 252 255 255
252 255 255 252 255 255 252 255 255 252 255 255 252 255 255
254 255 255 255 255 255 255 255 255 255 255 255 255 255 255
255 255 255 255 255 255 255 255 255 255 255 255 255 255 255
255 255 255 255 255 255 255 255 255 255 255 255 255 255 255
255 255 255 255 255 255 255 255 255 255 255 255 255 255 255
255 255 255 255 255 255 255 255 255 255 255 255 255 255 255
255 255 255 255 255 255 255 255 255 255 255 255 255 255 255
255 255 255 255 255 255 255 255 255 255 255 255 255 255 255
255 255 255 255 255 255 255 255 255 255 255 255 255 255 255
255 255 255 255 255 255 255 255 255 255 255 255 255 255 255
255 255 255 255 255 255 255 255 255 255 255 255 255 255 255
255 255 255 255 255 255 255 255 255 255 255 255 255 255 255
255 255 255 255 255 255 255 255 255 255 255 255 255 255 255
255 255 255 255 255 255 255 255 255 255 255 255 255 255 255
255 255 255 255 255 255 255 255 255 255 255 255 255 255 255
255 255 255 255 255 255 255 255 255 255 255 255 255 255 255
255 255 255 255 255 255 255 255 255 255 255 255 255 255 255
255 255 255 255 255 255 255 255 255 255 255 255 255 255 255
255 255 255 255 255 255 255 255 255 255 255 255 255 255 255
255 255 255 255 255 255 255 255 255 255 255 255 255 255 255
255 255 255 255 255 255 255 255 255 255 255 255 255 255 255
255 255 255 255 255 255 255 255 255 255 255 255 255 255 255
255 255 255 255 255 255 255 255 255 255 255 255 255 255 255
255 255 255 255 255 255 255 255 255 255 255 255 255 255 255
255 255 255 255 255 255 254 254 254 254 254 254 254 254 254
254 254 254 255 255 255 255 255 255 255 255 255 255 255 255
255 255 255 255 255 255 255 255 255 255 255 255 255 255 255
255 255 255 255 255 255 255 255 255 255 255 255 255 255 255
255 255 255 254 254 254 255 255 255 253 253 253 253 253 253
255 255 255 255 255 255 255 255 255 254 254 254 255 255 255
255 255 253 255 255 253 241 240 238 236 235 233 252 250 251
240 238 239 185 185 187 140 139 144 79 78 83 157 156 162 224 224 232
235 235 243 228 228 238 237 237 247 241 241 253 233 233 245
231 233 245 231 235 247 231 235 247 232 236 248 233 239 251
235 243 255 232 240 253 226 234 247 227 234 250 228 235 251
229 236 252 230 237 253 232 237 255 232 237 255 234 237 255
234 237 255 232 235 254 233 236 255 233 236 255 233 236 255
233 236 255 233 236 255 233 236 255 233 236 255 234 237 255
233 236 255 234 237 255 233 236 255 227 230 249 220 223 242
216 219 238 216 219 238 214 217 234 221 224 239 196 198 213
165 167 180 126 128 140 150 153 162 232 232 242 247 247 255
246 245 253 248 247 253 235 233 238 240 238 243 255 250 255
255 250 255 239 232 240 201 194 202 97 85 95 107 95 105 193 181 191
219 209 218 201 191 202 185 175 186 115 105 116 62 51 65 75 64 78
110 102 117 158 150 165 193 184 201 210 203 219 213 206 224
204 197 215 192 185 203 201 197 214 206 203 222 205 202 221
197 194 213 192 189 208 195 192 211 196 193 214 195 192 213
196 193 214 194 191 212 200 196 219 210 206 229 209 205 228
198 194 217 194 190 213 199 197 219 197 198 218 197 198 218
196 198 219 196 198 219 193 198 218 192 197 217 191 196 218
190 196 218 194 200 222 193 199 221 193 197 222 192 196 221
194 196 221 194 196 221 196 196 222 197 197 223 204 204 228
198 199 220 192 192 216 193 191 215 196 194 218 200 197 224
201 198 225 201 197 224 187 183 208 204 200 225 211 206 229
201 196 218 197 192 212 206 201 221 213 209 226 212 206 220
209 202 210 193 183 191 145 138 145 95 88 95 90 84 88 140 134 138
201 195 199 236 230 232 248 244 245 248 244 245 250 246 247
253 249 248 255 253 254 255 254 252 253 252 250 250 249 247
249 249 249 249 251 250 249 251 250 251 253 252 252 254 253
253 255 254 254 255 255 254 255 255 254 255 253 254 255 253
254 255 253 254 255 253 254 255 253 254 255 253 254 255 253
254 255 253 255 255 255 255 255 255 255 255 255 255 255 255
255 255 255 255 255 255 255 255 255 255 255 255 255 255 255
255 255 255 255 255 255 255 255 255 255 255 255 255 255 255
255 255 255 255 255 255 255 255 255 255 255 255 255 255 255
255 255 255 255 255 255 255 255 255 255 255 255 255 255 255
255 255 255 255 255 255 255 255 255 255 255 255 255 255 255
255 255 255 255 255 255 255 255 255 255 255 255 255 255 255
255 255 255 255 255 255 255 255 255 255 255 255 255 255 255
255 255 255 255 255 255 255 255 255 255 255 255 255 255 255
255 255 255 255 255 255 255 255 255 255 255 255 255 255 255
255 255 255 255 255 255 255 255 255 255 255 255 255 255 255
255 255 255 255 255 255 255 255 255 255 255 255 255 255 255
254 254 254 254 254 254 254 254 254 254 254 254 253 255 254
253 255 254 251 255 254 251 255 254 251 255 254 251 255 254
251 255 254 251 255 254 251 255 254 252 255 255 252 255 255
252 255 255 252 255 255 252 255 255 252 255 255 252 255 255
252 255 255 254 254 254 254 254 254 254 254 254 254 254 254
254 254 254 254 254 254 254 254 254 254 254 254 254 254 254
254 254 254 254 254 254 254 254 254 254 254 254 254 254 254
254 254 254 254 254 254 254 254 254 254 254 254 254 254 254
254 254 254 254 254 254 254 254 254 254 254 254 254 254 254
255 255 255 255 255 255 255 255 255 255 255 255 255 255 255
255 255 255 255 255 255 255 255 255 254 254 254 254 254 254
254 254 254 254 254 254 254 254 254 254 254 254 254 254 254
254 254 254 255 255 255 255 255 255 255 255 255 255 255 255
255 255 255 255 255 255 255 255 255 255 255 255 255 255 255
255 255 255 255 255 255 255 255 255 255 255 255 255 255 255
255 255 255 255 255 255 255 255 255 255 255 255 255 255 255
255 255 255 255 255 255 255 255 255 255 255 255 255 255 255
255 255 255 255 255 255 255 255 255 255 255 255 255 255 255
255 255 255 255 255 255 255 255 255 255 255 255 255 255 255
255 255 255 255 255 255 255 255 255 255 255 255 255 255 255
255 255 255 255 255 255 255 255 255 255 255 255 255 255 255
255 255 255 255 255 255 255 255 255 255 255 255 255 255 255
255 255 255 255 255 255 255 255 255 255 255 255 255 255 255
255 255 255 255 255 255 255 255 255 255 255 255 255 255 255
255 255 255 255 255 255 255 255 255 255 255 255 255 255 255
255 255 255 255 255 255 255 255 255 255 255 255 255 255 255
255 255 255 255 255 255 255 255 255 255 255 255 255 255 255
255 255 255 254 254 254 254 254 254 254 254 254 254 254 254
254 254 254 255 255 255 255 255 255 255 255 255 255 255 255
255 255 255 255 255 255 255 255 255 255 255 255 254 254 254
254 254 254 255 255 255 255 255 255 255 255 255 255 255 255
255 255 255 255 255 255 255 255 255 252 252 252 247 247 247
253 253 253 255 255 255 255 255 255 251 251 251 248 248 248
238 237 235 255 255 253 255 254 252 255 254 255 244 242 243
159 157 160 89 88 93 100 99 105 184 183 189 210 209 217 239 239 249
251 251 255 241 241 253 227 226 240 225 224 238 227 229 242
232 236 248 235 239 251 236 240 252 234 240 254 236 244 255
237 247 255 235 245 255 229 239 251 225 234 249 226 235 250
227 234 250 228 235 251 230 235 254 230 235 254 233 236 255
233 236 255 233 236 255 233 236 255 233 236 255 233 236 255
234 237 255 234 237 255 234 237 255 234 237 255 237 240 255
235 238 255 234 237 255 233 236 255 224 227 246 213 216 235
211 214 233 215 218 235 221 224 239 217 221 233 152 154 167
118 120 132 157 160 169 207 210 217 240 240 248 241 242 247
229 228 234 252 251 255 248 246 251 242 239 246 248 243 250
241 235 245 201 193 204 134 126 137 85 74 88 87 76 90 129 118 132
95 84 98 72 61 77 131 120 136 161 150 166 170 162 177 196 187 204
211 202 219 217 208 225 206 199 217 196 189 207 198 191 209
204 197 215 203 199 216 184 181 200 192 189 208 199 196 215
202 199 218 203 200 219 202 199 218 195 192 213 187 184 205
198 195 216 197 194 215 202 198 221 207 203 226 206 202 225
200 196 219 201 197 220 207 203 226 195 193 214 194 195 215
195 196 217 196 198 219 196 198 219 194 199 219 193 199 221
192 198 220 193 199 221 193 199 221 193 197 222 193 197 222
194 196 221 195 195 221 195 195 221 197 195 219 193 189 212
198 194 217 204 200 223 205 201 224 201 197 220 197 193 216
197 192 215 197 193 216 203 198 221 205 200 222 202 197 217
198 194 211 200 196 211 196 192 206 176 173 184 154 149 156
119 113 117 93 84 87 98 92 94 160 154 156 222 216 216 245 239 239
247 241 241 248 244 243 247 243 242 245 241 240 243 239 238
242 241 239 246 245 243 249 248 246 249 248 246 247 247 245
250 252 251 250 252 251 251 253 252 251 253 252 252 254 253
253 255 254 254 255 255 254 255 255 254 255 253 254 255 253
254 255 253 254 255 253 254 255 253 254 255 253 254 255 253
254 255 253 255 255 255 255 255 255 255 255 255 255 255 255
255 255 255 255 255 255 255 255 255 255 255 255 255 255 255
255 255 255 255 255 255 255 255 255 255 255 255 255 255 255
255 255 255 255 255 255 255 255 255 255 255 255 255 255 255
255 255 255 255 255 255 255 255 255 255 255 255 255 255 255
255 255 255 255 255 255 255 255 255 255 255 255 255 255 255
255 255 255 255 255 255 255 255 255 255 255 255 255 255 255
255 255 255 255 255 255 255 255 255 255 255 255 255 255 255
255 255 255 255 255 255 255 255 255 255 255 255 255 255 255
255 255 255 255 255 255 255 255 255 255 255 255 255 255 255
255 255 255 255 255 255 255 255 255 255 255 255 255 255 255
255 255 255 255 255 255 255 255 255 255 255 255 254 254 254
254 254 254 254 254 254 253 253 253 253 253 253 252 254 253
253 255 254 251 255 254 251 255 254 251 255 254 251 255 254
251 255 254 251 255 254 251 255 254 250 254 253 250 254 253
250 254 253 250 254 253 250 254 253 250 254 253 250 254 253
250 254 253 254 254 254 254 254 254 254 254 254 254 254 254
254 254 254 254 254 254 254 254 254 254 254 254 254 254 254
254 254 254 254 254 254 254 254 254 254 254 254 254 254 254
254 254 254 254 254 254 254 254 254 254 254 254 254 254 254
254 254 254 254 254 254 254 254 254 254 254 254 254 254 254
255 255 255 255 255 255 255 255 255 255 255 255 255 255 255
255 255 255 255 255 255 255 255 255 254 254 254 254 254 254
254 254 254 254 254 254 254 254 254 254 254 254 254 254 254
254 254 254 255 255 255 255 255 255 255 255 255 255 255 255
255 255 255 255 255 255 255 255 255 255 255 255 255 255 255
255 255 255 255 255 255 255 255 255 255 255 255 255 255 255
255 255 255 255 255 255 255 255 255 255 255 255 255 255 255
255 255 255 255 255 255 255 255 255 255 255 255 255 255 255
255 255 255 255 255 255 255 255 255 255 255 255 255 255 255
255 255 255 255 255 255 255 255 255 255 255 255 255 255 255
255 255 255 255 255 255 255 255 255 255 255 255 255 255 255
255 255 255 255 255 255 255 255 255 255 255 255 255 255 255
255 255 255 255 255 255 255 255 255 255 255 255 255 255 255
255 255 255 255 255 255 255 255 255 255 255 255 255 255 255
255 255 255 255 255 255 255 255 255 255 255 255 255 255 255
255 255 255 255 255 255 255 255 255 255 255 255 255 255 255
255 255 255 255 255 255 255 255 255 255 255 255 255 255 255
255 255 255 255 255 255 255 255 255 255 255 255 255 255 255
254 254 254 254 254 254 254 254 254 253 253 253 253 253 253
253 253 253 255 255 255 255 255 255 255 255 255 255 255 255
255 255 255 255 255 255 255 255 255 255 255 255 255 255 255
254 254 254 253 253 253 254 254 254 255 255 255 255 255 255
254 254 254 251 251 251 251 251 251 251 251 251 255 255 255
255 255 255 255 255 255 254 254 254 248 248 248 247 247 247
255 254 255 255 252 253 248 244 245 208 203 207 132 130 133 95 93 98
132 131 137 186 185 193 225 223 234 243 241 254 244 244 255
227 226 240 222 224 239 237 239 254 241 243 255 231 233 248
233 236 251 235 238 253 233 239 253 231 237 253 231 238 254
233 242 255 232 241 255 226 238 252 224 236 252 224 236 252
227 236 253 228 235 253 230 235 254 231 236 255 233 236 255
235 236 255 235 238 255 235 238 255 234 237 255 234 237 255
233 236 255 233 236 255 233 236 255 233 236 255 232 235 254
228 231 250 223 226 245 220 223 242 217 220 239 214 217 236
216 219 238 220 223 240 206 208 221 161 163 175 121 123 135
131 134 143 206 206 214 253 254 255 243 242 248 252 251 255
244 242 247 250 248 253 244 239 246 252 247 254 254 246 255
219 211 224 152 144 157 77 69 84 69 60 77 88 79 98 131 122 141
166 157 176 187 178 197 198 189 208 202 193 212 209 202 220
194 187 205 195 188 206 193 186 204 191 186 206 201 196 216
211 206 226 208 203 223 199 194 214 199 196 215 199 196 215
198 195 214 197 194 213 199 196 215 200 197 216 198 195 216
193 190 211 197 194 215 201 198 219 202 198 221 199 195 218
200 196 219 205 201 224 205 201 226 201 197 220 196 193 214
196 194 215 196 197 217 196 199 218 197 199 220 194 199 219
193 200 219 192 199 218 189 195 217 190 196 218 192 197 219
195 197 220 195 195 221 194 194 220 194 191 218 194 190 215
200 195 217 202 194 217 201 193 216 200 192 215 201 193 216
201 196 218 207 199 222 208 203 223 208 200 221 203 199 216
193 189 204 170 166 180 138 135 146 113 110 119 104 101 108
107 102 106 144 138 138 204 199 195 254 249 245 255 252 248
248 244 241 255 251 248 255 254 251 255 251 248 243 239 236
249 248 244 255 255 251 254 255 250 249 250 245 246 247 242
249 250 245 253 253 251 251 253 252 251 253 252 252 254 253
252 254 253 253 255 254 253 255 254 254 255 255 254 255 255
254 255 255 254 255 255 254 255 255 254 255 255 254 255 255
254 255 255 254 255 255 254 255 255 255 255 255 255 255 255
255 255 255 255 255 255 255 255 255 255 255 255 255 255 255
255 255 255 255 255 255 255 255 255 255 255 255 255 255 255
255 255 255 255 255 255 255 255 255 255 255 255 255 255 255
255 255 255 255 255 255 255 255 255 255 255 255 255 255 255
255 255 255 255 255 255 255 255 255 255 255 255 255 255 255
255 255 255 255 255 255 255 255 255 255 255 255 255 255 255
255 255 255 255 255 255 255 255 255 255 255 255 255 255 255
255 255 255 255 255 255 255 255 255 255 255 255 255 255 255
255 255 255 255 255 255 255 255 255 255 255 255 255 255 255
255 255 255 255 255 255 255 255 255 255 255 255 255 255 255
255 255 255 255 255 255 255 255 255 255 255 255 255 255 255
255 255 255 254 254 254 254 254 254 253 253 253 253 253 253
252 252 252 251 253 252 253 255 254 251 255 254 251 255 254
251 255 254 251 255 254 251 255 254 251 255 254 251 255 254
249 253 252 249 253 252 249 253 252 249 253 252 249 253 252
249 253 252 249 253 252 249 253 252 254 254 254 254 254 254
254 254 254 254 254 254 254 254 254 254 254 254 254 254 254
254 254 254 254 254 254 254 254 254 254 254 254 254 254 254
254 254 254 254 254 254 254 254 254 254 254 254 254 254 254
254 254 254 254 254 254 254 254 254 254 254 254 254 254 254
254 254 254 254 254 254 254 254 254 254 254 254 254 254 254
254 254 254 254 254 254 254 254 254 254 254 254 254 254 254
254 254 254 254 254 254 254 254 254 254 254 254 254 254 254
254 254 254 254 254 254 254 254 254 254 254 254 254 254 254
254 254 254 254 254 254 254 254 254 254 254 254 254 254 254
254 254 254 254 254 254 254 254 254 254 254 254 254 254 254
254 254 254 254 254 254 254 254 254 254 254 254 254 254 254
254 254 254 254 254 254 254 254 254 254 254 254 254 254 254
254 254 254 254 254 254 255 255 255 255 255 255 255 255 255
255 255 255 255 255 255 255 255 255 255 255 255 255 255 255
255 255 255 255 255 255 255 255 255 255 255 255 255 255 255
255 255 255 255 255 255 255 255 255 255 255 255 255 255 255
255 255 255 255 255 255 255 255 255 255 255 255 255 255 255
255 255 255 255 255 255 255 255 255 255 255 255 255 255 255
255 255 255 255 255 255 255 255 255 255 255 255 255 255 255
255 255 255 255 255 255 255 255 255 255 255 255 255 255 255
255 255 255 255 255 255 255 255 255 255 255 255 255 255 255
255 255 255 255 255 255 255 255 255 255 255 255 255 255 255
255 255 255 255 255 255 254 254 254 254 254 254 253 253 253
253 253 253 252 252 252 252 252 252 254 254 254 254 254 254
254 254 254 254 254 254 254 254 254 254 254 254 254 254 254
254 254 254 255 255 255 253 253 253 251 251 251 250 250 250
251 251 251 250 250 250 246 246 246 243 243 243 247 247 247
255 255 255 255 255 255 253 253 253 243 243 243 243 243 243
252 252 252 255 255 255 255 254 255 232 228 229 176 171 175
122 117 121 119 117 122 165 162 169 206 205 213 220 218 229
214 212 225 228 226 240 243 242 255 244 243 255 231 232 250
224 225 243 234 235 253 249 250 255 233 236 253 233 239 253
232 238 254 228 235 251 227 236 251 228 240 254 228 240 254
226 238 252 227 239 255 227 239 255 229 238 255 229 238 255
232 237 255 233 238 255 237 238 255 238 239 255 236 239 255
235 238 255 234 237 255 233 236 255 231 234 253 230 233 252
229 232 251 228 231 250 228 231 250 222 225 244 215 218 237
212 215 234 217 220 239 223 226 245 222 225 244 215 218 235
162 164 177 105 108 117 143 146 155 207 210 217 240 241 246
247 248 252 236 235 240 249 248 253 255 254 255 246 244 249
243 238 245 255 252 255 232 224 237 161 153 168 115 107 122 93 84 101
155 146 167 184 174 198 184 174 198 203 193 217 219 209 233
201 193 214 194 186 209 192 184 205 208 200 221 202 197 217
196 191 211 194 189 209 197 192 212 201 196 216 205 200 220
206 201 221 200 197 216 196 193 212 191 188 207 190 187 206
194 191 210 199 196 215 202 199 220 203 200 221 195 192 213
202 199 220 202 198 221 197 193 216 198 194 217 204 200 223
199 195 220 187 183 206 198 195 216 199 196 217 200 198 219
198 199 219 197 199 220 193 198 218 191 196 216 188 195 214
193 199 221 193 199 221 197 199 222 198 200 223 199 199 225
200 197 224 200 196 223 200 194 220 218 208 232 212 200 220
204 192 214 203 194 215 210 201 222 213 205 226 209 200 221
202 195 213 174 167 185 159 152 168 133 127 139 101 98 107 86 83 90
110 108 113 173 171 174 231 230 228 255 254 250 255 254 245
255 251 245 255 254 248 255 253 246 243 240 235 246 243 238
255 255 250 255 255 251 255 255 251 248 249 244 245 246 241
250 251 246 255 255 251 255 255 251 254 255 253 253 255 254
253 255 254 253 255 254 253 255 254 253 255 254 253 255 254
253 255 254 253 255 254 254 255 255 254 255 255 254 255 255
254 255 255 254 255 255 254 255 255 254 255 255 254 255 255
255 255 255 255 255 255 255 255 255 255 255 255 255 255 255
255 255 255 255 255 255 255 255 255 255 255 255 255 255 255
255 255 255 255 255 255 255 255 255 255 255 255 255 255 255
255 255 255 255 255 255 255 255 255 255 255 255 255 255 255
255 255 255 255 255 255 255 255 255 255 255 255 255 255 255
255 255 255 255 255 255 255 255 255 255 255 255 255 255 255
255 255 255 255 255 255 255 255 255 255 255 255 255 255 255
255 255 255 255 255 255 255 255 255 255 255 255 255 255 255
255 255 255 255 255 255 255 255 255 255 255 255 255 255 255
255 255 255 255 255 255 255 255 255 255 255 255 255 255 255
255 255 255 255 255 255 255 255 255 255 255 255 255 255 255
255 255 255 255 255 255 255 255 255 254 254 254 254 254 254
253 253 253 252 252 252 252 252 252 250 252 251 252 254 253
250 254 253 250 254 253 250 254 253 250 254 253 250 254 253
250 254 253 250 254 253 249 253 252 249 253 252 249 253 252
249 253 252 249 253 252 249 253 252 249 253 252 249 253 252
253 253 253 253 253 253 253 253 253 253 253 253 253 253 253
253 253 253 253 253 253 253 253 253 253 253 253 253 253 253
253 253 253 253 253 253 253 253 253 253 253 253 253 253 253
253 253 253 253 253 253 253 253 253 253 253 253 253 253 253
253 253 253 253 253 253 253 253 253 253 253 253 254 254 254
254 254 254 254 254 254 254 254 254 254 254 254 254 254 254
254 254 254 254 254 254 253 253 253 253 253 253 253 253 253
253 253 253 253 253 253 253 253 253 253 253 253 253 253 253
254 254 254 254 254 254 254 254 254 254 254 254 254 254 254
254 254 254 254 254 254 254 254 254 254 254 254 254 254 254
254 254 254 254 254 254 254 254 254 254 254 254 254 254 254
254 254 254 254 254 254 254 254 254 254 254 254 254 254 254
254 254 254 254 254 254 254 254 254 254 254 254 255 255 255
255 255 255 255 255 255 255 255 255 255 255 255 255 255 255
255 255 255 255 255 255 255 255 255 255 255 255 255 255 255
255 255 255 255 255 255 255 255 255 255 255 255 255 255 255
255 255 255 255 255 255 255 255 255 255 255 255 255 255 255
255 255 255 255 255 255 255 255 255 255 255 255 255 255 255
255 255 255 255 255 255 255 255 255 255 255 255 255 255 255
255 255 255 255 255 255 255 255 255 255 255 255 255 255 255
255 255 255 255 255 255 255 255 255 255 255 255 255 255 255
255 255 255 255 255 255 255 255 255 255 255 255 255 255 255
255 255 255 255 255 255 255 255 255 255 255 255 254 254 254
254 254 254 253 253 253 252 252 252 252 252 252 251 251 251
254 254 254 254 254 254 254 254 254 254 254 254 254 254 254
254 254 254 254 254 254 254 254 254 255 255 255 252 252 252
249 249 249 249 249 249 251 251 251 250 250 250 246 246 246
242 242 242 250 250 250 255 255 255 253 253 253 240 240 240
237 237 237 245 245 245 248 248 248 243 243 243 213 208 212
166 161 165 92 87 93 85 80 86 162 159 166 224 221 228 228 227 235
222 220 231 220 218 231 225 223 237 228 227 243 233 232 250
239 240 255 243 244 255 235 236 255 222 223 243 231 234 251
232 238 254 233 239 255 229 236 252 228 237 252 228 240 254
228 240 255 225 238 254 227 240 255 227 239 255 229 238 255
229 238 255 231 236 255 233 238 255 237 238 255 238 239 255
235 238 255 234 237 255 233 236 255 230 233 252 228 231 250
225 228 247 223 226 245 222 225 244 221 224 243 220 223 242
216 219 238 216 219 238 225 228 247 226 229 248 203 206 225
173 176 193 134 136 148 136 139 148 196 199 206 252 255 255
251 252 255 234 235 239 234 233 238 239 239 241 239 237 242
253 251 255 255 253 255 242 236 246 159 151 164 82 74 89 106 97 114
164 155 174 159 151 174 193 185 209 192 184 208 188 180 204
196 188 212 203 195 218 211 203 227 202 197 219 190 185 207
196 191 213 207 202 224 209 206 227 198 195 216 184 181 202
185 182 203 196 193 214 208 205 224 206 203 222 203 200 219
203 200 219 202 199 218 201 198 217 199 196 217 198 195 216
198 195 216 200 197 218 200 196 219 200 196 219 200 196 219
200 196 219 196 192 215 191 187 210 198 195 216 199 196 217
200 198 219 199 200 220 197 200 219 193 198 217 191 196 216
188 195 214 196 202 224 195 201 223 197 199 222 196 198 221
197 197 221 200 198 222 203 199 226 205 199 225 199 187 209
206 193 211 214 201 221 216 204 224 207 195 215 184 175 194
159 147 167 138 129 146 98 90 105 111 105 117 141 135 145 183 178 185
224 222 225 253 251 252 255 254 255 255 255 251 241 236 230
252 248 237 251 248 239 242 239 230 247 244 235 255 255 248
255 255 248 246 246 238 247 246 241 252 253 247 255 255 250
254 255 250 253 255 250 250 252 247 252 254 251 254 255 253
254 255 255 254 255 255 254 255 255 254 255 255 254 255 255
253 255 254 253 255 254 253 255 254 254 255 255 254 255 255
254 255 255 254 255 255 254 255 255 254 255 255 254 255 255
254 255 255 255 255 255 255 255 255 255 255 255 255 255 255
255 255 255 255 255 255 255 255 255 255 255 255 255 255 255
255 255 255 255 255 255 255 255 255 255 255 255 255 255 255
255 255 255 255 255 255 255 255 255 255 255 255 255 255 255
255 255 255 255 255 255 255 255 255 255 255 255 255 255 255
255 255 255 255 255 255 255 255 255 255 255 255 255 255 255
255 255 255 255 255 255 255 255 255 255 255 255 255 255 255
255 255 255 255 255 255 255 255 255 255 255 255 255 255 255
255 255 255 255 255 255 255 255 255 255 255 255 255 255 255
255 255 255 255 255 255 255 255 255 255 255 255 255 255 255
255 255 255 255 255 255 255 255 255 255 255 255 255 255 255
255 255 255 255 255 255 255 255 255 255 255 255 254 254 254
254 254 254 253 253 253 252 252 252 251 251 251 250 252 251
252 254 253 250 254 253 250 254 253 250 254 253 250 254 253
252 254 253 252 254 253 252 254 251 252 254 253 252 254 253
252 254 253 252 254 253 253 253 253 252 254 253 253 253 253
253 253 253 253 253 253 254 253 251 254 252 253 254 253 251
254 252 253 254 253 251 254 252 253 254 252 253 254 252 253
253 253 253 254 252 253 253 253 253 254 252 253 253 253 255
254 252 255 253 253 253 253 253 253 253 253 251 253 253 253
253 253 251 253 253 251 254 253 251 254 253 251 254 253 251
255 254 252 255 254 252 255 254 252 255 254 252 255 254 252
254 254 252 255 254 252 254 254 252 252 254 251 250 255 251
250 255 251 250 255 251 252 254 251 252 254 251 252 254 253
252 254 253 254 254 254 254 254 254 254 254 254 254 254 252
255 254 252 255 254 252 255 254 252 255 254 252 254 254 252
254 254 252 254 254 252 254 254 254 254 254 254 254 254 254
254 254 255 254 254 255 254 254 255 254 254 255 255 253 255
254 254 255 254 254 255 254 254 254 254 254 254 254 254 254
255 255 255 255 255 255 255 255 255 255 255 255 255 255 255
255 255 255 255 255 255 254 255 255 255 255 255 255 255 255
255 255 255 255 255 255 255 255 255 255 255 255 255 255 255
255 255 255 255 255 255 255 255 255 255 255 255 255 255 255
255 255 255 255 255 255 255 255 255 255 255 255 255 255 255
255 255 255 255 255 255 255 255 255 255 255 255 255 255 255
255 255 255 255 255 255 255 255 255 255 255 255 255 255 255
255 255 255 255 255 255 255 255 255 255 255 255 255 255 255
255 255 255 255 255 255 255 255 255 255 255 255 255 255 255
255 255 255 255 255 255 255 255 255 255 254 255 255 254 255
255 253 254 255 253 254 254 252 253 252 252 252 251 251 253
251 251 253 254 254 255 254 254 255 253 254 255 253 255 254
253 254 255 253 255 254 253 254 255 253 255 254 253 253 253
251 249 250 248 248 248 250 250 250 254 254 254 254 255 255
252 254 253 246 250 251 241 242 244 245 246 248 243 244 246
242 243 245 255 255 255 255 255 255 232 232 234 195 195 197
123 120 127 76 73 80 112 109 118 198 195 204 230 229 237 229 227 238
228 226 239 218 216 230 216 214 228 225 222 239 228 227 245
224 222 243 222 223 243 229 230 250 235 236 255 234 235 255
226 229 248 228 234 250 229 236 252 227 236 251 227 236 251
227 239 253 225 238 254 223 236 252 225 238 254 224 237 253
225 237 253 227 236 253 228 235 253 231 236 255 234 237 255
235 238 255 235 238 255 233 236 255 231 234 253 228 231 250
225 228 247 221 224 243 220 221 241 219 220 240 211 212 232
218 219 237 220 221 239 221 224 241 229 230 248 219 222 239
171 174 191 119 121 136 143 143 155 215 215 225 233 233 241
238 239 244 247 246 252 241 240 245 251 249 254 250 248 251
255 250 255 254 249 255 228 222 232 185 177 190 118 110 125 81 72 89
124 115 134 177 168 189 203 193 218 193 184 211 196 187 214
206 197 224 209 201 225 210 202 226 205 197 221 196 191 214
196 191 213 192 187 209 199 196 217 212 209 230 210 207 228
196 193 214 193 190 211 200 197 218 200 197 218 198 195 216
197 194 215 199 196 217 199 196 217 199 196 217 200 196 219
201 197 220 205 201 224 198 194 217 198 194 217 202 198 221
201 197 220 196 192 215 198 194 217 206 202 225 195 191 214
196 192 215 199 195 218 200 198 219 201 199 220 198 199 219
195 197 218 194 196 217 196 198 219 193 195 216 190 191 212
190 188 210 190 188 210 194 190 213 199 195 218 203 198 220
202 191 208 204 193 207 196 185 199 170 159 173 134 126 141
109 101 116 102 94 107 106 98 111 188 182 192 222 217 224 251 246 253
253 251 255 247 245 248 249 247 248 252 251 249 249 248 244
255 255 248 255 255 246 252 249 242 246 246 238 248 245 238
249 249 241 251 250 245 251 250 245 255 255 251 255 255 251
250 252 247 251 253 248 254 255 251 254 255 253 254 255 253
254 255 253 254 255 255 254 255 255 254 255 255 254 255 255
254 255 255 253 255 254 253 255 254 253 255 254 254 255 255
254 255 255 254 255 255 254 255 255 254 255 255 254 255 255
254 255 255 254 255 255 255 255 255 255 255 255 255 255 255
255 255 255 255 255 255 255 255 255 255 255 255 255 255 255
255 255 255 255 255 255 255 255 255 255 255 255 255 255 255
255 255 255 255 255 255 255 255 255 255 255 255 255 255 255
255 255 255 255 255 255 255 255 255 255 255 255 255 255 255
255 255 255 255 255 255 255 255 255 255 255 255 255 255 255
255 255 255 255 255 255 255 255 255 255 255 255 255 255 255
255 255 255 255 255 255 255 255 255 255 255 255 255 255 255
255 255 255 255 255 255 255 255 255 255 255 255 255 255 255
255 255 255 255 255 255 255 255 255 255 255 255 255 255 255
255 255 255 255 255 255 255 255 255 255 255 255 255 255 255
255 255 255 255 255 255 255 255 255 255 255 255 255 255 255
254 254 255 254 254 255 254 254 255 254 254 255 253 253 255
252 253 255 253 254 255 251 255 255 253 255 254 253 255 254
253 255 252 254 254 252 255 254 252 255 254 250 255 252 251
255 251 250 253 249 248 253 249 248 255 249 251 255 251 252
255 250 254 254 250 251 253 249 248 253 249 246 255 251 250
255 252 249 255 253 252 255 254 251 255 254 253 255 254 253
255 252 251 255 253 254 255 254 255 255 254 255 255 252 255
255 253 255 255 251 255 255 253 255 255 255 253 255 255 251
253 252 250 251 250 246 252 251 247 255 252 249 255 252 249
255 252 249 255 253 249 255 252 248 255 250 244 254 249 243
253 250 243 252 252 244 255 253 246 254 255 247 249 255 248
247 255 248 248 255 250 248 255 250 249 255 251 251 255 251
251 255 253 252 255 253 254 255 253 253 253 251 252 252 250
254 253 249 255 254 251 255 254 251 255 254 250 255 255 250
255 255 250 254 255 250 254 255 251 253 255 252 254 254 254
255 255 255 255 254 255 255 254 255 254 251 255 253 250 255
255 250 255 252 250 255 253 251 255 255 253 255 255 254 255
255 254 255 255 254 255 255 254 255 255 254 255 255 255 255
255 255 255 254 255 255 254 255 255 252 255 255 254 255 255
254 255 255 254 255 255 255 255 255 255 255 255 255 254 255
255 254 255 255 254 255 255 255 255 255 255 255 255 255 255
255 255 255 255 255 255 255 255 255 255 255 255 255 255 255
255 255 255 255 255 255 255 255 255 255 255 255 255 255 255
255 255 255 255 255 255 255 255 255 255 255 255 255 255 255
255 255 255 255 255 255 255 255 255 255 255 255 255 255 255
255 255 255 255 255 255 255 255 255 255 255 255 255 255 255
255 255 255 255 255 255 255 255 255 255 254 255 255 254 255
255 254 255 255 253 255 255 253 255 255 251 255 254 252 255
255 253 255 255 254 255 250 249 254 252 253 255 252 255 255
251 255 255 251 255 255 246 255 254 246 254 255 249 255 255
255 254 255 255 254 255 253 251 252 245 245 245 246 247 249
251 255 255 249 255 255 243 253 254 240 248 250 249 255 255
236 241 244 244 248 251 252 253 255 228 227 233 176 173 180 93 92 100
102 102 114 163 165 178 215 217 230 222 224 237 219 218 232
227 226 242 231 230 246 223 222 240 219 218 236 219 217 238
221 219 240 226 224 246 232 230 252 237 235 255 238 236 255
235 236 255 232 235 254 231 236 255 230 237 255 229 238 255
230 239 255 228 240 255 227 240 255 227 240 255 227 240 255
227 240 255 229 241 255 230 239 255 231 238 255 230 235 254
228 233 252 229 232 251 227 230 249 225 228 247 223 224 244
221 222 242 222 223 243 222 223 243 219 218 236 212 211 229
199 198 216 222 221 237 227 226 242 236 238 251 211 210 224
161 163 175 149 151 163 135 135 147 190 188 201 243 240 251
255 252 255 247 241 251 251 244 252 252 245 252 243 236 243
247 240 247 255 249 255 255 245 254 187 177 188 94 83 97 105 94 111
155 143 163 163 151 171 188 176 198 192 179 205 194 184 209
211 201 226 203 193 218 190 180 205 189 181 205 181 173 197
182 174 198 189 184 207 206 201 224 207 204 225 197 194 215
194 191 212 187 184 205 183 181 202 190 188 210 197 195 219
197 194 221 197 194 221 197 194 221 196 193 220 196 193 220
197 195 219 199 197 221 198 196 220 202 200 224 201 199 223
195 193 217 195 193 217 200 198 222 201 199 223 196 192 217
206 200 226 195 189 215 187 181 207 190 185 208 197 192 215
202 197 220 202 199 220 202 199 220 191 188 207 192 189 208
194 190 207 196 192 209 201 197 214 204 200 217 200 196 213
194 190 204 167 162 169 131 129 134 94 92 97 88 86 91 121 119 124
173 171 176 220 218 223 245 243 248 255 253 255 254 252 255
252 250 253 250 250 252 248 248 248 247 247 247 247 247 247
247 247 245 252 251 249 249 248 244 246 245 243 244 244 242
247 246 244 249 249 247 251 251 249 251 251 249 255 255 253
255 255 253 255 255 253 255 255 253 255 255 253 255 255 255
255 255 255 255 255 255 255 255 255 255 255 255 255 255 255
255 255 255 255 255 255 255 255 255 255 255 255 255 255 255
255 255 255 255 255 255 255 255 255 255 255 255 255 255 255
255 255 255 255 255 255 255 255 255 255 255 255 255 255 255
255 255 255 255 255 255 255 255 255 255 255 255 255 255 255
255 255 255 255 255 255 255 255 255 255 255 255 255 255 255
255 255 255 255 255 255 255 255 255 255 255 255 255 255 255
255 255 255 255 255 255 255 255 255 255 255 255 255 255 255
255 255 255 255 255 255 255 255 255 255 255 255 255 255 255
255 255 255 255 255 255 255 255 255 255 255 255 255 255 255
255 255 255 255 255 255 255 255 255 255 255 255 255 255 255
255 255 255 255 255 255 255 255 255 255 255 255 255 255 255
255 255 255 255 255 255 255 255 255 255 255 255 255 255 255
255 255 255 255 255 255 255 255 255 255 255 255 255 255 255
255 255 255 255 255 255 255 255 255 255 255 255 255 255 255
255 255 255 254 254 255 254 254 255 254 254 255 254 254 255
253 253 255 253 253 255 253 254 255 253 255 254 253 255 254
254 254 252 254 254 252 255 254 250 255 253 250 255 253 250
255 253 250 255 252 249 255 250 250 255 251 251 255 251 254
255 252 254 255 250 255 255 250 252 255 251 251 255 252 249
255 252 249 255 252 249 255 252 249 255 252 249 255 251 248
253 252 248 250 249 245 253 252 250 255 254 255 255 255 255
255 255 255 254 254 255 251 251 253 248 248 250 245 247 244
246 251 245 252 254 249 255 255 251 255 255 251 255 255 250
255 253 250 255 252 247 255 255 250 255 255 250 255 254 248
255 255 248 255 255 248 255 255 248 255 255 246 254 255 246
248 255 248 244 255 247 244 255 245 243 255 246 243 255 245
245 255 247 249 255 251 250 255 252 252 255 253 254 255 253
255 255 251 255 255 250 255 255 250 255 255 248 255 253 246
249 249 241 255 255 248 254 255 248 254 255 250 253 255 250
254 254 254 253 253 255 254 252 255 254 251 255 255 250 255
255 250 255 255 250 255 255 251 255 255 253 255 255 253 255
255 254 255 255 254 255 255 254 255 255 254 255 255 254 255
255 255 255 255 255 255 254 255 255 252 255 255 252 255 255
252 255 255 252 255 255 254 255 255 254 255 255 255 254 255
255 254 255 255 254 255 255 254 255 255 254 255 255 255 255
255 255 255 255 255 255 255 255 255 255 255 255 255 255 255
255 255 255 255 255 255 255 255 255 255 255 255 255 255 255
255 255 255 255 255 255 255 255 255 255 255 255 255 255 255
255 255 255 255 255 255 255 255 255 255 255 255 255 255 255
255 255 255 255 255 255 255 255 255 255 255 255 255 255 255
255 255 255 255 255 255 255 255 255 255 255 255 255 254 255
255 254 255 255 254 255 255 253 255 255 253 255 255 252 255
254 252 255 255 254 255 255 254 255 254 255 255 252 255 255
249 254 255 246 254 255 246 254 255 246 255 255 246 255 255
248 255 255 251 251 251 249 247 248 254 252 253 254 255 255
252 255 255 243 252 251 238 248 249 245 255 255 248 255 255
231 241 243 249 255 255 251 255 255 211 211 219 142 141 149 96 93 102
122 120 131 171 173 188 195 198 215 218 219 237 220 221 239
216 217 235 219 218 236 221 219 240 219 217 238 224 222 243
224 222 243 226 224 246 227 228 249 232 233 254 235 236 255
235 235 255 234 235 255 234 237 255 232 237 255 232 237 255
232 239 255 231 240 255 229 241 255 230 242 255 229 242 255
229 242 255 228 241 255 228 240 255 229 238 255 227 234 252
224 231 249 222 227 246 220 225 244 223 226 245 218 221 240
215 216 236 215 216 236 218 216 237 220 218 239 221 220 238
221 220 238 224 221 238 224 221 238 211 210 224 210 210 222
197 197 207 132 132 142 120 123 130 207 207 215 242 239 250
253 247 255 250 242 255 253 245 255 255 247 255 251 241 250
254 244 252 255 249 255 226 214 224 192 180 192 148 137 151
102 91 107 114 102 122 167 155 177 185 173 195 193 181 205
199 186 212 203 193 218 215 205 230 206 196 221 177 167 192
128 120 144 115 107 131 163 158 181 189 184 207 196 191 214
203 200 221 174 171 192 127 124 145 133 130 151 174 172 193
192 190 212 199 196 223 199 196 225 199 196 225 199 196 225
198 195 224 199 196 223 199 196 223 200 197 224 193 190 217
193 191 215 199 197 221 206 204 228 203 201 225 193 191 215
193 191 215 201 197 222 188 182 208 194 185 212 200 191 218
203 195 219 199 191 215 196 188 211 200 192 215 208 200 221
211 204 222 217 210 226 222 215 231 215 209 223 196 190 204
164 158 170 123 117 129 92 89 98 89 87 90 117 117 117 160 160 160
200 200 200 227 227 227 242 242 242 250 250 250 255 255 255
251 251 251 251 251 251 250 250 250 250 250 250 250 250 250
250 250 250 249 249 249 249 249 249 250 250 250 248 248 248
247 247 247 247 247 247 248 248 248 248 248 248 247 247 247
245 245 245 255 255 255 255 255 255 255 255 255 255 255 255
255 255 255 255 255 255 255 255 255 255 255 255 255 255 255
255 255 255 255 255 255 255 255 255 255 255 255 255 255 255
255 255 255 255 255 255 255 255 255 255 255 255 255 255 255
255 255 255 255 255 255 255 255 255 255 255 255 255 255 255
255 255 255 255 255 255 255 255 255 255 255 255 255 255 255
255 255 255 255 255 255 255 255 255 255 255 255 255 255 255
255 255 255 255 255 255 255 255 255 255 255 255 255 255 255
255 255 255 255 255 255 255 255 255 255 255 255 255 255 255
255 255 255 255 255 255 255 255 255 255 255 255 255 255 255
255 255 255 255 255 255 255 255 255 255 255 255 255 255 255
255 255 255 255 255 255 255 255 255 255 255 255 255 255 255
255 255 255 255 255 255 255 255 255 255 255 255 255 255 255
255 255 255 255 255 255 255 255 255 255 255 255 255 255 255
255 255 255 255 255 255 255 255 255 255 255 255 255 255 255
255 255 255 255 255 255 255 255 255 255 255 255 255 255 255
255 255 255 255 255 255 255 255 255 254 254 255 254 254 255
254 254 255 254 254 255 253 253 255 253 253 255 254 254 254
254 254 254 254 254 254 255 254 252 255 254 252 255 253 250
255 253 250 255 254 249 255 253 249 255 252 248 255 252 249
255 253 250 255 253 253 255 254 253 255 251 253 255 251 252
254 253 251 254 253 251 253 253 251 253 253 251 252 253 248
252 253 248 251 254 247 250 253 246 254 255 250 252 255 251
248 253 247 244 251 244 244 251 244 248 255 248 251 255 251
249 255 253 248 255 253 247 255 253 248 255 253 249 255 253
249 255 251 250 255 249 251 255 252 254 255 251 250 252 247
251 253 248 253 254 249 252 254 249 252 254 249 249 254 248
247 252 246 246 251 245 240 250 241 243 253 244 249 255 250
249 255 251 249 255 251 251 255 253 249 255 251 246 252 248
247 253 249 246 251 247 245 250 244 246 251 244 249 255 245
254 255 246 254 255 246 254 255 246 254 255 246 254 255 248
254 255 249 254 255 250 254 253 251 254 252 253 255 251 255
255 251 255 255 250 255 255 250 255 255 250 255 255 251 255
255 252 255 255 253 254 255 254 255 255 254 253 255 254 255
255 254 255 255 254 255 255 255 255 255 255 255 254 255 255
252 255 255 252 255 255 252 255 255 252 255 255 254 255 255
254 255 255 255 254 255 255 254 255 255 254 255 255 254 255
255 254 255 255 255 255 255 255 255 255 255 255 255 255 255
255 255 255 255 255 255 255 255 255 255 255 255 255 255 255
255 255 255 255 255 255 255 255 255 255 255 255 255 255 255
255 255 255 255 255 255 255 255 255 255 255 255 255 255 255
255 255 255 255 255 255 255 255 255 255 255 255 255 255 255
255 255 255 255 255 255 255 255 255 255 255 255 255 255 255
255 255 255 255 255 255 254 252 253 255 253 254 255 253 254
254 252 253 252 250 253 252 250 253 253 251 254 253 253 255
254 255 255 251 255 255 247 253 253 245 254 253 248 255 255
248 255 255 245 255 255 244 254 253 250 254 253 245 247 246
238 239 241 235 239 240 241 247 247 250 255 255 249 255 255
248 255 255 238 246 249 248 253 255 251 255 255 174 177 182 96 96 104
91 90 98 137 136 144 216 214 225 225 222 239 216 213 232 212 209 228
217 214 233 221 218 237 218 215 234 217 214 235 220 217 238
222 220 241 222 220 241 221 222 242 224 227 246 228 230 251
230 232 253 231 233 254 230 232 253 231 234 253 229 234 253
229 234 253 229 236 254 228 237 254 226 238 254 227 239 255
227 239 255 226 238 254 226 238 254 226 235 252 224 233 250
222 229 247 220 225 244 220 223 242 218 221 240 220 223 242
214 217 236 213 214 234 217 218 238 218 219 237 216 217 235
221 220 238 227 226 244 213 212 228 214 213 229 228 226 240
186 184 197 141 141 151 140 140 150 171 171 179 244 243 251
255 253 255 254 248 255 244 236 249 255 250 255 255 248 255
249 242 250 255 251 255 242 232 241 209 199 210 109 99 110 88 77 91
132 121 137 163 154 173 186 177 198 197 187 211 201 191 216
207 197 222 202 192 219 197 187 214 184 175 202 152 143 170 87 78 105
86 77 104 176 170 196 204 199 222 192 188 211 200 196 219 159 155 178
86 84 106 108 106 128 179 177 198 193 191 213 199 197 221 199 196 223
198 195 222 198 195 222 198 195 222 198 195 222 198 195 222
198 196 220 203 201 225 199 197 221 193 191 215 191 189 211
196 194 216 204 202 224 206 204 226 205 201 224 198 193 216
198 190 213 202 194 217 209 201 222 213 205 226 209 202 220
203 196 214 200 193 209 218 211 227 196 190 204 160 154 168
128 122 134 116 110 122 123 117 127 134 128 138 139 136 143
199 197 200 222 222 222 250 250 250 255 255 255 255 255 255
249 249 249 248 248 248 251 251 251 247 247 247 248 248 248
250 250 250 252 252 252 253 253 253 253 253 253 252 252 252
252 252 252 246 246 246 246 246 246 248 248 248 250 250 250
251 251 251 250 250 250 246 246 246 244 244 244 255 255 255
255 255 255 255 255 255 255 255 255 255 255 255 255 255 255
255 255 255 255 255 255 255 255 255 255 255 255 255 255 255
255 255 255 255 255 255 255 255 255 255 255 255 255 255 255
255 255 255 255 255 255 255 255 255 255 255 255 255 255 255
255 255 255 255 255 255 255 255 255 255 255 255 255 255 255
255 255 255 255 255 255 255 255 255 255 255 255 255 255 255
255 255 255 255 255 255 255 255 255 255 255 255 255 255 255
255 255 255 255 255 255 255 255 255 255 255 255 255 255 255
255 255 255 255 255 255 255 255 255 255 255 255 255 255 255
255 255 255 255 255 255 255 255 255 255 255 255 255 255 255
255 255 255 255 255 255 255 255 255 255 255 255 255 255 255
255 255 255 255 255 255 255 255 255 255 255 255 255 255 255
255 255 255 255 255 255 255 255 255 255 255 255 255 255 255
255 255 255 255 255 255 255 255 255 255 255 255 255 255 255
255 255 255 255 255 255 255 255 255 255 255 255 255 255 255
255 255 255 255 255 255 255 255 255 255 255 255 255 255 255
255 255 255 254 254 255 254 254 255 254 254 255 254 254 255
253 253 255 253 253 255 255 253 254 255 254 252 255 253 252
255 253 250 255 253 250 255 254 249 255 254 249 255 254 249
255 254 249 255 252 247 253 250 245 251 250 246 252 251 247
254 253 251 253 252 250 253 252 250 250 250 248 249 251 248
250 252 249 248 253 249 251 253 250 250 255 249 250 255 249
250 255 249 245 252 244 247 254 246 247 255 248 249 255 250
248 255 250 246 255 248 241 253 243 238 249 241 244 255 249
244 255 251 246 252 250 243 249 249 245 246 248 247 248 250
252 252 254 255 254 255 255 253 255 255 253 255 255 252 255
255 253 255 255 254 255 255 254 255 255 254 255 255 254 255
255 254 255 255 255 255 252 252 252 247 247 247 247 247 249
251 251 253 254 255 255 254 255 255 252 255 255 252 255 253
251 255 251 249 255 248 248 255 245 248 255 243 249 255 242
250 255 243 250 253 242 251 254 243 252 253 245 253 254 248
254 253 249 255 254 252 255 253 254 255 252 255 255 250 254
254 249 253 253 248 252 253 249 250 254 250 251 255 251 250
255 253 252 255 254 253 255 254 255 255 254 255 255 254 255
255 255 255 255 255 255 254 255 255 252 255 255 252 255 255
252 255 255 252 255 255 254 255 255 254 255 255 255 254 255
255 254 255 255 254 255 255 254 255 255 255 255 255 255 255
255 255 255 255 255 255 255 255 255 255 255 255 255 255 255
255 255 255 255 255 255 255 255 255 255 255 255 255 255 255
255 255 255 255 255 255 255 255 255 255 255 255 255 255 255
255 255 255 255 255 255 255 255 255 255 255 255 255 255 255
255 255 255 255 255 255 255 255 255 255 255 255 255 255 255
255 255 255 255 255 255 255 255 255 255 255 255 255 255 255
254 254 254 255 255 255 255 254 255 253 253 253 252 250 251
251 251 253 252 252 254 252 253 255 248 252 253 248 252 253
248 254 254 250 255 255 249 255 255 248 255 255 245 255 254
242 252 251 251 255 255 251 255 255 246 250 251 242 246 247
249 250 254 254 255 255 254 255 255 248 249 253 254 255 255
236 237 242 143 144 149 80 81 86 88 88 96 152 152 160 223 223 231
224 222 233 232 228 245 218 213 233 211 206 226 219 214 234
225 222 241 222 219 238 218 215 236 218 216 237 211 209 230
211 212 232 212 215 234 214 219 238 217 222 242 219 226 245
222 227 247 222 227 247 223 226 245 223 226 245 224 227 246
222 227 246 221 228 246 221 230 247 221 230 247 219 231 247
219 228 245 219 228 245 219 228 245 219 226 244 220 225 244
219 224 243 220 223 242 220 223 242 217 220 239 212 215 234
214 215 235 221 222 240 222 223 241 215 216 234 216 215 233
222 221 237 212 211 227 213 212 226 206 204 217 145 143 156
125 123 134 195 195 205 241 240 248 237 236 244 245 239 249
255 249 255 250 242 253 253 246 254 244 237 245 254 247 255
255 252 255 203 195 206 165 155 166 83 75 88 89 78 94 161 152 169
196 187 208 198 188 212 201 191 216 204 194 221 213 203 230
193 184 211 178 169 196 156 150 176 136 127 154 108 102 128
125 119 145 195 191 216 209 205 228 190 186 209 187 183 206
157 155 177 115 113 135 148 146 168 202 200 221 200 198 220
200 198 222 199 197 221 199 196 223 199 197 221 200 197 224
200 198 222 199 197 221 197 195 217 194 192 216 194 192 214
197 195 217 202 200 221 203 201 223 199 197 218 194 192 214
192 189 210 203 198 218 200 192 213 200 193 211 207 200 218
211 204 220 204 197 213 190 184 198 180 174 188 124 118 130
118 112 124 111 105 115 116 110 120 145 140 147 190 185 192
232 227 234 253 251 255 246 244 247 248 248 248 251 251 251
253 253 253 253 253 253 253 253 253 255 255 255 255 255 255
246 246 246 248 248 248 251 251 251 253 253 253 255 255 255
254 254 254 254 254 254 253 253 253 244 244 244 245 245 245
247 247 247 250 250 250 253 253 253 254 254 254 251 251 251
249 249 249 255 255 255 255 255 255 255 255 255 255 255 255
255 255 255 255 255 255 255 255 255 255 255 255 255 255 255
255 255 255 255 255 255 255 255 255 255 255 255 255 255 255
255 255 255 255 255 255 255 255 255 255 255 255 255 255 255
255 255 255 255 255 255 255 255 255 255 255 255 255 255 255
255 255 255 255 255 255 255 255 255 255 255 255 255 255 255
255 255 255 255 255 255 255 255 255 255 255 255 255 255 255
255 255 255 255 255 255 255 255 255 255 255 255 255 255 255
255 255 255 255 255 255 255 255 255 255 255 255 255 255 255
255 255 255 255 255 255 255 255 255 255 255 255 255 255 255
255 255 255 255 255 255 255 255 255 255 255 255 255 255 255
255 255 255 255 255 255 255 255 255 255 255 255 255 255 255
255 255 255 255 255 255 255 255 255 255 255 255 255 255 255
255 255 255 255 255 255 255 255 255 255 255 255 255 255 255
255 255 255 255 255 255 255 255 255 255 255 255 255 255 255
255 255 255 255 255 255 255 255 255 255 255 255 255 255 255
255 255 255 255 255 255 255 255 255 254 254 255 254 254 255
254 254 255 254 254 255 253 253 255 254 252 255 255 253 254
255 253 252 255 252 252 255 253 250 255 253 250 255 254 249
255 254 249 255 255 247 254 254 246 250 251 243 246 247 239
245 246 240 246 247 241 249 250 245 251 252 247 250 252 249
248 253 249 247 251 250 247 251 250 246 252 248 247 252 248
247 253 249 249 255 251 249 255 249 251 255 251 249 255 251
249 255 250 249 255 250 249 255 250 249 255 250 249 255 248
250 255 250 243 243 245 249 246 253 255 252 255 255 251 255
255 250 255 255 250 255 255 247 255 255 243 255 255 241 255
255 240 255 255 238 255 255 238 255 255 239 255 255 242 255
255 245 255 255 247 255 255 239 255 255 242 255 255 245 255
255 248 255 255 248 255 255 248 255 255 248 255 253 248 254
247 245 250 248 249 251 250 255 251 251 255 251 251 255 248
247 255 244 245 255 240 245 253 238 250 254 240 252 254 243
252 253 245 253 254 248 253 254 248 252 253 248 252 251 249
251 249 250 254 252 253 252 250 251 249 247 248 247 246 244
250 246 245 253 249 248 255 253 252 255 254 253 255 254 255
255 254 255 255 254 255 255 255 255 255 255 255 254 255 255
254 255 255 254 255 255 254 255 255 254 255 255 254 255 255
254 255 255 255 254 255 255 254 255 255 254 255 255 254 255
255 255 255 255 255 255 255 255 255 255 255 255 255 255 255
255 255 255 255 255 255 255 255 255 255 255 255 255 255 255
255 255 255 255 255 255 255 255 255 255 255 255 255 255 255
255 255 255 255 255 255 255 255 255 255 255 255 255 255 255
255 255 255 255 255 255 255 255 255 255 255 255 255 255 255
255 255 255 255 255 255 255 255 255 255 255 255 255 255 255
255 255 255 255 255 255 255 255 253 254 255 253 255 255 253
254 255 253 254 254 252 252 254 253 253 255 254 252 255 255
245 249 248 246 252 250 248 254 252 247 253 251 246 252 252
244 253 252 245 254 253 247 255 255 241 247 247 241 245 248
243 244 248 245 244 249 245 242 249 247 242 249 255 248 255
255 252 255 211 205 215 144 138 148 82 79 88 132 131 139 198 198 208
213 216 225 222 226 235 209 211 223 226 221 241 226 218 241
222 217 239 222 217 239 222 219 240 221 218 239 216 214 235
210 211 231 208 209 229 209 212 231 209 214 233 210 217 235
212 219 237 213 222 239 215 222 240 216 223 241 217 219 240
217 219 240 217 219 240 215 220 240 216 221 241 215 222 241
215 222 241 214 222 241 214 221 240 214 221 240 214 221 240
216 221 241 216 221 241 219 221 242 221 222 243 221 222 243
217 218 238 212 213 233 212 213 231 217 218 236 218 219 237
213 215 230 214 213 229 218 217 231 233 232 246 200 200 212
126 124 137 120 118 129 184 182 193 232 230 241 250 247 255
243 240 249 247 241 251 255 250 255 250 243 251 249 242 250
245 240 247 250 245 252 230 224 234 155 149 159 85 77 90 117 111 125
152 143 162 174 166 187 185 177 200 195 187 211 204 195 222
202 193 222 205 196 225 184 178 206 175 169 197 137 133 160
113 107 135 141 137 164 176 172 197 192 188 213 201 197 222
189 187 211 173 171 193 159 157 179 166 164 186 194 195 216
211 212 232 205 206 226 202 200 222 201 199 221 200 198 222
201 199 221 202 200 224 202 200 222 200 198 220 197 195 216
198 196 218 193 191 212 198 196 217 208 207 225 199 197 218
181 180 198 186 184 205 207 204 223 210 206 221 216 210 224
217 211 225 204 198 212 172 166 178 134 128 140 108 102 112 97 91 101
118 113 120 144 139 146 182 177 183 219 214 220 249 244 250
255 253 255 255 253 255 255 254 255 255 254 255 255 255 255
250 250 250 251 251 251 255 255 255 253 253 253 245 245 245
237 237 237 249 249 249 251 251 251 253 253 253 255 255 255
255 255 255 254 254 254 253 253 253 252 252 252 249 249 249
248 248 248 249 249 249 251 251 251 254 254 254 255 255 255
255 255 255 254 254 254 255 255 255 255 255 255 255 255 255
255 255 255 255 255 255 255 255 255 255 255 255 255 255 255
255 255 255 255 255 255 255 255 255 255 255 255 255 255 255
255 255 255 255 255 255 255 255 255 255 255 255 255 255 255
255 255 255 255 255 255 255 255 255 255 255 255 255 255 255
255 255 255 255 255 255 255 255 255 255 255 255 255 255 255
255 255 255 255 255 255 255 255 255 255 255 255 255 255 255
255 255 255 255 255 255 255 255 255 255 255 255 255 255 255
255 255 255 255 255 255 255 255 255 255 255 255 255 255 255
255 255 255 255 255 255 255 255 255 255 255 255 255 255 255
255 255 255 255 255 255 255 255 255 255 255 255 255 255 255
255 255 255 255 255 255 255 255 255 255 255 255 255 255 255
255 255 255 255 255 255 255 255 255 255 255 255 255 255 255
255 255 255 255 255 255 255 255 255 255 255 255 255 255 255
255 255 255 255 255 255 255 255 255 255 255 255 255 255 255
255 255 255 255 255 255 255 255 255 255 255 255 255 255 255
255 255 255 255 255 255 255 255 255 255 255 255 254 254 255
254 254 255 254 254 255 254 254 255 253 253 255 254 252 253
255 253 252 255 253 252 255 253 250 255 253 250 255 254 249
255 254 249 254 255 247 254 255 247 252 255 246 249 252 243
245 248 239 241 247 237 245 248 241 245 250 243 249 251 246
248 253 249 251 255 254 250 254 253 248 252 251 246 250 249
248 250 249 248 250 249 248 249 251 249 250 252 252 252 254
249 249 249 246 246 246 247 247 247 251 249 250 254 252 253
254 252 253 255 249 254 255 246 255 255 240 255 255 232 255
255 227 254 255 218 249 250 211 242 243 202 236 240 196 231
233 187 224 232 186 225 229 183 222 228 181 223 230 183 225
233 186 228 238 191 235 240 195 236 255 218 254 255 225 255
255 231 255 255 236 255 255 238 255 255 236 255 255 231 255
248 229 248 255 244 255 255 247 255 255 250 255 253 251 252
251 251 249 251 254 247 250 255 248 252 255 248 252 254 243
254 254 244 254 254 246 253 254 248 252 253 247 250 251 246
248 249 244 246 246 244 253 253 251 250 250 248 248 248 246
246 246 244 248 247 245 251 250 246 254 253 249 255 255 251
255 255 253 255 254 255 255 254 255 255 255 255 255 255 255
254 255 255 254 255 255 254 255 255 254 255 255 254 255 255
254 255 255 255 255 255 255 255 255 255 254 255 255 254 255
255 254 255 255 255 255 255 255 255 255 255 255 255 255 255
255 255 255 255 255 255 255 255 255 255 255 255 255 255 255
255 255 255 255 255 255 255 255 255 255 255 255 255 255 255
255 255 255 255 255 255 255 255 255 255 255 255 255 255 255
255 255 255 255 255 255 255 255 255 255 255 255 255 255 255
255 255 255 255 255 255 255 255 255 255 255 255 255 255 255
255 255 255 255 255 255 255 255 255 253 255 252 253 255 252
253 255 252 251 253 250 249 251 248 248 250 247 246 250 249
248 252 251 249 253 252 249 253 252 246 250 249 242 246 247
238 242 243 240 244 247 249 250 254 254 255 255 251 250 255
255 253 255 255 249 255 245 235 246 250 238 250 255 243 255
231 213 227 189 171 185 114 97 113 117 105 119 178 167 181
220 217 228 232 232 244 219 223 234 197 206 215 225 231 243
215 213 234 223 219 242 224 220 243 215 213 235 212 210 232
213 214 234 214 216 237 210 213 232 214 219 238 215 220 239
215 222 240 215 222 240 213 222 239 212 221 238 212 221 238
214 221 239 215 217 238 216 217 238 216 217 238 216 218 239
216 218 239 214 219 239 215 220 240 214 221 240 214 221 240
213 220 239 214 219 239 213 218 238 216 218 239 216 218 239
218 219 240 218 219 240 222 223 243 218 219 239 213 214 232
213 214 232 216 218 233 218 220 233 220 219 233 218 218 230
195 195 207 149 149 159 115 113 124 173 171 182 228 225 236
236 233 244 254 251 255 249 243 253 250 243 251 246 239 246
246 239 246 255 249 255 255 253 255 225 220 227 154 148 158
100 97 108 78 72 86 148 144 159 182 174 195 187 179 202 195 187 211
198 189 216 204 195 224 204 195 224 185 179 207 171 167 194
163 159 186 111 107 134 84 80 107 149 145 172 202 198 223 194 192 216
204 202 226 206 204 226 183 181 203 171 169 191 190 191 212
202 203 223 197 198 218 202 203 223 198 196 217 196 194 215
195 193 215 197 195 216 199 197 218 198 196 217 195 193 214
191 190 208 195 194 212 204 203 221 204 203 221 197 196 212
203 202 218 216 215 231 211 210 226 194 192 206 208 205 216
183 177 187 145 139 149 115 109 119 104 99 106 116 111 118
145 140 146 170 165 171 229 224 230 238 233 237 248 243 247
255 251 252 255 254 255 255 254 255 255 253 254 249 248 246
255 255 255 254 254 254 251 251 251 251 251 251 254 254 254
255 255 255 255 255 255 255 255 255 253 253 253 254 254 254
255 255 255 255 255 255 255 255 255 254 254 254 253 253 253
252 252 252 255 255 255 254 254 254 252 252 252 251 251 251
253 253 253 254 254 254 254 254 254 254 254 254 255 255 255
255 255 255 255 255 255 255 255 255 255 255 255 255 255 255
255 255 255 255 255 255 255 255 255 255 255 255 255 255 255
255 255 255 255 255 255 255 255 255 255 255 255 255 255 255
255 255 255 255 255 255 255 255 255 255 255 255 255 255 255
255 255 255 255 255 255 255 255 255 255 255 255 255 255 255
255 255 255 255 255 255 255 255 255 255 255 255 255 255 255
255 255 255 255 255 255 255 255 255 255 255 255 255 255 255
255 255 255 255 255 255 255 255 255 255 255 255 255 255 255
255 255 255 255 255 255 255 255 255 255 255 255 255 255 255
255 255 255 255 255 255 255 255 255 255 255 255 255 255 255
255 255 255 255 255 255 255 255 255 255 255 255 255 255 255
255 255 255 255 255 255 255 255 255 255 255 255 255 255 255
255 255 255 255 255 255 255 255 255 255 255 255 255 255 255
255 255 255 255 255 255 255 255 255 255 255 255 255 255 255
255 255 255 255 255 255 255 255 255 255 255 255 255 255 255
255 255 255 255 255 255 255 255 255 255 255 255 255 255 255
255 255 255 254 254 254 254 254 254 254 254 254 254 254 254
253 253 253 253 253 253 255 254 252 255 254 252 255 254 250
254 255 250 254 255 249 253 255 247 251 255 247 251 255 247
249 255 245 248 254 244 246 251 244 245 252 244 248 253 247
248 255 248 248 253 249 247 252 248 253 255 254 252 254 253
251 251 253 250 248 251 251 246 252 252 245 253 254 244 255
255 244 255 255 247 255 255 247 255 255 247 255 255 247 255
255 240 255 249 224 246 230 202 225 220 184 212 190 135 175
182 119 164 167 99 148 154 86 135 152 79 132 151 76 132 152 74 132
151 71 130 152 70 132 151 69 133 151 66 133 150 65 133 151 66 134
153 68 136 156 70 141 155 74 141 144 74 134 139 74 128 140 77 130
149 89 141 171 115 164 201 149 195 231 184 228 247 207 244
254 221 252 255 227 255 255 235 255 255 241 255 255 243 253
255 244 250 254 245 250 252 246 246 253 248 244 253 250 245
254 251 246 253 252 248 252 253 248 251 252 247 249 250 245
247 249 244 250 252 247 250 252 247 247 252 246 247 252 246
248 253 247 249 254 248 253 255 250 254 255 251 255 255 253
255 255 255 255 255 255 255 255 255 255 255 255 255 255 255
255 255 255 255 255 255 255 255 255 255 255 255 255 255 255
255 255 255 255 255 255 255 255 255 255 255 255 255 255 255
255 255 255 255 255 255 255 255 255 255 255 255 255 255 255
255 255 255 255 255 255 255 255 255 255 255 255 255 255 255
255 255 255 255 255 255 255 255 255 255 255 255 255 255 255
255 255 255 255 255 255 255 255 255 255 255 255 255 255 255
255 255 255 255 255 255 255 255 255 255 255 255 255 255 255
255 255 255 255 255 255 255 255 255 255 255 255 255 255 255
255 255 255 255 255 255 250 252 249 249 254 250 248 253 249
246 251 247 244 249 245 243 248 244 244 249 245 245 250 246
250 254 253 250 252 251 248 248 250 245 244 249 244 242 247
243 240 247 247 242 249 249 241 252 238 226 240 248 231 249
255 236 255 255 240 255 255 236 255 232 202 226 161 129 153 93 63 87
141 113 136 186 164 185 239 224 243 221 214 230 206 208 221
220 228 239 203 216 225 201 213 225 208 213 233 214 216 239
214 216 239 208 213 235 208 213 235 211 218 237 215 221 243
214 222 241 216 224 243 217 225 244 218 227 244 217 226 243
215 222 240 213 220 238 213 220 236 215 220 239 216 217 238
217 218 239 217 218 239 216 218 239 217 219 240 215 220 240
215 220 240 215 220 240 215 220 240 214 219 239 215 217 238
214 216 237 215 216 237 216 217 238 219 217 239 220 218 240
220 218 239 222 220 241 217 218 236 213 214 232 217 219 234
221 223 236 213 215 227 200 203 212 131 131 141 124 124 132
180 179 187 242 239 248 242 236 246 246 240 250 255 252 255
241 234 242 242 235 242 242 232 240 249 242 249 248 241 248
245 240 247 179 173 183 84 81 92 87 85 98 136 132 147 166 163 180
178 173 195 201 196 219 213 207 233 200 194 222 202 193 222
198 191 222 168 163 193 158 155 184 150 147 176 113 110 139
104 101 128 160 157 184 201 199 223 202 202 226 209 210 231
211 212 233 194 195 216 185 186 206 195 196 216 193 194 214
188 189 209 198 199 217 196 195 213 195 192 211 194 191 212
195 192 211 198 195 214 197 194 213 193 190 209 189 186 203
180 177 194 204 201 218 214 211 228 205 203 217 206 204 218
210 208 222 179 177 191 134 132 145 101 98 105 103 101 106
118 116 121 150 148 153 188 186 189 221 219 222 245 243 246
255 254 255 255 253 254 254 253 251 247 246 244 241 240 238
242 241 239 251 250 246 255 255 251 255 255 251 253 253 251
255 255 255 255 255 255 255 255 255 253 253 253 249 249 249
247 247 247 247 247 247 255 255 255 255 255 255 255 255 255
255 255 255 254 254 254 254 254 254 253 253 253 253 253 253
255 255 255 255 255 255 253 253 253 252 252 252 253 253 253
254 254 254 253 253 253 252 252 252 255 255 255 255 255 255
255 255 255 255 255 255 255 255 255 255 255 255 255 255 255
255 255 255 255 255 255 255 255 255 255 255 255 255 255 255
255 255 255 255 255 255 255 255 255 255 255 255 255 255 255
255 255 255 255 255 255 255 255 255 255 255 255 255 255 255
255 255 255 255 255 255 255 255 255 255 255 255 255 255 255
255 255 255 255 255 255 255 255 255 255 255 255 255 255 255
255 255 255 255 255 255 255 255 255 255 255 255 255 255 255
255 255 255 255 255 255 255 255 255 255 255 255 255 255 255
255 255 255 255 255 255 255 255 255 255 255 255 255 255 255
255 255 255 255 255 255 255 255 255 255 255 255 255 255 255
255 255 255 255 255 255 255 255 255 255 255 255 255 255 255
255 255 255 255 255 255 255 255 255 255 255 255 255 255 255
255 255 255 255 255 255 255 255 255 255 255 255 255 255 255
255 255 255 255 255 255 255 255 255 255 255 255 255 255 255
255 255 255 255 255 255 255 255 255 255 255 255 255 255 255
255 255 255 255 255 255 255 255 255 255 255 255 255 255 255
254 254 254 254 254 254 254 254 254 254 254 254 253 253 253
253 253 253 254 254 252 254 254 252 253 255 250 253 255 250
251 255 249 251 255 247 250 255 247 250 255 247 248 255 247
248 255 247 249 255 249 252 255 251 252 255 253 252 255 253
249 253 252 250 250 250 254 249 253 254 248 252 255 245 253
255 243 253 255 241 255 255 240 255 255 240 255 255 239 255
255 222 255 237 197 234 205 160 201 173 126 170 152 100 146
137 83 132 129 73 122 130 63 117 139 55 117 138 43 111 132 35 106
135 35 107 144 42 116 153 49 126 158 49 130 157 48 131 161 49 135
160 47 135 161 46 137 160 45 138 160 45 138 160 45 140 161 46 141
157 48 139 149 51 134 142 51 128 136 48 124 129 46 118 128 46 118
126 51 118 127 57 120 126 63 120 149 92 145 171 122 167 208 163 204
240 203 236 255 226 255 255 234 255 255 233 255 254 231 247
252 237 244 251 241 242 253 244 245 255 249 249 255 252 251
255 254 252 253 253 251 252 254 251 247 252 248 247 254 247
249 255 249 249 255 251 249 255 251 249 255 251 250 255 249
250 255 249 254 255 253 255 255 255 255 255 255 255 255 255
255 255 255 255 255 255 255 255 255 255 255 255 255 255 255
255 255 255 255 255 255 255 255 255 255 255 255 255 255 255
255 255 255 255 255 255 255 255 255 255 255 255 255 255 255
255 255 255 255 255 255 255 255 255 255 255 255 255 255 255
255 255 255 255 255 255 255 255 255 255 255 255 255 255 255
255 255 255 255 255 255 255 255 255 255 255 255 255 255 255
255 255 255 255 255 255 255 255 255 255 255 255 255 255 255
255 255 255 255 255 255 255 255 255 255 255 255 255 255 255
255 255 255 255 255 255 255 255 255 254 255 255 254 255 253
252 255 253 252 255 253 251 255 252 248 253 249 247 252 248
250 252 249 251 253 252 249 249 249 250 248 251 253 248 254
255 248 255 255 247 255 253 241 255 245 231 248 242 220 241
178 150 175 149 114 144 170 130 164 225 184 218 217 171 207
144 97 133 115 68 104 143 97 133 194 154 188 218 185 216 209 186 214
212 200 224 213 210 231 211 218 236 225 238 254 208 221 238
216 224 247 213 220 246 212 219 245 213 223 248 215 226 248
214 225 247 213 225 247 213 226 245 209 222 241 212 223 241
216 224 243 215 224 241 213 220 238 213 218 237 213 219 235
217 220 239 216 217 238 218 216 238 217 218 239 217 218 239
216 218 239 217 219 240 215 220 240 215 220 240 213 218 238
212 217 237 214 216 237 214 216 237 215 216 237 217 218 239
221 219 241 222 220 242 208 206 227 216 214 235 217 218 236
213 215 230 216 218 231 217 219 231 198 201 210 173 176 183
117 117 125 152 153 158 224 221 230 251 248 255 255 252 255
255 251 255 239 231 242 243 233 242 243 233 241 253 244 249
255 250 255 222 215 223 204 199 206 137 134 143 61 59 72 118 116 130
171 168 185 187 186 204 190 186 209 203 199 224 201 197 224
197 191 219 207 198 229 185 178 209 161 156 186 156 153 182
156 153 182 151 148 177 166 163 190 188 185 212 188 188 212
197 198 219 201 202 223 195 196 216 191 192 212 193 194 214
196 197 217 193 194 212 195 196 214 204 203 221 203 200 217
200 197 214 199 196 213 201 198 215 203 200 217 203 201 215
198 196 210 193 191 205 212 210 224 201 199 212 198 196 209
191 189 202 151 149 162 103 101 112 99 97 108 127 126 134 144 142 147
169 167 168 207 205 206 239 237 238 251 249 250 249 248 246
246 244 245 247 246 244 244 243 241 250 249 245 253 252 248
253 252 248 254 253 249 255 255 251 255 255 250 253 252 248
255 255 253 255 255 255 255 255 255 255 255 255 255 255 255
255 255 255 255 255 255 255 255 255 255 255 255 255 255 255
255 255 255 254 254 254 254 254 254 254 254 254 255 255 255
255 255 255 253 253 253 252 252 252 251 251 251 252 252 252
254 254 254 255 255 255 254 254 254 253 253 253 255 255 255
255 255 255 255 255 255 255 255 255 255 255 255 255 255 255
255 255 255 255 255 255 255 255 255 255 255 255 255 255 255
255 255 255 255 255 255 255 255 255 255 255 255 255 255 255
255 255 255 255 255 255 255 255 255 255 255 255 255 255 255
255 255 255 255 255 255 255 255 255 255 255 255 255 255 255
255 255 255 255 255 255 255 255 255 255 255 255 255 255 255
255 255 255 255 255 255 255 255 255 255 255 255 255 255 255
255 255 255 255 255 255 255 255 255 255 255 255 255 255 255
255 255 255 255 255 255 255 255 255 255 255 255 255 255 255
255 255 255 255 255 255 255 255 255 255 255 255 255 255 255
255 255 255 255 255 255 255 255 255 255 255 255 255 255 255
255 255 255 255 255 255 255 255 255 255 255 255 255 255 255
255 255 255 255 255 255 255 255 255 255 255 255 255 255 255
255 255 255 255 255 255 255 255 255 255 255 255 255 255 255
255 255 255 255 255 255 255 255 255 255 255 255 255 255 255
255 255 255 255 255 255 255 255 255 255 255 255 255 255 255
255 255 255 254 254 254 254 254 254 254 254 254 254 254 254
253 253 253 251 253 252 254 255 253 252 255 251 251 255 251
248 255 248 246 255 247 249 255 250 249 255 250 244 254 245
249 255 251 248 254 250 245 249 248 250 252 251 254 254 255
253 251 255 248 245 252 249 242 250 255 242 252 255 235 247
252 229 247 255 231 254 255 236 255 254 214 249 203 158 201
154 102 151 134 73 132 132 63 128 123 50 119 121 41 114 123 39 116
133 45 123 146 55 135 158 59 142 174 61 149 182 62 152 185 64 157
187 63 157 189 61 158 188 58 156 190 58 159 193 58 161 195 57 166
195 57 168 197 56 169 198 57 172 196 57 172 196 57 174 197 58 175
194 60 173 183 60 166 180 61 161 176 62 160 175 65 160 175 68 162
170 70 160 163 67 154 155 66 146 136 52 129 116 39 107 108 38 101
131 68 123 171 111 163 212 156 203 249 196 238 255 226 255
255 227 247 255 241 253 255 244 255 252 239 248 249 238 246
252 246 250 253 251 254 251 253 252 251 255 255 246 255 250
242 253 247 243 254 248 243 255 247 242 255 246 244 255 248
249 255 251 253 255 252 254 254 254 254 254 254 254 254 254
255 255 255 255 255 255 255 255 255 255 255 255 254 254 254
254 254 254 254 254 254 255 255 255 255 255 255 255 255 255
255 255 255 255 255 255 255 255 255 255 255 255 255 255 255
255 255 255 255 255 255 255 255 255 255 255 255 255 255 255
255 255 255 255 255 255 255 255 255 255 255 255 255 255 255
255 255 255 255 255 255 255 255 255 255 255 255 255 255 255
255 255 255 255 255 255 255 255 255 255 255 255 255 255 255
255 255 255 255 255 255 255 255 255 255 255 255 255 255 255
255 255 255 255 255 255 254 254 254 253 255 254 254 255 253
250 255 251 247 252 248 251 255 252 254 255 253 254 255 253
252 252 252 249 247 248 242 237 241 255 249 255 255 247 255
253 234 253 255 233 254 251 225 250 205 176 204 152 115 149
109 58 101 119 61 109 132 70 119 131 67 117 115 47 98 115 47 98
160 93 144 214 152 201 215 159 206 213 168 211 210 176 213
202 181 214 195 186 215 190 192 217 191 202 224 195 207 231
205 217 243 206 217 245 209 220 248 210 224 251 212 226 252
212 228 253 212 227 250 211 226 247 212 227 248 208 221 240
201 212 230 201 208 227 207 212 231 218 221 240 221 222 242
217 218 238 217 215 237 217 215 239 215 215 239 216 216 240
216 218 241 216 218 241 215 220 242 215 220 242 214 219 241
216 221 243 222 224 247 224 226 249 223 223 247 217 217 241
217 215 239 218 216 238 219 217 238 208 206 227 213 214 232
216 218 233 235 237 249 216 219 228 144 147 154 119 122 127
193 194 199 225 226 230 238 235 242 240 235 242 255 252 255
255 251 255 254 242 254 245 233 243 246 236 244 255 250 255
252 245 252 200 195 202 92 89 98 65 63 74 140 138 152 171 170 186
176 175 193 193 194 214 206 204 226 200 198 222 198 194 221
204 199 229 205 198 231 196 191 223 184 181 210 182 182 210
184 184 210 192 192 218 200 200 226 203 203 229 201 201 225
197 198 219 191 192 213 194 195 215 198 196 217 199 198 216
197 196 214 196 195 211 195 194 210 194 193 209 201 199 213
196 194 208 193 191 205 198 196 210 208 206 220 212 210 223
209 207 220 204 202 213 185 183 194 148 146 157 102 100 111 81 79 90
100 98 109 144 143 151 187 186 194 213 212 218 244 242 245
244 243 241 246 245 243 248 247 245 250 249 247 252 251 247
253 252 250 254 253 249 245 244 240 246 245 240 248 247 242
252 251 246 255 255 250 255 255 250 255 255 250 255 255 251
255 255 253 255 255 255 255 255 255 255 255 255 255 255 255
255 255 255 255 255 255 255 255 255 255 255 255 255 255 255
255 255 255 255 255 255 255 255 255 255 255 255 255 255 255
255 255 255 255 255 255 255 255 255 255 255 255 255 255 255
255 255 255 255 255 255 255 255 255 255 255 255 255 255 255
255 255 255 255 255 255 255 255 255 255 255 255 255 255 255
255 255 255 255 255 255 255 255 255 255 255 255 255 255 255
255 255 255 255 255 255 255 255 255 255 255 255 255 255 255
255 255 255 255 255 255 255 255 255 255 255 255 255 255 255
255 255 255 255 255 255 255 255 255 255 255 255 255 255 255
255 255 255 255 255 255 255 255 255 255 255 255 255 255 255
255 255 255 255 255 255 255 255 255 255 255 255 255 255 255
255 255 255 255 255 255 255 255 255 255 255 255 255 255 255
255 255 255 255 255 255 255 255 255 255 255 255 255 255 255
255 255 255 255 255 255 255 255 255 255 255 255 255 255 255
255 255 255 255 255 255 255 255 255 255 255 255 255 255 255
255 255 255 255 255 255 255 255 255 255 255 255 255 255 255
255 255 255 255 255 255 255 255 255 255 255 255 255 255 255
255 255 255 255 255 255 255 255 255 255 255 255 255 255 255
255 255 255 255 255 255 255 255 255 255 255 255 255 255 255
255 255 255 255 255 255 255 255 255 255 255 255 255 255 255
255 255 255 254 254 254 254 254 254 254 254 254 254 254 254
253 253 253 252 254 251 245 252 245 244 254 246 249 255 251
249 255 251 248 255 251 239 250 242 241 251 243 248 255 250
243 247 246 253 254 255 255 254 255 253 246 254 251 239 251
251 237 252 251 234 252 250 229 248 255 237 255 255 223 247
231 190 222 185 139 176 136 84 130 109 50 104 112 46 108 127 54 125
143 60 140 149 57 144 153 54 145 158 52 150 164 53 155 172 57 160
180 60 166 185 62 168 187 57 163 191 58 163 196 60 168 198 60 169
198 57 169 199 57 169 201 56 173 204 56 176 205 57 179 205 55 180
204 54 180 203 52 181 202 51 182 200 51 181 199 49 182 196 50 177
195 55 177 193 55 174 189 56 171 189 58 172 187 61 171 185 63 172
181 64 169 176 65 167 170 65 160 164 64 154 156 62 146 144 56 134
127 44 116 122 41 110 140 61 126 157 90 144 222 174 212 239 203 231
255 230 254 255 238 255 255 237 254 252 236 249 252 242 251
252 250 255 242 243 245 247 253 253 246 255 253 242 255 248
243 255 251 245 255 253 245 255 253 247 255 253 252 255 255
255 255 255 254 254 254 253 253 253 253 253 253 252 252 252
252 252 252 252 252 252 255 255 255 255 255 255 255 255 255
255 255 255 255 255 255 255 255 255 255 255 255 255 255 255
255 255 255 255 255 255 255 255 255 255 255 255 255 255 255
255 255 255 255 255 255 255 255 255 255 255 255 255 255 255
255 255 255 255 255 255 255 255 255 255 255 255 255 255 255
255 255 255 255 255 255 255 255 255 255 255 255 255 255 255
255 255 255 255 255 255 255 255 255 255 255 255 255 255 255
255 255 255 255 255 255 255 255 255 255 255 255 255 255 255
255 255 255 255 255 255 247 249 246 252 255 253 252 255 253
254 255 253 246 248 245 246 246 246 252 248 249 253 247 251
255 243 253 247 231 244 255 232 254 255 239 255 241 206 238
174 134 171 118 73 116 101 47 97 138 67 127 145 64 130 154 69 136
161 74 142 151 64 132 136 50 115 136 51 118 144 64 127 165 94 154
192 131 188 222 174 226 224 188 234 201 180 223 182 172 209
183 179 214 190 193 226 191 197 231 190 199 232 193 202 235
197 208 240 200 214 243 203 217 244 204 218 244 204 218 244
204 216 240 210 222 244 217 225 246 215 222 241 215 217 238
216 217 237 218 216 237 216 214 236 221 219 243 219 219 243
219 219 243 217 219 242 217 219 242 215 220 242 215 220 242
215 220 242 213 218 240 214 219 241 214 216 239 211 213 236
214 214 238 221 221 245 226 224 248 225 223 245 219 217 239
220 219 237 212 211 227 214 216 229 203 205 217 161 164 171
140 143 148 150 154 157 219 220 224 253 252 255 255 254 255
239 234 240 244 234 243 255 243 253 255 243 255 255 244 254
255 246 254 244 234 242 193 186 194 128 122 132 88 85 96 113 111 124
166 165 181 177 178 196 190 191 211 191 192 213 188 188 212
186 186 212 197 194 221 209 204 234 209 204 234 201 196 226
193 190 219 191 191 217 192 192 218 195 195 221 198 198 224
198 198 222 194 195 216 189 190 210 207 208 228 201 200 218
193 192 210 193 192 208 200 199 215 205 204 218 203 202 216
200 198 212 194 192 205 203 201 212 206 204 215 201 199 210
198 196 207 186 184 195 149 147 158 109 108 116 66 65 73 94 93 99
138 137 143 180 179 185 213 212 218 235 234 240 250 249 255
255 254 255 252 250 251 252 251 249 252 251 247 252 251 247
252 251 247 252 251 247 252 251 247 252 251 247 253 252 247
252 251 246 251 250 245 252 251 246 255 254 249 255 255 250
255 255 250 255 255 251 255 255 253 255 255 255 255 255 255
255 255 255 255 255 255 255 255 255 255 255 255 255 255 255
255 255 255 255 255 255 255 255 255 255 255 255 255 255 255
255 255 255 255 255 255 255 255 255 255 255 255 255 255 255
255 255 255 255 255 255 255 255 255 255 255 255 255 255 255
255 255 255 255 255 255 255 255 255 255 255 255 255 255 255
255 255 255 255 255 255 255 255 255 255 255 255 255 255 255
255 255 255 255 255 255 255 255 255 255 255 255 255 255 255
255 255 255 255 255 255 255 255 255 255 255 255 255 255 255
255 255 255 255 255 255 255 255 255 255 255 255 255 255 255
255 255 255 255 255 255 255 255 255 255 255 255 255 255 255
255 255 255 255 255 255 255 255 255 255 255 255 255 255 255
255 255 255 255 255 255 255 255 255 255 255 255 255 255 255
255 255 255 255 255 255 255 255 255 255 255 255 255 255 255
255 255 255 255 255 255 255 255 255 255 255 255 255 255 255
255 255 255 255 255 255 255 255 255 255 255 255 255 255 255
255 255 255 255 255 255 255 255 255 255 255 255 255 255 255
255 255 255 255 255 255 255 255 255 255 255 255 255 255 255
255 255 255 255 255 255 255 255 255 255 255 255 255 255 255
255 255 255 255 255 255 255 255 255 255 255 253 255 255 253
255 255 253 255 255 253 255 255 253 255 255 253 255 255 253
255 255 253 255 255 253 255 255 253 254 254 252 254 254 252
253 253 251 253 253 251 254 254 252 253 255 252 251 255 251
248 255 251 245 255 248 237 248 240 241 251 243 249 255 253
251 255 255 254 255 255 253 251 255 255 251 255 255 240 255
251 230 249 255 230 255 255 233 255 254 219 251 235 194 228
177 127 164 141 84 125 110 51 99 117 52 106 143 71 134 161 81 154
164 77 158 165 70 160 173 69 168 176 65 170 181 60 173 182 55 172
182 50 170 179 44 165 177 38 163 174 36 158 177 43 158 178 44 157
182 45 159 183 44 161 183 41 161 183 39 160 184 38 163 185 39 166
188 41 171 190 40 173 191 41 175 191 44 177 191 43 179 192 44 180
191 45 182 191 45 180 188 41 173 189 43 170 191 45 172 191 48 174
191 51 176 191 56 177 193 61 181 194 65 183 187 63 175 181 61 167
176 61 164 171 59 157 158 51 145 145 41 130 142 38 125 140 48 125
126 57 114 152 96 141 200 149 190 242 198 234 255 224 255 255 232 255
255 235 254 252 240 254 254 248 255 254 255 255 251 255 255
241 251 250 235 247 245 237 252 247 242 255 253 247 255 255
252 255 255 254 255 255 254 255 255 255 255 255 255 255 255
255 254 255 255 253 254 255 253 254 255 254 255 255 254 255
255 254 255 255 255 255 255 255 255 254 255 255 254 255 255
254 255 255 255 255 255 255 255 255 255 255 255 255 255 255
255 255 255 255 255 255 255 255 255 255 255 255 255 255 255
255 255 255 255 255 255 255 255 255 255 255 255 255 255 255
255 255 255 255 255 255 255 255 255 255 255 255 255 255 255
255 255 255 255 255 255 255 255 255 255 255 255 255 255 255
253 253 253 254 254 254 254 254 254 254 254 254 255 255 255
255 255 255 255 255 255 255 255 255 253 255 254 254 255 255
254 255 255 254 254 254 254 252 253 255 251 252 255 247 255
255 245 255 255 241 255 255 240 255 255 229 255 231 186 225
169 117 165 117 60 113 106 45 104 127 55 121 173 81 158 172 69 152
168 65 148 172 67 151 174 69 153 166 61 143 151 49 132 139 42 121
134 46 122 128 51 123 136 69 138 165 111 173 198 157 217 214 184 238
205 181 233 187 171 218 185 178 222 182 179 222 183 182 222
187 189 228 194 198 235 201 207 241 204 213 244 206 215 244
207 217 244 211 218 244 211 219 242 211 217 239 217 219 242
221 222 243 221 219 241 217 215 237 218 218 242 217 217 241
216 216 240 214 216 239 214 216 239 213 218 240 213 218 240
213 219 241 214 220 242 215 221 243 211 216 238 205 210 232
212 214 237 223 225 248 228 228 252 226 224 246 215 213 235
232 231 249 220 219 235 211 213 225 159 162 171 103 108 114
153 158 161 220 224 225 238 239 241 252 252 254 251 249 252
244 239 245 249 239 248 251 239 249 252 236 249 254 238 251
255 247 255 228 218 227 136 129 137 74 68 78 116 112 126 161 160 174
166 167 185 195 198 217 204 206 227 195 197 220 186 188 211
188 188 214 194 194 220 201 198 225 201 197 224 197 193 220
200 197 224 199 199 225 199 199 225 199 199 223 199 197 221
196 194 216 193 191 213 190 188 209 189 188 206 197 194 211
204 202 216 204 202 215 198 196 209 193 191 204 194 192 205
199 196 207 207 204 215 211 208 217 205 202 211 168 165 174
108 105 114 72 69 76 96 93 100 140 137 144 192 189 196 212 210 215
237 235 240 250 248 253 250 248 253 247 245 250 248 246 251
251 249 252 250 250 248 250 251 246 250 251 246 249 250 245
248 249 244 248 249 244 247 248 243 247 248 243 251 252 247
249 250 245 247 248 243 248 249 244 250 251 246 252 253 248
254 255 250 254 255 250 255 255 253 255 255 255 255 255 255
255 255 255 255 255 255 255 255 255 255 255 255 255 255 255
255 255 255 255 255 255 255 255 255 255 255 255 255 255 255
255 255 255 255 255 255 255 255 255 255 255 255 255 255 255
255 255 255 255 255 255 255 255 255 255 255 255 255 255 255
255 255 255 255 255 255 255 255 255 255 255 255 255 255 255
255 255 255 255 255 255 255 255 255 255 255 255 255 255 255
255 255 255 255 255 255 255 255 255 255 255 255 255 255 255
255 255 255 255 255 255 255 255 255 255 255 255 255 255 255
255 255 255 255 255 255 255 255 255 255 255 255 255 255 255
255 255 255 255 255 255 255 255 255 255 255 255 255 255 255
255 255 255 255 255 255 255 255 255 255 255 255 255 255 255
255 255 255 255 255 255 255 255 255 255 255 255 255 255 255
255 255 255 255 255 255 255 255 255 255 255 255 255 255 255
255 255 255 255 255 255 255 255 255 255 255 255 255 255 255
255 255 255 255 255 255 255 255 255 255 255 255 255 255 255
255 255 255 255 255 255 255 255 255 255 255 255 255 255 255
255 255 255 255 255 255 255 255 255 255 255 255 255 255 255
255 255 255 255 255 255 255 255 255 255 255 255 255 255 255
255 255 255 255 255 255 255 255 255 255 255 253 255 255 253
255 255 253 255 255 253 255 255 253 255 255 253 255 255 253
255 255 253 254 254 252 255 255 253 254 254 252 253 253 251
252 252 250 252 252 250 254 254 252 254 255 253 245 252 245
249 255 251 249 255 251 251 255 253 251 255 253 254 255 255
253 251 254 246 239 246 255 241 254 255 242 255 255 237 255
255 226 255 251 203 241 214 161 203 158 100 148 114 50 102 118 45 101
129 51 113 143 62 129 152 69 141 152 61 141 149 50 140 156 52 149
170 59 164 158 40 152 162 37 155 168 35 160 173 37 163 179 38 168
187 42 173 192 45 177 193 48 177 183 45 166 180 47 164 181 46 164
181 43 164 180 40 163 179 39 162 180 37 165 179 36 164 172 27 158
172 28 160 174 30 164 176 31 168 175 33 171 176 34 172 175 34 172
176 34 170 181 34 167 187 35 169 188 38 171 186 39 171 184 39 170
184 40 171 186 45 175 188 49 176 191 55 179 182 48 169 180 49 165
191 63 176 202 76 186 197 74 180 183 60 166 165 54 148 145 53 130
119 40 105 116 42 103 152 87 141 208 152 199 250 204 243 255 233 255
255 245 255 255 241 255 245 239 251 242 243 248 247 252 255
248 255 255 244 255 254 242 254 252 246 255 255 249 255 253
252 254 253 253 255 254 253 255 254 255 254 255 255 254 255
255 254 255 255 254 255 254 252 253 255 253 254 255 253 254
255 255 255 255 255 255 254 255 255 254 255 255 254 255 255
254 254 254 254 254 254 254 254 254 254 254 254 254 254 254
254 254 254 254 254 254 254 254 254 255 255 255 255 255 255
255 255 255 255 255 255 255 255 255 255 255 255 255 255 255
255 255 255 255 255 255 255 255 255 255 255 255 255 255 255
255 255 255 254 254 254 254 254 254 253 253 253 253 253 253
253 253 253 253 253 253 253 253 253 253 253 253 253 253 253
253 253 253 254 254 254 255 255 255 247 247 247 242 242 242
254 252 253 255 254 255 255 248 253 255 242 252 255 244 255
255 231 254 255 218 251 215 167 209 144 86 137 95 29 90 102 30 96
138 58 131 169 77 160 181 72 165 184 66 163 179 59 159 175 55 153
179 59 157 188 68 165 190 75 170 187 76 170 160 55 147 154 58 145
140 55 138 118 44 123 108 44 120 130 74 147 178 126 198 212 172 235
209 180 238 201 181 234 197 179 229 191 178 224 188 179 224
188 183 224 189 187 226 190 190 226 198 201 234 202 207 236
208 212 239 210 214 239 215 217 242 221 221 245 222 222 246
219 219 243 216 216 240 215 217 240 215 217 240 213 218 240
213 218 240 213 219 241 214 220 242 214 222 243 215 221 243
214 220 242 212 218 240 213 218 240 214 219 241 218 220 243
219 219 243 219 219 243 224 222 243 235 232 251 202 201 217
163 165 177 139 142 151 152 157 161 209 214 217 244 250 248
240 244 243 237 237 237 240 238 241 252 246 250 255 245 253
247 234 244 250 232 246 255 245 255 231 217 230 160 150 161
114 104 115 105 99 111 143 139 154 177 176 192 176 179 198
200 205 225 196 201 223 193 198 220 194 198 223 200 202 227
196 198 223 189 189 215 190 187 214 195 193 217 186 183 210
187 187 211 190 190 214 192 193 214 195 193 215 197 195 216
200 198 219 201 200 218 202 199 216 196 194 208 190 188 201
191 189 200 198 195 206 204 201 210 204 201 210 202 199 208
168 165 174 109 106 113 69 66 73 92 90 95 148 145 152 192 190 195
221 219 224 239 237 242 251 249 254 251 249 252 250 248 251
251 249 250 253 251 254 255 254 255 255 254 255 255 254 255
245 245 243 245 246 241 246 247 242 246 247 242 247 248 243
248 249 244 248 249 244 248 249 244 248 249 244 247 248 243
246 246 244 248 249 244 251 251 249 254 255 250 255 255 253
255 255 253 255 255 255 255 255 255 255 255 255 255 255 255
255 255 255 255 255 255 255 255 255 255 255 255 255 255 255
255 255 255 255 255 255 255 255 255 255 255 255 255 255 255
255 255 255 255 255 255 255 255 255 255 255 255 255 255 255
255 255 255 255 255 255 255 255 255 255 255 255 255 255 255
255 255 255 255 255 255 255 255 255 255 255 255 255 255 255
255 255 255 255 255 255 255 255 255 255 255 255 255 255 255
255 255 255 255 255 255 255 255 255 255 255 255 255 255 255
255 255 255 255 255 255 255 255 255 255 255 255 255 255 255
255 255 255 255 255 255 255 255 255 255 255 255 255 255 255
255 255 255 255 255 255 255 255 255 255 255 255 255 255 255
255 255 255 255 255 255 255 255 255 255 255 255 255 255 255
255 255 255 255 255 255 255 255 255 255 255 255 255 255 255
255 255 255 255 255 255 255 255 255 255 255 255 255 255 255
255 255 255 255 255 255 255 255 255 255 255 255 255 255 255
255 255 255 255 255 255 255 255 255 255 255 255 255 255 255
255 255 255 255 255 255 255 255 255 255 255 255 255 255 255
255 255 255 255 255 255 255 255 255 255 255 255 255 255 255
255 255 255 255 255 255 255 255 255 255 255 255 255 255 255
255 255 255 255 255 255 255 255 253 255 255 253 255 255 253
255 255 253 255 255 253 255 255 253 255 255 253 255 255 253
254 254 252 254 254 252 254 254 252 252 252 250 250 250 248
250 250 248 252 252 250 254 255 253 251 255 252 246 251 247
248 253 249 254 255 253 250 248 249 243 237 241 251 239 249
255 248 255 255 244 255 255 226 255 234 187 223 184 125 171
130 60 114 104 26 84 122 40 104 157 67 137 154 60 138 158 59 142
155 55 143 153 50 142 157 49 148 164 51 155 162 44 156 155 34 150
175 47 168 174 44 168 174 39 167 172 35 164 175 34 162 178 35 163
180 35 162 181 38 162 181 48 167 179 47 166 179 46 165 178 45 164
179 44 165 179 44 165 178 42 168 178 42 168 188 49 178 186 49 179
185 49 181 184 48 180 181 47 180 178 44 177 174 43 175 174 40 173
182 41 172 187 41 174 188 42 175 185 39 172 179 35 167 174 30 162
172 28 160 170 29 160 183 42 172 187 46 174 193 54 181 198 59 184
198 60 182 190 55 173 187 52 170 182 54 163 164 49 144 165 60 144
163 66 145 143 56 127 122 46 110 137 72 126 196 144 190 254 214 249
255 243 255 255 243 255 249 238 252 240 237 246 242 242 250
246 251 255 247 255 255 246 254 255 243 247 248 243 247 246
247 249 248 248 250 249 250 248 249 250 248 249 252 248 249
252 248 249 252 248 249 253 249 250 252 250 251 252 252 252
254 254 254 254 255 255 252 255 255 254 255 255 254 254 254
254 254 254 254 254 254 254 254 254 254 254 254 254 254 254
254 254 254 254 254 254 255 255 255 255 255 255 255 255 255
255 255 255 255 255 255 255 255 255 255 255 255 255 255 255
254 254 254 254 254 254 255 255 255 255 255 255 254 254 254
253 253 253 252 252 252 252 252 252 252 252 252 252 252 252
252 252 252 251 251 251 251 251 251 251 251 251 250 250 250
250 250 250 254 254 255 255 254 255 255 254 255 255 251 255
254 245 250 252 239 248 254 236 250 255 233 255 243 206 237
190 142 184 132 72 124 109 39 102 116 34 108 129 40 122 145 49 138
164 56 155 169 48 154 181 50 162 185 54 168 184 53 165 188 56 168
195 65 174 199 71 180 196 73 180 195 74 180 184 69 172 169 61 162
157 57 155 148 57 152 142 56 147 134 51 141 123 51 133 138 82 153
168 122 187 205 163 226 219 181 240 204 175 231 189 166 218
188 172 219 193 182 224 183 177 215 196 195 229 209 210 241
211 215 244 212 213 241 213 215 240 216 218 243 218 220 245
219 221 246 219 221 246 220 222 247 218 222 247 218 224 248
217 225 248 216 224 247 214 225 247 212 220 243 207 215 238
207 215 238 214 220 244 215 219 244 209 213 238 213 215 240
222 222 246 214 212 233 212 209 228 184 183 199 125 127 139
139 142 149 218 223 226 251 255 255 247 253 251 244 248 247
242 244 241 244 242 243 246 240 244 245 234 242 248 232 243
255 235 250 255 238 252 169 155 168 80 69 83 115 104 120 162 155 171
153 150 167 181 182 200 202 207 227 188 194 216 185 191 213
184 190 214 190 196 220 200 204 229 201 203 226 193 193 217
194 192 216 201 199 221 198 196 220 199 197 219 198 196 218
196 194 215 194 191 212 193 190 209 193 190 209 193 190 207
197 193 208 197 193 207 202 199 210 208 205 214 204 198 208
172 167 174 121 116 123 82 77 84 87 84 91 147 145 150 203 201 206
220 218 221 223 221 226 238 236 239 250 248 251 252 250 253
255 254 255 253 251 252 249 247 248 250 249 247 253 251 252
254 253 251 251 249 250 247 246 244 249 249 247 250 250 248
250 250 248 252 252 250 253 253 251 254 254 252 255 255 253
255 255 253 252 252 250 252 252 250 253 253 253 255 255 253
255 255 255 255 255 253 255 255 255 255 255 255 255 255 255
255 255 255 255 255 255 255 255 255 255 255 255 255 255 255
255 255 255 255 255 255 255 255 255 255 255 255 255 255 255
255 255 255 255 255 255 255 255 255 255 255 255 255 255 255
255 255 255 255 255 255 255 255 255 255 255 255 255 255 255
255 255 255 255 255 255 255 255 255 255 255 255 255 255 255
255 255 255 255 255 255 255 255 255 255 255 255 255 255 255
255 255 255 255 255 255 255 255 255 255 255 255 255 255 255
255 255 255 255 255 255 255 255 255 255 255 255 255 255 255
255 255 255 255 255 255 255 255 255 255 255 255 255 255 255
255 255 255 255 255 255 255 255 255 255 255 255 255 255 255
255 255 255 255 255 255 255 255 255 255 255 255 255 255 255
255 255 255 255 255 255 255 255 255 255 255 255 255 255 255
255 255 255 255 255 255 255 255 255 255 255 255 255 255 255
255 255 255 255 255 255 255 255 255 255 255 255 255 255 255
255 255 255 255 255 255 255 255 255 255 255 255 255 255 255
255 255 255 255 255 255 255 255 255 255 255 255 254 254 254
254 254 254 254 254 254 254 254 254 254 254 254 254 254 254
254 254 254 254 254 254 254 254 254 254 254 254 254 254 254
254 254 254 254 254 254 254 254 254 254 254 254 254 254 254
254 254 252 254 254 252 254 254 252 254 254 252 254 254 252
254 254 252 254 254 252 254 254 252 253 253 251 254 254 252
254 254 252 251 251 249 247 247 245 247 247 245 250 250 248
253 253 251 250 252 249 251 253 250 243 242 240 237 233 234
250 241 246 255 250 255 255 244 255 247 218 240 212 171 201
166 114 152 126 60 108 126 49 105 147 58 124 160 62 135 163 59 136
165 55 141 170 56 151 175 59 160 172 55 160 166 46 154 167 46 159
175 52 169 174 49 169 166 38 161 163 33 159 167 34 161 170 37 164
175 41 166 180 44 168 183 48 169 187 49 170 186 51 169 170 37 154
168 36 155 168 35 154 169 36 155 172 37 157 174 39 160 175 39 163
174 40 163 170 36 161 170 35 163 170 37 165 168 37 165 165 36 165
160 33 162 157 30 159 158 29 158 176 41 170 181 42 171 182 43 172
182 42 173 180 40 171 177 35 169 175 33 167 174 32 166 175 34 165
184 40 172 190 46 178 191 47 178 186 43 171 184 39 166 188 44 168
193 51 171 192 59 168 185 59 159 179 59 156 169 61 147 154 60 138
139 58 125 128 60 117 121 68 114 202 162 197 242 213 241 255 247 255
255 246 255 241 235 247 242 241 249 248 248 255 244 247 252
245 249 250 246 250 249 248 250 249 249 251 250 250 248 249
249 247 248 249 245 246 248 244 245 250 246 247 251 247 248
250 248 249 251 251 251 253 253 253 254 255 255 252 255 255
252 255 255 254 254 254 254 254 254 254 254 254 254 254 254
254 254 254 254 254 254 254 254 254 254 254 254 255 255 255
255 255 255 255 255 255 255 255 255 255 255 255 255 255 255
255 255 255 255 255 255 253 253 253 254 254 254 255 255 255
255 255 255 254 254 254 253 253 253 251 251 251 250 250 250
251 251 251 251 251 251 251 251 251 251 251 251 251 251 251
250 250 250 250 250 250 250 250 250 247 245 248 255 253 255
255 253 255 249 243 247 255 245 253 255 249 255 253 230 248
223 190 217 170 126 162 130 74 123 105 35 97 122 40 114 152 58 142
162 61 155 162 51 153 164 44 154 172 40 159 175 40 161 177 41 165
183 45 167 190 52 174 195 57 178 193 55 176 186 51 169 196 63 182
191 62 178 184 60 174 174 54 164 164 48 157 161 49 157 164 55 162
165 65 163 133 51 136 116 45 121 117 51 125 149 89 159 193 144 209
221 181 241 215 185 239 196 174 223 200 187 230 192 186 224
185 184 218 186 187 218 197 201 230 208 214 240 209 215 241
204 210 234 214 218 243 215 219 244 217 221 246 217 223 247
215 223 246 211 222 244 209 220 242 208 219 241 213 224 246
206 217 239 206 214 237 211 219 242 215 221 245 216 220 245
222 224 249 230 230 254 216 214 235 156 153 170 140 139 155
146 148 160 190 193 200 241 246 249 241 247 247 245 251 247
247 252 248 248 250 247 244 242 243 237 231 233 248 235 242
255 247 255 237 216 231 181 160 175 112 98 113 101 88 105 134 123 140
170 163 181 186 183 202 198 199 219 194 199 221 187 193 215
192 200 223 185 193 216 184 190 214 192 198 222 198 203 225
197 199 220 196 194 216 196 194 216 206 204 226 206 204 225
208 206 227 208 207 225 208 205 224 204 201 218 201 198 215
198 196 210 198 194 208 193 190 201 166 160 170 112 107 114 69 64 71
77 72 78 137 130 137 194 187 194 225 220 226 234 232 235 237 235 238
236 234 237 245 243 246 255 254 255 255 254 255 252 250 251
255 254 255 255 255 253 254 253 251 250 249 247 248 247 245
251 250 248 255 255 253 255 255 253 255 255 253 255 255 253
255 255 253 255 255 253 255 255 253 255 255 253 255 255 253
255 255 255 255 255 255 255 255 255 255 255 255 255 255 255
255 255 255 255 255 255 255 255 255 252 252 252 255 255 255
255 255 255 255 255 255 255 255 255 255 255 255 255 255 255
255 255 255 255 255 255 255 255 255 255 255 255 255 255 255
255 255 255 255 255 255 255 255 255 255 255 255 255 255 255
255 255 255 255 255 255 255 255 255 255 255 255 255 255 255
255 255 255 255 255 255 255 255 255 255 255 255 255 255 255
255 255 255 255 255 255 255 255 255 255 255 255 255 255 255
255 255 255 255 255 255 255 255 255 255 255 255 255 255 255
255 255 255 255 255 255 255 255 255 255 255 255 255 255 255
255 255 255 255 255 255 255 255 255 255 255 255 255 255 255
255 255 255 255 255 255 255 255 255 255 255 255 255 255 255
255 255 255 255 255 255 255 255 255 255 255 255 255 255 255
255 255 255 255 255 255 255 255 255 255 255 255 255 255 255
255 255 255 255 255 255 255 255 255 255 255 255 255 255 255
255 255 255 255 255 255 255 255 255 255 255 255 255 255 255
255 255 255 255 255 255 255 255 255 255 255 255 255 255 255
255 255 255 255 255 255 255 255 255 255 255 255 254 254 254
254 254 254 254 254 254 254 254 254 254 254 254 254 254 254
254 254 254 254 254 254 254 254 254 254 254 254 254 254 254
254 254 254 254 254 254 254 254 254 254 254 254 254 254 254
254 254 252 254 254 252 254 254 252 254 254 252 254 254 252
254 254 252 254 254 252 254 254 252 253 253 251 254 254 252
253 253 251 249 249 247 245 245 243 244 244 242 247 247 245
251 251 249 234 233 231 245 244 242 252 246 248 252 243 246
255 244 251 250 230 242 201 172 192 149 109 136 110 58 96 118 52 98
132 53 110 149 57 122 160 54 129 162 46 129 166 44 131 174 46 143
158 30 139 159 30 148 162 33 151 171 42 161 181 51 175 185 56 182
180 49 177 170 41 168 183 52 180 181 52 178 178 50 173 175 47 166
171 44 159 166 40 150 163 37 145 162 34 143 173 40 155 172 37 155
171 36 154 172 37 155 176 38 157 179 41 162 179 41 162 176 41 162
176 40 164 177 43 166 178 45 170 178 48 172 177 48 174 175 49 174
173 47 172 172 46 171 165 37 160 167 37 161 169 39 163 172 42 168
177 44 171 180 45 174 181 44 176 180 43 175 179 39 172 177 36 167
175 31 163 174 29 160 176 31 162 178 31 161 177 30 160 176 27 153
200 51 171 196 52 165 191 55 163 189 64 164 185 75 162 173 76 153
145 64 130 117 52 106 96 45 88 146 109 142 214 186 211 253 234 254
255 248 255 255 248 255 248 245 255 245 244 250 251 252 254
249 253 252 252 254 253 253 255 254 254 252 253 253 251 252
253 249 250 251 247 248 253 249 250 253 249 250 252 250 251
252 252 252 253 253 253 253 255 254 252 255 255 252 255 255
253 253 253 253 253 253 253 253 253 253 253 253 253 253 253
253 253 253 253 253 253 253 253 253 255 255 255 255 255 255
255 255 255 255 255 255 255 255 255 255 255 255 255 255 255
255 255 255 253 253 253 253 253 253 254 254 254 255 255 255
254 254 254 252 252 252 250 250 250 249 249 249 250 250 250
250 250 250 251 251 251 251 251 251 252 252 252 253 253 253
254 254 254 255 253 254 253 248 252 255 249 253 248 241 248
246 236 244 255 245 255 255 234 249 207 179 201 151 114 145 93 45 87
111 48 101 123 46 114 130 41 121 145 44 136 162 51 153 170 50 160
167 39 158 178 44 169 174 35 164 169 29 160 174 33 163 181 40 170
188 45 173 189 46 174 189 46 172 184 41 169 188 48 173 194 54 179
196 58 180 192 57 178 191 56 177 190 56 177 186 62 174 169 64 159
156 62 148 139 51 135 116 37 116 108 40 113 128 73 140 169 128 188
202 172 226 195 176 222 183 172 214 171 167 202 168 169 200
177 182 211 190 197 223 192 202 227 191 198 224 200 206 230
204 208 233 208 212 237 211 217 241 211 219 242 208 219 241
205 216 238 202 214 236 214 226 248 214 226 248 209 220 242
207 215 238 215 221 245 225 231 255 223 227 252 212 214 237
205 202 223 128 125 142 121 120 136 192 194 206 250 253 255
251 255 255 233 242 239 226 232 228 243 248 244 240 242 237
241 240 238 243 237 239 251 238 245 249 232 242 193 172 187
110 89 104 103 86 102 156 143 160 167 156 173 178 171 189 209 207 228
200 202 223 183 188 210 190 196 220 193 201 224 189 200 222
190 198 221 193 199 223 194 199 221 194 196 217 194 192 214
192 190 211 187 185 206 190 188 209 195 192 213 200 197 216
201 198 217 195 192 209 185 181 196 176 172 186 139 133 145
117 111 121 108 101 109 136 129 136 190 183 190 232 226 230
244 235 240 235 229 233 255 253 255 251 249 252 252 250 253
255 254 255 255 254 255 248 246 247 250 248 249 255 255 253
251 250 248 254 253 251 255 255 253 255 254 250 251 250 246
248 247 243 248 247 243 249 248 246 255 255 253 255 255 255
255 255 255 254 254 254 254 254 254 253 253 253 253 253 253
253 253 255 255 255 255 253 253 255 253 253 255 253 253 255
254 254 255 254 254 255 252 251 255 251 251 253 255 255 255
255 255 255 255 255 255 255 255 255 255 255 255 255 255 255
255 255 255 255 255 255 255 255 255 255 255 255 255 255 255
255 255 255 255 255 255 255 255 255 255 255 255 255 255 255
255 255 255 255 255 255 255 255 255 255 255 255 255 255 255
255 255 255 255 255 255 255 255 255 255 255 255 255 255 255
255 255 255 255 255 255 255 255 255 255 255 255 255 255 255
255 255 255 255 255 255 255 255 255 255 255 255 255 255 255
255 255 255 255 255 255 255 255 255 255 255 255 255 255 255
255 255 255 255 255 255 255 255 255 255 255 255 255 255 255
255 255 255 255 255 255 255 255 255 255 255 255 255 255 255
255 255 255 255 255 255 255 255 255 255 255 255 255 255 255
255 255 255 255 255 255 255 255 255 255 255 255 255 255 255
255 255 255 255 255 255 255 255 255 255 255 255 255 255 255
255 255 255 255 255 255 255 255 255 255 255 255 255 255 255
255 255 255 255 255 255 255 255 255 255 255 255 255 255 255
255 255 255 255 255 255 255 255 255 255 255 255 254 254 254
254 254 254 254 254 254 254 254 254 254 254 254 254 254 254
254 254 254 254 254 254 254 254 254 254 254 254 254 254 254
253 255 254 253 255 254 253 255 254 253 255 254 254 254 254
254 254 252 254 254 252 254 254 252 254 254 252 254 254 252
253 255 252 253 255 252 253 255 252 252 254 251 253 255 252
252 254 251 249 249 247 243 243 241 242 242 240 247 246 244
253 249 250 255 251 255 250 235 242 252 232 243 255 237 252
225 192 213 148 103 132 107 52 91 116 50 96 146 67 124 154 63 130
160 56 131 162 49 131 168 45 136 175 45 141 181 45 145 180 42 151
183 48 168 176 42 167 174 40 165 177 43 168 174 39 167 171 36 164
178 44 169 190 56 181 176 44 166 172 43 162 169 42 157 166 42 152
166 45 150 168 49 149 170 54 151 174 56 153 169 44 148 167 40 145
164 37 144 162 36 143 164 38 145 165 39 146 162 39 146 160 37 144
162 40 149 163 41 150 165 43 154 164 44 154 163 43 153 159 41 153
156 38 150 154 36 148 164 43 156 163 40 154 161 38 154 163 38 156
170 40 162 176 42 167 176 39 168 178 37 168 178 34 166 178 34 168
177 31 166 175 29 164 177 31 166 180 34 167 182 36 169 183 36 168
176 26 152 183 35 157 185 43 161 183 51 161 185 65 165 187 78 169
177 80 161 159 73 144 146 72 135 110 47 100 117 64 108 180 138 174
239 206 235 252 228 252 252 235 254 255 248 255 249 247 252
249 249 249 251 251 251 252 254 253 254 254 254 252 254 253
251 253 252 250 252 251 252 254 253 252 254 253 252 254 253
252 254 253 252 254 253 252 254 253 252 254 253 253 255 254
253 253 253 253 253 253 253 253 253 253 253 253 253 253 253
253 253 253 253 253 255 253 253 253 255 255 255 255 255 255
255 255 255 255 255 255 254 255 255 254 255 255 254 255 255
254 255 255 252 252 252 253 253 253 254 254 255 254 255 255
253 254 255 251 253 252 247 251 252 245 249 248 246 250 249
246 250 249 250 252 251 251 253 252 254 254 254 255 255 253
255 255 253 255 254 255 255 251 252 243 237 241 245 234 242
255 241 252 248 225 243 202 170 194 140 96 131 99 46 92 107 42 98
135 55 124 156 65 145 159 56 148 155 42 146 159 37 148 162 34 153
164 30 155 177 37 170 175 30 167 171 29 163 174 32 166 174 33 164
173 32 162 179 35 166 188 43 172 193 46 178 193 44 174 194 45 175
202 51 182 209 58 189 210 59 190 202 53 183 190 47 171 182 52 161
181 61 161 179 65 163 168 63 156 149 54 144 130 46 131 116 45 123
106 49 120 159 113 177 183 148 206 205 178 229 198 181 225
177 166 206 167 161 197 176 175 207 190 189 220 197 194 225
201 198 229 206 207 237 209 215 241 209 221 245 206 222 245
203 221 241 202 220 240 207 224 244 216 231 250 213 224 244
203 209 231 215 217 240 231 231 255 217 215 239 183 179 202
125 121 138 160 158 172 200 200 212 242 245 254 237 242 246
226 235 234 249 255 255 237 246 243 237 243 239 234 239 235
251 251 251 255 253 255 235 224 232 198 185 195 155 137 151
108 91 107 119 106 124 151 142 161 189 182 200 213 210 229
190 191 211 184 186 207 208 213 235 185 191 213 175 181 203
188 196 217 201 208 227 201 206 226 195 198 217 191 192 210
196 195 213 200 199 217 207 206 222 202 201 217 195 193 207
182 180 194 161 159 173 130 128 141 99 96 107 77 74 85 125 122 131
172 167 174 224 219 225 250 245 251 246 241 245 239 234 238
246 240 244 255 252 255 248 246 249 253 251 254 255 254 255
255 254 255 255 254 255 255 254 255 255 255 253 255 255 253
255 255 253 254 253 251 250 249 247 252 251 247 255 255 253
255 255 251 255 255 253 255 254 252 255 255 255 255 255 255
255 255 255 255 255 255 255 255 255 255 255 255 255 255 255
255 255 255 255 255 255 254 254 255 252 252 254 252 252 254
254 254 255 255 255 255 255 254 255 255 255 255 255 255 255
255 255 255 255 255 255 255 255 255 255 255 255 255 255 255
255 255 255 255 255 255 255 255 255 255 255 255 255 255 255
255 255 255 255 255 255 255 255 255 255 255 255 255 255 255
255 255 255 255 255 255 255 255 255 255 255 255 255 255 255
255 255 255 255 255 255 255 255 255 255 255 255 255 255 255
255 255 255 255 255 255 255 255 255 255 255 255 255 255 255
255 255 255 255 255 255 255 255 255 255 255 255 255 255 255
255 255 255 255 255 255 255 255 255 255 255 255 255 255 255
255 255 255 255 255 255 255 255 255 255 255 255 255 255 255
255 255 255 255 255 255 255 255 255 255 255 255 255 255 255
255 255 255 255 255 255 255 255 255 255 255 255 255 255 255
255 255 255 255 255 255 255 255 255 255 255 255 255 255 255
255 255 255 255 255 255 255 255 255 255 255 255 255 255 255
255 255 255 255 255 255 255 255 255 255 255 255 255 255 255
255 255 255 255 255 255 255 255 255 255 255 255 255 255 255
255 255 255 255 255 255 255 255 255 255 255 255 254 252 255
254 252 255 255 253 255 255 253 255 254 254 255 254 254 255
255 255 255 255 255 255 252 254 253 252 254 253 252 254 253
250 254 253 250 254 253 250 254 253 250 254 253 252 254 253
255 254 252 255 255 253 255 255 253 255 255 253 252 254 251
249 254 250 251 255 251 251 255 251 251 255 253 250 255 252
252 255 253 254 255 253 250 250 250 244 242 243 249 245 246
255 251 255 255 230 245 255 234 255 246 201 230 179 123 160 121 52 99
115 31 90 146 49 120 175 66 147 176 56 146 182 52 150 184 49 152
186 46 155 190 48 160 196 52 166 199 54 171 197 55 175 183 50 175
183 52 180 181 48 175 175 41 166 174 38 162 180 42 163 181 39 159
175 34 149 171 33 145 173 40 147 178 47 151 178 52 151 173 53 150
166 51 144 162 49 139 158 48 135 164 56 141 161 53 138 156 51 135
152 49 132 146 47 129 141 44 125 133 38 120 129 34 116 128 33 117
133 38 122 142 44 129 147 49 134 151 49 135 149 46 135 148 44 133
148 42 134 150 40 135 160 46 144 167 48 150 169 46 153 175 44 156
181 43 162 180 36 160 174 25 153 188 36 170 176 24 159 179 28 167
182 35 175 176 34 172 182 41 181 180 43 182 163 25 160 174 33 163
180 41 166 184 50 171 179 51 170 171 48 164 168 50 160 175 59 166
183 68 169 185 74 169 177 73 158 147 53 129 119 39 102 143 76 129
208 157 198 255 218 252 255 240 255 255 243 253 252 246 250
250 248 251 249 250 252 245 249 250 239 248 247 241 253 249
247 255 255 243 255 251 243 255 251 243 254 250 246 252 250
250 252 251 253 253 253 255 254 255 255 254 255 255 255 255
255 255 255 255 255 255 255 255 255 255 255 255 255 255 255
255 254 255 255 255 255 255 255 255 255 255 255 254 255 255
253 255 254 250 255 251 250 255 251 250 255 251 250 255 251
250 251 253 253 253 255 253 254 255 251 255 255 248 253 255
245 254 253 244 254 255 244 255 254 248 255 255 241 252 248
240 249 246 250 255 252 254 255 253 254 255 250 251 252 247
253 252 248 249 245 244 255 252 255 255 248 255 235 210 229
191 152 183 132 79 123 108 40 97 130 49 118 149 55 139 166 61 154
180 65 169 181 58 172 172 44 163 165 33 155 165 30 158 172 32 165
178 30 168 183 35 175 183 37 174 176 34 168 174 34 165 178 39 168
181 40 168 181 38 164 189 42 172 185 34 165 198 42 175 201 44 177
192 34 171 205 47 184 209 52 191 184 30 164 199 49 174 198 50 170
199 54 173 200 61 178 198 65 180 185 61 171 166 50 157 148 43 144
123 32 125 130 52 136 149 85 161 177 124 192 198 154 213 205 171 222
206 178 226 205 182 228 199 177 223 195 180 223 192 186 224
193 198 230 197 213 239 201 226 248 202 233 251 204 236 251
204 230 245 190 209 224 195 206 224 215 217 238 225 220 243
224 211 237 197 181 208 155 141 164 126 120 132 195 194 200
245 246 251 249 253 255 240 248 250 232 242 241 233 243 242
248 255 255 233 243 244 251 255 255 248 251 255 244 243 249
224 218 228 127 116 130 76 62 77 152 141 158 166 163 182 174 175 195
175 178 197 179 182 201 193 196 215 199 204 223 199 202 221
200 203 222 190 193 210 175 178 195 178 180 195 200 202 215
210 212 225 198 198 210 186 186 198 188 186 199 178 176 187
165 164 172 128 127 135 83 82 90 71 70 78 111 110 116 177 176 182
224 223 229 242 241 247 243 241 246 245 243 248 249 247 252
252 250 255 254 252 255 253 251 255 252 250 253 245 245 247
246 246 246 247 247 247 249 249 249 252 252 252 254 254 254
255 255 255 255 255 255 255 255 255 255 255 255 254 254 254
253 253 251 253 253 253 254 254 252 255 255 255 255 255 255
255 255 255 255 255 255 255 255 255 255 255 255 255 255 255
255 255 255 255 255 255 255 255 255 255 255 255 255 255 255
255 255 255 255 255 255 255 255 255 255 255 255 255 255 255
255 255 255 255 255 255 255 255 255 255 255 255 255 255 255
255 255 255 255 255 255 255 255 255 255 255 255 255 255 255
255 255 255 255 255 255 255 255 255 255 255 255 255 255 255
255 255 255 255 255 255 255 255 255 255 255 255 255 255 255
255 255 255 255 255 255 255 255 255 255 255 255 255 255 255
255 255 255 255 255 255 255 255 255 255 255 255 255 255 255
255 255 255 255 255 255 255 255 255 255 255 255 255 255 255
255 255 255 255 255 255 255 255 255 255 255 255 255 255 255
255 255 255 255 255 255 255 255 255 255 255 255 255 255 255
255 255 255 255 255 255 255 255 255 255 255 255 255 255 255
255 255 255 255 255 255 255 255 255 255 255 255 255 255 255
255 255 255 255 255 255 255 255 255 255 255 255 255 255 255
255 255 255 255 255 255 255 255 255 255 255 255 255 255 255
255 255 255 255 255 255 255 255 255 255 255 255 255 255 255
255 255 255 255 255 255 255 255 255 255 255 255 255 255 255
255 255 255 255 255 255 255 255 255 255 255 255 255 255 255
255 255 255 254 252 255 254 252 255 255 253 255 255 253 255
254 254 255 254 254 255 255 255 255 255 255 255 252 254 253
252 254 253 250 254 253 250 254 253 249 255 253 249 255 253
249 255 253 250 254 253 255 253 254 255 254 252 255 254 252
253 255 252 249 254 250 248 255 248 247 255 249 249 255 251
246 255 250 251 255 253 252 254 253 239 239 239 247 242 246
255 251 255 255 244 252 236 213 229 255 218 245 213 157 194
149 83 129 122 45 99 142 50 117 173 66 144 178 58 148 167 35 136
172 30 140 184 35 153 201 49 170 218 65 189 223 73 198 215 67 191
197 51 176 180 40 165 172 39 166 173 43 169 178 45 170 178 44 167
171 36 156 169 32 146 176 38 149 186 49 155 185 53 154 177 49 146
166 43 134 158 41 129 153 41 127 144 39 121 136 35 115 128 32 106
115 24 93 118 32 97 125 39 104 125 43 107 120 42 104 112 38 99
109 35 98 106 34 97 117 45 109 115 43 107 116 40 105 118 39 105
120 37 105 124 39 107 130 40 112 131 41 115 142 47 128 145 47 130
148 44 131 152 41 133 162 42 142 175 45 153 187 48 163 193 49 170
177 31 156 173 24 154 173 26 159 176 32 166 172 32 167 173 37 173
182 47 185 187 53 188 172 37 165 172 39 164 169 41 164 167 41 164
165 43 164 167 45 166 175 50 170 181 54 171 184 53 165 185 58 163
179 61 155 158 53 135 132 46 111 137 67 121 186 129 174 232 191 223
255 235 254 255 239 249 254 243 251 252 247 253 251 252 255
248 254 254 243 255 253 239 254 251 239 254 249 240 255 250
243 255 251 246 255 252 251 253 252 253 253 251 255 252 253
255 252 253 255 254 255 255 254 255 255 254 255 255 254 255
255 254 255 255 254 255 255 254 255 255 254 255 253 251 254
252 252 254 252 252 254 251 253 252 250 254 253 251 255 252
252 255 253 252 255 253 250 251 253 250 251 253 247 251 252
246 252 252 244 253 252 241 253 253 238 252 252 237 251 251
243 255 253 248 255 255 249 255 255 252 255 255 251 251 249
249 245 244 255 252 249 255 252 253 254 243 247 253 238 245
249 225 241 190 154 180 112 59 101 105 36 91 143 57 128 152 52 138
166 54 152 171 49 158 174 45 163 181 47 170 187 48 177 187 47 178
182 40 174 179 34 171 171 20 161 179 28 169 183 37 174 181 40 171
178 41 170 177 43 168 175 41 164 173 35 157 177 33 157 183 34 160
188 34 164 191 36 166 195 39 174 199 43 179 202 47 185 203 49 183
202 47 175 204 50 174 206 51 178 206 56 181 205 59 183 202 60 182
193 58 178 185 58 173 180 64 173 156 51 152 136 42 136 135 55 140
157 86 162 182 121 190 204 149 214 213 168 227 221 180 236
205 175 225 188 171 216 183 179 216 186 195 226 192 212 236
193 222 240 194 223 237 182 208 221 207 225 239 214 223 240
226 225 243 231 222 243 185 170 193 143 123 150 150 132 154
202 197 204 230 231 233 243 247 248 240 246 246 242 251 250
239 249 248 231 241 242 234 244 245 242 250 252 232 240 243
241 244 249 205 204 212 130 127 136 95 87 100 115 104 120 157 148 165
186 184 205 188 193 213 191 193 214 190 193 212 190 193 212
184 187 204 189 190 208 204 206 221 212 211 227 202 201 215
194 192 205 197 195 206 208 206 217 205 203 214 177 174 185
146 143 152 79 78 84 83 82 87 120 119 124 185 184 189 235 234 239
248 247 252 245 244 249 246 245 250 244 243 248 244 243 248
244 243 248 247 246 251 250 249 254 252 251 255 251 250 255
250 250 252 248 248 250 249 249 249 250 250 250 250 250 250
251 251 251 252 252 252 253 253 253 253 253 253 254 254 254
253 253 253 251 251 251 250 250 250 250 250 250 251 251 251
253 253 253 254 254 254 255 255 255 255 255 255 255 255 255
255 255 255 255 255 255 255 255 255 255 255 255 255 255 255
255 255 255 255 255 255 255 255 255 255 255 255 255 255 255
255 255 255 255 255 255 255 255 255 255 255 255 255 255 255
255 255 255 255 255 255 255 255 255 255 255 255 255 255 255
255 255 255 255 255 255 255 255 255 255 255 255 255 255 255
255 255 255 255 255 255 255 255 255 255 255 255 255 255 255
255 255 255 255 255 255 255 255 255 255 255 255 255 255 255
255 255 255 255 255 255 255 255 255 255 255 255 255 255 255
255 255 255 255 255 255 255 255 255 255 255 255 255 255 255
255 255 255 255 255 255 255 255 255 255 255 255 255 255 255
255 255 255 255 255 255 255 255 255 255 255 255 255 255 255
255 255 255 255 255 255 255 255 255 255 255 255 255 255 255
255 255 255 255 255 255 255 255 255 255 255 255 255 255 255
255 255 255 255 255 255 255 255 255 255 255 255 255 255 255
255 255 255 255 255 255 255 255 255 255 255 255 255 255 255
255 255 255 255 255 255 255 255 255 255 255 255 255 255 255
255 255 255 255 255 255 255 255 255 255 255 255 255 255 255
255 255 255 255 255 255 255 255 255 255 255 255 255 255 255
255 255 255 255 255 255 255 255 255 254 252 253 254 252 253
255 253 254 255 253 254 254 254 254 254 254 254 254 255 255
254 255 255 252 254 253 252 254 253 250 254 255 250 254 255
250 254 255 250 254 255 249 255 255 250 254 255 255 254 255
255 254 255 254 252 253 252 254 251 252 255 253 251 255 251
249 255 251 249 255 251 245 251 247 252 254 253 255 254 255
255 251 255 255 249 255 255 244 255 251 228 248 244 208 236
165 108 151 126 56 108 117 37 98 154 63 132 169 66 145 154 37 128
164 35 136 201 63 174 207 62 181 200 50 175 195 45 171 200 51 179
202 57 186 198 55 183 189 50 177 186 50 176 186 52 175 182 48 171
177 43 164 174 41 158 177 45 157 178 48 156 172 45 148 163 39 135
150 31 121 145 33 119 137 33 112 126 28 103 116 22 96 110 23 92
109 26 94 110 32 94 105 32 87 102 34 83 99 31 80 90 27 74 83 24 72
89 33 80 106 50 97 119 66 112 113 59 108 104 50 99 95 37 87 88 28 79
90 25 79 96 29 83 101 30 86 103 32 90 109 37 100 104 29 94 108 27 96
124 36 110 146 47 130 159 50 141 165 47 144 167 42 146 183 51 161
181 47 162 177 39 160 175 36 161 175 36 163 165 28 157 164 29 158
176 41 170 174 41 166 167 37 159 160 34 157 158 36 157 160 40 163
165 46 166 170 46 166 173 45 164 178 47 161 175 45 153 182 57 157
183 70 158 156 58 133 126 41 106 132 59 115 157 98 142 205 165 192
247 215 236 255 246 255 255 241 255 246 234 244 254 249 255
254 255 255 246 251 254 243 252 251 243 254 250 246 255 252
250 255 252 254 255 253 254 255 250 254 253 251 253 252 250
255 253 255 255 253 255 255 253 255 255 253 255 255 253 255
255 253 255 255 253 255 255 253 255 255 250 255 253 251 254
253 251 254 253 251 254 253 253 255 254 254 254 255 255 255
255 255 255 252 254 253 248 252 251 245 251 249 244 253 250
244 255 251 244 254 253 240 252 250 238 248 247 241 250 249
246 252 252 252 253 255 254 252 255 255 249 254 255 243 250
247 232 239 239 219 228 255 247 255 246 217 235 182 146 172
116 69 105 99 35 85 120 42 104 146 52 130 161 55 145 169 50 152
169 41 154 170 35 155 176 37 162 187 43 174 191 47 179 187 43 177
182 36 171 181 30 169 181 33 171 178 34 166 169 32 161 167 34 159
170 41 160 174 45 163 178 47 163 180 46 161 189 50 167 183 41 161
179 35 158 183 39 163 174 31 157 168 28 153 185 45 168 185 43 163
188 46 164 191 49 169 190 51 170 189 50 169 188 50 171 188 55 174
187 58 174 174 52 163 184 71 177 186 80 181 160 60 156 119 29 117
107 22 107 134 55 136 167 97 170 193 133 197 209 162 217 223 186 238
211 188 232 185 177 214 175 179 208 191 203 227 212 227 246
215 228 245 223 232 249 211 214 231 206 205 221 201 194 212
158 149 168 143 130 148 177 169 184 234 233 239 243 247 250
242 246 247 234 240 240 236 242 242 236 245 244 239 248 247
248 255 255 243 249 249 237 241 244 230 229 234 148 145 152 77 71 81
115 107 118 167 156 170 163 154 171 181 176 196 193 191 212
200 197 218 200 197 218 205 202 223 203 200 219 198 194 211
198 194 209 206 202 217 198 194 208 189 185 199 169 166 177
126 120 132 85 79 89 85 79 89 111 105 115 191 188 195 215 214 219
243 242 247 254 253 255 251 250 255 247 246 251 248 247 252
250 249 254 248 247 252 247 246 251 246 245 250 247 246 251
249 248 253 251 250 255 252 251 255 251 251 253 253 253 255
253 253 253 252 252 252 252 252 252 251 251 251 251 251 251
251 251 251 251 251 251 253 253 253 252 252 252 251 251 251
250 250 250 250 250 250 251 251 251 252 252 252 253 253 253
255 255 255 255 255 255 255 255 255 255 255 255 255 255 255
255 255 255 255 255 255 255 255 255 255 255 255 255 255 255
255 255 255 255 255 255 255 255 255 255 255 255 255 255 255
255 255 255 255 255 255 255 255 255 255 255 255 255 255 255
255 255 255 255 255 255 255 255 255 255 255 255 255 255 255
255 255 255 255 255 255 255 255 255 255 255 255 255 255 255
255 255 255 255 255 255 255 255 255 255 255 255 255 255 255
255 255 255 255 255 255 255 255 255 255 255 255 255 255 255
255 255 255 255 255 255 255 255 255 255 255 255 255 255 255
255 255 255 255 255 255 255 255 255 255 255 255 255 255 255
255 255 255 255 255 255 255 255 255 255 255 255 255 255 255
255 255 255 255 255 255 255 255 255 255 255 255 255 255 255
255 255 255 255 255 255 255 255 255 255 255 255 255 255 255
255 255 255 255 255 255 255 255 255 255 255 255 255 255 255
255 255 255 255 255 255 255 255 255 255 255 255 255 255 255
255 255 255 255 255 255 255 255 255 255 255 255 255 255 255
255 255 255 255 255 255 255 255 255 255 255 255 255 255 255
255 255 255 255 255 255 255 255 255 255 255 255 255 255 255
255 255 255 255 255 255 255 255 255 255 255 255 255 255 255
255 255 255 254 253 251 254 253 251 255 254 252 255 253 254
254 254 254 254 254 254 254 255 255 254 255 255 252 254 253
252 254 253 250 254 255 250 254 255 250 254 255 250 254 255
249 255 255 250 254 255 254 252 255 252 250 253 250 248 251
249 251 250 251 255 250 251 255 251 249 255 250 249 255 249
254 255 253 254 252 253 252 241 249 254 236 252 255 237 255
248 213 243 189 149 184 135 82 126 109 34 93 131 41 111 152 55 132
168 63 147 178 63 156 184 57 160 187 51 162 188 44 165 211 62 188
202 51 182 198 48 181 200 55 186 195 54 185 180 43 173 170 37 165
169 36 161 162 29 148 180 47 162 184 52 164 165 37 146 155 30 134
158 38 135 154 41 131 140 35 119 135 37 114 128 37 107 119 34 101
111 33 93 106 35 93 109 42 96 112 49 102 114 56 104 151 99 137
176 129 161 215 168 202 244 200 233 255 216 247 255 219 250
254 219 249 252 219 250 255 228 255 255 228 255 255 228 255
255 225 255 255 212 248 234 188 225 209 159 197 189 138 179
141 93 135 122 70 116 101 44 95 91 28 83 97 23 86 116 33 103
148 55 135 177 75 161 171 60 154 176 57 157 166 40 147 164 33 145
180 45 163 180 45 165 177 39 161 182 47 168 176 44 166 168 40 161
161 37 157 158 39 159 162 42 165 166 46 169 169 45 167 170 42 163
178 46 165 172 40 152 171 41 147 179 58 155 185 73 159 171 70 146
145 54 123 121 44 100 131 73 114 181 134 166 240 197 225 255 230 255
255 237 255 255 242 255 255 245 255 250 245 252 250 251 255
249 253 254 250 254 253 251 255 252 254 255 251 254 255 251
254 255 249 255 254 250 255 252 255 255 252 255 255 251 255
255 251 255 255 251 255 255 251 255 255 251 255 255 251 255
255 253 255 255 253 255 255 253 255 255 252 255 255 251 255
254 252 255 255 251 255 253 253 253 252 254 251 246 253 246
241 251 243 243 252 247 246 255 250 246 255 252 243 252 251
241 247 247 254 255 255 255 254 255 255 250 255 249 236 246
251 231 243 255 236 252 255 240 255 255 237 255 240 202 227
185 142 170 109 57 95 93 31 78 137 62 121 154 64 136 146 42 127
159 43 140 166 38 147 174 39 157 181 41 164 183 38 167 179 34 165
177 31 164 180 34 169 184 38 173 177 29 165 181 35 168 181 42 171
178 46 168 171 46 163 168 45 159 165 45 153 163 43 149 163 40 146
171 45 152 169 42 149 169 39 148 171 43 154 167 40 153 165 41 153
175 51 163 162 39 146 165 42 148 169 46 153 175 49 159 178 52 162
182 54 167 185 56 172 187 60 175 190 66 178 180 58 167 175 55 163
181 66 170 186 74 176 173 65 164 149 44 139 125 29 118 138 56 132
150 81 146 175 117 176 200 156 209 212 183 229 209 191 229
194 184 218 180 176 203 195 191 216 208 205 226 228 223 243
208 204 221 155 148 164 142 136 150 189 183 197 233 230 241
235 236 241 235 240 243 234 239 242 231 237 237 232 236 237
235 239 240 244 248 249 254 255 255 239 240 242 216 216 218
159 157 160 96 91 97 107 100 108 160 152 163 186 176 187 196 188 203
201 192 211 220 212 233 217 208 229 195 187 208 193 185 206
199 192 210 195 186 203 186 178 193 163 155 170 142 134 147 98 90 103
75 67 78 118 110 121 200 193 201 249 239 250 247 240 248 253 251 255
255 254 255 255 254 255 242 241 246 240 239 244 254 253 255
255 254 255 255 254 255 253 252 255 251 250 255 249 248 253
249 248 253 250 249 254 252 251 255 253 252 255 253 253 255
255 255 255 254 254 254 254 254 254 253 253 253 252 252 252
251 251 251 251 251 251 250 250 250 255 255 255 255 255 255
254 254 254 253 253 253 253 253 253 254 254 254 255 255 255
255 255 255 255 255 255 255 255 255 255 255 255 255 255 255
255 255 255 255 255 255 255 255 255 255 255 255 255 255 255
255 255 255 255 255 255 255 255 255 255 255 255 255 255 255
255 255 255 255 255 255 255 255 255 255 255 255 255 255 255
255 255 255 255 255 255 255 255 255 255 255 255 255 255 255
255 255 255 255 255 255 255 255 255 255 255 255 255 255 255
255 255 255 255 255 255 255 255 255 255 255 255 255 255 255
255 255 255 255 255 255 255 255 255 255 255 255 255 255 255
255 255 255 255 255 255 255 255 255 255 255 255 255 255 255
255 255 255 255 255 255 255 255 255 255 255 255 255 255 255
255 255 255 255 255 255 255 255 255 255 255 255 255 255 255
255 255 255 255 255 255 255 255 255 255 255 255 255 255 255
255 255 255 255 255 255 255 255 255 255 255 255 255 255 255
255 255 255 255 255 255 255 255 255 255 255 255 255 255 255
255 255 255 255 255 255 255 255 255 255 255 255 255 255 255
255 255 255 255 255 255 255 255 255 255 255 255 255 255 255
255 255 255 255 255 255 255 255 255 255 255 255 255 255 255
255 255 255 255 255 255 255 255 255 255 255 255 255 255 255
255 255 255 255 255 255 255 255 255 255 255 255 255 255 255
255 255 255 255 255 255 253 254 249 253 254 249 254 255 250
254 254 252 254 254 252 254 254 252 254 255 253 254 255 253
252 254 253 252 254 253 250 254 255 250 254 255 250 254 255
250 254 255 250 254 255 252 253 255 248 246 251 246 244 249
244 242 245 244 246 245 247 252 246 249 255 248 248 255 247
248 253 247 255 255 253 244 235 240 249 228 243 255 231 255
236 194 232 171 119 167 117 58 112 104 32 96 146 51 132 173 64 155
183 69 164 174 54 154 170 40 149 184 45 162 199 55 179 206 57 187
195 43 178 192 41 178 193 45 181 194 52 188 186 50 182 170 41 170
162 37 165 164 38 161 168 37 151 169 38 144 162 35 138 152 32 129
146 33 123 140 35 119 128 34 110 117 32 99 104 29 88 93 26 79
91 32 80 112 59 103 153 106 148 204 159 198 241 201 238 255 223 254
255 235 255 255 237 251 255 237 253 255 237 252 255 238 252
255 242 255 255 247 255 255 250 255 255 248 255 255 241 255
249 232 248 248 229 248 255 234 253 255 239 255 255 240 255
255 242 255 255 234 255 243 217 242 210 179 210 160 123 157
108 63 102 82 26 73 88 23 79 109 33 97 145 57 131 163 64 146
159 48 140 155 37 134 173 46 151 185 52 161 184 48 159 187 50 164
174 42 161 168 43 161 167 43 163 164 45 165 165 45 168 166 46 169
167 44 168 168 42 165 174 42 164 175 42 161 172 38 151 168 38 144
173 49 147 178 61 150 171 62 145 153 56 127 121 42 99 113 45 92
154 93 135 233 178 217 255 236 255 255 240 255 255 233 255
255 240 255 255 247 255 251 249 254 250 250 250 249 251 248
250 252 247 249 254 247 252 255 246 254 255 249 255 253 254
255 252 255 255 252 255 255 252 255 255 252 255 255 252 255
255 252 255 255 252 255 255 253 255 255 252 255 255 251 255
255 250 254 254 249 255 254 249 255 255 248 255 252 250 251
248 253 246 242 252 241 239 249 240 241 251 242 244 254 246
247 253 249 247 249 248 244 242 245 253 246 253 253 241 251
255 234 249 255 235 254 255 240 255 255 234 255 246 203 233
215 168 200 149 94 133 100 39 81 96 28 77 130 52 110 144 54 124
155 52 135 165 50 145 161 34 139 170 36 151 183 41 163 192 46 173
191 41 174 181 31 165 174 27 160 177 29 165 182 36 169 186 42 173
182 42 167 175 41 162 166 42 156 160 43 150 158 47 150 161 53 152
166 59 153 162 53 146 162 53 146 166 55 149 166 55 149 162 52 147
163 56 152 164 59 154 157 53 148 155 54 146 152 52 142 150 47 139
150 45 140 155 45 144 161 46 149 166 46 152 168 46 155 178 52 162
184 56 167 193 62 176 195 64 178 191 58 173 185 53 165 188 56 168
188 65 169 153 47 135 133 42 119 126 44 116 141 72 137 171 116 174
198 154 205 205 172 217 202 174 214 201 177 211 200 180 208
188 172 198 156 143 163 136 128 143 174 171 182 232 230 241
254 254 255 247 252 255 236 241 244 230 235 238 233 237 240
240 241 243 247 247 249 246 246 246 241 240 238 249 245 246
174 168 170 96 90 92 90 84 88 151 141 149 171 161 170 166 159 167
211 200 214 204 191 209 211 198 218 207 192 213 200 187 205
200 187 205 183 170 187 146 133 150 119 107 121 107 95 109
131 119 131 181 171 182 236 226 235 255 250 255 253 243 251
245 233 243 245 238 245 255 253 255 240 239 244 238 237 242
255 254 255 255 254 255 255 254 255 247 246 251 248 247 252
255 254 255 254 253 255 252 251 255 251 250 255 253 252 255
254 253 255 255 254 255 254 254 255 254 254 255 254 254 254
254 254 254 254 254 254 254 254 254 253 253 253 253 253 253
253 253 253 255 255 255 255 255 255 255 255 255 255 255 255
255 255 255 255 255 255 255 255 255 255 255 255 255 255 255
255 255 255 255 255 255 255 255 255 255 255 255 255 255 255
255 255 255 255 255 255 255 255 255 255 255 255 255 255 255
255 255 255 255 255 255 255 255 255 255 255 255 255 255 255
255 255 255 255 255 255 255 255 255 255 255 255 255 255 255
255 255 255 255 255 255 255 255 255 255 255 255 255 255 255
255 255 255 255 255 255 255 255 255 255 255 255 255 255 255
255 255 255 255 255 255 255 255 255 255 255 255 255 255 255
255 255 255 255 255 255 255 255 255 255 255 255 255 255 255
255 255 255 255 255 255 255 255 255 255 255 255 255 255 255
255 255 255 255 255 255 255 255 255 255 255 255 255 255 255
255 255 255 255 255 255 255 255 255 255 255 255 255 255 255
255 255 255 255 255 255 255 255 255 255 255 255 255 255 255
255 255 255 255 255 255 255 255 255 255 255 255 255 255 255
255 255 255 255 255 255 255 255 255 255 255 255 255 255 255
255 255 255 255 255 255 255 255 255 255 255 255 255 255 255
255 255 255 255 255 255 255 255 255 255 255 255 255 255 255
255 255 255 255 255 255 255 255 255 255 255 255 255 255 255
255 255 255 255 255 255 255 255 255 255 255 255 255 255 255
255 255 255 255 255 255 255 255 255 255 255 255 255 255 255
253 254 249 253 254 249 254 255 250 254 255 250 254 254 252
254 254 252 254 255 253 254 255 253 252 254 253 252 254 253
250 254 255 250 254 255 250 254 255 250 254 255 250 254 255
252 253 255 249 246 253 250 245 252 248 246 251 248 248 248
248 253 247 250 255 248 250 255 249 253 254 249 254 248 250
255 239 251 254 224 248 229 185 221 168 110 161 118 48 111 128 51 123
175 83 166 188 77 172 163 40 146 155 27 136 181 48 163 202 60 182
193 47 174 190 38 172 198 46 181 204 52 189 198 47 186 185 39 176
171 31 166 159 28 158 159 34 160 166 46 170 175 56 172 182 59 163
160 36 132 144 27 116 142 34 119 127 29 106 102 15 83 98 23 82
111 47 99 122 66 111 153 109 145 201 164 197 238 208 236 255 228 253
255 232 255 255 232 254 253 235 251 255 246 253 255 246 247
251 245 247 251 247 248 252 250 251 252 252 252 251 253 252
249 250 252 249 250 252 251 252 254 255 255 255 255 254 255
255 253 255 255 252 255 252 242 250 245 235 243 253 246 254
255 251 255 255 250 255 249 232 250 217 193 215 174 141 170
127 85 123 101 45 92 112 44 101 137 56 122 154 60 136 160 55 139
170 51 143 170 44 143 166 34 136 165 29 137 172 41 155 170 43 160
170 45 163 169 45 165 167 45 166 165 42 166 166 41 167 168 39 166
171 38 165 174 40 163 176 41 161 176 42 155 171 38 145 168 39 140
172 48 144 176 62 149 154 57 128 128 42 103 124 45 102 158 88 140
212 153 199 255 206 244 255 235 255 255 244 255 255 240 255
252 242 251 248 243 247 245 245 243 243 248 242 245 250 243
247 255 244 249 255 245 254 254 252 255 253 254 255 253 254
255 253 254 255 253 254 255 253 254 255 253 254 255 253 254
249 247 248 249 247 248 249 247 250 249 247 250 252 247 253
253 248 254 254 249 255 252 250 251 251 255 249 248 255 243
246 254 243 247 252 245 249 254 248 251 251 249 251 246 250
252 241 249 253 237 248 255 233 252 255 234 255 255 230 255
255 212 246 213 161 199 142 85 126 89 26 73 89 21 72 102 27 83
127 45 107 149 58 128 153 52 132 158 45 137 167 42 144 172 38 149
179 37 157 182 36 161 184 35 165 184 34 167 181 34 167 180 33 166
176 30 163 174 30 161 182 43 168 175 42 159 165 41 153 160 43 148
152 46 144 149 50 141 152 56 143 158 65 146 143 50 130 140 48 125
135 43 120 132 41 118 129 41 119 123 36 114 117 33 111 119 36 114
135 54 130 127 49 124 124 41 119 123 38 119 133 41 126 145 46 136
156 51 146 164 52 152 183 64 168 187 61 169 190 59 171 190 53 169
184 42 162 180 35 156 185 37 159 189 48 163 192 68 166 183 73 160
168 66 149 138 47 126 115 38 110 129 60 125 171 111 171 206 156 209
223 177 224 202 164 205 139 105 140 112 87 116 178 160 182
236 228 243 246 243 254 247 247 255 241 246 252 236 241 245
239 244 248 245 246 250 246 246 248 255 251 252 255 250 252
245 236 237 190 180 181 130 120 121 111 101 102 135 124 128
174 165 170 198 188 196 192 185 192 195 185 194 204 190 205
192 175 193 166 149 167 137 120 138 110 96 111 100 86 101 132 118 133
185 171 184 221 207 220 248 236 246 255 247 255 246 235 243
245 234 242 255 252 255 255 251 255 249 242 249 243 241 246
250 249 254 255 254 255 255 254 255 251 250 255 248 247 252
255 254 255 255 254 255 255 254 255 255 254 255 253 252 255
253 252 255 255 254 255 255 254 255 255 254 255 254 254 255
254 254 254 254 254 254 254 254 254 254 254 254 255 255 255
255 255 255 255 255 255 255 255 255 254 254 254 254 254 254
255 255 255 255 255 255 255 255 255 255 255 255 254 254 254
254 254 254 255 255 255 255 255 255 255 255 255 255 255 255
255 255 255 255 255 255 255 255 255 255 255 255 255 255 255
255 255 255 255 255 255 255 255 255 255 255 255 255 255 255
255 255 255 255 255 255 255 255 255 255 255 255 255 255 255
255 255 255 255 255 255 255 255 255 255 255 255 255 255 255
255 255 255 255 255 255 255 255 255 255 255 255 255 255 255
255 255 255 255 255 255 255 255 255 255 255 255 255 255 255
255 255 255 255 255 255 255 255 255 255 255 255 255 255 255
255 255 255 255 255 255 255 255 255 255 255 255 255 255 255
255 255 255 255 255 255 255 255 255 255 255 255 255 255 255
255 255 255 255 255 255 255 255 255 255 255 255 255 255 255
255 255 255 255 255 255 255 255 255 255 255 255 255 255 255
255 255 255 255 255 255 255 255 255 255 255 255 255 255 255
255 255 255 255 255 255 255 255 255 255 255 255 255 255 255
255 255 255 255 255 255 255 255 255 255 255 255 255 255 255
255 255 255 255 255 255 255 255 255 255 255 255 255 255 255
255 255 255 255 255 255 255 255 255 255 255 255 255 255 255
255 255 255 255 255 255 255 255 255 255 255 255 255 255 255
255 255 255 255 255 255 255 255 255 255 255 255 255 255 255
255 255 255 255 255 255 253 254 248 253 254 248 253 255 249
253 255 249 253 255 250 253 255 250 254 255 253 254 255 253
252 254 253 252 254 253 252 253 255 252 253 255 252 253 255
252 253 255 252 253 255 253 252 255 254 248 255 254 248 255
253 251 255 251 251 253 249 251 248 249 251 246 251 251 249
255 251 253 255 246 255 255 235 254 208 164 200 125 67 118 108 33 100
151 64 143 172 73 163 153 43 142 141 17 127 175 42 159 196 61 181
196 53 177 186 39 169 189 37 171 196 41 179 197 42 180 195 42 182
198 47 186 190 46 180 173 36 166 163 34 160 160 41 161 157 42 159
151 40 145 137 26 118 137 30 110 138 38 111 127 36 105 102 22 83
94 27 80 134 78 123 179 138 172 227 194 221 244 220 242 255 246 255
255 249 255 252 240 252 241 231 242 246 236 245 253 247 251
235 234 230 235 238 229 240 243 236 244 249 242 249 255 248
249 255 250 246 255 248 243 254 246 244 255 247 243 254 246
244 254 246 246 252 248 249 254 250 253 255 252 254 255 253
254 255 253 250 254 253 251 255 254 250 251 253 250 248 253
253 246 254 242 228 243 204 180 204 166 131 163 119 71 113 116 54 105
130 50 113 152 58 132 163 56 138 166 47 137 168 42 139 169 38 140
174 42 152 173 42 158 171 42 160 170 42 161 168 42 165 167 41 167
167 40 169 168 39 168 173 40 168 172 37 165 175 39 163 183 45 166
182 45 161 176 40 151 170 37 146 166 40 139 170 58 142 169 69 142
150 57 127 123 38 103 131 58 114 183 121 170 237 186 227 255 220 254
255 232 255 253 236 252 248 241 248 245 245 245 244 249 245
245 252 244 244 254 243 245 255 244 249 255 249 250 255 251
250 255 251 250 255 251 250 255 249 250 255 249 250 255 251
250 255 251 246 251 247 248 250 247 247 249 248 249 249 249
250 248 251 251 249 252 252 250 255 253 251 252 254 255 250
254 255 248 252 255 248 251 252 246 252 248 245 252 243 246
251 238 247 254 234 246 255 228 248 255 220 246 243 198 231
207 152 192 154 92 139 108 40 91 88 15 70 89 11 71 109 27 91
148 61 130 151 59 132 147 45 128 168 57 149 171 51 151 166 34 144
180 41 158 182 38 161 180 34 161 177 30 160 177 30 162 178 33 164
178 34 165 174 33 163 169 33 159 157 26 142 158 35 142 167 52 155
171 66 161 161 67 153 143 56 135 125 45 118 118 41 109 121 46 111
129 55 118 105 31 94 104 33 93 129 59 121 107 39 100 94 30 91
141 80 139 122 65 120 118 63 118 117 58 116 113 52 112 115 46 111
119 42 114 126 42 120 134 40 124 156 51 143 167 53 151 180 57 163
193 61 173 198 56 174 196 48 170 196 43 169 195 47 167 192 56 164
190 66 164 186 71 166 171 65 157 151 53 140 136 44 127 128 45 123
127 51 123 152 83 146 168 107 164 166 114 162 184 142 182 234 203 235
247 227 252 233 220 240 240 233 249 232 232 244 233 236 245
247 247 255 251 250 255 246 241 247 251 242 245 241 230 234
215 203 205 103 89 89 100 86 86 143 131 131 170 158 160 177 167 168
202 193 196 194 188 192 160 150 158 132 118 131 115 97 113 101 85 98
128 112 125 181 165 178 222 206 217 243 230 240 255 249 255
252 241 249 244 233 241 245 234 242 252 243 248 253 244 249
246 240 242 253 244 249 255 253 255 251 249 252 255 255 255
255 255 255 244 244 246 246 246 248 255 255 255 255 255 255
240 240 242 254 254 255 253 253 255 253 253 255 254 254 255
255 255 255 255 255 255 254 254 255 253 253 255 254 254 254
254 254 254 255 255 255 255 255 255 255 255 255 255 255 255
255 255 255 255 255 255 253 253 253 254 254 254 254 254 254
254 254 254 254 254 254 254 254 254 254 254 254 253 253 253
255 255 255 255 255 255 255 255 255 255 255 255 255 255 255
255 255 255 255 255 255 255 255 255 255 255 255 255 255 255
255 255 255 255 255 255 255 255 255 255 255 255 255 255 255
255 255 255 255 255 255 255 255 255 255 255 255 255 255 255
255 255 255 255 255 255 255 255 255 255 255 255 255 255 255
255 255 255 255 255 255 255 255 255 255 255 255 255 255 255
255 255 255 255 255 255 255 255 255 255 255 255 255 255 255
255 255 255 255 255 255 255 255 255 255 255 255 255 255 255
255 255 255 255 255 255 255 255 255 255 255 255 255 255 255
255 255 255 255 255 255 255 255 255 255 255 255 255 255 255
255 255 255 255 255 255 255 255 255 255 255 255 255 255 255
255 255 255 255 255 255 255 255 255 255 255 255 255 255 255
255 255 255 255 255 255 255 255 255 255 255 255 255 255 255
255 255 255 255 255 255 255 255 255 255 255 255 255 255 255
255 255 255 255 255 255 255 255 255 255 255 255 255 255 255
255 255 255 255 255 255 255 255 255 255 255 255 255 255 255
255 255 255 255 255 255 255 255 255 255 255 255 255 255 255
255 255 255 255 255 255 255 255 255 255 255 255 255 255 255
255 255 255 255 255 255 255 255 255 255 255 255 255 255 255
255 255 255 253 254 248 253 254 248 253 255 249 253 255 249
253 255 250 253 255 250 254 255 253 254 255 253 252 254 253
252 254 253 252 253 255 252 253 255 252 253 255 252 253 255
252 253 255 253 252 255 250 244 254 253 245 255 253 248 255
248 246 251 244 242 243 243 241 242 247 241 243 255 240 250
255 228 247 193 154 185 131 73 121 115 40 105 139 48 128 162 58 153
171 55 162 171 47 161 188 56 176 184 45 170 180 40 165 188 43 172
198 48 181 204 49 185 201 46 184 197 42 180 189 37 172 192 45 178
184 43 171 167 35 157 160 37 153 163 47 156 157 46 151 141 37 132
124 27 104 113 24 88 96 15 74 99 26 79 139 80 126 204 156 194
247 213 240 255 234 254 255 243 255 249 239 248 243 238 244
246 244 247 255 254 255 255 254 255 255 254 255 251 251 249
252 255 248 249 255 244 245 253 240 241 252 238 240 252 240
241 255 242 244 255 245 245 255 246 246 255 249 246 255 249
247 255 249 246 255 248 245 255 247 246 253 246 247 254 247
248 255 248 245 252 245 251 255 251 245 250 244 230 235 231
235 235 237 252 247 253 255 246 255 252 230 251 200 165 197
142 94 134 113 48 102 128 48 111 142 46 120 152 45 127 168 51 140
176 52 148 178 46 155 176 42 157 172 39 156 171 37 158 173 40 165
172 41 169 172 41 171 170 39 171 172 38 171 175 41 172 173 38 167
169 33 159 174 36 158 181 43 162 178 39 156 163 31 140 164 43 138
164 52 138 164 59 143 149 52 129 118 33 101 112 38 97 159 97 148
213 165 205 255 227 255 255 234 255 255 241 255 253 248 254
251 253 252 248 255 248 246 255 248 245 255 247 247 255 249
247 255 249 247 255 249 247 255 248 247 255 248 247 255 248
247 255 248 247 255 249 249 255 251 250 255 250 250 255 251
251 253 252 251 251 253 251 250 255 252 250 255 252 250 253
254 250 249 253 249 246 253 247 247 252 242 243 247 235 239
246 229 239 249 222 237 252 219 240 234 194 221 187 137 172
129 70 114 99 32 83 94 19 76 96 16 77 103 16 84 108 18 88 147 55 130
144 50 128 157 55 139 160 51 142 155 36 136 169 43 150 185 51 166
178 38 160 185 41 165 186 41 170 185 40 169 180 37 165 173 34 161
169 35 160 172 39 164 174 47 164 176 55 161 162 50 148 150 47 138
139 45 129 127 45 121 116 44 110 115 49 110 119 59 113 181 123 174
196 138 188 150 92 140 145 89 136 186 133 179 140 91 136 118 71 117
205 162 205 255 231 255 255 227 255 248 210 249 220 177 220
184 137 183 151 97 149 132 68 128 125 53 119 132 46 121 139 41 126
151 42 135 167 46 149 180 50 159 189 50 167 198 53 174 203 58 177
193 55 167 182 50 159 175 48 155 176 57 161 183 68 169 177 69 168
160 59 151 143 47 136 113 22 102 118 36 110 172 100 164 234 173 230
249 202 248 240 204 242 240 213 244 241 223 247 253 244 255
240 236 250 244 238 250 249 241 252 250 239 247 246 233 240
206 191 196 145 129 130 112 96 96 116 100 100 159 145 145 177 165 165
155 145 146 125 119 119 97 93 94 86 80 84 138 125 135 203 187 198
247 234 244 253 240 249 253 240 250 255 244 253 253 242 250
250 239 245 255 246 251 252 243 248 246 240 244 247 241 243
252 248 249 255 254 255 255 254 255 255 254 255 255 254 255
245 245 247 242 242 244 252 252 254 255 255 255 255 255 255
255 255 255 255 255 255 252 252 254 252 252 254 252 252 254
254 254 255 255 255 255 255 255 255 253 253 255 251 251 253
255 255 255 255 255 255 255 255 255 255 255 255 255 255 255
255 255 255 255 255 255 255 255 255 254 254 254 255 255 255
255 255 255 255 255 255 255 255 255 255 255 255 255 255 255
254 254 254 255 255 255 255 255 255 255 255 255 255 255 255
255 255 255 255 255 255 255 255 255 255 255 255 255 255 255
255 255 255 255 255 255 255 255 255 255 255 255 255 255 255
255 255 255 255 255 255 255 255 255 255 255 255 255 255 255
255 255 255 255 255 255 255 255 255 255 255 255 255 255 255
255 255 255 255 255 255 255 255 255 255 255 255 255 255 255
255 255 255 255 255 255 255 255 255 255 255 255 255 255 255
255 255 255 255 255 255 255 255 255 255 255 255 255 255 255
255 255 255 255 255 255 255 255 255 255 255 255 255 255 255
255 255 255 255 255 255 255 255 255 255 255 255 255 255 255
255 255 255 255 255 255 255 255 255 255 255 255 255 255 255
255 255 255 255 255 255 255 255 255 255 255 255 255 255 255
255 255 255 255 255 255 255 255 255 255 255 255 255 255 255
255 255 255 255 255 255 255 255 255 255 255 255 255 255 255
255 255 255 255 255 255 255 255 255 255 255 255 255 255 255
255 255 255 255 255 255 255 255 255 255 255 255 255 255 255
255 255 255 255 255 255 255 255 255 255 255 255 255 255 255
255 255 255 255 255 255 255 255 255 255 255 255 255 255 255
255 255 255 255 255 255 255 255 255 255 255 255 255 255 255
255 255 255 255 255 255 253 255 249 253 255 249 253 255 249
253 255 249 253 255 250 253 255 250 253 255 250 253 255 250
253 255 252 254 255 253 254 255 255 253 255 254 252 253 255
250 251 253 249 249 251 249 247 252 242 236 246 247 239 250
250 243 251 255 252 255 246 239 246 247 236 244 255 249 255
245 218 237 211 172 201 140 87 131 104 33 93 139 51 129 173 68 163
168 48 156 167 38 157 188 54 179 189 53 179 185 46 173 186 45 173
196 51 182 202 52 185 200 48 182 197 45 179 197 46 177 180 34 161
167 24 148 176 41 159 181 55 163 157 38 140 141 31 126 136 31 123
114 19 100 98 20 80 102 36 84 132 73 117 187 137 174 240 201 230
255 239 255 255 248 255 255 250 255 249 247 250 248 250 249
249 251 250 251 253 250 251 253 250 250 251 246 250 249 245
249 248 243 247 250 241 246 252 242 246 252 242 246 254 243
247 255 244 246 255 245 246 255 247 246 255 248 245 255 248
245 255 248 246 255 248 248 255 248 248 255 248 249 254 248
249 254 250 251 253 248 251 253 248 253 254 248 251 254 247
249 251 246 251 253 250 254 254 255 255 249 255 255 241 255
250 226 250 245 208 241 148 95 141 99 32 86 133 52 118 150 58 131
155 54 134 159 46 136 174 44 150 179 43 154 179 42 158 178 40 161
175 39 163 173 38 166 174 38 170 174 40 173 173 39 172 169 38 170
170 39 169 175 42 170 173 39 164 171 36 157 176 38 159 181 47 162
174 49 153 157 39 135 160 46 141 176 72 159 155 61 139 103 20 90
99 27 90 140 82 133 222 176 215 236 201 231 255 231 253 255 250 255
255 253 255 252 254 253 251 255 254 251 255 253 245 255 247
245 255 247 246 255 248 247 255 247 247 255 248 247 255 248
248 255 248 248 255 250 240 252 242 244 254 246 251 255 252
254 255 255 253 253 255 251 250 255 251 248 255 255 248 255
255 243 252 255 246 255 255 240 252 253 231 244 254 227 244
247 215 236 210 170 196 168 121 153 134 79 118 106 43 88 96 26 80
117 37 98 124 37 105 114 23 93 123 25 102 146 47 127 156 57 140
156 53 142 156 49 143 159 45 143 164 43 149 171 43 156 180 45 163
186 46 169 186 46 171 178 37 165 180 41 168 170 36 159 168 38 160
174 49 167 171 48 165 178 60 170 166 56 153 154 54 142 128 37 117
102 22 95 114 45 110 161 102 158 208 156 205 228 181 225 255 221 255
249 207 243 190 149 183 155 114 148 155 115 149 123 88 120 116 82 115
166 137 167 227 205 228 245 226 248 251 232 254 255 232 255
255 229 255 255 223 255 238 197 237 191 142 189 131 68 125 109 34 101
127 40 118 135 37 124 169 58 153 176 55 160 170 42 151 175 43 155
181 47 162 181 47 162 179 48 164 176 49 164 175 52 166 177 59 169
184 68 177 187 74 178 166 55 157 145 42 134 133 39 123 151 69 143
186 117 180 218 161 216 236 188 236 239 205 242 234 214 241
239 226 246 247 232 251 245 228 244 254 236 248 234 214 225
148 129 135 81 62 64 101 83 83 117 102 99 120 106 105 111 101 99
117 109 107 143 137 137 186 184 185 231 226 230 255 247 252
254 243 251 250 239 247 248 237 243 247 237 245 250 241 246
253 247 251 255 250 252 254 250 251 254 250 251 253 251 252
253 251 252 253 253 253 253 253 251 254 254 252 254 254 254
248 248 250 249 249 251 252 252 254 254 254 255 255 255 255
255 255 255 254 254 255 253 253 255 254 254 255 254 254 255
254 254 255 254 254 255 254 254 255 254 254 255 254 254 255
254 254 255 255 255 255 255 255 255 255 255 255 255 255 255
255 255 255 255 255 255 255 255 255 255 255 255 255 255 255
255 255 255 255 255 255 255 255 255 255 255 255 255 255 255
255 255 255 255 255 255 255 255 255 255 255 255 255 255 255
255 255 255 255 255 255 255 255 255 255 255 255 255 255 255
255 255 255 255 255 255 255 255 255 255 255 255 255 255 255
255 255 255 255 255 255 255 255 255 255 255 255 255 255 255
255 255 255 255 255 255 255 255 255 255 255 255 255 255 255
255 255 255 255 255 255 255 255 255 255 255 255 255 255 255
255 255 255 255 255 255 255 255 255 255 255 255 255 255 255
255 255 255 255 255 255 255 255 255 255 255 255 255 255 255
255 255 255 255 255 255 255 255 255 255 255 255 255 255 255
255 255 255 255 255 255 255 255 255 255 255 255 255 255 255
255 255 255 255 255 255 255 255 255 255 255 255 255 255 255
255 255 255 255 255 255 255 255 255 255 255 255 255 255 255
255 255 255 255 255 255 255 255 255 255 255 255 255 255 255
255 255 255 255 255 255 255 255 255 255 255 255 255 255 255
255 255 255 255 255 255 255 255 255 255 255 255 255 255 255
255 255 255 255 255 255 255 255 255 255 255 255 255 255 255
255 255 255 255 255 255 255 255 255 255 255 255 255 255 255
255 255 255 255 255 255 255 255 255 255 255 255 255 255 255
255 255 255 255 255 255 255 255 255 255 255 255 255 255 255
255 255 255 255 255 255 255 255 255 253 255 250 253 255 249
253 255 249 253 255 249 253 255 250 253 255 250 253 255 250
253 255 250 251 253 250 251 253 250 252 254 251 252 254 253
251 253 252 250 252 251 250 250 250 250 248 251 245 239 249
250 242 253 254 244 255 255 245 255 251 238 248 255 235 250
248 220 242 213 174 203 126 73 115 117 48 105 128 42 115 159 59 149
177 57 163 170 38 158 177 36 166 196 52 184 195 54 184 189 48 176
189 45 176 197 52 183 203 56 188 200 53 183 194 48 175 191 45 170
178 36 156 178 44 157 160 33 138 150 32 128 152 44 130 131 30 110
109 12 89 109 27 91 112 53 97 161 116 149 226 185 215 255 229 252
255 242 255 255 244 254 248 243 249 241 243 242 246 251 247
246 253 246 247 254 247 249 254 248 251 254 247 251 252 246
253 250 245 252 249 244 248 249 243 249 250 242 248 251 244
249 252 245 248 253 246 248 253 246 249 254 247 248 255 248
250 255 249 250 255 249 250 255 251 250 255 251 252 254 251
252 254 251 253 253 251 253 253 251 255 251 248 255 253 248
253 252 247 251 250 246 251 251 249 254 254 254 253 251 255
254 244 255 255 247 255 254 225 253 228 186 224 176 122 171
111 43 102 97 21 86 141 55 128 165 66 148 167 45 144 173 40 149
176 40 151 178 40 159 179 41 163 179 40 169 174 37 169 171 35 169
174 42 177 170 40 174 169 39 171 170 41 170 169 39 165 167 34 159
171 35 159 174 41 160 174 46 157 175 52 158 160 41 143 145 34 129
156 53 142 163 70 150 139 57 129 110 40 102 103 45 95 181 135 174
244 209 241 247 223 247 241 227 242 255 249 255 255 253 255
249 249 251 250 255 251 249 255 249 249 255 249 247 255 248
246 255 248 246 255 246 246 255 247 245 255 246 251 255 251
252 255 253 253 253 255 253 251 255 255 250 255 254 246 255
252 241 255 253 236 254 255 240 255 255 232 255 251 215 243
224 185 214 189 146 176 151 104 138 121 66 105 104 43 85 119 51 98
123 49 102 136 54 116 144 55 123 128 32 106 110 9 89 125 20 104
156 50 138 163 58 150 160 55 150 160 50 149 163 46 151 168 44 156
173 44 160 178 44 165 182 43 168 172 33 158 165 29 153 172 40 162
169 41 160 174 51 167 178 62 173 163 50 158 155 49 149 136 38 125
106 18 96 102 25 95 148 82 144 207 152 207 242 196 242 250 212 251
251 217 250 253 223 251 254 224 250 223 193 217 169 139 163
125 97 120 110 85 107 128 104 128 156 139 158 180 168 182 219 211 222
235 227 238 237 227 238 234 222 236 241 224 242 254 232 255
249 218 249 233 192 232 160 106 156 114 48 109 96 16 89 138 46 129
163 60 151 160 50 147 159 39 145 171 40 156 175 40 160 178 44 165
178 48 170 181 53 174 183 58 178 187 62 182 191 66 184 191 66 183
182 62 172 165 53 155 142 41 133 127 38 118 139 62 132 181 112 177
213 160 212 228 192 230 234 208 237 255 232 255 255 234 255
231 206 225 165 141 154 83 62 69 53 33 35 104 86 86 121 107 104
146 135 133 183 175 172 229 224 221 255 253 250 255 255 255
255 254 255 254 249 253 254 248 252 252 246 250 252 246 250
251 246 250 252 247 251 254 250 251 254 252 253 252 250 251
251 251 251 251 251 251 249 251 250 248 250 247 248 250 247
247 249 246 247 249 246 246 246 246 247 247 249 250 250 252
252 252 254 254 254 255 255 255 255 254 254 255 254 254 255
254 254 255 254 254 255 254 254 255 254 254 255 254 254 255
254 254 255 254 254 255 254 254 255 255 255 255 255 255 255
255 255 255 255 255 255 255 255 255 255 255 255 255 255 255
255 255 255 255 255 255 255 255 255 255 255 255 255 255 255
255 255 255 255 255 255 255 255 255 255 255 255 255 255 255
255 255 255 255 255 255 255 255 255 255 255 255 255 255 255
255 255 255 255 255 255 255 255 255 255 255 255 255 255 255
255 255 255 255 255 255 255 255 255 255 255 255 255 255 255
255 255 255 255 255 255 255 255 255 255 255 255 255 255 255
255 255 255 255 255 255 255 255 255 255 255 255 255 255 255
255 255 255 255 255 255 255 255 255 255 255 255 255 255 255
255 255 255 255 255 255 255 255 255 255 255 255 255 255 255
255 255 255 255 255 255 255 255 255 255 255 255 255 255 255
255 255 255 255 255 255 255 255 255 255 255 255 255 255 255
255 255 255 255 255 255 255 255 255 255 255 255 255 255 255
255 255 255 255 255 255 255 255 255 255 255 255 255 255 255
255 255 255 255 255 255 255 255 255 255 255 255 255 255 255
255 255 255 255 255 255 255 255 255 255 255 255 255 255 255
255 255 255 255 255 255 255 255 255 255 255 255 255 255 255
255 255 255 255 255 255 255 255 255 255 255 255 255 255 255
255 255 255 255 255 255 255 255 255 255 255 255 255 255 255
255 255 255 255 255 255 255 255 255 255 255 255 255 255 255
255 255 255 255 255 255 255 255 255 255 255 255 255 255 255
255 255 255 255 255 255 255 255 255 255 255 255 255 255 255
251 255 252 251 255 250 251 255 250 251 255 250 251 255 250
251 255 250 253 255 250 253 255 250 250 252 247 251 253 248
253 254 249 254 254 252 254 254 252 253 253 251 252 252 250
252 250 251 249 244 251 250 240 251 253 241 253 252 235 251
255 240 255 255 230 254 206 165 199 153 100 144 101 32 89 130 47 117
159 59 145 170 55 156 169 40 156 174 33 161 190 42 178 204 56 194
198 54 186 190 49 179 190 46 177 195 51 182 199 54 183 195 52 178
188 46 168 181 44 160 171 39 148 166 41 141 144 29 120 132 27 109
125 29 101 100 14 77 105 24 82 141 75 121 204 161 191 234 207 226
255 242 255 255 248 255 251 241 249 248 246 249 251 253 252
249 255 251 245 255 247 245 255 246 249 255 248 250 255 248
253 254 248 254 253 248 255 250 247 255 250 247 252 248 245
251 250 245 251 250 246 252 251 247 252 251 247 253 252 248
253 252 248 253 253 251 254 253 251 254 253 251 254 252 253
254 252 253 254 252 253 254 252 253 254 252 253 255 252 253
255 250 248 255 250 249 255 250 248 253 248 245 253 249 248
254 252 253 255 250 254 253 246 254 255 249 255 251 229 250
255 235 255 236 194 234 151 97 147 109 46 103 118 49 112 143 57 132
165 52 144 171 44 147 172 40 149 174 40 153 180 40 162 181 40 168
177 37 168 171 35 169 175 43 178 170 40 174 164 39 169 165 40 168
166 40 166 166 37 163 169 36 161 171 39 159 172 43 159 173 49 159
160 40 146 150 35 138 162 55 151 170 70 158 151 60 140 128 46 118
120 50 112 113 53 105 150 101 146 222 182 217 255 227 255 249 224 246
250 228 249 255 249 255 255 249 255 251 249 250 250 248 249
247 247 245 246 248 245 247 249 246 249 249 247 250 250 248
251 249 250 250 245 249 252 242 251 255 246 255 255 248 255
255 246 255 255 237 255 255 223 255 236 189 231 203 150 196
163 107 154 136 78 126 115 56 104 103 39 89 110 40 92 127 53 106
139 58 116 140 54 117 138 45 115 130 32 107 122 19 100 124 19 104
143 33 122 162 51 145 164 56 155 161 53 155 161 48 154 164 46 156
169 45 159 173 44 163 174 40 161 172 38 161 171 37 160 164 32 152
168 41 158 166 45 158 171 58 164 174 66 168 147 43 142 124 28 118
111 27 105 115 40 107 152 88 148 215 162 214 254 213 255 253 221 255
240 215 245 238 216 239 245 226 246 253 234 253 254 233 250
181 160 177 94 73 90 106 88 104 148 131 149 128 116 130 144 136 147
206 203 210 231 230 235 225 224 229 218 217 222 218 215 222
242 234 245 255 246 255 249 226 252 236 202 237 200 153 199
115 54 113 96 23 92 119 35 113 146 54 139 154 49 144 164 40 152
172 38 159 175 43 165 178 45 170 177 46 174 177 46 176 175 44 174
175 42 170 180 45 173 188 56 178 190 65 182 179 62 169 155 50 145
139 43 130 142 55 136 148 75 144 165 113 162 193 152 192 244 204 239
241 204 235 182 150 173 116 88 103 106 83 93 159 140 144 202 186 186
235 224 220 255 253 248 255 254 250 255 252 249 240 241 236
235 235 235 242 242 242 248 246 247 249 247 248 250 248 249
252 250 251 252 250 251 250 250 250 250 250 250 249 249 249
251 251 251 250 252 251 250 252 249 247 252 248 246 251 247
246 251 247 245 250 246 247 249 246 245 245 245 246 246 246
249 249 249 252 252 252 253 253 253 254 254 254 255 255 255
254 254 254 254 254 254 254 254 254 254 254 254 254 254 254
254 254 254 254 254 254 254 254 254 254 254 254 255 255 255
255 255 255 255 255 255 255 255 255 255 255 255 255 255 255
255 255 255 255 255 255 255 255 255 255 255 255 255 255 255
255 255 255 255 255 255 255 255 255 255 255 255 255 255 255
255 255 255 255 255 255 255 255 255 255 255 255 255 255 255
255 255 255 255 255 255 255 255 255 255 255 255 255 255 255
255 255 255 255 255 255 255 255 255 255 255 255 255 255 255
255 255 255 255 255 255 255 255 255 255 255 255 255 255 255
255 255 255 255 255 255 255 255 255 255 255 255 255 255 255
255 255 255 255 255 255 255 255 255 255 255 255 255 255 255
255 255 255 255 255 255 255 255 255 255 255 255 255 255 255
255 255 255 255 255 255 255 255 255 255 255 255 255 255 255
255 255 255 255 255 255 255 255 255 255 255 255 255 255 255
255 255 255 255 255 255 255 255 255 255 255 255 255 255 255
255 255 255 255 255 255 255 255 255 255 255 255 255 255 255
255 255 255 255 255 255 255 255 255 255 255 255 255 255 255
255 255 255 255 255 255 255 255 255 255 255 255 255 255 255
255 255 255 255 255 255 255 255 255 255 255 255 255 255 255
255 255 255 255 255 255 255 255 255 255 255 255 255 255 255
255 255 255 255 255 255 255 255 255 255 255 255 255 255 255
255 255 255 255 255 255 255 255 255 255 255 255 255 255 255
255 255 255 255 255 255 255 255 255 255 255 255 255 255 255
255 255 255 255 255 255 255 255 255 255 255 255 255 255 255
255 255 255 250 254 253 250 255 251 250 255 251 250 255 249
250 255 251 250 255 249 252 254 249 252 254 249 252 254 249
253 255 250 255 255 251 255 255 250 255 255 251 254 255 249
253 254 248 253 252 250 253 248 254 246 236 247 254 240 255
254 233 252 255 234 255 243 202 236 156 103 147 106 38 95 141 58 128
163 65 150 175 63 161 171 47 159 173 37 161 188 42 175 201 48 190
202 49 191 198 50 186 194 49 180 192 47 178 191 46 177 189 46 174
184 44 167 180 42 161 174 44 153 168 46 147 136 23 113 135 32 111
131 40 107 93 14 71 96 24 72 162 97 139 214 165 195 255 229 246
254 241 250 255 245 251 251 245 249 250 248 249 253 255 252
250 255 250 243 253 245 247 255 248 247 255 248 251 255 249
254 255 250 255 255 251 255 253 250 255 251 251 255 251 251
255 251 248 255 251 248 255 251 248 255 252 249 255 252 251
255 253 252 255 253 252 255 253 252 255 253 254 255 253 254
255 253 254 255 253 254 255 252 255 255 252 255 255 252 255
255 252 254 255 250 251 255 251 250 255 250 248 253 248 245
252 248 245 255 251 250 255 252 253 254 248 252 251 241 250
254 237 253 255 236 255 251 217 250 237 194 237 177 127 176 97 42 97
105 34 100 155 57 140 166 51 146 169 47 148 172 44 153 175 40 158
178 38 161 177 38 167 175 38 170 173 42 174 166 39 170 163 38 168
164 39 167 168 42 168 171 42 168 171 41 165 173 41 163 170 41 160
165 41 155 164 42 153 172 52 160 172 57 160 153 46 142 147 47 135
162 69 150 150 67 139 111 37 100 99 34 90 141 83 133 198 150 192
239 195 231 255 224 255 255 242 255 255 239 255 255 240 254
255 239 253 255 239 250 254 241 251 255 243 252 255 246 255
255 246 255 255 243 255 255 241 255 255 240 255 255 235 255
254 219 252 227 186 226 192 147 190 168 115 167 141 75 137 124 52 118
114 39 106 122 46 111 133 54 119 136 54 118 144 59 124 158 69 135
155 63 130 145 48 119 123 22 98 108 3 85 119 11 96 145 35 124
161 48 140 159 48 143 162 51 154 160 48 156 161 45 154 165 44 157
169 44 161 172 43 162 170 38 160 168 34 155 177 45 165 165 38 155
165 42 156 159 43 150 163 55 156 164 63 157 134 38 128 111 23 107
82 9 78 145 84 143 218 165 217 246 205 249 238 208 244 228 208 236
226 213 233 229 218 235 240 229 243 242 230 242 255 242 255
181 167 180 82 66 79 118 102 115 161 147 162 94 82 94 117 112 119
196 195 201 226 227 231 220 224 227 218 224 224 212 217 220
216 220 223 223 220 229 237 226 242 255 238 255 253 217 253
170 120 169 121 60 119 112 39 108 132 50 126 140 41 131 164 43 149
172 39 158 173 39 160 175 42 167 174 43 173 172 41 173 170 34 170
167 29 166 180 40 175 180 43 175 187 53 178 193 65 184 194 74 182
181 71 170 162 58 153 142 53 133 142 74 135 137 81 130 147 96 139
150 104 140 162 123 150 184 153 171 211 187 200 255 240 244
248 237 235 255 252 246 255 254 248 252 251 246 253 254 249
253 255 252 254 255 255 254 255 255 248 248 248 249 249 249
250 250 250 252 252 252 252 252 252 251 251 251 249 251 250
248 250 249 250 252 251 251 253 252 251 253 250 252 254 251
252 254 251 253 255 252 253 255 252 254 255 253 248 248 248
249 249 249 251 251 251 252 252 252 254 254 254 254 254 254
254 254 254 254 254 254 255 255 255 255 255 255 255 255 255
255 255 255 255 255 255 255 255 255 255 255 255 255 255 255
255 255 255 255 255 255 255 255 255 255 255 255 255 255 255
255 255 255 255 255 255 255 255 255 255 255 255 255 255 255
255 255 255 255 255 255 255 255 255 255 255 255 255 255 255
255 255 255 255 255 255 255 255 255 255 255 255 255 255 255
255 255 255 255 255 255 255 255 255 255 255 255 255 255 255
255 255 255 255 255 255 255 255 255 255 255 255 255 255 255
255 255 255 255 255 255 255 255 255 255 255 255 255 255 255
255 255 255 255 255 255 255 255 255 255 255 255 255 255 255
255 255 255 255 255 255 255 255 255 255 255 255 255 255 255
255 255 255 255 255 255 255 255 255 255 255 255 255 255 255
255 255 255 255 255 255 255 255 255 255 255 255 255 255 255
255 255 255 255 255 255 255 255 255 255 255 255 255 255 255
255 255 255 255 255 255 255 255 255 255 255 255 255 255 255
255 255 255 255 255 255 255 255 255 255 255 255 255 255 255
255 255 255 255 255 255 255 255 255 255 255 255 255 255 255
255 255 255 255 255 255 255 255 255 255 255 255 255 255 255
255 255 255 255 255 255 255 255 255 255 255 255 255 255 255
255 255 255 255 255 255 255 255 255 255 255 255 255 255 255
255 255 255 255 255 255 255 255 255 255 255 255 255 255 255
255 255 255 255 255 255 255 255 255 255 255 255 255 255 255
255 255 255 255 255 255 255 255 255 255 255 255 255 255 255
255 255 255 255 255 255 255 255 255 255 255 255 255 255 255
255 255 255 255 255 255 249 255 255 249 255 253 250 254 253
250 255 251 250 254 253 250 255 251 252 254 251 252 254 249
253 255 250 253 255 249 255 255 250 254 255 247 254 253 248
253 253 245 251 251 243 250 249 244 255 250 254 249 239 248
255 247 255 255 230 252 237 197 231 191 140 183 124 56 113 110 29 98
162 67 151 169 59 156 172 50 159 177 43 164 189 48 178 201 53 189
202 49 191 195 39 182 200 48 185 201 51 185 198 48 182 190 43 175
181 36 165 176 36 159 173 40 155 170 47 153 161 50 144 128 29 111
114 27 95 105 32 87 103 42 84 153 102 135 231 187 212 255 234 251
255 245 252 251 245 247 251 247 246 254 253 251 253 254 249
248 250 245 248 253 246 251 255 250 250 255 249 251 255 249
252 255 251 254 255 251 255 255 253 255 255 253 255 253 254
255 253 254 255 254 253 255 254 251 255 254 253 255 254 253
255 254 253 255 254 253 255 253 255 255 253 255 255 252 254
255 252 254 255 252 255 255 252 255 255 252 255 255 252 255
255 252 255 255 253 254 255 250 251 255 252 250 255 251 247
251 248 243 250 247 242 252 251 246 254 253 249 255 251 250
247 241 243 255 250 255 255 247 255 255 231 255 255 241 255
222 184 223 113 70 115 98 40 98 125 45 118 145 47 134 161 54 148
171 55 156 174 46 157 173 38 158 174 35 162 174 37 166 176 42 173
171 42 171 166 39 168 165 40 168 168 42 168 173 44 170 176 43 168
173 41 163 169 39 161 173 45 164 167 42 159 164 40 152 171 49 158
169 52 156 162 50 148 159 53 143 146 47 130 151 59 134 136 53 121
110 34 96 117 46 104 162 98 150 210 150 201 228 175 219 255 216 252
255 223 254 255 228 255 255 234 255 255 235 255 255 233 255
255 229 254 255 224 250 239 198 230 225 181 216 200 152 192
173 120 166 150 90 144 129 65 125 116 47 112 111 35 107 122 34 118
135 41 129 149 53 140 158 63 147 159 62 143 153 54 134 151 50 128
150 49 125 138 34 111 143 39 116 137 30 112 121 13 98 124 14 101
145 32 122 159 46 138 158 44 142 159 46 152 161 45 156 164 43 156
167 44 160 172 44 163 174 42 162 172 38 159 169 35 156 171 39 158
161 34 149 163 43 151 158 46 148 159 54 147 157 58 148 132 38 124
115 33 109 107 43 104 175 125 176 239 197 243 245 215 253 228 209 237
224 215 236 224 220 235 217 215 226 229 226 235 231 226 233
254 244 253 193 181 191 100 87 97 130 117 127 160 146 159 83 71 83
97 91 103 180 178 189 214 214 222 213 218 222 219 227 229 219 227 229
218 223 226 213 214 218 241 235 245 240 225 244 252 223 253
227 184 227 175 116 170 102 32 95 112 32 103 152 57 141 167 44 148
172 38 151 171 38 157 174 42 164 178 47 175 180 49 181 180 43 182
177 39 178 174 33 173 176 35 173 181 41 174 186 52 177 190 63 180
189 69 177 178 65 169 164 64 154 151 68 140 134 63 123 105 41 93
82 27 69 134 89 122 220 185 209 252 228 241 255 242 248 255 252 251
255 255 250 247 248 242 243 246 239 254 255 251 252 255 253
247 251 250 241 245 244 253 255 252 253 255 252 253 255 252
253 255 252 255 255 255 255 255 255 255 255 255 255 255 255
254 254 254 254 254 254 254 254 254 255 255 255 255 255 255
255 255 255 255 255 255 255 255 255 253 253 253 254 254 254
254 254 254 254 254 254 254 254 254 254 254 254 254 254 254
254 254 254 255 255 255 255 255 255 255 255 255 255 255 255
255 255 255 255 255 255 255 255 255 255 255 255 255 255 255
255 255 255 255 255 255 255 255 255 255 255 255 255 255 255
255 255 255 255 255 255 255 255 255 255 255 255 255 255 255
255 255 255 255 255 255 255 255 255 255 255 255 255 255 255
255 255 255 255 255 255 255 255 255 255 255 255 255 255 255
255 255 255 255 255 255 255 255 255 255 255 255 255 255 255
255 255 255 255 255 255 255 255 255 255 255 255 255 255 255
255 255 255 255 255 255 255 255 255 255 255 255 255 255 255
255 255 255 255 255 255 255 255 255 255 255 255 255 255 255
255 255 255 255 255 255 255 255 255 255 255 255 255 255 255
255 255 255 255 255 255 255 255 255 255 255 255 255 255 255
255 255 255 255 255 255 255 255 255 255 255 255 255 255 255
255 255 255 255 255 255 255 255 255 255 255 255 255 255 255
255 255 255 255 255 255 255 255 255 255 255 255 255 255 255
255 255 255 255 255 255 255 255 255 255 255 255 255 255 255
255 255 255 255 255 255 255 255 255 255 255 255 255 255 255
255 255 255 255 255 255 255 255 255 255 255 255 255 255 255
255 255 255 255 255 255 255 255 255 255 255 255 255 255 255
255 255 255 255 255 255 255 255 255 255 255 255 255 255 255
255 255 255 255 255 255 255 255 255 255 255 255 255 255 255
255 255 255 255 255 255 255 255 255 255 255 255 255 255 255
255 255 255 255 255 255 255 255 255 255 255 255 255 255 255
255 255 255 255 255 255 255 255 255 255 255 255 255 255 255
255 255 255 249 255 255 249 255 255 250 254 255 250 254 253
250 254 253 250 254 253 252 254 251 252 254 249 251 253 248
252 255 248 253 254 246 252 253 245 252 252 244 250 250 240
248 248 238 246 246 238 255 250 252 255 246 255 255 247 255
247 217 243 186 141 180 131 71 123 117 41 106 146 53 134 166 59 153
168 48 154 171 39 158 179 40 167 191 45 178 199 48 187 199 46 188
200 44 187 205 48 189 207 50 189 204 49 187 191 41 175 179 34 163
173 35 157 169 41 154 164 48 149 142 39 128 133 45 119 92 18 77
83 24 68 154 109 140 232 197 219 255 236 249 255 248 254 255 253 253
248 247 243 241 242 237 248 249 243 249 250 244 246 247 241
251 254 247 254 255 250 254 255 250 254 255 251 254 255 251
255 255 253 255 255 255 255 254 255 255 254 255 255 254 255
255 255 253 255 255 251 255 255 253 255 255 253 255 255 253
255 254 253 255 254 255 255 254 255 255 254 255 255 254 255
255 253 255 255 254 255 255 254 255 255 254 255 255 254 255
255 254 255 255 254 252 255 255 250 254 253 248 248 248 240
246 247 239 250 251 243 253 254 246 255 254 249 255 254 251
255 252 255 255 250 255 255 239 255 255 234 255 243 212 244
175 141 178 121 75 122 90 25 91 119 38 117 151 57 145 169 62 158
175 54 160 172 41 157 170 35 156 170 34 160 178 45 173 176 45 175
170 43 172 167 41 167 167 41 166 173 43 167 175 41 164 172 38 161
169 39 161 175 47 168 170 42 161 164 37 154 172 45 158 173 49 159
167 46 151 164 45 145 168 55 147 163 58 143 161 60 140 149 55 129
129 39 109 115 30 97 127 47 110 146 72 131 157 93 145 162 103 151
173 116 161 182 125 168 181 126 166 172 117 157 159 104 144
151 94 137 149 90 136 140 76 128 123 54 111 108 33 98 106 24 96
118 31 109 138 46 129 154 58 148 169 63 164 171 60 165 163 52 155
156 44 144 158 47 142 164 53 145 165 52 140 157 45 131 139 27 111
147 35 119 145 33 119 133 20 108 129 16 106 140 27 119 153 39 134
158 44 142 161 45 152 163 45 157 169 46 162 171 46 163 177 45 165
177 43 164 175 41 162 175 42 161 169 38 154 160 34 144 167 48 152
166 54 152 160 55 147 147 49 134 121 30 110 110 33 103 158 103 158
198 159 204 241 209 248 246 225 255 229 219 243 218 215 232
209 211 223 203 206 213 219 220 225 232 229 236 255 249 255
219 208 216 145 132 142 134 121 131 141 127 140 101 89 103
112 103 120 174 170 185 203 201 214 208 211 220 213 221 224
214 222 224 218 226 228 217 221 224 218 215 222 237 223 240
255 241 255 255 221 255 193 135 186 89 19 81 102 22 91 161 64 145
176 51 151 178 42 152 172 38 153 172 39 158 177 44 171 180 46 177
178 41 180 175 36 177 168 27 168 172 29 170 177 35 171 182 45 175
190 58 180 191 67 181 183 66 173 169 62 158 154 59 140 167 85 151
144 69 128 83 19 69 100 48 86 184 146 171 236 209 224 252 237 242
243 238 235 255 255 250 252 255 250 251 255 250 250 255 252
247 252 248 247 251 250 252 255 255 254 255 253 253 255 252
253 253 251 253 253 251 253 253 253 255 253 254 255 254 255
255 254 255 255 254 255 255 254 255 255 254 255 255 254 255
255 253 254 255 253 254 255 252 253 255 252 253 255 254 255
255 255 255 255 255 255 255 255 255 255 255 255 254 254 254
254 254 254 254 254 254 255 255 255 255 255 255 255 255 255
255 255 255 255 255 255 255 255 255 255 255 255 255 255 255
255 255 255 255 255 255 255 255 255 255 255 255 255 255 255
255 255 255 255 255 255 255 255 255 255 255 255 255 255 255
255 255 255 255 255 255 255 255 255 255 255 255 255 255 255
255 255 255 255 255 255 255 255 255 255 255 255 255 255 255
255 255 255 255 255 255 255 255 255 255 255 255 255 255 255
255 255 255 255 255 255 255 255 255 255 255 255 255 255 255
255 255 255 255 255 255 255 255 255 255 255 255 255 255 255
255 255 255 255 255 255 255 255 255 255 255 255 255 255 255
255 255 255 255 255 255 255 255 255 255 255 255 255 255 255
255 255 255 255 255 255 255 255 255 255 255 255 255 255 255
255 255 255 255 255 255 255 255 255 255 255 255 255 255 255
255 255 255 255 255 255 255 255 255 255 255 255 255 255 255
255 255 255 255 255 255 255 255 255 255 255 255 255 255 255
255 255 255 255 255 255 255 255 255 255 255 255 255 255 255
255 255 255 255 255 255 255 255 255 255 255 255 255 255 255
255 255 255 255 255 255 255 255 255 255 255 255 255 255 255
255 255 255 255 255 255 255 255 255 255 255 255 255 255 255
255 255 255 255 255 255 255 255 255 255 255 255 255 255 255
255 255 255 255 255 255 255 255 255 255 255 255 255 255 255
255 255 255 255 255 255 255 255 255 255 255 255 255 255 255
255 255 255 255 255 255 255 255 255 255 255 255 255 255 255
255 255 255 255 255 255 255 255 255 255 255 255 255 255 255
255 255 255 255 255 255 248 253 255 248 253 255 248 253 255
248 254 254 249 253 252 249 253 252 251 253 250 251 253 248
252 253 248 252 253 247 253 254 246 253 255 244 253 253 243
251 251 239 250 250 238 249 249 239 255 249 249 255 245 253
253 232 249 223 189 216 146 98 140 102 34 93 128 44 119 162 62 152
166 51 154 171 44 159 176 40 164 184 40 171 189 41 177 194 43 182
199 46 188 205 48 191 207 45 190 210 47 190 203 44 186 193 38 176
183 36 168 177 39 161 166 39 152 152 40 140 120 25 109 117 37 108
102 39 92 130 84 121 211 179 203 255 243 255 255 247 251 248 244 243
252 251 247 246 245 240 246 245 240 255 255 250 255 255 250
255 255 248 250 250 242 249 248 243 255 255 250 255 255 251
255 255 253 254 254 254 254 254 255 254 255 255 254 255 255
254 255 255 255 255 253 255 255 250 255 255 251 255 255 251
255 255 251 255 255 251 255 255 253 255 255 253 255 255 253
255 255 253 255 254 255 255 255 255 255 255 255 255 255 255
255 255 255 254 255 253 253 255 250 252 255 250 250 255 248
244 250 240 244 247 236 248 251 240 252 255 244 255 255 246
255 255 248 249 244 241 253 242 248 255 244 255 251 230 249
255 233 255 231 205 234 152 115 156 79 28 87 107 39 112 138 56 138
159 63 153 170 55 158 171 44 157 171 37 158 172 36 162 175 42 170
176 45 173 174 45 172 169 40 166 168 38 162 173 41 163 178 40 162
176 38 160 174 42 164 172 42 164 170 40 162 176 44 164 177 46 162
166 35 149 164 36 145 179 52 157 165 40 140 164 45 139 161 46 137
158 48 134 161 56 138 161 60 136 143 47 121 119 29 99 110 28 94
114 36 98 120 45 104 126 51 108 124 51 106 118 45 100 110 37 92
105 30 87 115 37 97 125 43 109 142 52 126 153 58 139 163 60 149
167 60 154 171 59 159 175 59 166 173 52 168 168 44 164 162 39 155
164 40 152 176 53 159 184 62 163 174 54 151 159 40 132 156 39 128
149 32 120 137 23 111 128 15 103 127 14 104 136 23 115 148 37 131
159 47 145 161 43 153 167 46 161 173 48 166 175 47 166 177 43 164
176 41 162 177 42 162 178 43 163 175 44 158 159 33 141 166 47 149
168 57 151 159 55 142 136 39 120 111 20 97 108 33 98 158 108 159
191 159 200 231 205 240 237 223 249 224 219 239 213 217 229
213 220 228 214 221 227 213 216 221 235 234 239 251 244 251
240 229 237 195 182 192 136 120 131 111 95 108 122 108 125
135 123 145 157 149 172 178 174 191 208 207 221 218 222 231
211 216 222 214 219 223 211 214 219 216 210 220 241 224 242
255 238 255 255 216 255 203 140 193 109 35 96 113 28 96 144 41 122
184 56 153 184 44 149 173 37 147 171 37 152 173 41 163 175 42 170
171 35 171 166 27 168 181 40 181 176 35 176 169 28 166 167 30 160
177 45 167 188 63 180 192 72 182 185 73 173 173 71 155 165 72 143
138 56 120 106 36 90 142 85 126 212 172 199 243 216 233 250 237 244
249 248 246 252 255 251 248 255 247 244 254 245 249 255 253
251 255 253 251 255 254 254 255 255 252 252 250 252 252 250
252 251 249 252 251 249 253 251 252 255 251 252 255 252 253
255 253 254 255 253 255 255 253 255 255 253 255 255 253 255
255 251 255 255 251 255 255 249 255 255 250 255 255 254 255
255 255 255 255 255 255 254 254 254 254 254 254 254 254 254
254 254 254 255 255 255 255 255 255 255 255 255 255 255 255
255 255 255 255 255 255 255 255 255 255 255 255 255 255 255
255 255 255 255 255 255 255 255 255 255 255 255 255 255 255
255 255 255 255 255 255 255 255 255 255 255 255 255 255 255
255 255 255 255 255 255 255 255 255 255 255 255 255 255 255
255 255 255 255 255 255 255 255 255 255 255 255 255 255 255
255 255 255 255 255 255 255 255 255 255 255 255 255 255 255
255 255 255 255 255 255 255 255 255 255 255 255 255 255 255
255 255 255 255 255 255 255 255 255 255 255 255 255 255 255
255 255 255 255 255 255 255 255 255 255 255 255 255 255 255
255 255 255 255 255 255 255 255 255 255 255 255 255 255 255
255 255 255 255 255 255 255 255 255 255 255 255 255 255 255
255 255 255 255 255 255 255 255 255 255 255 255 255 255 255
255 255 255 255 255 255 255 255 255 255 255 255 255 255 255
255 255 255 255 255 255 255 255 255 255 255 255 255 255 255
255 255 255 255 255 255 255 255 255 255 255 255 255 255 255
255 255 255 255 255 255 255 255 255 255 255 255 255 255 255
255 255 255 255 255 255 255 255 255 255 255 255 255 255 255
255 255 255 255 255 255 255 255 255 255 255 255 255 255 255
255 255 255 255 255 255 255 255 255 255 255 255 255 255 255
255 255 255 255 255 255 255 255 255 255 255 255 255 255 255
255 255 255 255 255 255 255 255 255 255 255 255 255 255 255
255 255 255 255 255 255 255 255 255 255 255 255 255 255 255
255 255 255 255 255 255 255 255 255 255 255 255 255 255 255
255 255 255 255 255 255 248 253 255 248 253 255 248 253 255
249 253 254 249 253 254 251 253 252 251 253 252 252 252 250
253 254 249 254 255 249 255 255 248 255 255 248 255 255 246
255 255 245 254 254 242 255 253 244 254 249 246 248 235 242
229 205 221 200 163 194 132 79 125 99 29 91 140 51 131 153 48 143
152 32 140 167 35 155 182 41 169 194 47 180 200 49 186 201 48 188
200 45 185 196 39 180 206 43 188 206 43 188 198 39 181 188 36 171
183 40 168 175 43 162 157 40 147 136 35 127 108 24 102 87 18 81
131 79 127 210 173 206 246 223 243 252 240 250 255 252 253
249 249 247 248 247 243 255 254 250 255 254 251 254 250 247
250 247 242 253 250 245 255 255 250 255 255 250 255 255 251
255 255 253 254 254 254 254 254 254 254 254 255 253 254 255
254 255 255 254 255 255 253 255 252 253 255 250 253 255 252
253 255 252 254 254 252 254 254 252 254 254 252 254 254 252
255 255 253 255 255 253 255 255 255 255 255 255 254 255 255
254 255 253 254 255 255 254 255 253 251 255 252 251 255 253
250 255 249 244 249 242 243 246 235 248 250 239 253 255 242
255 255 244 252 252 242 255 253 248 255 249 249 255 252 255
255 244 255 255 242 255 250 228 251 178 148 182 92 45 99 111 49 116
132 56 131 149 57 142 159 51 150 167 45 154 174 42 161 178 42 168
172 35 164 177 40 170 177 42 171 171 38 165 170 36 161 173 39 162
179 40 165 177 42 163 176 42 165 177 45 167 170 38 160 169 35 156
178 45 164 179 46 163 174 40 155 173 41 151 175 43 152 171 42 145
166 40 140 167 43 141 168 49 143 169 52 143 166 51 142 160 50 137
160 52 138 157 54 137 156 53 136 154 53 133 153 54 134 155 57 134
157 60 137 159 60 140 161 59 142 158 54 141 153 44 137 150 36 134
152 32 138 159 35 145 169 41 154 177 45 164 175 42 167 178 44 169
180 46 167 178 47 163 174 43 155 170 40 148 167 41 141 167 43 139
150 29 122 144 25 115 139 25 113 134 21 109 127 14 104 124 14 103
140 31 122 162 52 147 159 43 150 167 46 161 174 49 166 175 46 165
175 40 161 174 36 157 177 37 159 180 42 161 176 43 158 153 27 135
157 38 138 163 52 146 155 53 139 132 37 118 115 25 99 119 44 109
154 104 153 190 158 197 225 199 234 224 208 235 215 210 232
219 221 236 221 228 238 214 223 230 213 218 224 232 235 240
235 234 239 243 238 244 226 216 224 134 122 132 83 71 81 127 115 129
128 119 140 120 112 136 141 138 157 206 205 221 234 238 249
219 226 232 212 219 225 206 209 216 221 215 227 238 221 240
255 232 255 255 218 255 200 135 191 96 17 83 114 24 98 166 61 145
182 54 151 182 42 149 172 36 146 172 38 153 178 43 164 181 44 173
177 39 174 172 31 169 163 20 161 175 33 171 182 42 175 179 43 169
175 43 162 177 50 163 180 59 165 177 66 161 167 70 149 131 46 113
113 38 95 135 72 119 202 155 191 255 223 247 255 236 248 250 244 248
249 251 248 249 255 251 249 255 251 245 255 248 249 255 253
250 255 254 251 252 254 255 255 255 253 253 253 255 254 252
255 255 253 255 255 253 255 254 255 255 254 255 255 254 255
255 254 255 255 252 254 255 253 255 255 253 255 255 253 255
255 252 255 255 252 255 255 252 255 255 253 255 255 253 254
254 254 254 253 253 253 253 253 253 253 253 253 254 254 254
255 255 255 255 255 255 255 255 255 255 255 255 255 255 255
255 255 255 255 255 255 255 255 255 255 255 255 255 255 255
255 255 255 255 255 255 255 255 255 255 255 255 255 255 255
255 255 255 255 255 255 255 255 255 255 255 255 255 255 255
255 255 255 255 255 255 255 255 255 255 255 255 255 255 255
255 255 255 255 255 255 255 255 255 255 255 255 255 255 255
255 255 255 255 255 255 255 255 255 255 255 255 255 255 255
255 255 255 255 255 255 255 255 255 255 255 255 255 255 255
255 255 255 255 255 255 255 255 255 255 255 255 255 255 255
255 255 255 255 255 255 255 255 255 255 255 255 255 255 255
255 255 255 255 255 255 255 255 255 255 255 255 255 255 255
255 255 255 255 255 255 255 255 255 255 255 255 255 255 255
255 255 255 255 255 255 255 255 255 255 255 255 255 255 255
255 255 255 255 255 255 255 255 255 255 255 255 255 255 255
255 255 255 255 255 255 255 255 255 255 255 255 255 255 255
255 255 255 255 255 255 255 255 255 255 255 255 255 255 255
255 255 255 255 255 255 255 255 255 255 255 255 255 255 255
255 255 255 255 255 255 255 255 255 255 255 255 255 255 255
255 255 255 255 255 255 255 255 255 255 255 255 255 255 255
255 255 255 255 255 255 255 255 255 255 255 255 255 255 255
255 255 255 255 255 255 255 255 255 255 255 255 255 255 255
255 255 255 255 255 255 255 255 255 255 255 255 255 255 255
255 255 255 255 255 255 255 255 255 255 255 255 255 255 255
255 255 255 255 255 255 255 255 255 255 255 255 255 255 255
255 255 255 255 255 255 252 255 255 252 255 255 252 255 255
252 255 255 254 255 255 255 255 255 255 255 255 255 255 253
254 253 251 254 253 249 255 254 250 255 254 249 255 254 249
254 253 248 253 253 245 255 252 247 255 250 249 255 246 254
205 178 195 119 78 110 115 59 108 151 79 143 153 61 144 155 47 146
165 43 154 172 38 161 180 36 167 190 40 174 199 44 180 203 46 185
202 44 183 198 40 179 202 43 185 198 41 182 193 42 179 179 38 168
167 38 157 163 47 156 146 46 142 115 30 113 85 15 85 97 42 97
156 115 157 240 211 241 255 246 255 253 241 253 255 251 255
255 250 254 254 250 251 254 250 249 255 251 251 255 254 253
254 250 249 251 247 246 254 250 249 255 254 253 255 255 253
255 254 255 255 254 255 255 254 255 255 254 255 255 255 255
255 255 255 255 255 255 255 255 255 255 255 255 255 255 255
255 255 255 255 255 255 255 255 255 255 255 255 255 255 255
255 255 255 255 255 255 255 255 253 255 255 253 255 255 253
255 255 251 255 255 253 254 255 255 252 255 255 252 255 255
253 254 255 254 253 251 254 251 246 254 251 244 255 253 244
255 255 244 251 253 240 244 246 235 252 253 247 255 255 253
248 241 248 255 249 255 255 242 255 197 168 196 149 99 148 128 62 124
122 45 115 141 52 132 158 53 146 167 50 155 176 45 161 177 38 163
176 32 164 177 31 166 175 31 165 174 32 166 177 37 168 178 41 170
175 40 168 170 38 160 174 40 161 174 40 161 174 40 161 175 40 160
175 40 160 175 40 160 177 39 158 177 39 158 176 39 155 176 39 155
176 39 153 177 40 154 179 42 156 180 46 157 182 48 159 186 50 161
189 51 163 187 46 159 181 43 155 176 40 151 172 38 149 170 40 149
171 43 152 172 44 155 176 48 161 174 46 159 174 42 161 174 40 161
173 37 161 174 35 160 175 34 162 175 34 162 178 38 163 178 38 161
176 36 158 172 35 151 169 33 144 167 34 141 169 38 142 169 43 142
166 42 138 144 25 117 130 16 104 132 19 107 128 20 106 121 16 101
131 27 112 153 47 139 152 41 144 159 43 154 167 43 157 179 47 166
187 49 170 180 38 160 173 31 153 177 38 157 168 35 150 165 39 147
157 41 142 149 42 136 146 46 134 142 47 129 130 39 116 109 33 98
119 65 115 179 141 182 233 201 238 235 210 242 222 208 234
226 221 243 227 226 242 211 217 229 209 216 226 206 215 220
234 242 245 248 253 255 244 245 249 150 150 152 60 58 61 132 129 136
126 123 140 77 76 94 122 125 140 209 215 227 220 229 236 206 217 221
219 228 233 226 229 238 230 224 238 248 228 253 255 225 255
238 186 235 174 104 167 118 34 109 123 28 112 164 55 148 174 49 151
176 43 152 173 39 152 174 36 155 176 37 162 179 38 168 183 39 173
184 38 173 177 31 166 182 38 170 179 39 164 179 41 160 184 52 162
179 52 155 171 47 145 165 57 142 134 56 118 103 44 92 129 78 121
207 166 200 255 229 253 255 239 255 247 240 247 254 255 255
248 255 252 247 255 252 247 255 252 248 255 254 250 255 255
253 254 255 255 253 255 255 253 255 255 254 255 255 255 255
254 254 254 254 254 254 254 254 254 255 254 255 255 254 255
255 254 255 255 254 255 255 254 255 255 254 255 255 254 255
255 254 255 255 254 255 255 254 255 255 254 255 255 255 255
255 255 255 255 255 255 255 255 255 255 255 255 255 255 255
255 255 255 255 255 255 255 255 255 255 255 255 255 255 255
255 255 255 255 255 255 255 255 255 255 255 255 255 255 255
255 255 255 255 255 255 255 255 255 255 255 255 255 255 255
255 255 255 255 255 255 255 255 255 255 255 255 255 255 255
255 255 255 255 255 255 255 255 255 255 255 255 255 255 255
255 255 255 255 255 255 255 255 255 255 255 255 255 255 255
255 255 255 255 255 255 255 255 255 255 255 255 255 255 255
255 255 255 255 255 255 255 255 255 255 255 255 255 255 255
255 255 255 255 255 255 255 255 255 255 255 255 255 255 255
255 255 255 255 255 255 255 255 255 255 255 255 255 255 255
255 255 255 255 255 255 255 255 255 255 255 255 255 255 255
255 255 255 255 255 255 255 255 255 255 255 255 255 255 255
255 255 255 255 255 255 255 255 255 255 255 255 255 255 255
255 255 255 255 255 255 255 255 255 255 255 255 255 255 255
255 255 255 255 255 255 255 255 255 255 255 255 255 255 255
255 255 255 255 255 255 255 255 255 255 255 255 255 255 255
255 255 255 255 255 255 255 255 255 255 255 255 255 255 255
255 255 255 255 255 255 255 255 255 255 255 255 255 255 255
255 255 255 255 255 255 255 255 255 255 255 255 255 255 255
255 255 255 255 255 255 255 255 255 255 255 255 255 255 255
255 255 255 255 255 255 255 255 255 255 255 255 255 255 255
255 255 255 255 255 255 255 255 255 255 255 255 255 255 255
255 255 255 255 255 255 255 255 255 255 255 255 255 255 255
255 255 255 255 255 255 255 255 255 255 255 255 255 255 255
255 255 255 255 255 255 252 255 255 252 255 255 252 255 255
254 255 255 254 255 255 255 255 255 255 254 255 255 254 255
255 254 252 255 254 252 255 254 250 255 254 250 255 254 250
254 253 249 254 253 248 255 251 248 253 241 243 255 235 244
192 160 181 95 51 86 94 34 86 150 75 142 162 68 154 158 47 149
169 45 159 177 41 165 187 42 173 194 42 177 200 44 180 202 44 181
204 43 181 202 44 181 200 43 184 193 41 178 187 41 174 175 41 166
165 42 158 158 52 153 135 45 133 98 24 99 95 35 97 140 94 141
197 163 200 251 227 253 255 248 255 255 246 255 255 252 255
252 247 251 254 250 251 254 250 251 255 251 252 255 252 253
253 249 250 250 246 247 253 249 250 255 254 255 255 254 255
255 254 255 255 254 255 255 254 255 255 254 255 255 254 255
255 254 255 255 254 255 255 254 255 255 254 255 255 254 255
255 254 255 255 255 255 255 255 255 255 255 255 255 255 255
255 255 255 255 255 255 255 255 253 255 255 253 255 255 251
255 255 251 255 255 251 255 255 255 254 254 255 252 252 255
252 249 255 255 250 254 255 252 252 255 254 250 255 254 245
253 253 243 254 255 245 254 255 246 249 252 245 253 253 251
253 248 254 254 244 253 247 233 248 219 189 217 173 119 168
143 73 135 128 48 117 143 52 131 158 53 145 164 47 151 173 42 158
176 36 161 179 32 165 184 33 170 187 36 175 185 39 176 182 40 174
178 41 171 174 41 168 172 39 164 174 40 161 174 41 160 175 40 160
175 40 160 177 39 160 177 39 160 177 39 160 177 39 160 178 38 160
178 38 160 177 37 159 179 37 159 180 38 160 181 39 161 184 40 163
186 40 164 189 39 164 189 36 162 184 34 159 180 31 157 177 31 156
176 33 157 176 36 159 177 38 163 181 42 167 181 42 169 181 40 168
180 39 167 180 36 167 177 33 164 176 31 162 175 30 161 171 26 155
173 29 153 174 32 154 175 33 153 173 34 149 174 38 148 175 42 149
176 47 148 172 48 146 154 35 127 142 25 116 136 23 111 128 18 105
118 13 97 122 18 103 135 31 120 151 43 142 159 46 152 166 44 155
168 37 151 173 34 153 182 38 159 188 44 165 190 48 166 179 45 158
172 44 153 160 44 145 155 45 140 154 51 140 149 51 136 130 37 117
106 25 94 78 19 73 138 92 138 208 170 211 239 207 244 233 209 243
220 206 232 213 208 231 210 211 229 207 210 225 201 210 219
219 226 234 236 243 249 239 242 247 163 164 168 90 89 94 135 134 140
116 112 127 71 68 85 113 115 130 195 199 210 214 221 229 221 228 234
233 238 244 219 217 228 221 210 227 242 217 246 235 194 236
186 129 182 135 60 127 120 31 111 137 37 127 159 47 145 166 43 150
174 41 156 178 43 161 183 45 167 187 44 172 185 39 172 180 33 166
175 28 161 174 29 160 178 35 161 184 46 165 182 50 160 178 51 154
183 62 157 177 58 148 145 44 120 104 37 90 134 90 126 191 154 187
237 209 234 255 239 255 255 250 255 253 252 255 246 252 250
247 255 252 246 255 252 247 255 254 248 255 254 251 255 255
254 253 255 255 252 255 255 252 255 255 253 255 254 254 254
254 254 254 254 254 254 254 254 254 255 255 255 255 255 255
255 255 255 255 255 255 255 255 255 255 255 255 255 255 255
255 255 255 255 255 255 255 255 255 255 255 255 255 255 255
255 255 255 255 255 255 255 255 255 255 255 255 255 255 255
255 255 255 255 255 255 255 255 255 255 255 255 255 255 255
255 255 255 255 255 255 255 255 255 255 255 255 255 255 255
255 255 255 255 255 255 255 255 255 255 255 255 255 255 255
255 255 255 255 255 255 255 255 255 255 255 255 255 255 255
255 255 255 255 255 255 255 255 255 255 255 255 255 255 255
255 255 255 255 255 255 255 255 255 255 255 255 255 255 255
255 255 255 255 255 255 255 255 255 255 255 255 255 255 255
255 255 255 255 255 255 255 255 255 255 255 255 255 255 255
255 255 255 255 255 255 255 255 255 255 255 255 255 255 255
255 255 255 255 255 255 255 255 255 255 255 255 255 255 255
255 255 255 255 255 255 255 255 255 255 255 255 255 255 255
255 255 255 255 255 255 255 255 255 255 255 255 255 255 255
255 255 255 255 255 255 255 255 255 255 255 255 255 255 255
255 255 255 255 255 255 255 255 255 255 255 255 255 255 255
255 255 255 255 255 255 255 255 255 255 255 255 255 255 255
255 255 255 255 255 255 255 255 255 255 255 255 255 255 255
255 255 255 255 255 255 255 255 255 255 255 255 255 255 255
255 255 255 255 255 255 255 255 255 255 255 255 255 255 255
255 255 255 255 255 255 255 255 255 255 255 255 255 255 255
255 255 255 255 255 255 255 255 255 255 255 255 255 255 255
255 255 255 255 255 255 255 255 255 255 255 255 255 255 255
255 255 255 255 255 255 255 255 255 255 255 255 255 255 255
255 255 255 255 255 255 255 255 255 255 255 255 255 255 255
255 255 255 255 255 255 255 255 255 255 255 255 255 255 255
255 255 255 255 255 255 252 255 255 252 255 255 254 255 255
254 255 255 254 255 255 254 255 255 255 255 255 255 255 255
255 254 252 255 255 253 255 255 253 255 255 253 255 254 250
255 254 250 254 253 249 255 250 250 252 237 242 231 207 221
167 133 158 87 41 78 91 28 83 145 65 136 160 64 153 161 48 152
171 44 161 182 43 170 190 45 176 196 44 179 198 43 179 200 44 180
202 44 180 203 45 182 197 42 178 189 39 173 184 40 171 175 43 163
166 46 156 157 53 152 130 40 127 88 15 88 107 47 107 191 145 191
243 212 246 255 238 255 255 249 255 255 249 255 255 254 255
249 249 249 253 251 252 252 250 251 252 250 251 252 250 251
249 247 248 247 245 246 250 248 249 255 254 255 255 254 255
255 254 255 255 254 255 255 254 255 255 254 255 255 254 255
255 254 255 255 254 255 255 254 255 255 254 255 255 254 255
255 254 255 255 255 255 255 255 255 255 255 255 255 255 255
255 255 255 255 255 255 255 255 253 255 255 253 255 255 251
255 255 251 255 255 251 255 255 255 255 254 255 251 249 255
249 246 255 253 248 254 255 253 255 255 254 251 255 253 246
249 250 242 247 250 241 254 255 250 246 248 245 253 251 252
255 251 255 255 244 255 251 229 250 243 208 240 200 142 193
156 81 146 128 46 118 144 51 132 164 57 151 173 52 158 173 40 157
172 29 155 183 36 169 190 39 176 196 45 184 196 48 186 189 45 179
181 41 172 175 40 168 175 41 166 174 40 161 175 40 160 175 40 160
175 40 160 175 40 160 175 40 160 177 39 160 177 39 160 177 39 160
177 39 160 176 38 159 176 36 158 176 36 158 176 36 158 179 37 159
179 37 159 180 36 157 179 35 156 177 35 155 174 34 156 173 35 156
173 38 158 173 40 159 173 41 161 173 41 161 174 42 164 177 43 166
177 43 166 177 41 167 174 38 164 173 34 161 172 31 159 174 30 161
177 34 162 181 38 164 184 42 164 183 44 163 183 46 160 183 50 159
182 53 156 171 45 145 150 29 126 132 13 107 127 12 103 133 20 110
134 24 111 130 21 110 126 17 108 151 44 140 163 53 152 176 57 161
172 44 153 171 32 147 185 42 158 193 48 165 182 39 155 181 42 157
169 39 147 158 37 140 157 43 139 161 55 147 158 56 142 142 40 124
114 26 102 87 23 83 96 46 97 138 95 141 194 157 200 227 199 239
231 210 243 226 213 243 226 221 244 226 223 244 222 224 239
222 221 235 235 235 247 239 236 247 191 185 195 140 132 143
140 129 143 127 114 134 93 80 100 123 111 131 181 173 188 197 194 205
209 206 217 231 225 237 236 223 240 237 215 238 219 186 217
172 123 168 122 57 115 113 33 104 140 47 128 160 55 147 160 45 146
160 34 144 168 35 154 175 40 161 183 44 169 189 45 176 187 41 174
182 35 168 176 31 162 177 34 162 184 46 167 184 52 164 186 61 163
190 72 166 173 63 149 147 40 120 125 36 102 130 71 117 191 152 183
255 222 249 255 244 255 255 245 255 255 252 255 254 255 255
241 250 247 246 255 251 245 255 251 246 255 253 247 255 253
250 254 255 253 252 255 255 251 255 255 251 255 254 252 255
253 253 253 253 253 253 253 253 253 253 253 253 254 254 254
255 255 255 255 255 255 255 255 255 255 255 255 255 255 255
255 255 255 255 255 255 255 255 255 255 255 255 255 255 255
255 255 255 255 255 255 255 255 255 255 255 255 255 255 255
255 255 255 255 255 255 255 255 255 255 255 255 255 255 255
255 255 255 255 255 255 255 255 255 255 255 255 255 255 255
255 255 255 255 255 255 255 255 255 255 255 255 255 255 255
255 255 255 255 255 255 255 255 255 255 255 255 255 255 255
255 255 255 255 255 255 255 255 255 255 255 255 255 255 255
255 255 255 255 255 255 255 255 255 255 255 255 255 255 255
255 255 255 255 255 255 255 255 255 255 255 255 255 255 255
255 255 255 255 255 255 255 255 255 255 255 255 255 255 255
255 255 255 255 255 255 255 255 255 255 255 255 255 255 255
255 255 255 255 255 255 255 255 255 255 255 255 255 255 255
255 255 255 255 255 255 255 255 255 255 255 255 255 255 255
255 255 255 255 255 255 255 255 255 255 255 255 255 255 255
255 255 255 255 255 255 255 255 255 255 255 255 255 255 255
255 255 255 255 255 255 255 255 255 255 255 255 255 255 255
255 255 255 255 255 255 255 255 255 255 255 255 255 255 255
255 255 255 255 255 255 255 255 255 255 255 255 255 255 255
255 255 255 255 255 255 255 255 255 255 255 255 255 255 255
255 255 255 255 255 255 255 255 255 255 255 255 255 255 255
255 255 255 255 255 255 255 255 255 255 255 255 255 255 255
255 255 255 255 255 255 255 255 255 255 255 255 255 255 255
255 255 255 255 255 255 255 255 255 255 255 255 255 255 255
255 255 255 255 255 255 255 255 255 255 255 255 255 255 255
255 255 255 255 255 255 255 255 255 255 255 255 255 255 255
255 255 255 255 255 255 255 255 255 255 255 255 255 255 255
255 255 255 255 255 255 255 255 255 251 255 255 251 255 255
253 254 255 253 254 255 253 254 255 253 254 255 254 254 254
254 254 254 255 255 253 255 255 253 255 255 253 255 255 253
255 255 251 255 254 250 254 253 249 255 249 250 255 235 246
198 169 189 142 103 134 107 56 99 114 46 105 140 56 133 151 50 142
165 49 156 170 41 159 179 40 167 188 42 175 196 44 179 201 46 182
202 46 182 200 44 179 197 43 177 191 39 173 185 38 168 182 42 167
173 44 160 164 47 154 154 53 147 128 41 122 88 17 85 110 53 108
216 173 216 255 235 255 255 240 255 255 247 255 253 251 254
253 255 254 252 255 253 253 255 254 250 252 251 249 251 250
250 252 251 248 250 249 247 247 247 250 250 250 255 254 255
255 254 255 255 254 255 255 254 255 255 254 255 255 254 255
255 254 255 255 254 255 255 254 255 255 255 255 255 254 255
255 254 255 255 254 255 255 255 255 255 255 255 255 255 255
255 255 255 255 255 255 255 255 255 255 255 253 255 255 253
255 255 251 255 255 251 255 255 251 255 255 255 255 254 255
253 250 255 251 245 255 250 245 251 253 249 250 254 250 249
251 250 245 248 249 243 239 244 238 247 252 248 247 247 247
255 252 255 255 249 255 255 243 255 255 229 254 238 193 232
202 137 193 156 76 145 129 41 117 150 50 136 173 61 159 180 57 164
176 41 161 171 26 153 193 43 177 196 44 181 200 47 187 199 51 187
194 48 181 184 43 174 177 40 169 177 41 167 175 40 161 175 40 160
175 40 160 175 40 160 175 40 160 175 40 160 175 40 160 175 40 160
177 39 160 174 39 159 174 39 159 173 38 158 175 37 158 175 37 158
175 37 158 175 37 158 174 39 159 173 40 157 174 41 158 173 42 158
171 42 160 171 44 161 171 44 161 171 44 161 166 39 156 168 41 158
171 42 161 172 43 162 175 43 163 175 43 163 175 41 162 175 39 163
183 42 172 186 42 174 188 45 173 186 46 171 185 47 168 183 49 164
182 50 160 179 52 157 176 51 153 163 42 139 146 26 123 136 18 112
133 20 110 133 23 112 128 18 107 116 10 98 126 22 111 138 32 124
160 44 141 167 42 144 170 34 142 186 44 156 195 51 165 184 40 154
173 32 145 160 27 136 150 25 129 151 32 132 161 47 142 163 54 145
155 46 135 135 40 121 106 34 100 80 22 80 92 39 95 150 103 155
203 164 211 222 191 233 222 197 236 220 203 237 226 213 243
234 224 249 223 210 236 227 215 239 231 217 240 213 198 219
182 163 185 129 107 130 121 95 122 139 110 138 143 117 142
158 134 156 199 180 200 235 216 235 241 220 239 236 211 233
200 165 197 158 112 151 114 54 106 108 34 97 132 44 120 157 57 143
166 56 151 168 49 153 166 37 153 170 34 158 173 34 161 177 36 164
181 37 169 184 38 171 183 38 169 180 37 165 179 39 162 191 58 173
176 53 157 179 66 158 190 87 170 144 48 122 115 24 91 147 72 128
214 164 201 240 206 231 255 240 255 255 247 255 255 247 255
253 248 254 248 252 251 243 252 247 245 255 248 244 255 248
245 255 252 246 255 252 249 253 255 252 251 255 255 249 255
255 250 255 254 252 255 253 253 253 252 252 252 252 252 252
253 253 253 253 253 253 254 254 254 255 255 255 255 255 255
255 255 255 255 255 255 255 255 255 255 255 255 255 255 255
255 255 255 255 255 255 255 255 255 255 255 255 255 255 255
255 255 255 255 255 255 255 255 255 255 255 255 255 255 255
255 255 255 255 255 255 255 255 255 255 255 255 255 255 255
255 255 255 255 255 255 255 255 255 255 255 255 255 255 255
255 255 255 255 255 255 255 255 255 255 255 255 255 255 255
255 255 255 255 255 255 255 255 255 255 255 255 255 255 255
255 255 255 255 255 255 255 255 255 255 255 255 255 255 255
255 255 255 255 255 255 255 255 255 255 255 255 255 255 255
255 255 255 255 255 255 255 255 255 255 255 255 255 255 255
255 255 255 255 255 255 255 255 255 255 255 255 255 255 255
255 255 255 255 255 255 255 255 255 255 255 255 255 255 255
255 255 255 255 255 255 255 255 255 255 255 255 255 255 255
255 255 255 255 255 255 255 255 255 255 255 255 255 255 255
255 255 255 255 255 255 255 255 255 255 255 255 255 255 255
255 255 255 255 255 255 255 255 255 255 255 255 255 255 255
255 255 255 255 255 255 255 255 255 255 255 255 255 255 255
255 255 255 255 255 255 255 255 255 255 255 255 255 255 255
255 255 255 255 255 255 255 255 255 255 255 255 255 255 255
255 255 255 255 255 255 255 255 255 255 255 255 255 255 255
255 255 255 255 255 255 255 255 255 255 255 255 255 255 255
255 255 255 255 255 255 255 255 255 255 255 255 255 255 255
255 255 255 255 255 255 255 255 255 255 255 255 255 255 255
255 255 255 255 255 255 255 255 255 255 255 255 255 255 255
255 255 255 255 255 255 255 255 255 255 255 255 255 255 255
255 255 255 255 255 255 255 255 255 255 255 255 255 255 255
255 255 255 255 255 255 255 255 255 255 255 255 255 255 255
253 254 255 253 254 255 253 254 255 253 254 255 253 254 255
253 254 255 254 254 254 254 254 254 255 255 255 255 255 255
255 255 253 255 255 253 255 254 252 254 253 251 255 251 250
255 247 251 246 222 238 167 131 157 124 78 115 121 63 113 133 58 123
148 59 141 155 49 147 167 47 157 172 40 160 177 36 164 185 38 171
196 45 182 205 53 188 207 52 188 200 46 180 190 39 170 186 37 167
183 40 164 181 46 166 173 47 157 162 47 150 154 54 144 133 46 124
97 27 90 119 65 115 227 187 224 255 241 255 254 240 255 254 249 255
249 251 250 246 255 250 249 255 251 250 255 252 249 253 252
248 252 251 249 253 252 248 252 251 248 250 249 250 252 251
255 255 255 255 255 255 255 255 255 255 254 255 255 254 255
255 254 255 255 254 255 255 254 255 255 254 255 255 255 255
255 255 255 255 255 255 255 255 255 255 255 255 255 255 255
255 255 255 255 255 255 255 255 255 255 255 255 255 255 253
255 255 253 255 255 253 255 255 253 255 255 253 255 255 255
255 253 255 255 252 255 253 247 255 249 244 250 247 242 246
245 244 242 246 248 245 246 251 245 245 251 247 242 246 245
249 248 253 255 251 255 255 237 255 255 240 255 255 230 255
217 164 210 168 94 157 147 59 133 143 46 127 161 55 145 172 53 155
172 44 155 177 39 160 181 34 164 202 50 185 200 45 183 199 44 182
199 48 185 197 50 183 188 44 176 179 40 169 176 40 166 175 39 163
175 40 161 175 40 161 175 40 161 175 40 161 175 40 161 175 40 161
174 40 161 174 39 160 173 39 160 173 39 160 174 40 161 174 40 161
174 40 161 174 40 161 172 40 159 171 44 161 170 45 162 170 45 162
169 46 162 169 46 162 167 46 161 167 46 161 167 46 161 165 42 158
165 42 156 166 41 158 167 42 159 170 43 160 172 43 161 175 43 162
177 43 164 181 40 170 182 38 170 179 38 168 178 39 166 177 42 163
177 44 161 174 46 157 173 47 154 158 36 137 165 47 143 166 51 146
155 42 134 141 31 120 136 28 114 136 28 114 133 29 114 122 25 106
128 29 111 145 37 123 161 42 134 173 43 143 185 48 152 192 50 160
191 47 160 173 32 144 162 26 136 152 22 128 150 25 127 155 35 133
159 41 137 161 43 139 151 47 134 124 42 118 93 24 91 74 9 75 82 22 86
109 55 115 149 104 159 200 162 213 240 207 254 223 194 238
246 220 255 238 210 250 234 206 244 234 204 240 232 202 236
204 170 205 115 78 112 103 59 95 168 122 158 148 104 139 124 83 115
205 166 197 255 225 255 223 184 215 178 134 169 120 69 112 106 46 97
110 36 97 136 50 123 158 59 142 159 50 143 160 41 141 166 40 150
178 46 166 178 41 170 176 36 167 176 35 166 179 35 167 181 36 167
181 36 165 178 38 161 178 45 162 182 59 165 175 64 158 161 62 144
138 51 120 116 38 98 147 77 129 208 151 192 255 230 255 255 235 254
255 238 253 255 241 252 252 246 250 250 250 250 247 252 248
243 253 245 245 255 248 244 255 248 245 255 252 248 254 252
251 252 255 253 251 255 255 249 255 255 250 255 254 252 255
253 253 253 252 252 252 252 252 252 253 253 253 253 253 253
254 254 254 255 255 255 255 255 255 255 255 255 255 255 255
255 255 255 255 255 255 255 255 255 255 255 255 255 255 255
255 255 255 255 255 255 255 255 255 255 255 255 255 255 255
255 255 255 255 255 255 255 255 255 255 255 255 255 255 255
255 255 255 255 255 255 255 255 255 255 255 255 255 255 255
255 255 255 255 255 255 255 255 255 255 255 255 255 255 255
255 255 255 255 255 255 255 255 255 255 255 255 255 255 255
255 255 255 255 255 255 255 255 255 255 255 255 255 255 255
255 255 255 255 255 255 255 255 255 255 255 255 255 255 255
255 255 255 255 255 255 255 255 255 255 255 255 255 255 255
255 255 255 255 255 255 255 255 255 255 255 255 255 255 255
255 255 255 255 255 255 255 255 255 255 255 255 255 255 255
255 255 255 255 255 255 255 255 255 255 255 255 255 255 255
255 255 255 255 255 255 255 255 255 255 255 255 255 255 255
255 255 255 255 255 255 255 255 255 255 255 255 255 255 255
255 255 255 255 255 255 255 255 255 255 255 255 255 255 255
255 255 255 255 255 255 255 255 255 255 255 255 255 255 255
255 255 255 255 255 255 255 255 255 255 255 255 255 255 255
255 255 255 255 255 255 255 255 255 255 255 255 255 255 255
255 255 255 255 255 255 255 255 255 255 255 255 255 255 255
255 255 255 255 255 255 255 255 255 255 255 255 255 255 255
255 255 255 255 255 255 255 255 255 255 255 255 255 255 255
255 255 255 255 255 255 255 255 255 255 255 255 255 255 255
255 255 255 255 255 255 255 255 255 255 255 255 255 255 255
255 255 255 255 255 255 255 255 255 255 255 255 255 255 255
255 255 255 255 255 255 255 255 255 255 255 255 255 255 255
255 255 255 255 255 255 255 255 255 255 255 255 255 255 255
255 255 255 255 255 255 255 255 255 253 254 255 253 254 255
253 254 255 253 254 255 253 254 255 253 254 255 254 254 254
254 254 254 255 255 255 255 255 255 255 254 255 255 254 252
254 253 251 253 252 250 254 250 249 255 245 252 232 200 223
144 100 135 107 54 98 118 55 110 137 57 128 159 65 151 168 57 159
166 43 157 175 41 164 179 35 166 184 36 172 195 44 181 206 54 189
207 55 190 197 45 179 186 37 167 180 36 160 180 41 160 180 47 162
172 49 156 161 49 147 156 56 142 136 53 125 104 34 94 135 81 130
231 194 228 255 244 255 255 245 255 255 253 255 246 252 248
244 255 246 247 255 250 247 255 251 244 253 250 246 252 250
249 255 253 249 255 253 248 252 251 249 253 252 254 255 255
255 255 255 255 255 255 255 254 255 255 254 255 255 254 255
255 254 255 255 254 255 255 254 255 255 254 255 255 255 255
255 255 255 255 255 255 255 255 255 255 255 255 255 255 255
255 255 255 255 255 255 255 255 255 255 255 253 255 255 253
255 255 253 255 255 253 255 255 253 255 255 255 255 254 255
255 253 255 253 250 255 248 246 251 244 242 243 242 244 241
243 248 244 246 252 248 249 255 255 240 246 246 250 249 255
255 250 255 255 231 255 255 238 255 255 225 255 203 143 194
127 46 113 141 44 125 162 58 145 173 59 155 160 37 143 158 25 140
178 35 159 194 47 177 204 52 187 198 43 181 197 42 180 200 48 183
197 50 183 189 44 175 180 39 169 178 39 166 175 39 163 175 40 161
175 40 161 175 40 161 175 40 161 174 40 161 174 40 161 174 40 161
172 38 159 172 40 160 173 41 161 172 43 162 172 43 162 172 43 162
172 43 162 171 43 162 168 45 162 167 46 162 167 46 162 166 45 161
166 45 161 165 44 159 165 44 159 164 43 158 169 48 163 169 46 160
167 44 158 167 43 157 168 41 156 169 40 156 170 41 157 174 41 160
172 33 160 172 31 161 171 32 159 170 35 156 171 39 158 173 45 156
171 48 155 170 51 151 153 39 135 152 43 134 150 44 132 149 45 130
148 46 129 143 44 124 134 37 116 122 30 105 99 14 82 110 23 92
123 25 100 145 36 119 175 55 145 185 55 153 180 43 147 182 42 149
181 41 150 170 34 144 161 30 136 155 28 133 153 28 130 152 30 131
155 33 132 155 41 136 149 55 141 145 62 142 139 58 137 116 42 117
95 25 97 86 24 91 96 40 103 108 57 116 181 131 190 211 164 219
221 174 228 229 182 234 235 188 240 248 200 250 228 178 229
149 95 144 141 79 128 178 115 162 140 77 124 108 47 91 156 97 141
162 105 150 109 50 96 87 25 76 118 49 106 124 48 112 137 49 123
152 54 137 167 58 151 171 52 154 165 39 147 159 28 144 174 40 165
175 38 170 177 37 170 181 39 173 186 42 174 188 45 173 186 46 169
182 49 166 184 61 168 173 59 155 176 77 159 143 58 126 88 17 73
124 65 111 216 164 202 253 213 240 255 235 254 255 244 255
255 244 254 250 241 246 249 245 246 253 255 252 251 255 251
242 252 244 246 255 249 246 255 249 247 255 253 249 255 253
252 253 255 254 252 255 255 250 255 255 251 255 254 252 255
253 253 253 253 253 253 253 253 253 253 253 253 254 254 254
255 255 255 255 255 255 255 255 255 255 255 255 255 255 255
255 255 255 255 255 255 255 255 255 255 255 255 255 255 255
255 255 255 255 255 255 255 255 255 255 255 255 255 255 255
255 255 255 255 255 255 255 255 255 255 255 255 255 255 255
255 255 255 255 255 255 255 255 255 255 255 255 255 255 255
255 255 255 255 255 255 255 255 255 255 255 255 255 255 255
255 255 255 255 255 255 255 255 255 255 255 255 255 255 255
255 255 255 255 255 255 255 255 255 255 255 255 255 255 255
255 255 255 255 255 255 255 255 255 255 255 255 255 255 255
255 255 255 255 255 255 255 255 255 255 255 255 255 255 255
255 255 255 255 255 255 255 255 255 255 255 255 255 255 255
255 255 255 255 255 255 255 255 255 255 255 255 255 255 255
255 255 255 255 255 255 255 255 255 255 255 255 255 255 255
255 255 255 255 255 255 255 255 255 255 255 255 255 255 255
255 255 255 255 255 255 255 255 255 255 255 255 255 255 255
255 255 255 255 255 255 255 255 255 255 255 255 255 255 255
255 255 255 255 255 255 255 255 255 255 255 255 255 255 255
255 255 255 255 255 255 255 255 255 255 255 255 255 255 255
255 255 255 255 255 255 255 255 255 255 255 255 255 255 255
255 255 255 255 255 255 255 255 255 255 255 255 255 255 255
255 255 255 255 255 255 255 255 255 255 255 255 255 255 255
255 255 255 255 255 255 255 255 255 255 255 255 255 255 255
255 255 255 255 255 255 255 255 255 255 255 255 255 255 255
255 255 255 255 255 255 255 255 255 255 255 255 255 255 255
255 255 255 255 255 255 255 255 255 255 255 255 255 255 255
255 255 255 255 255 255 255 255 255 255 255 255 255 255 255
255 255 255 255 255 255 255 255 255 255 255 255 255 255 255
255 255 255 255 255 255 255 255 255 253 253 255 253 253 255
252 253 255 252 253 255 252 253 255 252 253 255 252 253 255
252 253 255 253 254 255 253 255 254 254 254 254 254 252 253
253 251 252 254 250 251 253 247 249 255 243 253 225 189 215
119 71 111 89 31 81 123 53 115 146 59 137 162 61 153 170 55 159
168 41 158 176 40 166 179 35 167 182 34 170 190 39 176 197 47 181
197 47 181 190 40 173 181 34 164 179 37 159 177 40 156 178 46 158
172 49 153 165 54 148 161 62 145 140 54 125 103 34 91 134 81 127
229 189 223 255 243 255 255 246 255 253 253 253 248 255 250
246 255 247 239 255 244 243 254 248 241 252 248 243 252 249
247 255 253 249 255 255 249 255 253 249 253 252 251 255 254
254 255 255 255 255 255 255 254 255 255 254 255 255 254 255
255 254 255 255 254 255 255 254 255 255 254 255 255 255 255
255 255 255 255 255 255 255 255 255 255 255 255 255 255 255
255 255 255 255 255 255 255 255 255 255 255 255 255 255 255
255 255 255 255 255 255 255 255 255 255 255 255 255 255 255
254 253 255 252 252 254 249 251 250 249 251 248 247 252 248
246 252 248 243 252 247 246 255 252 246 250 253 250 247 255
255 248 255 255 232 255 255 213 249 229 176 220 170 101 156
122 32 106 146 42 129 171 60 154 175 56 156 160 32 141 164 26 145
183 39 163 196 47 177 201 47 181 198 42 178 199 44 180 203 51 186
201 51 185 187 42 173 180 36 167 180 39 167 177 38 163 175 40 161
175 40 161 175 40 161 174 40 161 174 40 161 174 40 161 173 41 161
171 39 159 170 41 160 171 42 161 171 43 162 171 43 162 171 43 162
170 42 161 167 42 160 168 44 166 167 43 165 166 42 162 165 41 161
165 41 161 165 42 159 166 43 160 166 43 159 170 47 163 170 45 162
172 45 160 172 43 159 170 42 155 171 40 154 170 39 153 170 37 154
173 35 157 172 33 158 170 37 156 171 40 154 171 45 155 168 49 151
164 50 148 157 51 141 161 61 147 145 50 131 131 41 115 123 37 108
121 38 108 119 38 105 114 35 101 108 32 96 106 37 92 122 49 105
110 26 88 114 17 88 158 49 128 177 57 146 170 40 138 175 40 143
171 36 141 164 31 138 161 29 138 162 32 140 159 32 137 155 30 134
155 30 134 155 36 138 145 38 134 145 46 137 143 47 137 132 40 127
119 31 117 113 30 112 109 32 110 106 34 108 81 11 84 94 27 98
112 45 114 131 64 131 145 78 145 166 97 162 165 96 161 132 60 124
102 21 87 105 23 85 98 16 78 106 26 87 128 50 110 126 48 110
124 43 109 146 63 131 157 69 143 160 65 146 159 56 145 158 47 142
167 48 152 179 51 162 177 44 161 167 32 153 171 34 164 171 33 168
175 35 168 179 39 170 185 44 174 188 50 172 187 54 171 182 59 166
181 67 163 162 63 146 145 60 128 124 53 109 129 74 116 192 148 181
251 219 242 255 234 250 250 233 243 255 243 250 255 250 253
253 249 248 249 250 245 249 254 248 250 255 249 246 255 247
247 255 250 247 255 250 248 255 254 251 255 254 253 254 255
255 253 255 255 251 255 255 252 255 255 253 255 254 254 254
254 254 254 254 254 254 254 254 254 255 255 255 255 255 255
255 255 255 255 255 255 255 255 255 255 255 255 255 255 255
255 255 255 255 255 255 255 255 255 255 255 255 255 255 255
255 255 255 255 255 255 255 255 255 255 255 255 255 255 255
255 255 255 255 255 255 255 255 255 255 255 255 255 255 255
255 255 255 255 255 255 255 255 255 255 255 255 255 255 255
255 255 255 255 255 255 255 255 255 255 255 255 255 255 255
255 255 255 255 255 255 255 255 255 255 255 255 255 255 255
255 255 255 255 255 255 255 255 255 255 255 255 255 255 255
255 255 255 255 255 255 255 255 255 255 255 255 255 255 255
255 255 255 255 255 255 255 255 255 255 255 255 255 255 255
255 255 255 255 255 255 255 255 255 255 255 255 255 255 255
255 255 255 255 255 255 255 255 255 255 255 255 255 255 255
255 255 255 255 255 255 255 255 255 255 255 255 255 255 255
255 255 255 255 255 255 255 255 255 255 255 255 255 255 255
255 255 255 255 255 255 255 255 255 255 255 255 255 255 255
255 255 255 255 255 255 255 255 255 255 255 255 255 255 255
255 255 255 255 255 255 255 255 255 255 255 255 255 255 255
255 255 255 255 255 255 255 255 255 255 255 255 255 255 255
255 255 255 255 255 255 255 255 255 255 255 255 255 255 255
255 255 255 255 255 255 255 255 255 255 255 255 255 255 255
255 255 255 255 255 255 255 255 255 255 255 255 255 255 255
255 255 255 255 255 255 255 255 255 255 255 255 255 255 255
255 255 255 255 255 255 255 255 255 255 255 255 255 255 255
255 255 255 255 255 255 255 255 255 255 255 255 255 255 255
255 255 255 255 255 255 255 255 255 255 255 255 255 255 255
255 255 255 255 255 255 255 255 255 255 255 255 255 255 255
255 255 255 255 255 255 255 255 255 255 255 255 255 255 255
255 255 255 255 255 255 253 253 255 253 253 255 253 253 255
252 253 255 252 253 255 252 253 255 252 253 255 252 253 255
253 254 255 253 254 255 253 253 253 253 253 253 254 250 251
253 249 250 253 247 251 255 241 253 229 190 221 101 48 92 77 14 69
138 63 130 160 71 151 157 53 148 161 41 149 171 42 161 177 36 166
179 33 168 180 32 170 184 33 172 187 36 173 184 37 170 181 34 166
177 32 159 178 39 158 173 39 152 175 45 154 172 50 151 170 56 151
167 65 148 141 54 125 102 28 87 125 68 113 219 178 210 255 238 255
254 242 252 249 249 249 249 255 251 247 255 248 235 251 240
239 252 245 238 249 245 241 252 248 246 255 253 249 255 255
247 255 253 248 252 251 249 253 252 254 255 255 254 255 255
255 254 255 255 254 255 255 254 255 255 254 255 255 254 255
255 254 255 255 254 255 255 255 255 255 255 255 255 255 255
255 255 255 255 255 255 255 255 255 255 255 255 255 255 255
255 255 255 255 255 255 255 255 255 255 255 255 255 255 255
255 255 255 255 255 255 254 255 255 249 253 252 248 253 249
250 255 251 252 255 251 251 255 251 247 255 251 242 251 248
243 249 249 254 255 255 251 243 255 255 242 255 255 227 255
223 175 215 166 107 155 119 41 103 141 42 124 158 44 139 172 53 153
173 47 154 170 38 150 181 42 161 192 46 171 190 39 170 196 42 176
196 41 177 202 47 183 208 56 191 200 53 185 186 41 172 179 36 164
181 40 168 177 38 163 175 40 161 175 40 161 174 40 161 174 40 161
173 41 161 173 41 161 171 42 161 169 40 159 170 41 160 170 42 161
171 43 162 168 43 161 167 42 160 166 41 159 165 40 160 169 43 168
168 42 167 169 40 166 168 40 163 169 41 164 170 42 163 171 43 164
172 44 163 169 42 159 171 42 160 173 44 160 175 44 158 175 44 158
173 42 156 171 40 154 170 37 152 175 42 157 174 42 154 171 43 152
169 46 150 165 49 146 156 50 140 147 48 131 138 46 123 120 37 107
119 43 107 115 44 104 100 35 91 86 23 78 89 31 82 123 65 116
157 101 148 221 168 210 220 163 206 158 88 140 112 28 88 142 45 116
163 54 135 155 35 125 162 36 133 150 21 124 149 19 125 151 24 131
161 33 142 165 37 146 163 35 144 162 34 143 160 37 144 149 30 134
151 36 139 154 42 144 150 42 141 147 41 139 142 41 135 139 42 135
138 43 133 141 51 138 124 36 122 120 32 116 120 32 116 114 27 108
112 25 106 114 27 106 116 25 105 122 25 104 121 23 100 131 34 111
135 38 115 133 39 117 156 62 140 172 74 157 156 56 142 150 45 137
161 51 148 171 54 158 172 50 159 168 39 155 167 34 153 177 38 163
187 46 176 182 45 177 178 40 175 174 37 169 172 35 164 173 39 162
176 45 161 174 51 158 170 56 152 159 57 141 148 61 132 95 24 80
107 52 94 212 171 201 255 237 255 249 231 243 252 241 247 255 249 252
250 244 244 251 247 246 255 255 251 252 255 248 241 246 239
243 250 242 249 255 250 248 255 250 248 255 250 250 255 254
251 255 254 253 254 255 255 253 255 255 252 255 255 252 255
255 254 255 255 255 255 254 254 254 254 254 254 254 254 254
255 255 255 255 255 255 255 255 255 255 255 255 255 255 255
255 255 255 255 255 255 255 255 255 255 255 255 255 255 255
255 255 255 255 255 255 255 255 255 255 255 255 255 255 255
255 255 255 255 255 255 255 255 255 255 255 255 255 255 255
255 255 255 255 255 255 255 255 255 255 255 255 255 255 255
255 255 255 255 255 255 255 255 255 255 255 255 255 255 255
255 255 255 255 255 255 255 255 255 255 255 255 255 255 255
255 255 255 255 255 255 255 255 255 255 255 255 255 255 255
255 255 255 255 255 255 255 255 255 255 255 255 255 255 255
255 255 255 255 255 255 255 255 255 255 255 255 255 255 255
255 255 255 255 255 255 255 255 255 255 255 255 255 255 255
255 255 255 255 255 255 255 255 255 255 255 255 255 255 255
255 255 255 255 255 255 255 255 255 255 255 255 255 255 255
255 255 255 255 255 255 255 255 255 255 255 255 255 255 255
255 255 255 255 255 255 255 255 255 255 255 255 255 255 255
255 255 255 255 255 255 255 255 255 255 255 255 255 255 255
255 255 255 255 255 255 255 255 255 255 255 255 255 255 255
255 255 255 255 255 255 255 255 255 255 255 255 255 255 255
255 255 255 255 255 255 255 255 255 255 255 255 255 255 255
255 255 255 255 255 255 255 255 255 255 255 255 255 255 255
255 255 255 255 255 255 255 255 255 255 255 255 255 255 255
255 255 255 255 255 255 255 255 255 255 255 255 255 255 255
255 255 255 255 255 255 255 255 255 255 255 255 255 255 255
255 255 255 255 255 255 255 255 255 255 255 255 255 255 255
255 255 255 255 255 255 255 255 255 255 255 255 255 255 255
255 255 255 255 255 255 255 255 255 255 255 255 255 255 255
255 255 255 255 255 255 255 255 255 255 255 255 255 255 255
255 255 255 255 255 255 255 255 255 255 255 255 253 251 254
252 252 254 252 252 254 251 252 254 251 252 254 249 253 254
249 253 254 249 253 254 251 255 255 252 253 255 253 253 255
253 253 255 255 250 254 252 247 251 248 241 248 251 233 247
220 179 213 105 49 96 85 20 76 139 62 130 158 66 149 159 53 151
163 41 152 166 34 154 181 37 168 182 34 170 180 29 168 176 25 164
177 29 165 184 38 171 184 40 171 178 38 163 174 36 155 174 40 153
173 43 152 170 48 149 172 58 153 164 61 144 135 43 116 100 22 82
126 64 113 196 150 186 255 227 251 255 241 252 243 239 240
252 255 251 248 255 250 231 244 234 241 252 246 241 252 248
243 254 250 244 255 251 246 255 252 247 255 253 250 254 253
251 255 254 254 255 255 254 255 255 255 254 255 255 254 255
255 254 255 255 254 255 255 254 255 255 254 255 255 254 255
255 255 255 255 255 255 255 255 255 255 255 255 255 255 255
255 255 255 255 255 255 254 254 254 255 255 255 255 255 255
255 255 255 255 255 255 254 254 254 254 254 254 253 255 252
250 255 251 247 254 247 249 255 249 252 255 251 246 251 244
238 243 237 240 246 242 251 255 254 254 255 255 251 245 255
254 239 255 255 229 255 227 182 221 166 108 156 123 54 109 117 30 99
172 63 152 174 54 154 171 45 152 171 41 150 176 42 157 187 45 167
195 49 176 201 52 182 195 43 177 198 46 181 200 48 183 198 48 182
191 44 176 184 39 170 180 37 165 177 36 164 175 39 163 174 40 163
174 40 163 174 40 163 174 40 163 173 41 163 173 41 163 171 41 163
166 36 158 166 38 159 167 39 160 168 40 161 167 42 162 168 43 163
167 43 163 167 41 164 173 42 170 172 38 169 170 34 166 171 36 165
174 39 168 175 40 168 173 39 164 170 36 159 167 33 154 171 38 157
175 42 159 176 43 158 177 44 159 177 45 157 176 44 156 173 43 151
170 43 146 167 46 143 163 45 139 155 45 134 150 47 130 139 47 122
122 40 106 106 32 91 112 47 101 94 36 84 74 26 68 84 40 76 129 92 126
195 160 193 243 209 242 255 228 255 255 231 255 255 225 255
232 177 217 160 90 140 116 32 92 130 32 105 157 48 131 163 46 137
162 40 139 154 31 135 148 25 132 149 25 135 151 27 137 155 29 139
161 33 144 169 41 152 158 30 143 154 26 137 148 22 132 148 24 134
152 30 139 157 37 143 156 41 145 154 42 144 159 48 150 157 49 148
157 49 148 156 50 148 156 51 146 156 51 146 156 51 146 157 50 144
165 54 148 166 52 147 163 52 146 166 55 149 170 59 154 170 59 154
167 52 153 162 47 150 160 40 146 156 34 145 157 30 147 167 35 155
180 44 170 187 48 177 186 42 174 177 35 169 181 44 176 192 59 187
177 44 171 158 28 150 168 41 156 169 49 155 170 59 154 185 86 169
142 55 126 94 20 79 131 74 117 215 174 204 248 221 240 255 240 250
255 253 255 248 247 245 250 246 243 250 249 245 250 251 246
250 253 246 247 252 245 245 250 243 240 247 239 238 245 237
250 255 250 250 255 250 250 255 254 251 255 254 253 254 255
255 253 255 255 252 255 255 252 255 255 254 255 255 255 255
255 255 255 255 255 255 255 255 255 255 255 255 255 255 255
255 255 255 255 255 255 255 255 255 255 255 255 255 255 255
255 255 255 255 255 255 255 255 255 255 255 255 255 255 255
255 255 255 255 255 255 255 255 255 255 255 255 255 255 255
255 255 255 255 255 255 255 255 255 255 255 255 255 255 255
255 255 255 255 255 255 255 255 255 255 255 255 255 255 255
255 255 255 255 255 255 255 255 255 255 255 255 255 255 255
255 255 255 255 255 255 255 255 255 255 255 255 255 255 255
255 255 255 255 255 255 255 255 255 255 255 255 255 255 255
255 255 255 255 255 255 255 255 255 255 255 255 255 255 255
255 255 255 255 255 255 255 255 255 255 255 255 255 255 255
255 255 255 255 255 255 255 255 255 255 255 255 255 255 255
255 255 255 255 255 255 255 255 255 255 255 255 255 255 255
255 255 255 255 255 255 255 255 255 255 255 255 255 255 255
255 255 255 255 255 255 255 255 255 255 255 255 255 255 255
255 255 255 255 255 255 255 255 255 255 255 255 255 255 255
255 255 255 255 255 255 255 255 255 255 255 255 255 255 255
255 255 255 255 255 255 255 255 255 255 255 255 255 255 255
255 255 255 255 255 255 255 255 255 255 255 255 255 255 255
255 255 255 255 255 255 255 255 255 255 255 255 255 255 255
255 255 255 255 255 255 255 255 255 255 255 255 255 255 255
255 255 255 255 255 255 255 255 255 255 255 255 255 255 255
255 255 255 255 255 255 255 255 255 255 255 255 255 255 255
255 255 255 255 255 255 255 255 255 255 255 255 255 255 255
255 255 255 255 255 255 255 255 255 255 255 255 255 255 255
255 255 255 255 255 255 255 255 255 255 255 255 255 255 255
255 255 255 255 255 255 255 255 255 255 255 255 255 255 255
255 255 255 255 255 255 255 255 255 255 255 255 255 255 255
255 255 255 255 255 255 253 251 254 253 251 254 252 252 254
251 252 254 251 252 254 249 253 254 249 253 254 249 253 254
251 255 255 250 254 255 252 253 255 253 253 255 255 250 255
252 247 253 250 240 248 254 233 250 220 179 213 107 49 97 87 19 78
138 58 127 155 61 145 158 50 149 165 43 154 172 38 159 178 34 166
182 34 170 183 32 171 180 32 170 183 37 172 187 43 177 183 42 173
176 37 164 173 38 156 174 42 154 173 43 152 169 44 148 170 52 148
163 55 141 138 41 118 107 25 89 116 47 101 191 139 178 244 208 236
255 239 255 255 251 255 249 249 247 234 240 236 248 255 251
245 254 251 245 255 252 247 255 253 247 255 253 248 255 254
250 255 254 251 255 254 250 254 253 254 255 255 255 255 255
255 254 255 255 254 255 255 254 255 255 254 255 255 254 255
255 254 255 255 254 255 255 255 255 255 255 255 255 255 255
255 255 255 255 255 255 255 255 255 255 255 255 254 254 254
254 254 254 254 254 254 255 255 255 255 255 255 255 255 255
255 255 255 253 255 252 251 255 251 249 255 248 242 247 240
246 248 243 253 254 249 255 255 253 255 253 254 255 251 255
248 238 249 251 234 252 245 219 246 214 174 211 155 99 148 113 44 101
127 47 110 170 73 150 174 58 155 177 50 157 173 42 154 172 39 154
177 39 160 185 42 166 192 45 175 197 47 180 194 44 177 197 47 181
198 48 182 195 48 180 189 44 175 184 41 169 181 38 166 178 39 166
175 39 163 174 40 163 174 40 163 174 40 163 173 41 163 173 41 163
171 41 163 171 41 163 170 40 162 169 41 162 169 41 162 170 42 163
170 42 163 169 44 164 169 44 164 171 43 166 176 41 170 176 39 171
176 36 169 175 35 166 175 36 165 178 39 166 181 42 169 184 46 168
174 39 159 172 39 154 170 38 150 171 41 150 175 45 154 176 49 156
176 49 156 173 48 148 175 58 147 152 43 124 135 31 110 127 31 103
121 35 100 108 30 88 92 25 76 81 26 68 72 26 62 116 77 108
173 143 169 219 195 217 248 229 248 255 245 255 255 242 255
245 231 248 255 239 255 255 233 255 254 211 241 186 129 170 109 34 90
113 24 90 156 55 133 163 53 140 166 51 146 165 46 148 161 41 147
156 34 145 149 25 137 148 24 138 164 35 151 181 50 166 180 45 163
179 41 160 174 39 157 176 41 159 180 47 164 182 51 167 182 51 165
179 51 164 167 41 151 165 41 151 165 41 151 164 42 151 163 43 151
163 43 149 163 43 151 163 43 149 169 48 153 169 46 152 168 47 153
170 49 155 174 50 160 174 50 160 172 45 160 168 41 158 178 49 168
177 45 167 175 41 166 176 37 166 176 35 166 178 34 168 177 33 167
174 32 166 176 41 169 161 31 153 165 37 156 166 44 155 161 44 148
173 66 160 173 75 158 139 53 124 112 41 99 144 87 132 201 157 190
250 221 241 255 249 255 255 251 253 243 245 242 238 243 237
249 250 244 249 250 244 249 252 245 249 252 245 247 252 245
246 251 244 246 251 244 245 252 245 251 255 250 251 255 252
251 255 254 253 254 255 254 254 255 254 253 255 255 252 255
255 253 255 255 255 255 255 255 255 255 255 255 255 255 255
255 255 255 255 255 255 255 255 255 255 255 255 255 255 255
255 255 255 255 255 255 255 255 255 255 255 255 255 255 255
255 255 255 255 255 255 255 255 255 255 255 255 255 255 255
255 255 255 255 255 255 255 255 255 255 255 255 255 255 255
255 255 255 255 255 255 255 255 255 255 255 255 255 255 255
255 255 255 255 255 255 255 255 255 255 255 255 255 255 255
255 255 255 255 255 255 255 255 255 255 255 255 255 255 255
255 255 255 255 255 255 255 255 255 255 255 255 255 255 255
255 255 255 255 255 255 255 255 255 255 255 255 255 255 255
255 255 255 255 255 255 255 255 255 255 255 255 255 255 255
255 255 255 255 255 255 255 255 255 255 255 255 255 255 255
255 255 255 255 255 255 255 255 255 255 255 255 255 255 255
255 255 255 255 255 255 255 255 255 255 255 255 255 255 255
255 255 255 255 255 255 255 255 255 255 255 255 255 255 255
255 255 255 255 255 255 255 255 255 255 255 255 255 255 255
255 255 255 255 255 255 255 255 255 255 255 255 255 255 255
255 255 255 255 255 255 255 255 255 255 255 255 255 255 255
255 255 255 255 255 255 255 255 255 255 255 255 255 255 255
255 255 255 255 255 255 255 255 255 255 255 255 255 255 255
255 255 255 255 255 255 255 255 255 255 255 255 255 255 255
255 255 255 255 255 255 255 255 255 255 255 255 255 255 255
255 255 255 255 255 255 255 255 255 255 255 255 255 255 255
255 255 255 255 255 255 255 255 255 255 255 255 255 255 255
255 255 255 255 255 255 255 255 255 255 255 255 255 255 255
255 255 255 255 255 255 255 255 255 255 255 255 255 255 255
255 255 255 255 255 255 255 255 255 255 255 255 255 255 255
255 255 255 255 255 255 255 255 255 255 255 255 255 255 255
255 255 255 255 255 255 255 255 255 255 255 255 255 255 255
255 252 253 254 252 253 253 253 255 252 253 255 252 253 255
250 254 255 249 255 255 249 255 255 249 254 255 250 254 255
252 253 255 253 252 255 255 250 255 252 247 254 251 241 250
254 233 250 223 182 216 111 53 101 91 21 81 139 58 127 153 58 142
158 48 145 168 44 156 177 42 163 175 31 163 181 33 169 187 36 175
189 41 179 192 46 181 193 49 183 184 44 175 175 39 165 175 40 161
175 42 159 172 41 153 168 41 148 167 47 147 165 52 142 150 47 128
128 39 107 137 62 119 181 119 166 223 177 213 254 222 245 255 248 255
255 249 254 239 239 241 242 246 245 246 252 250 245 254 251
248 254 252 249 255 253 249 255 253 251 255 254 250 254 253
252 254 253 254 254 254 254 254 254 255 253 254 255 253 254
255 253 254 255 253 254 255 253 254 255 253 254 255 255 253
255 255 253 254 254 252 254 254 252 253 253 251 253 253 251
252 252 252 252 252 252 254 254 254 252 252 252 251 251 253
252 252 254 255 255 255 255 255 255 253 253 255 250 252 251
236 241 237 245 250 244 254 255 250 255 251 250 254 245 248
253 242 248 255 239 250 255 235 252 254 229 251 246 213 244
195 153 193 129 72 123 110 40 102 145 62 132 173 79 155 174 68 156
174 51 155 176 45 157 173 40 157 173 38 158 177 39 161 183 40 166
186 41 170 188 41 173 190 43 175 190 45 176 190 45 176 187 43 174
185 41 172 180 39 167 178 39 166 176 40 164 174 40 163 173 41 163
173 41 163 173 41 163 173 41 163 173 41 163 173 41 163 171 41 163
170 40 162 169 39 161 168 38 160 168 38 160 168 38 160 168 40 161
169 41 162 171 41 165 173 36 166 180 40 171 185 44 175 184 43 173
180 39 167 175 35 158 172 34 156 171 36 154 173 41 153 171 41 150
171 44 151 175 50 154 177 55 154 173 53 150 163 45 141 152 39 127
139 37 111 127 35 98 123 35 96 115 36 91 100 31 78 91 33 73 112 63 95
138 99 126 218 189 209 236 215 230 252 239 249 252 242 251
243 238 244 243 241 246 250 249 254 255 253 255 255 245 254
255 239 253 255 240 255 212 165 199 106 40 88 95 13 75 150 56 130
163 59 144 168 57 151 168 53 154 166 49 156 163 43 153 158 35 149
158 33 150 169 40 158 182 50 169 177 37 159 177 35 157 176 34 156
178 36 158 179 39 161 180 40 162 178 38 160 174 36 157 177 39 160
175 40 160 174 41 160 173 41 160 171 42 160 171 42 158 170 43 160
170 43 158 170 43 158 169 42 157 170 41 159 172 43 161 177 45 165
176 44 164 174 40 165 171 35 161 179 42 171 183 43 174 184 42 176
178 36 170 173 29 163 172 28 162 178 34 168 182 43 172 168 39 157
155 31 141 157 37 143 154 39 140 149 44 136 163 70 150 155 74 141
110 41 96 137 81 126 218 174 207 255 231 253 255 241 253 255 252 255
255 255 253 240 245 239 249 255 248 251 254 247 250 253 246
249 251 246 248 250 245 249 251 246 251 253 248 254 255 251
252 255 253 253 255 252 253 255 254 253 255 254 254 254 255
254 254 255 254 254 255 255 253 255 255 253 255 255 255 255
255 255 255 255 255 255 255 255 255 255 255 255 255 255 255
255 255 255 255 255 255 255 255 255 255 255 255 255 255 255
255 255 255 255 255 255 255 255 255 255 255 255 255 255 255
255 255 255 255 255 255 255 255 255 255 255 255 255 255 255
255 255 255 255 255 255 255 255 255 255 255 255 255 255 255
255 255 255 255 255 255 255 255 255 255 255 255 255 255 255
255 255 255 255 255 255 255 255 255 255 255 255 255 255 255
255 255 255 255 255 255 255 255 255 255 255 255 255 255 255
255 255 255 255 255 255 255 255 255 255 255 255 255 255 255
255 255 255 255 255 255 255 255 255 255 255 255 255 255 255
255 255 255 255 255 255 255 255 255 255 255 255 255 255 255
255 255 255 255 255 255 255 255 255 255 255 255 255 255 255
255 255 255 255 255 255 255 255 255 255 255 255 255 255 255
255 255 255 255 255 255 255 255 255 255 255 255 255 255 255
255 255 255 255 255 255 255 255 255 255 255 255 255 255 255
255 255 255 255 255 255 255 255 255 255 255 255 255 255 255
255 255 255 255 255 255 255 255 255 255 255 255 255 255 255
255 255 255 255 255 255 255 255 255 255 255 255 255 255 255
255 255 255 255 255 255 255 255 255 255 255 255 255 255 255
255 255 255 255 255 255 255 255 255 255 255 255 255 255 255
255 255 255 255 255 255 255 255 255 255 255 255 255 255 255
255 255 255 255 255 255 255 255 255 255 255 255 255 255 255
255 255 255 255 255 255 255 255 255 255 255 255 255 255 255
255 255 255 255 255 255 255 255 255 255 255 255 255 255 255
255 255 255 255 255 255 255 255 255 255 255 255 255 255 255
255 255 255 255 255 255 255 255 255 255 255 255 255 255 255
255 255 255 255 255 255 255 255 255 255 255 255 255 255 255
255 255 255 255 255 255 255 255 255 255 255 255 255 255 255
255 255 255 255 255 255 255 255 255 255 252 253 254 252 253
254 252 255 252 253 255 252 253 255 250 254 255 249 255 255
249 255 255 249 254 255 250 254 255 252 253 255 253 252 255
255 251 255 254 247 255 252 242 251 255 234 253 223 182 216
113 55 103 94 25 82 140 59 128 153 58 140 159 49 146 169 45 157
178 43 164 177 31 164 181 33 169 189 38 179 194 46 186 198 52 189
195 53 187 187 47 178 178 41 170 175 39 163 176 41 161 173 40 157
170 39 151 170 45 149 171 53 149 164 56 142 153 55 130 139 54 119
122 52 106 179 124 166 250 209 241 255 234 255 255 249 255
255 251 255 249 247 252 245 246 248 244 248 247 245 249 248
247 251 250 248 252 251 251 253 252 251 253 252 252 252 252
253 253 253 253 253 253 254 252 253 254 252 253 254 252 253
254 252 253 255 252 253 254 252 253 252 252 250 251 251 249
251 251 249 250 250 248 249 249 247 248 248 246 248 248 248
248 248 248 252 252 252 251 251 251 249 249 251 248 248 250
248 248 250 249 249 251 250 250 252 251 251 253 250 252 251
250 250 250 249 243 247 250 237 246 255 241 253 255 245 255
255 234 255 255 219 250 218 172 209 156 103 149 106 43 98 115 40 105
150 64 139 169 71 154 170 61 152 170 51 151 174 46 157 176 41 159
174 39 159 175 37 159 177 38 163 179 38 166 181 37 168 181 37 168
183 39 170 183 39 170 180 39 169 178 37 167 176 37 164 176 37 164
174 38 162 173 39 162 173 41 163 173 41 163 173 41 163 173 41 163
173 41 163 173 41 163 173 41 163 173 41 163 172 40 162 169 39 161
169 37 159 166 36 158 169 37 159 169 39 161 171 41 163 174 42 164
181 45 171 186 47 174 188 49 174 187 49 171 182 47 167 179 45 160
177 45 157 176 46 155 174 49 153 166 46 144 162 44 140 159 46 138
156 46 133 150 45 129 145 42 125 140 44 116 119 35 94 98 25 71
90 21 66 106 46 84 142 88 120 185 142 169 229 196 215 255 233 247
250 234 244 252 243 248 254 250 251 250 250 250 251 253 250
252 255 253 252 255 253 254 255 255 248 246 249 254 242 252
255 243 255 221 178 208 121 60 104 99 21 79 142 50 123 160 58 142
165 56 149 163 48 149 161 44 151 167 46 159 175 50 167 178 50 169
174 45 164 172 38 159 179 39 162 179 36 160 178 35 159 179 36 160
181 37 161 181 37 161 180 36 160 178 34 158 182 39 165 180 40 163
180 40 165 177 41 165 176 42 165 175 43 165 175 43 165 173 44 163
170 41 160 170 41 160 172 40 162 174 40 165 177 41 167 179 40 169
176 36 167 175 34 165 173 31 165 179 35 169 182 38 172 178 34 168
172 28 160 170 29 160 179 38 169 184 50 173 169 43 151 167 48 148
157 43 138 158 54 141 157 65 142 129 48 115 118 51 105 145 92 134
204 163 195 255 230 252 255 248 255 248 237 243 251 249 250
254 255 253 248 253 247 251 255 250 254 255 250 253 255 250
251 253 248 250 252 247 251 253 248 253 255 252 255 255 253
254 255 255 255 255 255 255 255 255 255 255 255 255 255 255
255 255 255 255 255 255 255 254 255 255 255 255 255 255 255
255 255 255 255 255 255 255 255 255 255 255 255 255 255 255
255 255 255 255 255 255 255 255 255 255 255 255 255 255 255
255 255 255 255 255 255 255 255 255 255 255 255 255 255 255
255 255 255 255 255 255 255 255 255 255 255 255 255 255 255
255 255 255 255 255 255 255 255 255 255 255 255 255 255 255
255 255 255 255 255 255 255 255 255 255 255 255 255 255 255
255 255 255 255 255 255 255 255 255 255 255 255 255 255 255
255 255 255 255 255 255 255 255 255 255 255 255 255 255 255
255 255 255 255 255 255 255 255 255 255 255 255 255 255 255
255 255 255 255 255 255 255 255 255 255 255 255 255 255 255
255 255 255 255 255 255 255 255 255 255 255 255 255 255 255
255 255 255 255 255 255 255 255 255 255 255 255 255 255 255
255 255 255 255 255 255 255 255 255 255 255 255 255 255 255
255 255 255 255 255 255 255 255 255 255 255 255 255 255 255
255 255 255 255 255 255 255 255 255 255 255 255 255 255 255
255 255 255 255 255 255 255 255 255 255 255 255 255 255 255
255 255 255 255 255 255 255 255 255 255 255 255 255 255 255
255 255 255 255 255 255 255 255 255 255 255 255 255 255 255
255 255 255 255 255 255 255 255 255 255 255 255 255 255 255
255 255 255 255 255 255 255 255 255 255 255 255 255 255 255
255 255 255 255 255 255 255 255 255 255 255 255 255 255 255
255 255 255 255 255 255 255 255 255 255 255 255 255 255 255
255 255 255 255 255 255 255 255 255 255 255 255 255 255 255
255 255 255 255 255 255 255 255 255 255 255 255 255 255 255
255 255 255 255 255 255 255 255 255 255 255 255 255 255 255
255 255 255 255 255 255 255 255 255 255 255 255 255 255 255
255 255 255 255 255 255 255 255 255 255 255 255 255 255 255
255 255 255 255 255 255 255 255 255 255 255 255 255 255 255
255 255 255 255 255 255 255 255 255 255 252 253 254 252 253
254 252 255 252 253 255 252 253 255 250 254 255 249 254 255
247 255 255 249 254 255 250 254 255 252 253 255 253 252 255
255 250 255 255 247 255 252 242 253 255 235 254 215 174 208 108 52 97
91 24 78 137 58 124 153 58 140 160 50 147 173 46 159 178 43 164
179 33 166 184 33 170 189 38 179 195 47 187 199 53 190 195 53 187
187 50 180 183 46 175 177 40 169 179 40 165 174 39 160 171 38 155
171 41 150 171 49 150 170 55 148 164 59 143 139 45 119 99 19 80
144 80 130 231 181 219 254 218 246 255 232 253 255 248 255
255 246 255 248 246 249 247 249 248 248 250 249 249 251 250
249 251 250 250 250 250 250 250 250 251 249 250 253 251 252
253 251 252 253 251 252 253 251 252 253 251 252 253 251 252
253 251 252 253 251 252 251 251 249 251 252 247 250 251 246
249 250 245 249 249 247 248 248 246 247 247 247 247 247 247
248 248 248 249 249 249 249 249 251 247 247 249 245 244 249
247 246 251 252 251 255 255 254 255 255 252 255 246 238 249
242 225 241 255 231 252 255 241 255 255 230 255 229 174 214
180 118 167 131 62 119 115 39 104 123 39 114 163 68 152 184 77 171
175 59 160 172 46 154 183 52 164 175 40 160 176 38 160 175 37 159
176 37 162 177 38 163 177 38 165 177 36 166 175 34 164 178 39 168
177 38 167 173 37 163 173 37 163 172 38 163 172 38 163 172 40 162
172 40 162 171 41 165 171 41 165 171 41 165 171 41 165 173 40 165
173 40 165 173 40 165 173 40 165 174 41 166 174 41 166 174 40 165
172 39 164 174 40 165 176 43 168 178 45 170 180 48 170 173 41 161
169 38 154 164 33 147 164 33 145 166 38 147 171 46 150 175 53 154
175 57 153 167 54 144 160 52 137 151 50 130 141 45 119 125 34 104
109 22 90 102 17 82 97 22 78 105 43 84 133 79 111 175 126 156
214 172 196 246 211 231 255 240 255 255 248 255 255 249 253
255 252 253 255 254 253 250 249 245 244 245 240 247 248 243
252 253 248 249 250 245 244 244 242 243 241 242 255 246 254
255 237 253 222 181 211 155 96 140 122 47 104 135 43 116 152 50 134
160 50 145 160 45 148 161 41 151 166 43 157 175 47 166 180 48 170
176 42 165 170 34 158 185 46 171 183 44 169 181 41 166 180 40 165
182 39 165 183 40 166 184 39 166 184 39 166 180 37 165 178 38 163
178 37 165 175 39 165 174 40 165 173 40 165 171 41 165 170 42 165
170 42 163 170 40 162 173 41 163 175 41 166 176 39 168 178 38 169
178 37 168 178 34 168 177 33 167 180 36 170 182 38 170 180 36 167
175 34 162 173 34 159 174 38 162 175 44 158 173 51 150 165 52 140
162 57 139 168 74 148 148 68 131 104 37 90 129 76 118 212 173 204
251 223 245 254 238 251 255 248 255 255 251 252 254 254 252
254 255 253 254 255 251 251 253 248 254 255 251 255 255 253
255 255 253 255 255 253 255 255 253 255 255 255 255 254 255
255 255 255 255 254 255 255 254 255 255 254 255 255 254 255
255 255 255 255 255 255 255 255 255 255 255 255 255 255 255
255 255 255 255 255 255 255 255 255 255 255 255 255 255 255
255 255 255 255 255 255 255 255 255 255 255 255 255 255 255
255 255 255 255 255 255 255 255 255 255 255 255 255 255 255
255 255 255 255 255 255 255 255 255 255 255 255 255 255 255
255 255 255 255 255 255 255 255 255 255 255 255 255 255 255
255 255 255 255 255 255 255 255 255 255 255 255 255 255 255
255 255 255 255 255 255 255 255 255 255 255 255 255 255 255
255 255 255 255 255 255 255 255 255 255 255 255 255 255 255
255 255 255 255 255 255 255 255 255 255 255 255 255 255 255
255 255 255 255 255 255 255 255 255 255 255 255 255 255 255
255 255 255 255 255 255 255 255 255 255 255 255 255 255 255
255 255 255 255 255 255 255 255 255 255 255 255 255 255 255
255 255 255 255 255 255 255 255 255 255 255 255 255 255 255
255 255 255 255 255 255 255 255 255 255 255 255 255 255 255
255 255 255 255 255 255 255 255 255 255 255 255 255 255 255
255 255 255 255 255 255 255 255 255 255 255 255 255 255 255
255 255 255 255 255 255 255 255 255 255 255 255 255 255 255
255 255 255 255 255 255 255 255 255 255 255 255 255 255 255
255 255 255 255 255 255 255 255 255 255 255 255 255 255 255
255 255 255 255 255 255 255 255 255 255 255 255 255 255 255
255 255 255 255 255 255 255 255 255 255 255 255 255 255 255
255 255 255 255 255 255 255 255 255 255 255 255 255 255 255
255 255 255 255 255 255 255 255 255 255 255 255 255 255 255
255 255 255 255 255 255 255 255 255 255 255 255 255 255 255
255 255 255 255 255 255 255 255 255 255 255 255 255 255 255
255 255 255 255 255 255 255 255 255 255 255 255 255 255 255
255 255 255 255 255 255 255 255 255 255 255 255 255 255 255
255 255 255 255 255 255 255 255 255 255 255 255 255 255 255
255 255 255 255 255 255 255 255 255 255 253 254 255 253 254
255 253 255 254 254 255 253 254 255 250 255 255 250 255 255
248 255 255 249 254 255 249 254 255 250 253 255 254 253 255
255 251 255 255 247 255 254 242 254 255 236 255 210 171 202 104 49 91
85 21 73 133 54 119 150 57 137 163 53 148 175 49 159 180 42 164
181 36 167 183 32 169 187 36 177 193 45 185 198 52 189 194 52 188
187 50 182 185 48 178 182 42 173 179 40 169 176 37 164 173 35 156
170 37 152 169 42 149 166 46 144 163 50 140 154 53 133 142 55 123
126 53 109 148 91 136 217 173 208 255 230 255 255 239 255 252 238 253
255 249 255 253 251 252 253 251 252 253 251 252 252 250 251
251 249 250 250 248 249 249 247 248 253 251 252 253 251 252
253 251 252 253 251 252 253 251 252 253 251 252 253 251 252
253 252 250 253 253 251 253 254 249 252 253 248 252 253 248
251 251 249 251 251 249 250 250 250 250 250 250 247 247 247
248 248 248 249 249 251 248 248 250 248 247 252 250 249 254
254 253 255 255 253 255 249 241 254 255 246 255 255 243 255
255 221 254 229 179 217 187 125 172 143 72 128 118 37 103 133 45 119
164 69 151 185 80 173 182 67 168 181 57 167 193 62 178 198 58 181
189 46 172 177 37 162 175 36 161 175 36 163 176 37 164 177 38 165
177 38 165 175 36 165 172 35 164 177 40 169 174 39 167 173 39 164
172 39 164 173 40 165 172 42 166 172 42 164 171 41 163 171 41 165
171 41 165 171 41 165 171 41 165 173 40 165 173 40 165 173 40 165
173 40 165 174 40 165 173 39 164 173 39 164 173 39 164 175 39 165
177 41 167 178 42 168 178 44 165 162 35 148 159 36 143 159 36 142
161 41 141 164 44 142 160 45 138 154 41 131 145 40 124 144 43 121
128 35 106 113 27 92 104 24 83 100 25 81 107 37 89 129 63 111
145 88 129 201 158 186 237 202 224 255 236 254 255 236 251
249 227 239 250 235 242 255 252 253 255 254 251 247 243 240
248 247 243 252 251 246 255 255 250 255 255 250 255 255 250
255 252 249 253 248 245 245 241 242 255 250 255 255 237 253
227 187 214 175 116 160 140 62 120 135 43 116 146 42 127 160 49 144
169 50 154 170 48 159 166 39 156 163 31 151 165 31 154 174 35 162
179 40 167 177 41 165 175 41 164 174 38 162 172 36 160 174 35 160
175 35 160 178 35 163 179 36 164 178 37 165 178 37 165 177 38 165
174 40 165 173 40 167 170 41 167 170 41 167 168 42 167 168 43 163
170 42 163 171 41 163 174 41 166 176 39 168 178 38 169 178 37 168
180 36 168 180 34 167 180 34 167 180 36 167 180 40 165 181 43 165
179 44 162 176 43 160 171 44 151 166 49 138 163 56 134 163 66 137
133 47 110 100 30 82 139 82 123 214 173 203 250 222 244 255 249 255
243 236 243 251 249 250 255 255 255 253 255 252 249 251 248
255 255 253 254 254 252 255 255 253 255 255 253 255 255 255
255 255 255 255 254 255 255 254 255 255 253 255 254 252 255
255 253 255 255 254 255 255 254 255 255 254 255 255 255 255
255 255 255 254 255 255 254 255 255 255 255 255 255 255 255
255 255 255 255 255 255 255 255 255 255 255 255 255 255 255
255 255 255 255 255 255 255 255 255 255 255 255 255 255 255
255 255 255 255 255 255 255 255 255 255 255 255 255 255 255
255 255 255 255 255 255 255 255 255 255 255 255 255 255 255
255 255 255 255 255 255 255 255 255 255 255 255 255 255 255
255 255 255 255 255 255 255 255 255 255 255 255 255 255 255
255 255 255 255 255 255 255 255 255 255 255 255 255 255 255
255 255 255 255 255 255 255 255 255 255 255 255 255 255 255
255 255 255 255 255 255 255 255 255 255 255 255 255 255 255
255 255 255 255 255 255 255 255 255 255 255 255 255 255 255
255 255 255 255 255 255 255 255 255 255 255 255 255 255 255
255 255 255 255 255 255 255 255 255 255 255 255 255 255 255
255 255 255 255 255 255 255 255 255 255 255 255 255 255 255
255 255 255 255 255 255 255 255 255 255 255 255 255 255 255
255 255 255 255 255 255 255 255 255 255 255 255 255 255 255
255 255 255 255 255 255 255 255 255 255 255 255 255 255 255
255 255 255 255 255 255 255 255 255 255 255 255 255 255 255
255 255 255 255 255 255 255 255 255 255 255 255 255 255 255
255 255 255 255 255 255 255 255 255 255 255 255 255 255 255
255 255 255 255 255 255 255 255 255 255 255 255 255 255 255
255 255 255 255 255 255 255 255 255 255 255 255 255 255 255
255 255 255 255 255 255 255 255 255 255 255 255 255 255 255
255 255 255 255 255 255 255 255 255 255 255 255 255 255 255
255 255 255 255 255 255 255 255 255 255 255 255 255 255 255
255 255 255 255 255 255 255 255 255 255 255 255 255 255 255
255 255 255 255 255 255 255 255 255 255 255 255 255 255 255
255 255 255 255 255 255 255 255 255 255 255 255 255 255 255
255 255 255 255 255 255 255 255 255 255 255 255 255 255 255
255 255 255 255 255 255 255 252 254 255 253 254 255 253 254
254 254 254 253 254 255 250 255 255 250 255 255 248 255 255
247 255 255 249 254 255 250 253 255 254 253 255 255 251 255
255 248 255 255 243 255 255 236 253 221 182 211 110 58 97 87 25 76
131 55 119 151 58 138 162 55 149 174 50 160 177 42 163 180 35 166
181 30 167 185 34 175 192 44 184 196 51 188 190 50 185 185 48 180
184 47 179 183 43 176 180 39 170 177 36 166 175 36 161 174 36 157
170 38 150 165 40 144 160 42 136 154 49 133 163 71 144 122 44 106
95 31 83 156 105 146 231 191 225 255 227 255 255 240 255 255 245 253
253 249 250 253 249 250 254 250 251 254 250 251 253 249 250
253 249 250 253 249 250 253 251 252 253 251 252 253 251 252
253 251 252 253 251 252 253 251 252 253 251 252 253 252 250
253 253 251 253 254 249 253 254 249 253 254 249 253 253 251
252 252 250 252 252 252 252 252 252 250 250 250 248 248 248
247 247 249 249 249 251 252 251 255 251 250 255 246 245 250
244 238 248 252 237 255 249 224 253 228 192 228 185 138 180
140 78 129 119 44 103 135 48 117 162 65 144 191 85 173 181 67 163
176 55 161 183 54 170 187 48 173 183 38 167 186 34 169 192 40 175
179 35 166 177 36 164 175 36 165 177 38 167 176 39 168 176 39 168
175 38 167 172 37 165 176 41 169 173 40 167 172 39 164 171 41 165
173 43 165 172 44 165 171 43 164 169 41 162 171 41 165 171 41 165
171 41 165 171 41 165 173 40 165 173 40 165 174 40 165 174 40 165
172 36 162 172 36 162 172 36 162 172 36 162 174 35 162 174 35 162
174 35 162 171 38 157 169 48 153 168 52 149 171 57 152 169 58 150
163 53 142 149 44 128 135 34 112 123 27 99 120 34 99 107 27 86
103 30 83 116 50 96 143 85 126 184 129 168 233 183 218 255 227 254
255 231 250 255 238 250 255 240 252 255 242 251 255 250 255
255 253 255 255 254 253 252 251 247 255 255 251 255 255 250
255 252 248 254 246 243 251 241 240 254 240 240 255 245 246
255 251 251 253 247 249 255 249 255 255 242 255 225 185 212
154 93 137 126 46 105 139 45 119 147 42 127 166 50 147 175 54 159
177 50 163 169 37 156 160 26 147 165 26 151 176 33 161 179 40 167
174 42 164 172 44 165 173 43 165 175 43 165 175 41 166 176 40 166
178 39 166 179 40 167 179 40 169 177 40 169 176 41 169 173 43 169
172 43 170 169 44 170 169 44 170 168 45 169 166 42 162 168 43 161
170 42 163 171 41 165 174 40 165 177 38 167 178 37 167 180 36 167
179 34 165 178 33 162 177 34 160 179 39 161 180 46 161 181 49 161
178 48 156 172 48 146 162 49 131 157 54 125 142 50 113 113 34 89
126 63 106 211 164 196 255 240 255 255 238 250 255 252 255
247 247 247 251 253 252 252 255 253 250 252 249 250 250 248
255 255 253 255 254 255 255 254 255 255 255 255 255 254 255
255 254 255 255 253 255 255 253 255 255 252 255 255 251 255
255 252 255 255 253 255 255 254 255 255 254 255 255 255 255
255 255 255 254 255 255 254 255 255 255 255 255 255 255 255
255 255 255 255 255 255 255 255 255 255 255 255 255 255 255
255 255 255 255 255 255 255 255 255 255 255 255 255 255 255
255 255 255 255 255 255 255 255 255 255 255 255 255 255 255
255 255 255 255 255 255 255 255 255 255 255 255 255 255 255
255 255 255 255 255 255 255 255 255 255 255 255 255 255 255
255 255 255 255 255 255 255 255 255 255 255 255 255 255 255
255 255 255 255 255 255 255 255 255 255 255 255 255 255 255
255 255 255 255 255 255 255 255 255 255 255 255 255 255 255
255 255 255 255 255 255 255 255 255 255 255 255 255 255 255
255 255 255 255 255 255 255 255 255 255 255 255 255 255 255
255 255 255 255 255 255 255 255 255 255 255 255 255 255 255
255 255 255 255 255 255 255 255 255 255 255 255 255 255 255
255 255 255 255 255 255 255 255 255 255 255 255 255 255 255
255 255 255 255 255 255 255 255 255 255 255 255 255 255 255
255 255 255 255 255 255 255 255 255 255 255 255 255 255 255
255 255 255 255 255 255 255 255 255 255 255 255 255 255 255
255 255 255 255 255 255 255 255 255 255 255 255 255 255 255
255 255 255 255 255 255 255 255 255 255 255 255 255 255 255
255 255 255 255 255 255 255 255 255 255 255 255 255 255 255
255 255 255 255 255 255 255 255 255 255 255 255 255 255 255
255 255 255 255 255 255 255 255 255 255 255 255 255 255 255
255 255 255 255 255 255 255 255 255 255 255 255 255 255 255
255 255 255 255 255 255 255 255 255 255 255 255 255 255 255
255 255 255 255 255 255 255 255 255 255 255 255 255 255 255
255 255 255 255 255 255 255 255 255 255 255 255 255 255 255
255 255 255 255 255 255 255 255 255 255 255 255 255 255 255
255 255 255 255 255 255 255 255 255 255 255 255 255 255 255
255 255 255 255 255 255 255 255 255 255 255 255 255 255 255
255 255 255 255 255 255 255 252 255 255 253 254 255 253 255
254 254 255 253 254 255 251 255 255 250 255 255 250 255 255
249 254 255 250 254 255 252 253 255 254 253 255 255 252 255
255 249 255 254 244 253 255 238 252 235 199 225 122 72 109 92 33 81
131 60 120 149 61 137 161 58 149 172 52 160 173 41 161 176 35 165
178 30 166 182 34 172 192 44 182 196 52 186 190 49 180 184 44 175
184 44 175 183 43 176 180 38 172 177 36 167 178 37 165 179 39 164
174 39 159 170 38 150 165 40 144 172 57 152 163 59 144 156 64 139
137 58 124 118 50 107 141 83 133 202 154 196 251 214 247 255 232 252
253 237 250 253 239 252 254 242 252 254 247 255 252 250 255
252 252 254 252 253 255 249 253 252 249 253 252 249 253 252
249 253 252 251 253 252 251 253 250 252 252 252 251 253 250
247 254 246 247 255 244 247 254 246 248 253 246 249 254 248
251 253 250 252 252 252 255 250 254 255 252 255 255 245 254
253 241 253 255 243 255 255 246 255 255 242 255 245 226 245
234 210 236 212 174 213 166 119 165 118 59 113 107 37 97 127 44 114
151 57 135 170 62 148 178 63 158 177 52 156 191 61 170 198 60 179
192 49 175 187 40 172 190 38 173 193 36 175 188 33 171 181 36 167
177 36 164 176 37 166 177 38 167 177 40 169 176 41 169 174 41 168
172 39 166 171 41 167 170 40 166 168 39 165 169 41 164 171 43 166
171 43 166 167 41 164 167 39 162 171 41 167 171 40 168 171 41 167
171 41 167 173 40 167 173 40 165 174 40 165 174 40 163 174 40 163
174 40 161 174 40 161 174 40 161 172 39 158 171 38 157 169 36 155
164 38 146 159 48 140 153 50 131 145 44 122 132 36 110 120 27 98
110 23 91 106 24 86 104 29 85 103 37 85 124 66 107 173 121 159
228 183 214 255 222 249 255 231 255 255 230 251 255 233 249
255 249 255 253 241 251 246 236 244 247 240 247 249 247 250
250 250 250 250 250 250 249 249 247 246 246 244 248 247 243
254 249 246 255 253 251 255 251 251 255 251 251 255 245 247
255 245 245 255 252 253 255 246 250 255 244 255 219 176 204
118 55 100 100 19 78 145 47 122 154 44 133 171 52 152 176 50 158
174 45 161 171 37 158 170 34 158 175 36 163 176 35 163 170 31 158
168 35 160 167 39 162 171 41 163 175 43 165 175 41 164 174 40 163
173 37 161 173 37 161 174 38 162 173 39 164 172 39 164 170 40 166
169 40 167 167 41 167 166 41 167 166 42 166 167 42 162 167 42 160
170 42 163 169 41 164 170 40 164 172 37 165 174 37 166 177 38 167
180 39 167 178 38 163 177 37 159 176 39 155 175 43 152 174 45 148
170 44 144 162 45 134 164 64 136 129 44 103 103 26 80 143 78 121
224 173 206 255 224 248 254 232 245 255 247 253 245 243 244
253 255 252 252 255 253 249 254 250 254 255 253 255 255 253
255 254 255 254 252 253 255 254 255 254 254 255 255 253 255
255 253 255 255 253 255 255 253 255 255 253 255 255 253 255
255 253 255 255 253 255 255 254 255 255 254 255 255 255 255
255 255 255 254 255 255 254 255 255 255 255 255 255 255 255
255 255 255 255 255 255 255 255 255 255 255 255 255 255 255
255 255 255 255 255 255 255 255 255 255 255 255 255 255 255
255 255 255 255 255 255 255 255 255 255 255 255 255 255 255
255 255 255 255 255 255 255 255 255 255 255 255 255 255 255
255 255 255 255 255 255 255 255 255 255 255 255 255 255 255
255 255 255 255 255 255 255 255 255 255 255 255 255 255 255
255 255 255 255 255 255 255 255 255 255 255 255 255 255 255
255 255 255 255 255 255 255 255 255 255 255 255 255 255 255
255 255 255 255 255 255 255 255 255 255 255 255 255 255 255
255 255 255 255 255 255 255 255 255 255 255 255 255 255 255
255 255 255 255 255 255 255 255 255 255 255 255 255 255 255
255 255 255 255 255 255 255 255 255 255 255 255 255 255 255
255 255 255 255 255 255 255 255 255 255 255 255 255 255 255
255 255 255 255 255 255 255 255 255 255 255 255 255 255 255
255 255 255 255 255 255 255 255 255 255 255 255 255 255 255
255 255 255 255 255 255 255 255 255 255 255 255 255 255 255
255 255 255 255 255 255 255 255 255 255 255 255 255 255 255
255 255 255 255 255 255 255 255 255 255 255 255 255 255 255
255 255 255 255 255 255 255 255 255 255 255 255 255 255 255
255 255 255 255 255 255 255 255 255 255 255 255 255 255 255
255 255 255 255 255 255 255 255 255 255 255 255 255 255 255
255 255 255 255 255 255 255 255 255 255 255 255 255 255 255
255 255 255 255 255 255 255 255 255 255 255 255 255 255 255
255 255 255 255 255 255 255 255 255 255 255 255 255 255 255
255 255 255 255 255 255 255 255 255 255 255 255 255 255 255
255 255 255 255 255 255 255 255 255 255 255 255 255 255 255
255 255 255 255 255 255 255 255 255 255 255 255 255 255 255
255 255 255 255 255 255 255 255 255 255 255 255 255 255 255
255 255 255 255 255 255 255 254 255 255 255 255 255 254 255
254 255 255 254 255 255 254 255 255 254 255 255 254 255 255
253 254 255 253 254 255 255 255 255 255 254 255 255 253 254
255 252 253 254 250 251 255 245 254 245 213 236 148 102 138
117 61 108 129 61 120 141 59 133 142 46 135 168 57 162 161 38 155
172 37 165 180 39 170 188 42 177 188 42 175 185 40 171 183 38 167
184 39 166 185 42 168 179 40 169 179 39 170 179 39 170 180 39 170
180 39 169 180 39 169 179 40 167 176 42 163 167 39 152 169 48 154
179 65 163 174 69 161 142 47 129 118 30 104 142 59 127 180 110 170
247 200 244 254 220 255 255 230 255 250 230 255 249 237 255
255 253 255 249 255 255 245 255 255 240 255 253 239 255 252
239 255 252 242 255 251 245 255 251 246 255 248 248 254 250
244 255 246 238 255 240 235 255 237 236 255 238 243 255 244
248 255 250 252 255 253 249 247 250 247 235 245 255 239 255
255 238 255 255 239 255 255 233 255 255 213 255 229 177 223
189 135 184 167 104 159 111 34 102 126 38 114 142 47 128 160 58 142
175 61 156 183 61 160 187 56 162 188 50 162 201 58 176 202 54 178
199 49 175 195 44 175 191 39 173 188 36 170 187 32 168 184 32 166
182 35 165 180 37 163 178 37 165 175 39 165 174 40 165 173 40 165
171 41 165 170 42 165 166 40 165 167 41 166 170 44 169 170 44 169
170 44 169 169 43 168 170 41 167 170 41 168 175 44 176 172 40 175
171 37 170 171 37 168 176 41 170 180 45 173 178 44 169 173 39 160
168 36 155 170 42 155 173 47 157 170 47 154 164 43 148 158 39 141
159 40 140 158 48 137 148 52 123 139 51 111 122 39 95 98 21 75
83 13 63 94 33 77 125 73 111 153 108 141 207 171 197 230 201 223
254 231 249 255 243 255 255 241 252 252 239 248 253 242 248
255 245 251 252 242 250 250 243 251 252 245 253 254 249 255
254 252 255 253 252 255 251 250 255 247 248 250 254 255 255
251 251 253 251 249 250 255 252 253 255 248 251 254 244 245
255 245 246 255 250 249 255 254 250 247 235 237 255 234 248
207 161 189 93 26 70 107 21 84 142 39 118 159 44 137 171 48 152
173 45 158 175 43 162 176 44 166 178 44 167 177 41 167 174 38 164
171 35 161 168 33 161 169 34 162 172 38 163 174 40 163 177 42 163
177 42 162 176 41 161 175 40 158 175 40 158 175 40 160 175 41 162
175 41 166 174 39 167 173 40 168 172 38 169 171 38 166 167 37 161
169 39 161 171 43 164 170 44 167 167 43 167 167 41 166 170 41 167
172 42 166 170 36 159 175 40 160 174 40 155 168 35 144 168 39 140
176 51 145 176 56 145 161 57 134 112 39 95 103 47 92 141 91 129
209 168 200 255 228 251 255 243 255 255 242 251 252 246 248
250 250 248 250 252 247 250 255 249 252 255 251 252 255 253
254 255 253 255 255 255 255 255 255 255 255 255 255 255 255
255 255 255 255 255 255 255 255 255 255 254 255 255 254 255
255 254 255 255 254 255 255 254 255 255 255 255 255 255 255
255 255 255 255 255 255 255 255 255 255 255 255 255 255 255
255 255 255 255 255 255 255 255 255 255 255 255 255 255 255
255 255 255 255 255 255 255 255 255 255 255 255 255 255 255
255 255 255 255 255 255 255 255 255 255 255 255 255 255 255
255 255 255 255 255 255 255 255 255 255 255 255 255 255 255
255 255 255 255 255 255 255 255 255 255 255 255 255 255 255
255 255 255 255 255 255 255 255 255 255 255 255 255 255 255
255 255 255 255 255 255 255 255 255 255 255 255 255 255 255
255 255 255 255 255 255 255 255 255 255 255 255 255 255 255
255 255 255 255 255 255 255 255 255 255 255 255 255 255 255
255 255 255 255 255 255 255 255 255 255 255 255 255 255 255
255 255 255 255 255 255 255 255 255 255 255 255 255 255 255
255 255 255 255 255 255 255 255 255 255 255 255 255 255 255
255 255 255 255 255 255 255 255 255 255 255 255 255 255 255
255 255 255 255 255 255 255 255 255 255 255 255 255 255 255
255 255 255 255 255 255 255 255 255 255 255 255 255 255 255
255 255 255 255 255 255 255 255 255 255 255 255 255 255 255
255 255 255 255 255 255 255 255 255 255 255 255 255 255 255
255 255 255 255 255 255 255 255 255 255 255 255 255 255 255
255 255 255 255 255 255 255 255 255 255 255 255 255 255 255
255 255 255 255 255 255 255 255 255 255 255 255 255 255 255
255 255 255 255 255 255 255 255 255 255 255 255 255 255 255
255 255 255 255 255 255 255 255 255 255 255 255 255 255 255
255 255 255 255 255 255 255 255 255 255 255 255 255 255 255
255 255 255 255 255 255 255 255 255 255 255 255 255 255 255
255 255 255 255 255 255 255 255 255 255 255 255 255 255 255
255 255 255 255 255 255 255 255 255 255 255 255 255 255 255
255 255 255 255 255 255 255 255 255 255 255 255 255 255 255
255 255 255 255 255 255 255 255 255 255 255 255 255 255 255
255 255 255 255 255 255 255 255 255 254 255 255 254 255 255
254 255 255 254 255 255 254 255 255 254 255 255 255 255 255
255 255 255 254 254 254 255 255 255 255 254 255 255 254 255
255 254 252 253 252 250 252 251 249 255 246 252 244 217 236
172 131 163 132 81 122 120 60 114 134 59 128 137 48 132 161 56 157
161 45 156 166 38 161 174 39 167 182 41 171 184 40 171 182 37 164
179 35 159 180 36 159 181 38 162 177 41 167 176 41 169 177 40 170
179 39 170 180 38 172 180 38 172 180 39 170 179 40 169 190 54 178
187 54 173 186 58 171 186 65 170 178 64 160 159 50 141 141 37 122
126 35 112 154 86 147 202 149 201 255 213 255 255 238 255 255 235 255
244 232 254 241 239 253 241 248 255 246 255 255 243 255 255
242 255 254 243 254 250 245 251 249 246 250 249 249 249 249
246 251 245 245 255 245 242 255 243 244 255 244 245 252 245
248 248 248 253 246 253 255 246 255 255 244 255 255 219 252
247 200 242 229 173 222 207 142 198 183 111 175 156 79 147 130 48 120
117 26 105 163 59 148 175 61 157 184 65 165 189 66 170 192 62 171
194 57 171 197 53 174 200 52 176 201 51 177 199 48 177 198 44 174
192 41 172 188 39 169 185 36 166 181 34 164 179 34 161 182 38 162
179 39 162 178 40 162 175 40 161 174 40 163 172 40 162 170 40 164
169 41 164 169 43 168 170 44 169 170 44 170 169 43 169 170 41 168
170 41 168 170 41 170 171 40 170 171 39 174 172 40 175 171 40 172
169 35 166 167 34 161 168 36 158 170 41 160 172 45 160 175 52 159
164 45 147 156 42 138 156 47 138 157 52 137 149 47 130 137 38 118
128 37 107 93 15 67 86 17 61 91 26 68 112 54 92 151 101 136
194 153 183 230 196 220 246 221 240 241 223 237 249 237 247
255 247 255 255 249 253 249 245 246 248 244 245 251 247 246
254 250 251 251 244 251 251 246 253 252 247 254 253 250 255
254 253 255 252 253 255 250 251 255 245 248 253 246 247 251
250 251 255 255 255 255 255 254 255 251 246 250 245 239 241
252 243 246 255 252 253 255 253 251 252 237 240 243 211 226
189 139 168 103 31 79 119 29 93 156 49 131 175 55 152 177 50 157
179 48 162 179 47 167 180 48 170 182 48 173 180 46 171 178 44 169
175 40 168 170 33 162 171 34 163 174 38 164 175 39 163 176 41 161
176 41 159 175 41 156 175 41 156 175 41 156 175 40 158 176 41 161
176 40 164 175 38 167 175 38 170 174 36 171 173 36 168 173 38 166
174 41 166 173 45 168 171 45 170 166 43 168 164 41 166 165 41 165
167 41 164 174 45 164 170 39 155 173 43 152 180 51 152 172 48 142
157 39 125 155 42 122 153 61 128 102 44 92 141 104 138 210 175 205
254 226 249 255 238 255 246 233 243 248 239 244 255 253 252
249 250 245 249 252 245 249 254 247 251 255 250 252 255 253
252 255 255 254 255 255 254 255 255 255 255 255 255 255 255
255 255 255 255 255 255 255 255 255 255 255 255 255 255 255
255 255 255 255 255 255 255 255 255 255 255 255 255 255 255
255 255 255 255 255 255 255 255 255 255 255 255 255 255 255
255 255 255 255 255 255 255 255 255 255 255 255 255 255 255
255 255 255 255 255 255 255 255 255 255 255 255 255 255 255
255 255 255 255 255 255 255 255 255 255 255 255 255 255 255
255 255 255 255 255 255 255 255 255 255 255 255 255 255 255
255 255 255 255 255 255 255 255 255 255 255 255 255 255 255
255 255 255 255 255 255 255 255 255 255 255 255 255 255 255
255 255 255 255 255 255 255 255 255 255 255 255 255 255 255
255 255 255 255 255 255 255 255 255 255 255 255 255 255 255
255 255 255 255 255 255 255 255 255 255 255 255 255 255 255
255 255 255 255 255 255 255 255 255 255 255 255 255 255 255
255 255 255 255 255 255 255 255 255 255 255 255 255 255 255
255 255 255 255 255 255 255 255 255 255 255 255 255 255 255
255 255 255 255 255 255 255 255 255 255 255 255 255 255 255
255 255 255 255 255 255 255 255 255 255 255 255 255 255 255
255 255 255 255 255 255 255 255 255 255 255 255 255 255 255
255 255 255 255 255 255 255 255 255 255 255 255 255 255 255
255 255 255 255 255 255 255 255 255 255 255 255 255 255 255
255 255 255 255 255 255 255 255 255 255 255 255 255 255 255
255 255 255 255 255 255 255 255 255 255 255 255 255 255 255
255 255 255 255 255 255 255 255 255 255 255 255 255 255 255
255 255 255 255 255 255 255 255 255 255 255 255 255 255 255
255 255 255 255 255 255 255 255 255 255 255 255 255 255 255
255 255 255 255 255 255 255 255 255 255 255 255 255 255 255
255 255 255 255 255 255 255 255 255 255 255 255 255 255 255
255 255 255 255 255 255 255 255 255 255 255 255 255 255 255
255 255 255 255 255 255 255 255 255 255 255 255 255 255 255
255 255 255 255 255 255 255 255 255 255 255 255 255 255 255
255 255 255 255 255 255 255 255 255 255 255 255 255 255 255
255 255 255 255 255 255 255 255 255 254 255 255 254 255 255
254 255 255 254 255 255 254 255 255 254 255 255 255 255 255
255 255 255 255 255 255 255 255 255 255 254 255 255 254 255
255 254 252 253 252 250 251 250 248 255 246 251 246 223 239
209 175 200 151 107 142 101 45 94 121 51 114 137 53 131 157 56 152
163 50 156 164 39 157 172 40 162 179 40 167 180 39 167 177 37 162
175 35 158 176 36 158 176 38 159 174 41 166 172 42 168 174 41 169
175 40 169 176 39 171 178 38 171 179 37 171 179 38 169 179 40 167
189 51 173 190 57 174 185 57 168 184 61 165 184 66 163 172 57 152
149 45 130 118 37 106 128 62 123 161 100 157 201 149 198 236 193 236
255 225 255 255 242 255 255 247 255 255 242 255 255 245 255
255 248 255 255 250 255 255 249 255 255 248 255 255 246 255
255 245 255 255 247 255 255 246 255 255 245 255 255 246 255
255 243 255 255 221 249 231 187 223 211 158 202 195 132 185
173 102 162 141 62 128 119 33 106 119 26 107 136 38 123 158 56 142
173 66 160 176 59 163 183 59 171 187 60 173 185 56 172 183 50 169
183 45 167 187 47 170 193 50 176 191 46 173 189 44 171 186 43 169
183 40 166 179 39 162 177 37 160 174 36 157 174 36 157 177 39 158
177 39 158 175 40 160 174 41 160 174 40 161 174 40 161 173 41 163
173 40 165 172 39 166 171 38 165 168 37 165 168 37 165 169 38 168
171 40 170 173 42 174 174 43 173 173 42 172 173 42 172 174 43 171
174 46 169 174 46 165 171 47 161 170 49 155 167 51 152 162 53 146
155 51 136 151 54 133 148 57 127 131 46 111 107 26 85 95 18 74
92 22 72 115 57 97 141 91 126 186 141 174 225 184 214 248 214 239
255 229 251 255 237 255 255 241 255 255 247 255 255 250 255
255 249 255 250 245 249 250 244 246 254 248 250 255 251 253
255 251 253 254 248 252 253 248 254 252 250 255 253 252 255
254 255 255 251 255 255 248 252 255 245 250 253 248 252 255
250 254 255 254 255 255 255 255 255 254 249 253 250 244 248
254 245 250 255 250 254 255 243 245 254 233 242 213 175 196
169 113 148 129 52 106 138 42 113 161 51 137 170 48 147 173 45 154
174 43 159 174 42 164 176 43 168 177 44 171 177 44 171 175 40 168
173 38 166 172 35 164 173 37 163 174 38 162 176 41 162 176 41 161
176 41 159 175 41 156 174 40 155 175 41 156 175 40 158 176 41 162
176 40 166 175 38 167 175 38 170 174 36 171 173 35 170 172 35 165
173 38 166 172 42 168 172 43 170 169 44 170 168 43 169 169 45 169
170 45 165 174 47 164 165 39 149 163 38 142 165 46 140 162 48 135
146 39 119 130 30 102 112 31 90 160 107 151 205 170 202 255 227 253
255 244 255 255 238 252 247 236 244 250 244 246 253 252 250
247 249 244 246 251 244 248 253 247 251 255 250 254 255 253
254 255 255 255 255 255 255 255 255 255 255 255 255 255 255
255 255 255 255 255 255 255 255 255 255 255 255 255 255 255
255 255 255 255 255 255 255 255 255 255 255 255 255 255 255
255 255 255 255 255 255 255 255 255 255 255 255 255 255 255
255 255 255 255 255 255 255 255 255 255 255 255 255 255 255
255 255 255 255 255 255 255 255 255 255 255 255 255 255 255
255 255 255 255 255 255 255 255 255 255 255 255 255 255 255
255 255 255 255 255 255 255 255 255 255 255 255 255 255 255
255 255 255 255 255 255 255 255 255 255 255 255 255 255 255
255 255 255 255 255 255 255 255 255 255 255 255 255 255 255
255 255 255 255 255 255 255 255 255 255 255 255 255 255 255
255 255 255 255 255 255 255 255 255 255 255 255 255 255 255
255 255 255 255 255 255 255 255 255 255 255 255 255 255 255
255 255 255 255 255 255 255 255 255 255 255 255 255 255 255
255 255 255 255 255 255 255 255 255 255 255 255 255 255 255
255 255 255 255 255 255 255 255 255 255 255 255 255 255 255
255 255 255 255 255 255 255 255 255 255 255 255 255 255 255
255 255 255 255 255 255 255 255 255 255 255 255 255 255 255
255 255 255 255 255 255 255 255 255 255 255 255 255 255 255
255 255 255 255 255 255 255 255 255 255 255 255 255 255 255
255 255 255 255 255 255 255 255 255 255 255 255 255 255 255
255 255 255 255 255 255 255 255 255 255 255 255 255 255 255
255 255 255 255 255 255 255 255 255 255 255 255 255 255 255
255 255 255 255 255 255 255 255 255 255 255 255 255 255 255
255 255 255 255 255 255 255 255 255 255 255 255 255 255 255
255 255 255 255 255 255 255 255 255 255 255 255 255 255 255
255 255 255 255 255 255 255 255 255 255 255 255 255 255 255
255 255 255 255 255 255 255 255 255 255 255 255 255 255 255
255 255 255 255 255 255 255 255 255 255 255 255 255 255 255
255 255 255 255 255 255 255 255 255 255 255 255 255 255 255
255 255 255 255 255 255 255 255 255 255 255 255 255 255 255
255 255 255 255 255 255 255 255 255 255 255 255 255 255 255
255 255 255 255 255 255 255 255 255 253 254 255 253 254 255
253 254 255 253 254 255 253 254 255 253 254 255 254 254 255
254 254 255 255 255 255 255 255 255 255 254 255 255 254 255
255 254 252 253 252 250 251 250 248 253 247 249 247 231 242
241 216 237 163 128 158 74 26 68 103 40 97 139 59 132 156 60 150
162 51 154 166 45 158 173 44 163 178 44 167 178 42 166 176 41 162
174 39 160 175 40 160 174 42 161 171 43 166 169 43 168 171 42 169
172 41 169 175 39 171 176 39 171 179 37 171 179 37 171 187 43 174
202 61 189 208 68 191 191 56 174 179 47 159 183 53 161 188 61 164
181 66 161 151 54 135 134 51 123 130 50 119 135 61 124 148 80 137
169 109 161 200 147 193 226 178 218 252 208 244 255 215 249
255 225 255 255 233 255 255 236 255 255 234 255 255 230 255
255 226 255 253 207 243 238 191 227 218 168 206 203 148 190
189 130 178 172 105 158 149 75 136 133 52 119 119 31 105 131 34 115
148 44 131 166 57 150 183 67 166 189 70 172 187 64 170 183 57 167
189 57 177 190 56 181 189 55 180 187 50 179 184 47 176 184 47 176
189 50 179 192 53 182 180 43 172 179 43 169 178 42 166 175 41 162
173 40 159 171 40 156 170 39 155 170 39 153 172 39 154 172 39 154
173 40 155 174 41 156 176 41 159 177 42 162 178 43 164 178 42 166
176 40 166 174 38 164 171 36 164 169 36 164 169 35 166 171 37 168
170 39 169 170 39 167 176 48 171 164 39 159 155 32 149 156 35 148
163 46 153 165 53 153 162 56 148 159 57 141 138 46 121 122 37 104
109 31 89 103 33 83 98 35 78 104 46 84 134 80 114 163 117 146
209 173 199 234 204 228 255 238 255 255 246 255 255 246 255
253 239 254 254 243 255 255 252 255 250 245 252 251 249 254
254 249 253 253 248 252 255 250 252 255 252 255 255 252 255
255 249 252 255 251 255 254 252 255 253 253 255 253 254 255
252 255 255 250 255 255 248 253 255 245 250 253 251 255 255
247 252 255 244 248 251 249 248 253 253 251 255 255 250 255
255 247 255 255 243 252 255 242 253 250 219 235 174 128 156
136 74 115 141 60 118 151 51 124 163 49 137 162 37 139 168 40 151
169 37 156 169 37 159 171 38 163 172 39 166 173 40 167 172 37 165
171 36 164 174 38 164 174 38 162 175 40 161 176 41 161 176 41 159
175 40 158 174 40 155 174 40 155 175 41 156 175 40 158 176 41 162
176 40 166 175 38 167 175 38 170 174 36 171 173 35 170 175 35 166
177 37 168 175 40 169 173 42 170 172 43 170 170 44 169 169 43 166
169 44 162 167 43 155 157 36 141 155 40 135 159 49 136 147 46 124
127 36 105 128 44 106 136 68 119 229 185 221 245 215 241 255 235 255
255 237 254 251 238 248 254 245 250 253 249 248 244 245 240
247 250 243 246 251 244 248 253 247 250 255 249 254 255 255
254 255 255 255 255 255 255 255 255 255 255 255 255 255 255
255 255 255 255 255 255 255 255 255 255 255 255 255 255 255
255 255 255 255 255 255 255 255 255 255 255 255 255 255 255
255 255 255 255 255 255 255 255 255 255 255 255 255 255 255
255 255 255 255 255 255 255 255 255 255 255 255 255 255 255
255 255 255 255 255 255 255 255 255 255 255 255 255 255 255
255 255 255 255 255 255 255 255 255 255 255 255 255 255 255
255 255 255 255 255 255 255 255 255 255 255 255 255 255 255
255 255 255 255 255 255 255 255 255 255 255 255 255 255 255
255 255 255 255 255 255 255 255 255 255 255 255 255 255 255
255 255 255 255 255 255 255 255 255 255 255 255 255 255 255
255 255 255 255 255 255 255 255 255 255 255 255 255 255 255
255 255 255 255 255 255 255 255 255 255 255 255 255 255 255
255 255 255 255 255 255 255 255 255 255 255 255 255 255 255
255 255 255 255 255 255 255 255 255 255 255 255 255 255 255
255 255 255 255 255 255 255 255 255 255 255 255 255 255 255
255 255 255 255 255 255 255 255 255 255 255 255 255 255 255
255 255 255 255 255 255 255 255 255 255 255 255 255 255 255
255 255 255 255 255 255 255 255 255 255 255 255 255 255 255
255 255 255 255 255 255 255 255 255 255 255 255 255 255 255
255 255 255 255 255 255 255 255 255 255 255 255 255 255 255
255 255 255 255 255 255 255 255 255 255 255 255 255 255 255
255 255 255 255 255 255 255 255 255 255 255 255 255 255 255
255 255 255 255 255 255 255 255 255 255 255 255 255 255 255
255 255 255 255 255 255 255 255 255 255 255 255 255 255 255
255 255 255 255 255 255 255 255 255 255 255 255 255 255 255
255 255 255 255 255 255 255 255 255 255 255 255 255 255 255
255 255 255 255 255 255 255 255 255 255 255 255 255 255 255
255 255 255 255 255 255 255 255 255 255 255 255 255 255 255
255 255 255 255 255 255 255 255 255 255 255 255 255 255 255
255 255 255 255 255 255 255 255 255 255 255 255 255 255 255
255 255 255 255 255 255 255 255 255 255 255 255 255 255 255
255 255 255 255 255 255 255 255 255 253 254 255 253 254 255
253 254 255 253 254 255 253 254 255 253 254 255 254 254 254
254 254 254 254 254 254 255 255 255 255 255 253 255 255 253
255 254 252 253 252 250 251 250 248 252 248 249 247 240 247
255 243 255 174 149 171 66 26 61 93 35 86 138 63 130 156 64 149
155 49 147 166 49 156 173 46 161 177 45 165 177 43 164 176 42 163
174 42 162 174 42 161 171 43 162 168 44 164 168 44 168 169 43 169
171 42 169 174 40 171 176 39 171 179 37 173 181 37 171 190 44 179
196 51 182 201 56 185 199 56 180 194 55 174 193 54 171 191 52 167
184 54 160 188 74 169 178 74 161 172 70 154 158 59 141 135 41 117
121 31 103 131 46 114 151 69 133 158 78 139 161 83 143 166 91 150
172 97 154 175 100 157 174 99 156 172 97 154 171 93 153 162 80 146
164 79 147 157 70 139 141 49 122 126 29 106 127 25 108 145 40 125
165 54 146 184 66 163 181 58 162 181 51 160 183 49 162 190 52 171
201 59 179 208 64 187 210 65 192 203 57 192 199 54 193 194 49 188
190 48 186 189 48 186 186 48 185 182 46 182 179 45 178 174 43 173
173 44 170 171 43 166 170 42 161 169 42 159 167 43 157 167 43 155
169 43 153 171 43 154 173 42 154 175 43 155 176 42 155 178 41 157
178 41 157 179 40 159 180 40 162 185 45 168 181 42 167 175 39 165
173 39 164 172 39 166 169 39 165 167 38 165 163 37 160 159 38 151
156 40 147 159 47 149 163 56 152 161 56 148 146 48 131 129 39 113
117 35 101 99 26 81 88 25 70 95 41 75 123 79 104 160 123 141
195 163 176 230 203 212 254 233 240 255 246 255 254 244 255
249 241 252 248 242 252 247 246 254 250 251 255 253 254 255
252 255 255 245 249 252 253 254 255 255 255 255 255 254 255
255 253 255 255 252 255 255 249 253 255 246 249 255 254 255
253 255 254 253 255 254 251 255 254 251 255 255 248 255 255
246 255 254 244 253 252 242 250 252 241 246 249 240 244 247
243 242 247 248 246 251 255 248 255 255 246 255 255 242 255
255 239 255 231 188 216 133 77 116 100 28 78 137 46 113 152 48 127
169 50 144 167 40 145 172 41 155 172 38 159 171 38 163 172 39 166
174 41 169 175 42 170 174 41 169 174 39 167 175 39 163 175 40 161
176 41 162 176 41 161 175 40 158 175 41 156 174 40 155 174 40 155
175 40 158 175 40 160 176 41 162 176 40 166 175 38 168 175 38 170
174 36 171 175 35 170 182 40 174 182 40 174 178 41 173 176 43 171
172 41 169 169 41 164 164 39 157 161 38 152 168 47 153 157 43 139
158 53 138 157 60 137 128 43 110 114 41 97 166 102 152 235 185 223
253 220 247 255 234 254 255 244 255 255 248 255 255 247 253
252 246 248 247 246 242 244 245 239 247 250 243 247 252 245
249 254 248 251 255 250 254 255 255 255 255 255 255 254 255
255 254 255 255 255 255 255 255 255 255 255 255 255 255 255
255 255 255 255 255 255 255 255 255 255 255 255 255 255 255
255 255 255 255 255 255 255 255 255 255 255 255 255 255 255
255 255 255 255 255 255 255 255 255 255 255 255 255 255 255
255 255 255 255 255 255 255 255 255 255 255 255 255 255 255
255 255 255 255 255 255 255 255 255 255 255 255 255 255 255
255 255 255 255 255 255 255 255 255 255 255 255 255 255 255
255 255 255 255 255 255 255 255 255 255 255 255 255 255 255
255 255 255 255 255 255 255 255 255 255 255 255 255 255 255
255 255 255 255 255 255 255 255 255 255 255 255 255 255 255
255 255 255 255 255 255 255 255 255 255 255 255 255 255 255
255 255 255 255 255 255 255 255 255 255 255 255 255 255 255
255 255 255 255 255 255 255 255 255 255 255 255 255 255 255
255 255 255 255 255 255 255 255 255 255 255 255 255 255 255
255 255 255 255 255 255 255 255 255 255 255 255 255 255 255
255 255 255 255 255 255 255 255 255 255 255 255 255 255 255
255 255 255 255 255 255 255 255 255 255 255 255 255 255 255
255 255 255 255 255 255 255 255 255 255 255 255 255 255 255
255 255 255 255 255 255 255 255 255 255 255 255 255 255 255
255 255 255 255 255 255 255 255 255 255 255 255 255 255 255
255 255 255 255 255 255 255 255 255 255 255 255 255 255 255
255 255 255 255 255 255 255 255 255 255 255 255 255 255 255
255 255 255 255 255 255 255 255 255 255 255 255 255 255 255
255 255 255 255 255 255 255 255 255 255 255 255 255 255 255
255 255 255 255 255 255 255 255 255 255 255 255 255 255 255
255 255 255 255 255 255 255 255 255 255 255 255 255 255 255
255 255 255 255 255 255 255 255 255 255 255 255 255 255 255
255 255 255 255 255 255 255 255 255 255 255 255 255 255 255
255 255 255 255 255 255 255 255 255 255 255 255 255 255 255
255 255 255 255 255 255 255 255 255 255 255 255 255 255 255
255 255 255 255 255 255 255 255 255 255 255 255 255 255 255
255 255 255 255 255 255 255 255 255 255 255 255 255 255 255
255 255 255 253 254 255 253 254 255 253 254 255 253 254 255
253 254 255 253 254 255 254 254 254 254 254 254 253 253 253
254 254 254 255 255 253 255 255 253 255 254 252 254 253 251
252 251 249 251 249 250 250 248 251 255 251 255 200 178 199 101 66 98
105 51 100 128 58 121 148 59 139 153 50 142 164 49 153 169 45 159
172 43 161 173 41 161 173 41 161 171 42 161 170 42 161 170 42 161
168 43 163 168 42 165 170 41 167 171 40 168 174 38 170 177 37 170
178 36 172 181 35 172 177 29 167 177 29 165 183 36 169 193 46 176
199 53 180 198 54 178 199 55 178 199 60 177 198 71 178 185 62 166
180 58 159 186 66 164 188 70 166 177 62 155 165 50 141 157 44 132
143 33 120 140 32 117 135 30 114 133 28 112 131 28 111 132 29 112
133 31 114 136 32 117 134 23 115 149 34 127 163 45 141 169 49 147
169 47 148 176 49 154 189 59 167 202 68 181 198 59 176 197 55 177
196 50 175 197 48 176 202 48 180 207 51 186 210 52 188 210 53 192
201 45 191 193 41 188 187 37 184 187 39 185 186 43 187 183 44 185
176 41 180 168 38 174 171 44 175 169 44 172 168 44 168 167 43 163
168 43 161 168 44 158 168 44 156 170 43 156 176 48 159 177 46 158
177 45 157 177 43 156 179 40 155 177 38 153 178 36 154 178 36 154
178 39 158 176 38 157 173 40 157 172 43 161 173 48 165 172 51 166
167 48 164 161 48 156 152 46 144 149 49 139 149 51 136 140 47 128
121 33 107 103 22 88 102 29 85 107 44 91 127 72 111 147 102 131
185 151 168 225 199 210 249 233 234 255 248 246 255 254 246
255 255 248 254 255 255 247 252 255 242 247 250 244 252 254
248 255 255 248 255 255 238 248 249 227 236 235 242 251 250
249 255 255 254 255 255 254 254 255 255 251 252 255 251 254
255 251 255 255 252 255 255 255 255 251 255 252 250 254 253
250 255 252 249 255 255 247 255 254 246 255 253 244 254 253
233 241 243 242 247 250 249 250 254 248 247 253 248 242 252
252 242 253 255 244 255 255 241 255 231 192 221 183 128 168 116 50 98
102 20 82 146 48 123 160 47 135 169 47 146 169 39 148 175 42 159
174 40 161 172 39 164 173 40 167 175 42 170 176 43 171 175 42 170
174 41 168 175 41 164 176 41 161 175 40 160 175 40 158 175 41 156
175 41 156 175 41 156 175 41 156 175 40 158 175 40 160 176 41 162
176 40 166 175 38 168 175 38 170 174 36 171 175 35 170 177 32 169
177 33 167 175 35 168 174 39 168 173 43 169 172 44 165 169 45 159
165 45 151 167 53 151 168 62 150 152 58 134 124 42 108 116 47 102
155 99 144 222 178 214 255 237 255 255 243 255 255 243 255
255 244 254 255 250 255 255 253 255 255 252 251 250 251 246
249 252 245 247 252 245 249 254 247 250 255 249 254 255 253
255 255 255 255 255 255 255 254 255 255 254 255 255 255 255
255 255 255 255 255 255 255 255 255 255 255 255 255 255 255
255 255 255 255 255 255 255 255 255 255 255 255 255 255 255
255 255 255 255 255 255 255 255 255 255 255 255 255 255 255
255 255 255 255 255 255 255 255 255 255 255 255 255 255 255
255 255 255 255 255 255 255 255 255 255 255 255 255 255 255
255 255 255 255 255 255 255 255 255 255 255 255 255 255 255
255 255 255 255 255 255 255 255 255 255 255 255 255 255 255
255 255 255 255 255 255 255 255 255 255 255 255 255 255 255
255 255 255 255 255 255 255 255 255 255 255 255 255 255 255
255 255 255 255 255 255 255 255 255 255 255 255 255 255 255
255 255 255 255 255 255 255 255 255 255 255 255 255 255 255
255 255 255 255 255 255 255 255 255 255 255 255 255 255 255
255 255 255 255 255 255 255 255 255 255 255 255 255 255 255
255 255 255 255 255 255 255 255 255 255 255 255 255 255 255
255 255 255 255 255 255 255 255 255 255 255 255 255 255 255
255 255 255 255 255 255 255 255 255 255 255 255 255 255 255
255 255 255 255 255 255 255 255 255 255 255 255 255 255 255
255 255 255 255 255 255 255 255 255 255 255 255 255 255 255
255 255 255 255 255 255 255 255 255 255 255 255 255 255 255
255 255 255 255 255 255 255 255 255 255 255 255 255 255 255
255 255 255 255 255 255 255 255 255 255 255 255 255 255 255
255 255 255 255 255 255 255 255 255 255 255 255 255 255 255
255 255 255 255 255 255 255 255 255 255 255 255 255 255 255
255 255 255 255 255 255 255 255 255 255 255 255 255 255 255
255 255 255 255 255 255 255 255 255 255 255 255 255 255 255
255 255 255 255 255 255 255 255 255 255 255 255 255 255 255
255 255 255 255 255 255 255 255 255 255 255 255 255 255 255
255 255 255 255 255 255 255 255 255 255 255 255 255 255 255
255 255 255 255 255 255 255 255 255 255 255 255 255 255 255
255 255 255 255 255 255 255 255 255 255 255 255 255 255 255
255 255 255 255 255 255 255 255 255 255 255 255 255 255 255
255 255 255 255 255 255 255 255 255 255 255 255 252 253 255
252 253 255 252 253 255 252 253 255 252 254 253 252 254 253
253 253 253 253 253 253 252 252 250 253 253 251 255 254 252
255 254 252 255 254 250 255 254 250 253 252 248 253 252 250
253 253 255 255 250 255 233 216 235 169 136 167 136 84 132 113 44 107
133 46 124 153 53 143 163 48 151 166 44 155 169 40 158 171 39 159
170 40 162 171 41 165 170 42 165 170 42 165 171 41 163 171 41 165
173 40 167 174 39 168 175 38 170 178 36 170 180 35 172 181 34 174
183 35 175 188 37 176 192 41 178 191 43 179 190 43 176 192 45 177
197 52 183 201 58 184 191 51 173 189 51 170 189 51 170 191 52 171
191 52 169 192 53 168 194 55 170 196 58 170 197 59 171 193 57 168
187 53 164 182 50 160 180 50 159 179 51 160 181 55 163 184 56 165
202 70 182 197 60 174 190 53 169 190 51 168 197 55 175 200 56 179
196 50 175 193 44 172 199 48 179 201 47 181 203 47 183 205 47 186
206 48 187 206 45 187 203 40 183 199 37 184 197 37 187 194 37 188
190 37 187 189 41 189 189 45 192 186 49 191 181 48 189 175 47 184
169 43 176 168 43 173 168 43 169 168 42 165 170 42 163 171 42 161
171 42 160 174 42 161 176 45 161 177 44 159 178 44 159 179 42 156
179 40 155 180 39 154 180 39 152 178 40 152 174 38 149 170 40 148
168 42 149 166 50 151 166 54 154 160 54 152 150 49 145 141 46 136
140 53 131 122 42 111 106 30 95 97 26 86 99 32 86 116 57 105
152 100 139 184 140 173 225 190 214 243 216 231 255 243 251
255 252 251 252 249 244 246 249 238 247 253 239 248 255 245
246 255 249 246 255 254 245 255 253 244 255 252 242 255 252
242 255 252 246 255 254 247 255 255 241 252 248 245 254 251
249 253 252 248 250 249 251 249 250 255 254 255 255 253 255
255 254 255 255 255 253 250 255 249 248 254 250 247 255 249
247 255 252 246 255 252 245 255 253 245 255 254 239 247 249
244 249 252 249 250 255 251 245 255 254 243 255 254 240 255
248 229 249 244 214 242 172 121 162 130 63 116 126 48 108 136 45 115
165 60 144 165 47 141 168 41 146 169 37 149 174 41 160 172 38 161
170 37 164 171 38 166 170 39 167 171 40 168 173 40 168 172 39 166
175 41 162 175 42 159 174 41 158 174 41 156 174 41 156 175 42 157
175 42 157 175 42 157 174 41 158 174 41 160 175 41 162 175 41 166
174 39 167 174 38 170 173 37 171 173 35 170 171 26 163 171 27 161
170 30 161 172 37 165 173 43 165 173 49 163 171 51 157 165 53 151
156 50 138 148 54 132 128 46 112 120 53 106 160 107 149 222 185 218
253 227 252 246 229 247 255 250 255 255 247 255 250 241 246
249 243 245 252 251 249 255 255 251 255 255 250 252 255 248
250 255 248 251 255 249 254 255 251 254 255 253 255 255 255
255 255 255 255 254 255 255 254 255 255 255 255 255 255 255
255 255 255 255 255 255 255 255 255 255 255 255 255 255 255
255 255 255 255 255 255 255 255 255 255 255 255 255 255 255
255 255 255 255 255 255 255 255 255 255 255 255 255 255 255
255 255 255 255 255 255 255 255 255 255 255 255 255 255 255
255 255 255 255 255 255 255 255 255 255 255 255 255 255 255
255 255 255 255 255 255 255 255 255 255 255 255 255 255 255
255 255 255 255 255 255 255 255 255 255 255 255 255 255 255
255 255 255 255 255 255 255 255 255 255 255 255 255 255 255
255 255 255 255 255 255 255 255 255 255 255 255 255 255 255
255 255 255 255 255 255 255 255 255 255 255 255 255 255 255
255 255 255 255 255 255 255 255 255 255 255 255 255 255 255
255 255 255 255 255 255 255 255 255 255 255 255 255 255 255
255 255 255 255 255 255 255 255 255 255 255 255 255 255 255
255 255 255 255 255 255 255 255 255 255 255 255 255 255 255
255 255 255 255 255 255 255 255 255 255 255 255 255 255 255
255 255 255 255 255 255 255 255 255 255 255 255 255 255 255
255 255 255 255 255 255 255 255 255 255 255 255 255 255 255
255 255 255 255 255 255 255 255 255 255 255 255 255 255 255
255 255 255 255 255 255 255 255 255 255 255 255 255 255 255
255 255 255 255 255 255 255 255 255 255 255 255 255 255 255
255 255 255 255 255 255 255 255 255 255 255 255 255 255 255
255 255 255 255 255 255 255 255 255 255 255 255 255 255 255
255 255 255 255 255 255 255 255 255 255 255 255 255 255 255
255 255 255 255 255 255 255 255 255 255 255 255 255 255 255
255 255 255 255 255 255 255 255 255 255 255 255 255 255 255
255 255 255 255 255 255 255 255 255 255 255 255 255 255 255
255 255 255 255 255 255 255 255 255 255 255 255 255 255 255
255 255 255 255 255 255 255 255 255 255 255 255 255 255 255
255 255 255 255 255 255 255 255 255 255 255 255 255 255 255
255 255 255 255 255 255 255 255 255 255 255 255 255 255 255
255 255 255 255 255 255 255 255 255 255 255 255 255 255 255
255 255 255 255 255 255 255 255 255 252 253 255 252 253 255
252 253 255 252 253 255 252 254 253 252 254 253 253 253 253
253 253 253 251 251 249 252 252 250 254 253 251 255 254 252
255 255 251 255 254 250 254 253 249 253 252 250 255 254 255
251 245 255 255 243 255 222 191 222 161 112 159 99 33 94 118 34 111
155 56 146 161 49 151 166 44 155 168 41 158 170 40 162 171 41 165
172 42 168 172 42 168 172 42 168 174 40 163 175 39 163 175 39 165
177 38 167 178 37 168 180 36 170 181 35 172 182 34 174 180 32 172
185 37 177 189 41 179 194 46 184 203 57 194 210 66 200 207 63 197
197 53 185 199 54 185 200 53 185 198 51 183 199 49 182 204 50 184
206 50 183 204 48 181 201 44 177 203 46 179 203 47 180 204 50 182
203 54 184 202 55 185 201 58 186 200 57 185 200 57 183 196 51 178
196 50 175 196 50 177 200 54 181 207 58 188 210 61 191 209 57 191
206 54 189 207 52 188 208 51 190 207 50 191 207 50 191 207 48 192
205 46 190 205 43 190 201 42 188 192 32 180 190 34 180 187 35 180
183 35 181 178 36 180 174 37 179 170 39 177 168 40 177 168 42 177
168 43 173 168 41 170 170 41 168 172 39 166 173 39 164 175 39 163
175 40 161 174 39 159 174 39 157 175 40 158 178 41 157 180 41 156
180 44 155 181 45 153 179 48 152 179 53 153 173 53 150 165 55 144
159 57 141 149 56 136 135 48 126 118 36 112 102 30 96 83 18 74
83 25 73 108 52 97 152 99 141 196 148 186 225 184 216 246 212 239
255 231 253 255 238 253 255 248 255 255 251 253 245 246 241
241 246 239 245 255 244 245 255 243 238 252 239 238 249 241
242 253 245 247 255 252 247 255 253 247 255 253 246 255 252
245 255 251 245 255 253 248 255 255 249 255 255 251 255 255
251 255 254 255 255 255 255 254 255 255 254 255 251 250 248
253 255 250 249 255 249 246 255 248 246 255 248 247 255 250
246 255 250 245 255 253 245 255 254 249 255 255 243 246 251
238 235 244 245 234 250 255 242 255 255 236 255 234 208 235
213 173 210 145 82 135 104 25 90 137 50 121 157 56 136 169 56 146
162 40 141 170 40 149 181 46 164 177 42 163 174 40 165 171 38 165
172 39 167 171 40 168 172 41 169 174 41 169 173 40 165 175 42 161
174 41 158 174 41 156 174 41 156 174 41 156 175 42 157 176 43 158
176 43 160 174 41 160 174 41 160 175 41 164 175 41 166 174 39 167
174 39 168 173 37 169 173 36 168 177 35 169 175 34 165 172 35 164
169 39 161 168 44 158 164 47 152 159 47 145 152 48 135 139 45 123
101 19 85 104 35 89 169 116 158 235 198 229 255 232 254 252 241 255
251 245 255 241 234 241 253 247 249 255 254 255 252 251 249
245 246 241 247 248 243 249 252 245 250 253 246 251 255 249
252 255 251 254 255 253 254 255 255 255 255 255 255 255 255
255 254 255 255 254 255 255 255 255 255 255 255 255 255 255
255 255 255 255 255 255 255 255 255 255 255 255 255 255 255
255 255 255 255 255 255 255 255 255 255 255 255 255 255 255
255 255 255 255 255 255 255 255 255 255 255 255 255 255 255
255 255 255 255 255 255 255 255 255 255 255 255 255 255 255
255 255 255 255 255 255 255 255 255 255 255 255 255 255 255
255 255 255 255 255 255 255 255 255 255 255 255 255 255 255
255 255 255 255 255 255 255 255 255 255 255 255 255 255 255
255 255 255 255 255 255 255 255 255 255 255 255 255 255 255
255 255 255 255 255 255 255 255 255 255 255 255 255 255 255
255 255 255 255 255 255 255 255 255 255 255 255 255 255 255
255 255 255 255 255 255 255 255 255 255 255 255 255 255 255
255 255 255 255 255 255 255 255 255 255 255 255 255 255 255
255 255 255 255 255 255 255 255 255 255 255 255 255 255 255
255 255 255 255 255 255 255 255 255 255 255 255 255 255 255
255 255 255 255 255 255 255 255 255 255 255 255 255 255 255
255 255 255 255 255 255 255 255 255 255 255 255 255 255 255
255 255 255 255 255 255 255 255 255 255 255 255 255 255 255
255 255 255 255 255 255 255 255 255 255 255 255 255 255 255
255 255 255 255 255 255 255 255 255 255 255 255 255 255 255
255 255 255 255 255 255 255 255 255 255 255 255 255 255 255
255 255 255 255 255 255 255 255 255 255 255 255 255 255 255
255 255 255 255 255 255 255 255 255 255 255 255 255 255 255
255 255 255 255 255 255 255 255 255 255 255 255 255 255 255
255 255 255 255 255 255 255 255 255 255 255 255 255 255 255
255 255 255 255 255 255 255 255 255 255 255 255 255 255 255
255 255 255 255 255 255 255 255 255 255 255 255 255 255 255
255 255 255 255 255 255 255 255 255 255 255 255 255 255 255
255 255 255 255 255 255 255 255 255 255 255 255 255 255 255
255 255 255 255 255 255 255 255 255 255 255 255 255 255 255
255 255 255 255 255 255 255 255 255 255 255 255 255 255 255
255 255 255 255 255 255 255 255 255 255 255 255 255 255 255
255 255 255 255 255 255 251 253 252 251 253 252 251 253 252
251 253 252 251 253 252 251 253 252 252 252 250 252 252 250
252 252 250 252 252 250 253 252 248 253 252 248 253 252 248
252 251 247 251 250 245 251 250 248 255 252 255 250 242 255
255 241 255 255 229 255 178 131 175 107 44 101 130 50 123 145 51 137
163 55 154 159 42 149 158 33 150 168 38 160 174 44 170 174 41 169
170 37 165 171 36 164 178 38 163 180 37 163 179 36 162 181 36 165
180 35 166 180 34 167 180 32 168 179 31 169 180 32 172 179 32 172
180 35 174 185 40 179 190 48 186 193 53 188 195 55 190 196 54 190
195 48 188 196 45 186 197 44 188 201 45 190 205 46 192 207 45 192
208 41 190 205 38 187 202 35 184 204 37 186 205 41 189 205 46 192
206 48 194 203 50 194 203 50 194 202 51 190 199 52 185 197 52 181
195 50 179 194 49 178 195 48 180 196 49 182 198 51 184 199 51 187
203 55 191 202 51 188 197 46 185 190 39 178 183 32 171 181 30 169
184 33 174 188 35 177 196 43 183 190 37 177 181 33 171 178 33 172
179 38 176 177 43 178 172 40 177 168 38 174 171 44 177 172 42 176
169 38 170 170 34 166 177 37 168 183 42 173 182 37 168 172 29 157
167 29 151 168 33 153 172 37 155 175 41 156 175 41 152 173 43 149
172 46 146 169 50 144 158 45 133 149 46 125 139 48 118 127 45 109
108 37 95 93 30 83 91 33 83 94 43 86 132 91 123 168 132 158
212 178 203 241 209 233 255 228 250 255 241 255 255 246 255
255 243 255 253 243 252 250 245 251 247 247 249 244 248 249
243 249 247 241 250 245 240 251 245 241 250 245 244 251 244
247 252 245 249 254 248 250 255 250 251 255 251 248 255 250
247 255 249 246 255 250 245 254 249 246 255 250 249 255 253
251 255 254 251 255 254 253 255 254 253 255 254 252 254 251
249 254 248 251 255 250 249 255 250 246 255 247 245 255 248
248 255 251 246 255 253 241 250 249 252 255 255 252 249 255
252 241 255 246 228 250 252 226 255 255 228 255 212 174 211
138 86 134 110 38 102 128 40 116 144 47 128 159 50 139 168 48 146
171 44 149 173 41 153 173 38 158 175 39 163 174 40 165 173 40 167
171 40 168 171 40 168 171 40 168 173 40 168 174 40 165 176 43 162
176 43 158 175 42 157 175 42 157 174 41 156 174 41 156 174 41 158
173 40 157 171 38 157 172 39 158 173 39 162 174 40 165 174 39 167
173 38 167 172 37 166 172 35 165 172 33 162 184 48 172 170 38 158
154 30 144 164 49 153 165 58 154 146 46 132 134 42 117 121 39 105
113 43 97 150 93 136 223 182 214 255 239 255 255 245 255 244 244 252
251 255 255 242 242 242 247 246 244 252 251 249 251 252 247
249 250 245 247 249 244 249 251 246 252 254 249 251 253 248
251 253 248 253 253 251 254 254 254 255 254 255 255 254 255
255 253 255 255 254 255 255 255 255 255 255 255 255 255 255
255 255 255 255 255 255 255 255 255 255 255 255 255 255 255
255 255 255 255 255 255 255 255 255 255 255 255 255 255 255
255 255 255 255 255 255 255 255 255 255 255 255 255 255 255
255 255 255 255 255 255 255 255 255 255 255 255 255 255 255
255 255 255 255 255 255 255 255 255 255 255 255 255 255 255
255 255 255 255 255 255 255 255 255 255 255 255 255 255 255
255 255 255 255 255 255 255 255 255 255 255 255 255 255 255
255 255 255 255 255 255 255 255 255 255 255 255 255 255 255
255 255 255 255 255 255 255 255 255 255 255 255 255 255 255
255 255 255 255 255 255 255 255 255 255 255 255 255 255 255
255 255 255 255 255 255 255 255 255 255 255 255 255 255 255
255 255 255 255 255 255 255 255 255 255 255 255 255 255 255
255 255 255 255 255 255 255 255 255 255 255 255 255 255 255
255 255 255 255 255 255 255 255 255 255 255 255 255 255 255
255 255 255 255 255 255 255 255 255 255 255 255 255 255 255
255 255 255 255 255 255 255 255 255 255 255 255 255 255 255
255 255 255 255 255 255 255 255 255 255 255 255 255 255 255
255 255 255 255 255 255 255 255 255 255 255 255 255 255 255
255 255 255 255 255 255 255 255 255 255 255 255 255 255 255
255 255 255 255 255 255 255 255 255 255 255 255 255 255 255
255 255 255 255 255 255 255 255 255 255 255 255 255 255 255
255 255 255 255 255 255 255 255 255 255 255 255 255 255 255
255 255 255 255 255 255 255 255 255 255 255 255 255 255 255
255 255 255 255 255 255 255 255 255 255 255 255 255 255 255
255 255 255 255 255 255 255 255 255 255 255 255 255 255 255
255 255 255 255 255 255 255 255 255 255 255 255 255 255 255
255 255 255 255 255 255 255 255 255 255 255 255 255 255 255
255 255 255 255 255 255 255 255 255 255 255 255 255 255 255
255 255 255 255 255 255 255 255 255 255 255 255 255 255 255
255 255 255 255 255 255 255 255 255 255 255 255 255 255 255
255 255 255 255 255 255 255 255 255 255 255 255 255 255 255
255 255 255 255 255 255 251 253 252 251 253 252 251 253 252
251 253 252 251 253 252 251 253 252 252 252 250 252 252 250
252 252 250 252 252 250 253 252 248 253 252 248 253 252 248
252 251 247 251 250 245 251 250 248 255 253 255 252 241 255
255 244 255 255 228 255 214 169 212 154 95 149 119 44 113 119 32 111
137 36 128 161 50 152 176 56 166 170 45 163 167 37 161 174 41 168
177 44 172 175 38 167 183 38 165 182 36 161 180 34 159 180 34 161
182 35 165 184 37 169 183 37 170 183 37 172 176 31 168 173 31 167
174 32 168 175 37 174 181 43 180 184 48 184 185 51 186 187 49 188
193 47 190 196 44 189 197 43 191 202 45 194 207 47 197 210 47 200
211 43 198 209 41 196 209 39 197 210 42 197 210 45 201 210 47 200
209 49 201 208 49 201 205 48 199 202 50 195 198 52 187 195 51 182
193 49 180 191 47 178 189 45 176 187 46 177 190 46 178 188 47 178
193 49 183 190 48 182 188 46 180 184 42 176 178 36 170 175 33 169
175 33 169 179 35 169 185 38 170 188 41 171 188 44 175 182 41 172
173 36 166 170 36 167 172 41 171 176 46 178 161 31 163 169 38 170
175 41 172 172 35 167 172 32 163 179 35 167 186 41 172 188 45 173
179 44 164 170 39 155 165 37 150 171 45 153 179 56 160 175 57 154
155 45 134 135 32 113 130 37 108 114 30 92 92 19 74 79 18 62 90 38 76
128 84 117 178 139 168 210 178 201 231 209 222 246 229 239
255 244 254 255 244 254 255 244 252 255 245 253 252 245 252
245 243 248 250 249 254 249 250 254 247 251 254 247 251 254
246 251 254 246 251 254 244 252 254 246 252 252 244 244 242
246 245 240 248 247 242 249 250 244 250 251 246 248 250 245
245 250 244 245 250 244 247 253 249 247 253 249 248 254 252
249 255 253 249 255 253 250 255 254 251 255 255 251 255 253
250 255 250 251 255 250 250 255 249 245 255 246 246 255 248
248 255 252 251 255 255 251 255 255 248 245 252 255 250 255
255 246 255 255 230 255 255 218 255 239 194 237 168 116 164 87 24 81
126 44 118 138 43 127 151 46 138 160 46 142 166 43 147 170 40 149
172 38 153 174 36 157 175 39 163 174 40 165 173 40 167 171 40 168
171 40 168 173 40 167 174 39 168 174 40 165 176 43 162 175 42 157
175 42 157 175 42 157 175 42 157 175 42 157 175 42 159 175 42 159
173 40 159 173 40 159 174 40 161 175 41 164 175 41 166 174 40 165
173 38 166 173 39 164 177 43 164 165 34 150 174 52 163 175 60 163
151 46 139 150 55 139 147 61 134 111 35 97 99 32 85 174 117 160
241 197 230 254 225 247 246 232 245 250 249 255 246 254 255
234 244 243 241 245 244 248 248 246 252 252 250 253 254 249
250 252 249 249 251 246 251 253 250 253 255 250 251 253 250
251 253 250 253 253 253 254 254 254 255 254 255 255 254 255
255 253 255 255 254 255 255 255 255 255 255 255 255 255 255
255 255 255 255 255 255 255 255 255 255 255 255 255 255 255
255 255 255 255 255 255 255 255 255 255 255 255 255 255 255
255 255 255 255 255 255 255 255 255 255 255 255 255 255 255
255 255 255 255 255 255 255 255 255 255 255 255 255 255 255
255 255 255 255 255 255 255 255 255 255 255 255 255 255 255
255 255 255 255 255 255 255 255 255 255 255 255 255 255 255
255 255 255 255 255 255 255 255 255 255 255 255 255 255 255
255 255 255 255 255 255 255 255 255 255 255 255 255 255 255
255 255 255 255 255 255 255 255 255 255 255 255 255 255 255
255 255 255 255 255 255 255 255 255 255 255 255 255 255 255
255 255 255 255 255 255 255 255 255 255 255 255 255 255 255
255 255 255 255 255 255 255 255 255 255 255 255 255 255 255
255 255 255 255 255 255 255 255 255 255 255 255 255 255 255
255 255 255 255 255 255 255 255 255 255 255 255 255 255 255
255 255 255 255 255 255 255 255 255 255 255 255 255 255 255
255 255 255 255 255 255 255 255 255 255 255 255 255 255 255
255 255 255 255 255 255 255 255 255 255 255 255 255 255 255
255 255 255 255 255 255 255 255 255 255 255 255 255 255 255
255 255 255 255 255 255 255 255 255 255 255 255 255 255 255
255 255 255 255 255 255 255 255 255 255 255 255 255 255 255
255 255 255 255 255 255 255 255 255 255 255 255 255 255 255
255 255 255 255 255 255 255 255 255 255 255 255 255 255 255
255 255 255 255 255 255 255 255 255 255 255 255 255 255 255
255 255 255 255 255 255 255 255 255 255 255 255 255 255 255
255 255 255 255 255 255 255 255 255 255 255 255 255 255 255
255 255 255 255 255 255 255 255 255 255 255 255 255 255 255
255 255 255 255 255 255 255 255 255 255 255 255 255 255 255
255 255 255 255 255 255 255 255 255 255 255 255 255 255 255
255 255 255 255 255 255 255 255 255 255 255 255 255 255 255
255 255 255 255 255 255 255 255 255 255 255 255 255 255 255
255 255 255 255 255 255 255 255 255 255 255 255 255 255 255
255 255 255 255 255 255 252 254 253 252 254 253 252 254 253
252 254 253 252 254 251 252 254 251 253 253 251 253 253 251
252 253 248 252 253 248 254 253 249 254 253 249 253 252 247
253 252 247 252 251 246 253 249 248 255 250 255 252 239 255
255 244 255 255 226 255 253 213 250 213 161 210 124 58 119 97 20 92
137 48 132 151 50 144 163 52 155 168 50 160 170 45 163 171 41 163
170 37 162 170 34 160 183 39 163 185 37 161 186 38 162 187 41 166
190 44 169 190 45 172 187 44 172 182 41 171 173 33 164 170 33 165
170 33 165 170 36 169 174 40 175 175 43 178 176 46 180 180 45 183
188 45 187 191 43 189 193 43 192 198 45 195 204 47 198 207 48 202
208 47 202 207 46 201 208 44 201 207 46 201 208 47 203 208 47 202
206 47 201 203 46 199 202 45 196 195 46 190 192 51 182 187 51 177
184 48 174 181 45 171 179 43 169 177 42 170 177 40 169 176 41 169
178 41 171 179 44 173 180 45 174 178 43 172 175 40 169 172 36 168
169 33 165 170 33 162 171 31 154 175 35 157 177 39 161 173 38 159
168 34 157 166 33 158 168 38 162 173 43 169 170 40 166 176 46 172
180 47 174 176 41 169 172 36 162 174 35 162 179 39 164 179 44 164
174 48 158 167 48 152 160 44 145 152 40 138 141 37 126 128 30 113
113 23 97 101 19 85 75 4 60 98 36 83 129 79 114 160 120 147
195 162 183 231 204 219 255 235 247 255 250 255 252 243 244
255 252 251 255 252 251 248 246 247 247 245 246 252 252 252
254 255 255 252 255 255 250 254 255 250 253 255 250 253 255
250 253 255 250 253 255 250 253 255 252 252 255 253 252 255
251 245 247 252 247 244 254 249 246 254 250 247 255 251 248
253 252 248 251 252 247 251 252 247 251 253 250 249 254 250
247 253 249 247 253 249 248 254 250 247 255 251 249 255 253
249 255 253 249 255 249 248 255 247 248 255 247 249 255 248
248 255 248 247 253 249 249 253 252 255 254 255 255 251 255
255 237 255 255 233 255 255 234 255 237 185 231 152 93 147 103 38 96
112 35 105 147 55 138 156 53 145 161 51 148 167 48 152 171 43 152
173 40 155 175 40 160 178 40 162 175 39 163 174 40 165 173 40 167
171 41 167 173 40 167 173 40 165 174 39 167 174 40 163 175 42 161
174 43 159 174 43 159 175 44 160 175 44 160 175 44 160 175 44 160
175 44 160 172 40 159 172 40 159 173 41 160 173 41 161 173 41 161
173 41 163 172 40 162 172 40 160 169 42 155 162 41 147 158 46 146
164 61 152 155 64 144 126 46 115 112 43 100 119 60 108 174 124 162
228 187 217 255 240 255 255 247 255 250 243 250 247 251 252
246 255 255 239 251 247 244 248 247 250 250 250 254 254 254
254 254 252 252 252 252 252 252 250 254 254 254 255 255 253
252 252 252 252 252 252 254 252 253 255 253 255 255 254 255
255 254 255 255 254 255 255 254 255 255 255 255 255 255 255
255 255 255 255 255 255 255 255 255 255 255 255 255 255 255
255 255 255 255 255 255 255 255 255 255 255 255 255 255 255
255 255 255 255 255 255 255 255 255 255 255 255 255 255 255
255 255 255 255 255 255 255 255 255 255 255 255 255 255 255
255 255 255 255 255 255 255 255 255 255 255 255 255 255 255
255 255 255 255 255 255 255 255 255 255 255 255 255 255 255
255 255 255 255 255 255 255 255 255 255 255 255 255 255 255
255 255 255 255 255 255 255 255 255 255 255 255 255 255 255
255 255 255 255 255 255 255 255 255 255 255 255 255 255 255
255 255 255 255 255 255 255 255 255 255 255 255 255 255 255
255 255 255 255 255 255 255 255 255 255 255 255 255 255 255
255 255 255 255 255 255 255 255 255 255 255 255 255 255 255
255 255 255 255 255 255 255 255 255 255 255 255 255 255 255
255 255 255 255 255 255 255 255 255 255 255 255 255 255 255
255 255 255 255 255 255 255 255 255 255 255 255 255 255 255
255 255 255 255 255 255 255 255 255 255 255 255 255 255 255
255 255 255 255 255 255 255 255 255 255 255 255 255 255 255
255 255 255 255 255 255 255 255 255 255 255 255 255 255 255
255 255 255 255 255 255 255 255 255 255 255 255 255 255 255
255 255 255 255 255 255 255 255 255 255 255 255 255 255 255
255 255 255 255 255 255 255 255 255 255 255 255 255 255 255
255 255 255 255 255 255 255 255 255 255 255 255 255 255 255
255 255 255 255 255 255 255 255 255 255 255 255 255 255 255
255 255 255 255 255 255 255 255 255 255 255 255 255 255 255
255 255 255 255 255 255 255 255 255 255 255 255 255 255 255
255 255 255 255 255 255 255 255 255 255 255 255 255 255 255
255 255 255 255 255 255 255 255 255 255 255 255 255 255 255
255 255 255 255 255 255 255 255 255 255 255 255 255 255 255
255 255 255 255 255 255 255 255 255 255 255 255 255 255 255
255 255 255 255 255 255 255 255 255 255 255 255 255 255 255
255 255 255 255 255 255 255 255 255 255 255 255 255 255 255
255 255 255 255 255 255 255 255 255 252 254 253 252 254 253
252 254 253 252 254 253 252 254 251 252 254 251 253 253 251
253 253 251 252 253 248 253 254 249 254 253 249 254 253 249
254 253 248 253 252 247 252 251 246 254 250 249 255 247 255
252 238 251 255 238 255 255 231 255 255 233 255 246 204 244
166 112 162 109 45 105 122 46 118 138 51 132 151 52 143 157 49 150
164 47 154 172 48 162 173 44 162 172 37 157 174 32 152 178 34 155
184 40 161 190 46 167 192 50 172 187 47 170 179 40 165 173 34 161
175 38 167 173 38 166 171 38 166 171 37 168 171 40 172 173 42 174
174 44 176 178 44 179 184 43 183 187 42 183 188 42 185 191 43 189
194 44 191 196 46 195 198 45 195 198 45 195 196 41 194 197 43 193
197 43 193 196 42 192 195 41 189 193 39 187 191 39 184 187 40 180
184 45 174 179 45 168 178 44 169 176 42 167 173 40 165 172 39 164
172 39 164 172 39 166 171 38 165 173 40 167 175 42 169 173 43 169
174 41 168 169 39 165 169 36 164 168 35 160 175 42 161 172 38 153
169 36 153 172 41 157 179 47 166 181 52 170 179 50 169 174 46 165
167 39 158 165 37 156 166 39 156 169 42 159 174 47 162 175 48 161
169 42 155 158 37 143 157 47 142 147 44 133 132 34 119 111 20 99
95 12 84 95 19 84 107 39 96 117 59 107 159 111 151 190 151 182
227 195 218 250 226 240 255 248 255 255 251 255 255 252 253
250 245 242 253 252 247 255 255 250 254 255 250 250 252 247
249 254 250 252 255 253 251 255 255 251 255 255 251 255 255
251 255 255 252 255 255 254 254 255 254 254 255 255 253 255
255 253 255 255 253 255 255 251 253 255 252 250 255 252 253
255 254 251 255 253 253 255 254 251 255 255 251 255 255 251
255 255 253 252 254 251 249 254 250 246 252 248 246 252 248
246 255 250 247 255 251 249 255 253 247 252 246 245 250 243
246 251 244 251 255 249 250 255 249 247 249 246 247 247 249
255 248 255 255 239 255 255 243 255 255 227 255 236 184 230
168 105 160 98 24 87 101 20 89 165 74 154 158 57 149 161 53 154
166 51 154 169 48 154 174 43 157 176 41 159 179 41 162 177 42 163
174 40 163 173 40 165 171 41 165 171 41 165 173 40 165 174 40 165
175 39 165 175 39 163 175 42 161 174 43 159 174 43 159 175 44 160
175 44 160 176 45 161 176 45 161 176 45 161 172 40 159 173 41 160
173 41 160 173 41 160 173 41 160 173 41 160 173 41 160 169 42 155
161 40 145 160 49 144 152 49 138 149 58 137 132 55 123 95 32 87
110 57 101 178 134 169 255 228 254 254 227 246 252 232 244
255 245 253 255 254 255 251 255 255 247 255 254 248 255 255
246 250 249 251 251 251 253 253 255 254 254 254 253 253 255
252 252 252 255 253 255 255 255 255 253 251 254 253 251 254
254 252 255 255 253 255 255 254 255 255 254 255 255 254 255
255 254 255 255 255 255 255 255 255 255 255 255 255 255 255
255 255 255 255 255 255 255 255 255 255 255 255 255 255 255
255 255 255 255 255 255 255 255 255 255 255 255 255 255 255
255 255 255 255 255 255 255 255 255 255 255 255 255 255 255
255 255 255 255 255 255 255 255 255 255 255 255 255 255 255
255 255 255 255 255 255 255 255 255 255 255 255 255 255 255
255 255 255 255 255 255 255 255 255 255 255 255 255 255 255
255 255 255 255 255 255 255 255 255 255 255 255 255 255 255
255 255 255 255 255 255 255 255 255 255 255 255 255 255 255
255 255 255 255 255 255 255 255 255 255 255 255 255 255 255
255 255 255 255 255 255 255 255 255 255 255 255 255 255 255
255 255 255 255 255 255 255 255 255 255 255 255 255 255 255
255 255 255 255 255 255 255 255 255 255 255 255 255 255 255
255 255 255 255 255 255 255 255 255 255 255 255 255 255 255
255 255 255 255 255 255 255 255 255 255 255 255 255 255 255
255 255 255 255 255 255 255 255 255 255 255 255 255 255 255
255 255 255 255 255 255 255 255 255 255 255 255 255 255 255
255 255 255 255 255 255 255 255 255 255 255 255 255 255 255
255 255 255 255 255 255 255 255 255 255 255 255 255 255 255
255 255 255 255 255 255 255 255 255 255 255 255 255 255 255
255 255 255 255 255 255 255 255 255 255 255 255 255 255 255
255 255 255 255 255 255 255 255 255 255 255 255 255 255 255
255 255 255 255 255 255 255 255 255 255 255 255 255 255 255
255 255 255 255 255 255 255 255 255 255 255 255 255 255 255
255 255 255 255 255 255 255 255 255 255 255 255 255 255 255
255 255 255 255 255 255 255 255 255 255 255 255 255 255 255
255 255 255 255 255 255 255 255 255 255 255 255 255 255 255
255 255 255 255 255 255 255 255 255 255 255 255 255 255 255
255 255 255 255 255 255 255 255 255 255 255 255 255 255 255
255 255 255 255 255 255 255 255 255 255 255 255 255 255 255
255 255 255 255 255 255 255 255 255 255 255 255 255 255 255
255 255 255 255 255 255 255 255 255 255 255 255 255 255 255
255 255 255 252 254 251 252 254 251 252 254 251 252 254 251
252 254 251 252 254 251 253 254 249 253 254 249 253 254 249
253 254 249 254 253 248 254 253 248 254 253 248 253 252 247
252 251 246 254 250 247 255 248 252 255 242 251 252 236 247
255 242 255 255 232 254 251 221 249 227 187 224 157 108 155 90 31 87
124 53 119 148 64 141 148 52 139 150 43 139 166 49 153 178 55 162
181 50 162 165 33 145 169 35 150 174 40 155 178 44 159 178 43 161
174 41 158 168 35 154 165 31 152 175 41 164 173 41 163 173 40 165
173 40 167 173 40 168 173 39 170 175 41 172 177 41 173 180 40 173
181 41 174 181 41 176 181 41 176 182 41 179 182 41 181 183 42 182
184 43 183 181 38 180 181 38 179 183 38 179 183 38 177 183 37 174
182 36 173 183 35 171 180 36 167 174 38 162 173 39 160 173 39 162
172 38 161 173 39 162 173 39 162 173 39 162 174 40 165 173 39 164
173 39 164 173 39 164 172 39 164 173 39 164 172 39 164 172 37 165
170 38 160 173 42 158 169 38 152 168 37 151 169 41 154 175 46 162
177 48 164 173 46 159 166 42 154 162 40 149 160 40 146 160 43 147
165 50 151 167 57 154 162 55 149 153 46 140 142 42 128 126 38 112
108 29 94 91 17 78 89 21 78 112 52 104 157 105 151 206 164 202
237 202 234 255 230 255 255 244 255 255 248 255 253 242 250
251 242 245 255 251 251 255 254 251 253 249 246 255 255 251
255 255 251 255 255 251 254 255 251 252 255 253 252 255 253
249 255 251 243 249 247 251 255 255 251 255 255 252 255 255
254 255 255 255 254 255 255 254 255 255 253 255 255 253 255
255 253 254 255 252 252 255 253 255 255 254 253 255 254 255
255 255 253 255 255 253 255 255 253 255 255 253 254 255 253
251 253 250 247 252 248 245 251 247 246 252 248 247 253 249
248 254 250 250 252 247 246 248 243 245 247 242 247 249 244
249 251 248 249 249 247 254 248 252 255 247 255 242 219 239
255 241 255 243 195 235 148 85 138 107 31 95 128 40 114 151 54 135
155 52 143 154 46 147 157 44 150 161 44 151 166 42 154 172 41 157
174 39 159 176 38 160 174 39 160 174 40 163 173 41 163 171 41 163
171 41 163 173 41 163 174 40 163 175 39 163 175 40 161 174 41 160
174 42 161 174 42 161 174 42 161 175 43 162 175 43 162 176 44 163
176 44 163 175 43 162 175 43 162 175 44 160 175 44 160 175 44 160
175 44 160 175 44 158 170 47 154 168 54 149 148 46 129 150 60 134
132 56 120 90 27 80 106 58 100 183 146 177 239 211 233 255 238 253
255 247 255 255 251 255 253 247 249 250 250 250 252 255 255
249 255 255 245 254 251 249 250 252 252 250 253 253 251 255
253 251 254 252 250 255 253 251 254 255 251 255 255 253 255
255 250 255 253 251 254 254 252 255 255 253 255 255 254 255
255 254 255 255 254 255 255 254 255 255 255 255 255 255 255
255 255 255 255 255 255 255 255 255 255 255 255 255 255 255
255 255 255 255 255 255 255 255 255 255 255 255 255 255 255
255 255 255 255 255 255 255 255 255 255 255 255 255 255 255
255 255 255 255 255 255 255 255 255 255 255 255 255 255 255
255 255 255 255 255 255 255 255 255 255 255 255 255 255 255
255 255 255 255 255 255 255 255 255 255 255 255 255 255 255
255 255 255 255 255 255 255 255 255 255 255 255 255 255 255
255 255 255 255 255 255 255 255 255 255 255 255 255 255 255
255 255 255 255 255 255 255 255 255 255 255 255 255 255 255
255 255 255 255 255 255 255 255 255 255 255 255 255 255 255
255 255 255 255 255 255 255 255 255 255 255 255 255 255 255
255 255 255 255 255 255 255 255 255 255 255 255 255 255 255
255 255 255 255 255 255 255 255 255 255 255 255 255 255 255
255 255 255 255 255 255 255 255 255 255 255 255 255 255 255
255 255 255 255 255 255 255 255 255 255 255 255 255 255 255
255 255 255 255 255 255 255 255 255 255 255 255 255 255 255
255 255 255 255 255 255 255 255 255 255 255 255 255 255 255
255 255 255 255 255 255 255 255 255 255 255 255 255 255 255
255 255 255 255 255 255 255 255 255 255 255 255 255 255 255
255 255 255 255 255 255 255 255 255 255 255 255 255 255 255
255 255 255 255 255 255 255 255 255 255 255 255 255 255 255
255 255 255 255 255 255 255 255 255 255 255 255 255 255 255
255 255 255 255 255 255 255 255 255 255 255 255 255 255 255
255 255 255 255 255 255 255 255 255 255 255 255 255 255 255
255 255 255 255 255 255 255 255 255 255 255 255 255 255 255
255 255 255 255 255 255 255 255 255 255 255 255 255 255 255
255 255 255 255 255 255 255 255 255 255 255 255 255 255 255
255 255 255 255 255 255 255 255 255 255 255 255 255 255 255
255 255 255 255 255 255 255 255 255 255 255 255 255 255 255
255 255 255 255 255 255 255 255 255 255 255 255 255 255 255
255 255 255 255 255 255 255 255 255 255 255 255 255 255 255
255 255 255 255 255 255 255 255 255 253 255 252 253 255 252
253 255 252 253 255 252 253 255 252 253 255 252 254 255 250
254 255 250 253 254 249 253 254 249 255 254 249 255 254 249
254 253 248 254 253 248 253 252 247 254 251 246 255 252 251
255 248 250 253 241 245 255 249 255 247 231 242 251 230 247
255 238 255 212 177 210 130 85 128 111 52 106 114 42 106 145 59 134
158 58 144 144 35 128 146 28 125 165 42 146 168 42 150 170 44 154
171 45 155 169 43 153 165 39 149 165 37 150 167 38 154 170 41 159
171 39 158 172 40 160 174 40 163 174 40 165 174 37 166 174 37 167
175 38 168 178 38 169 177 38 165 175 39 163 176 40 166 174 39 167
171 38 166 171 38 166 171 40 170 172 41 171 171 40 170 173 39 170
174 39 168 175 38 167 177 38 165 178 38 163 180 37 161 180 37 161
173 35 157 172 37 158 172 37 158 173 38 159 174 38 162 175 39 163
176 40 164 176 40 164 175 39 165 174 38 164 173 37 163 173 37 163
176 37 164 175 39 165 177 38 165 173 39 162 167 35 154 170 41 157
174 45 161 172 44 157 166 38 151 161 34 147 160 36 146 161 40 146
167 51 152 162 50 148 155 49 141 143 43 129 126 31 112 112 21 98
107 21 94 107 28 93 88 21 74 119 60 104 168 116 155 212 166 203
239 199 233 251 221 249 255 234 255 255 243 255 250 239 253
254 248 255 253 250 255 249 247 250 250 248 249 255 254 255
255 254 253 255 254 253 253 249 248 252 248 247 250 249 247
251 251 249 254 255 253 252 255 253 252 255 253 250 255 252
251 255 253 252 255 253 252 255 253 254 255 253 255 255 253
255 255 253 255 254 255 255 254 255 255 254 255 255 255 255
255 255 255 255 255 255 255 255 255 255 255 255 255 255 255
255 255 253 255 255 253 255 255 253 252 254 251 250 252 249
247 252 248 247 252 248 247 252 248 247 252 248 255 255 251
252 253 248 245 246 241 242 243 238 247 246 244 255 252 253
255 250 255 255 243 255 255 235 255 224 180 215 149 91 139 102 28 87
118 31 102 155 56 138 165 56 147 155 41 139 156 43 149 156 43 151
162 41 154 168 41 156 174 41 160 176 41 161 177 39 161 174 39 160
174 40 163 171 41 163 170 42 163 170 42 163 173 41 163 174 40 161
175 40 161 175 40 161 174 40 161 173 41 160 173 41 161 174 42 161
174 42 161 174 42 161 174 42 161 174 42 161 178 46 165 177 46 162
176 45 161 176 45 159 176 45 159 176 45 157 177 46 158 173 50 154
169 64 149 147 55 128 119 38 104 100 33 87 119 71 113 185 150 180
242 219 239 255 244 255 238 229 234 254 248 250 255 254 253
255 254 252 247 247 245 249 251 248 251 255 254 250 254 255
251 250 255 252 250 255 251 249 254 251 249 254 254 249 255
254 249 255 255 250 255 255 251 255 255 250 255 255 250 255
255 251 255 255 253 255 255 254 255 255 254 255 255 254 255
255 254 255 255 255 255 255 255 255 255 255 255 255 255 255
255 255 255 255 255 255 255 255 255 255 255 255 255 255 255
255 255 255 255 255 255 255 255 255 255 255 255 255 255 255
255 255 255 255 255 255 255 255 255 255 255 255 255 255 255
255 255 255 255 255 255 255 255 255 255 255 255 255 255 255
255 255 255 255 255 255 255 255 255 255 255 255 255 255 255
255 255 255 255 255 255 255 255 255 255 255 255 255 255 255
255 255 255 255 255 255 255 255 255 255 255 255 255 255 255
255 255 255 255 255 255 255 255 255 255 255 255 255 255 255
255 255 255 255 255 255 255 255 255 255 255 255 255 255 255
255 255 255 255 255 255 255 255 255 255 255 255 255 255 255
255 255 255 255 255 255 255 255 255 255 255 255 255 255 255
255 255 255 255 255 255 255 255 255 255 255 255 255 255 255
255 255 255 255 255 255 255 255 255 255 255 255 255 255 255
255 255 255 255 255 255 255 255 255 255 255 255 255 255 255
255 255 255 255 255 255 255 255 255 255 255 255 255 255 255
255 255 255 255 255 255 255 255 255 255 255 255 255 255 255
255 255 255 255 255 255 255 255 255 255 255 255 255 255 255
255 255 255 255 255 255 255 255 255 255 255 255 255 255 255
255 255 255 255 255 255 255 255 255 255 255 255 255 255 255
255 255 255 255 255 255 255 255 255 255 255 255 255 255 255
255 255 255 255 255 255 255 255 255 255 255 255 255 255 255
255 255 255 255 255 255 255 255 255 255 255 255 255 255 255
255 255 255 255 255 255 255 255 255 255 255 255 255 255 255
255 255 255 255 255 255 255 255 255 255 255 255 255 255 255
255 255 255 255 255 255 255 255 255 255 255 255 255 255 255
255 255 255 255 255 255 255 255 255 255 255 255 255 255 255
255 255 255 255 255 255 255 255 255 255 255 255 255 255 255
255 255 255 255 255 255 255 255 255 255 255 255 255 255 255
255 255 255 255 255 255 255 255 255 255 255 255 255 255 255
255 255 255 255 255 255 255 255 255 255 255 255 255 255 255
255 255 255 255 255 255 255 255 255 255 255 255 255 255 255
255 255 255 253 255 252 253 255 252 253 255 252 253 255 252
253 255 252 253 255 252 254 255 250 254 255 250 253 254 248
253 254 248 255 254 249 255 254 249 254 253 248 254 253 248
253 253 245 254 251 244 255 253 250 255 250 248 255 248 246
255 246 247 247 238 241 253 242 250 255 243 255 244 220 242
213 180 211 136 89 131 93 33 85 127 51 115 153 63 137 135 32 115
126 13 101 144 26 122 161 45 146 166 51 155 171 54 159 168 51 156
163 43 149 161 39 148 166 42 152 173 46 159 166 37 153 171 39 158
176 41 162 179 40 165 179 38 166 179 35 166 179 35 166 180 37 165
175 37 158 174 39 157 172 40 159 169 40 158 166 38 157 164 39 159
165 41 163 167 43 165 168 44 164 168 43 163 171 42 161 173 41 160
174 41 158 177 40 156 179 40 155 179 40 157 178 38 160 178 38 161
178 38 161 178 38 161 178 38 161 178 38 161 180 37 163 179 36 162
180 37 165 179 36 164 177 34 162 178 35 163 181 36 167 180 36 167
180 35 166 174 35 162 176 44 164 178 51 168 182 55 172 180 53 168
173 46 159 168 42 152 164 43 149 163 47 148 148 37 132 136 32 119
121 26 107 110 23 94 103 24 89 106 35 93 124 57 111 137 80 125
202 155 187 223 183 207 249 216 237 255 233 252 254 236 252
247 235 247 245 242 251 250 251 255 248 251 255 248 253 255
249 254 255 250 254 255 253 253 255 255 251 255 255 252 255
255 251 255 255 252 255 255 252 255 255 253 255 255 254 255
255 254 255 255 255 253 254 255 253 252 255 251 252 255 251
252 255 250 252 255 250 254 255 248 255 255 248 255 255 248
255 255 246 255 255 250 252 255 253 251 255 255 251 255 255
252 255 255 252 255 255 252 255 255 254 255 255 254 255 255
251 253 250 251 253 250 252 252 250 252 252 250 250 252 247
250 252 247 250 252 247 251 252 247 254 253 251 255 255 253
252 251 249 246 245 243 252 248 249 255 252 254 251 238 247
239 216 232 222 188 213 134 86 124 88 24 76 123 43 106 156 62 138
154 49 134 160 42 138 176 55 158 164 48 157 163 47 158 166 43 159
170 43 160 176 43 162 178 43 164 177 42 163 175 41 162 173 41 163
171 41 163 170 42 161 170 42 161 173 41 161 174 40 161 175 40 161
175 40 161 174 40 161 173 41 161 173 41 163 173 41 161 172 40 160
172 40 160 172 40 160 172 40 159 175 43 162 174 43 159 173 42 158
172 41 155 172 41 153 173 43 152 174 44 153 169 49 147 151 50 130
138 53 118 109 36 92 128 71 116 206 166 200 252 227 249 249 235 248
251 246 250 249 248 246 244 245 240 247 248 243 254 255 250
254 254 252 249 249 247 250 252 251 255 255 255 253 251 255
254 249 255 253 248 255 253 248 255 255 247 255 255 249 255
255 249 255 255 250 255 255 249 255 255 250 255 255 251 255
255 252 255 255 254 255 255 254 255 255 255 255 255 255 255
255 255 255 255 255 255 255 255 255 255 255 255 255 255 255
255 255 255 255 255 255 255 255 255 255 255 255 255 255 255
255 255 255 255 255 255 255 255 255 255 255 255 255 255 255
255 255 255 255 255 255 255 255 255 255 255 255 255 255 255
255 255 255 255 255 255 255 255 255 255 255 255 255 255 255
255 255 255 255 255 255 255 255 255 255 255 255 255 255 255
255 255 255 255 255 255 255 255 255 255 255 255 255 255 255
255 255 255 255 255 255 255 255 255 255 255 255 255 255 255
255 255 255 255 255 255 255 255 255 255 255 255 255 255 255
255 255 255 255 255 255 255 255 255 255 255 255 255 255 255
255 255 255 255 255 255 255 255 255 255 255 255 255 255 255
255 255 255 255 255 255 255 255 255 255 255 255 255 255 255
255 255 255 255 255 255 255 255 255 255 255 255 255 255 255
255 255 255 255 255 255 255 255 255 255 255 255 255 255 255
255 255 255 255 255 255 255 255 255 255 255 255 255 255 255
255 255 255 255 255 255 255 255 255 255 255 255 255 255 255
255 255 255 255 255 255 255 255 255 255 255 255 255 255 255
255 255 255 255 255 255 255 255 255 255 255 255 255 255 255
255 255 255 255 255 255 255 255 255 255 255 255 255 255 255
255 255 255 255 255 255 255 255 255 255 255 255 255 255 255
255 255 255 255 255 255 255 255 255 255 255 255 255 255 255
255 255 255 255 255 255 255 255 255 255 255 255 255 255 255
255 255 255 255 255 255 255 255 255 255 255 255 255 255 255
255 255 255 255 255 255 255 255 255 255 255 255 255 255 255
255 255 255 255 255 255 255 255 255 255 255 255 255 255 255
255 255 255 255 255 255 255 255 255 255 255 255 255 255 255
255 255 255 255 255 255 255 255 255 255 255 255 255 255 255
255 255 255 255 255 255 255 255 255 255 255 255 255 255 255
255 255 255 255 255 255 255 255 255 255 255 255 255 255 255
255 255 255 255 255 255 255 255 255 255 255 255 255 255 255
255 255 255 255 255 255 255 255 255 255 255 255 255 255 255
255 255 255 255 255 255 255 255 255 255 255 255 255 255 255
253 255 252 253 255 252 253 255 252 253 255 252 253 255 252
253 255 252 254 254 252 254 255 250 253 254 249 254 255 250
255 254 250 255 254 250 255 254 250 254 253 249 253 252 247
253 252 247 255 254 248 255 250 244 255 253 248 242 238 235
249 248 246 255 253 254 237 227 236 250 236 251 248 224 246
188 153 185 120 72 114 98 35 88 119 41 103 142 52 122 143 45 120
134 31 114 142 37 129 154 47 143 168 58 157 169 57 157 162 47 150
158 38 144 159 37 146 165 38 151 166 37 155 173 39 160 178 42 166
182 43 170 183 40 168 181 37 168 181 37 168 180 40 165 171 38 155
169 41 152 169 42 155 166 42 154 163 40 154 163 40 156 165 44 160
168 47 163 169 46 162 169 44 161 171 44 161 173 42 158 174 41 158
175 41 156 179 40 155 179 40 159 184 41 167 184 41 169 183 40 168
183 40 168 181 38 164 180 37 163 178 35 161 177 34 160 179 36 162
178 35 159 178 35 159 179 37 159 181 38 162 180 38 160 177 35 157
169 34 152 164 42 151 158 43 147 156 41 145 159 44 147 161 49 149
159 49 144 149 45 134 139 40 123 120 28 105 101 18 86 92 16 78
107 40 93 141 84 129 186 135 176 231 185 221 255 220 249 253 224 242
249 228 237 249 232 242 252 241 247 255 249 255 254 254 255
247 251 254 239 248 247 244 254 255 242 252 251 245 253 255
251 255 255 254 255 255 254 252 255 255 252 255 255 253 255
255 253 255 255 251 255 255 251 255 255 252 255 255 254 255
254 254 254 255 255 253 254 255 251 254 255 251 254 255 250
254 255 250 254 255 248 255 255 248 255 255 246 255 255 246
254 255 248 251 255 253 247 255 255 248 255 255 247 255 255
249 254 255 249 254 255 253 254 255 253 254 255 248 249 251
249 251 250 251 251 251 252 252 250 252 252 250 252 253 248
252 253 248 252 253 248 248 247 243 255 254 253 255 254 253
255 249 252 255 249 255 255 245 255 245 216 238 218 177 209
112 59 101 104 37 91 124 43 109 157 63 141 168 62 150 175 57 154
179 54 158 173 45 154 171 49 160 168 45 161 166 41 158 168 39 157
173 39 160 175 40 161 173 39 162 172 38 161 171 41 165 171 41 165
170 42 163 171 41 163 173 41 163 174 40 161 175 40 161 175 40 161
174 40 161 173 41 161 173 41 161 172 40 160 173 39 160 172 38 159
172 38 159 172 38 159 171 38 157 169 38 154 168 37 153 165 37 150
165 37 146 166 39 146 166 40 147 160 47 139 124 37 105 99 29 81
139 80 124 218 173 206 254 225 247 254 238 249 251 245 249
245 245 243 246 251 244 249 254 247 250 255 248 249 254 248
253 255 252 254 255 255 254 255 255 250 251 253 254 253 255
252 251 255 252 249 255 251 248 255 254 249 255 255 250 255
255 250 255 255 250 255 255 249 254 255 250 254 255 251 255
255 253 254 255 254 255 255 255 255 254 255 255 254 255 255
255 255 255 255 255 255 255 255 255 255 255 255 255 255 255
255 255 255 255 255 255 255 255 255 255 255 255 255 255 255
255 255 255 255 255 255 255 255 255 255 255 255 255 255 255
255 255 255 255 255 255 255 255 255 255 255 255 255 255 255
255 255 255 255 255 255 255 255 255 255 255 255 255 255 255
255 255 255 255 255 255 255 255 255 255 255 255 255 255 255
255 255 255 255 255 255 255 255 255 255 255 255 255 255 255
255 255 255 255 255 255 255 255 255 255 255 255 255 255 255
255 255 255 255 255 255 255 255 255 255 255 255 255 255 255
255 255 255 255 255 255 255 255 255 255 255 255 255 255 255
255 255 255 255 255 255 255 255 255 255 255 255 255 255 255
255 255 255 255 255 255 255 255 255 255 255 255 255 255 255
255 255 255 255 255 255 255 255 255 255 255 255 255 255 255
255 255 255 255 255 255 255 255 255 255 255 255 255 255 255
255 255 255 255 255 255 255 255 255 255 255 255 255 255 255
255 255 255 255 255 255 255 255 255 255 255 255 255 255 255
255 255 255 255 255 255 255 255 255 255 255 255 255 255 255
255 255 255 255 255 255 255 255 255 255 255 255 255 255 255
255 255 255 255 255 255 255 255 255 255 255 255 255 255 255
255 255 255 255 255 255 255 255 255 255 255 255 255 255 255
255 255 255 255 255 255 255 255 255 255 255 255 255 255 255
255 255 255 255 255 255 255 255 255 255 255 255 255 255 255
255 255 255 255 255 255 255 255 255 255 255 255 255 255 255
255 255 255 255 255 255 255 255 255 255 255 255 255 255 255
255 255 255 255 255 255 255 255 255 255 255 255 255 255 255
255 255 255 255 255 255 255 255 255 255 255 255 255 255 255
255 255 255 255 255 255 255 255 255 255 255 255 255 255 255
255 255 255 255 255 255 255 255 255 255 255 255 255 255 255
255 255 255 255 255 255 255 255 255 255 255 255 255 255 255
255 255 255 255 255 255 255 255 255 255 255 255 255 255 255
255 255 255 255 255 255 255 255 255 255 255 255 255 255 255
255 255 255 255 255 255 255 255 255 255 255 255 255 255 255
254 254 254 254 254 254 254 254 254 254 254 254 254 254 254
254 254 254 254 254 254 254 254 252 253 253 251 253 253 251
253 253 251 252 252 250 252 252 250 250 250 248 249 249 247
249 250 245 250 251 245 251 252 244 250 253 246 251 253 248
252 252 250 249 249 251 247 242 248 246 236 247 254 235 254
243 214 242 186 149 183 114 66 108 88 29 77 113 44 99 132 57 116
128 46 112 135 43 118 143 44 126 151 47 134 153 44 137 158 44 142
174 54 160 182 55 168 176 44 163 176 42 165 176 39 168 179 40 169
181 41 172 183 43 174 182 42 173 178 38 169 171 37 162 169 45 159
167 47 155 167 47 157 168 48 158 170 47 161 169 46 160 167 42 159
165 40 157 169 41 160 169 40 159 170 38 160 172 36 160 175 36 161
178 38 163 180 40 165 184 41 169 183 37 172 185 39 176 186 40 177
183 37 172 178 34 166 177 34 162 178 38 163 182 42 165 173 35 154
172 35 151 170 36 147 174 41 150 176 45 151 175 44 148 169 38 142
157 36 133 154 52 136 140 48 125 135 44 121 132 44 118 123 40 110
108 29 94 99 25 86 97 30 84 110 51 99 143 90 132 187 141 177
222 183 214 244 212 236 255 229 251 255 237 255 255 239 253
252 242 250 249 245 246 246 244 247 244 244 244 245 245 247
245 247 246 244 248 249 244 250 248 249 255 255 248 254 252
246 252 252 246 250 249 247 251 252 251 253 252 254 255 255
254 255 255 254 255 255 254 255 255 254 255 255 254 255 255
255 255 255 255 255 255 255 255 255 255 255 253 255 255 253
255 255 253 255 255 253 255 255 253 255 255 253 255 255 251
255 255 251 254 255 253 251 255 253 248 255 255 249 255 255
249 255 255 251 255 255 251 255 255 254 254 255 254 254 255
250 250 255 244 245 250 245 244 249 253 253 255 254 254 252
247 248 243 244 246 241 249 252 245 248 249 243 255 255 251
255 252 255 255 241 251 255 234 255 254 210 245 199 141 189
139 68 128 107 21 94 136 38 121 166 57 150 178 62 163 174 51 158
169 38 150 170 37 154 176 41 159 172 39 156 173 40 157 175 42 161
176 43 162 176 42 163 175 41 164 172 39 164 169 39 163 171 41 167
170 41 167 171 41 167 171 41 167 173 40 165 173 41 163 174 40 163
174 40 161 170 39 155 171 40 156 173 40 157 174 41 160 174 39 160
174 35 160 173 33 158 170 31 156 172 33 158 168 34 155 163 32 148
157 30 143 156 33 140 154 33 138 146 27 127 126 27 109 119 53 101
146 101 130 200 162 185 255 231 247 255 245 254 245 235 236
255 254 249 248 251 242 244 252 241 244 254 243 245 255 246
247 255 249 249 255 253 249 255 255 251 255 255 250 255 255
250 255 255 248 254 254 247 251 250 250 250 250 252 251 249
255 251 251 255 252 250 255 252 250 255 249 248 255 251 249
255 254 251 255 255 251 254 255 251 251 255 253 249 255 253
251 255 253 254 255 255 255 254 255 255 255 255 255 255 255
255 255 255 255 255 255 254 255 255 254 255 255 254 255 255
254 255 255 255 255 255 255 255 255 255 255 255 255 255 255
255 254 255 255 254 255 255 255 255 255 255 255 255 255 255
255 255 255 255 255 255 255 255 255 255 255 255 255 255 255
255 255 255 255 255 255 255 255 255 255 255 255 255 255 255
255 255 255 255 255 255 255 255 255 255 255 255 255 255 255
255 255 255 255 255 255 255 255 255 255 255 255 255 255 255
255 255 255 255 255 255 255 255 255 255 255 255 255 255 255
255 255 255 255 255 255 255 255 255 255 255 255 255 255 255
255 255 255 255 255 255 255 255 255 255 255 255 255 255 255
255 255 255 255 255 255 255 255 255 255 255 255 255 255 255
255 255 255 255 255 255 255 255 255 255 255 255 255 255 255
255 255 255 255 255 255 255 255 255 255 255 255 255 255 255
255 255 255 255 255 255 255 255 255 255 255 255 255 255 255
255 255 255 255 255 255 255 255 255 255 255 255 255 255 255
255 255 255 255 255 255 255 255 255 255 255 255 255 255 255
255 255 255 255 255 255 255 255 255 255 255 255 255 255 255
255 255 255 255 255 255 255 255 255 255 255 255 255 255 255
255 255 255 255 255 255 255 255 255 255 255 255 255 255 255
255 255 255 255 255 255 255 255 255 255 255 255 255 255 255
255 255 255 255 255 255 255 255 255 255 255 255 255 255 255
255 255 255 255 255 255 255 255 255 255 255 255 255 255 255
255 255 255 255 255 255 255 255 255 255 255 255 255 255 255
255 255 255 255 255 255 255 255 255 255 255 255 255 255 255
255 255 255 255 255 255 255 255 255 255 255 255 255 255 255
255 255 255 255 255 255 255 255 255 255 255 255 255 255 255
255 255 255 255 255 255 255 255 255 255 255 255 255 255 255
255 255 255 255 255 255 255 255 255 255 255 255 255 255 255
255 255 255 255 255 255 255 255 255 255 255 255 255 255 255
255 255 255 255 255 255 255 255 255 255 255 255 255 255 255
255 255 255 255 255 255 255 255 255 255 255 255 255 255 255
255 255 255 254 254 254 254 254 254 254 254 254 254 254 254
254 254 254 254 254 254 254 254 254 254 254 254 253 253 253
253 253 253 253 253 253 253 253 253 252 252 252 251 251 251
250 250 250 249 249 247 246 249 242 245 251 241 246 251 244
249 254 248 253 255 252 252 253 255 252 250 255 252 244 255
255 243 255 255 243 255 254 224 252 212 172 207 153 105 145
114 58 103 107 48 96 122 53 107 110 28 92 122 32 102 119 25 101
129 27 110 153 44 137 160 44 145 159 35 145 173 41 160 182 46 172
181 42 171 177 37 168 175 35 166 175 35 166 177 37 168 179 40 169
177 43 166 174 50 164 170 50 160 170 47 161 169 46 160 170 46 160
170 43 160 169 40 158 167 38 157 162 30 150 165 31 154 170 34 160
175 36 163 177 36 166 176 35 165 176 32 163 174 30 162 179 34 171
180 35 172 182 37 174 182 41 172 182 41 171 179 40 165 173 40 159
170 39 153 171 43 152 169 44 148 164 42 141 159 39 136 155 38 129
158 41 130 163 49 137 164 60 139 139 52 120 126 51 110 114 41 97
97 28 82 88 24 74 102 45 90 139 87 126 171 125 161 225 186 215
238 206 230 252 224 246 255 236 251 255 241 252 255 244 254
255 244 252 248 243 247 250 250 252 247 251 250 246 250 249
246 250 249 246 250 249 247 251 250 248 252 251 249 253 252
250 254 253 249 253 252 247 251 250 247 251 250 247 251 250
249 253 252 252 255 255 252 255 255 252 255 255 252 255 255
252 255 255 252 255 255 254 255 255 255 255 255 255 255 255
255 254 255 255 254 255 255 254 255 255 254 255 255 254 255
255 254 255 255 254 255 255 254 255 255 255 255 252 255 253
251 255 253 251 255 255 252 255 255 252 255 255 252 255 255
254 254 255 254 254 255 250 250 255 252 252 255 251 250 255
247 247 249 248 248 248 252 252 250 253 253 251 249 250 245
247 246 242 255 249 249 255 245 255 252 225 244 224 180 215
177 119 169 132 56 121 105 14 93 144 39 131 161 46 147 177 53 163
181 53 166 176 43 162 168 33 154 167 29 151 168 30 151 175 37 156
176 39 155 176 41 159 176 43 162 176 42 163 174 42 164 170 40 164
169 39 165 170 41 168 170 41 168 171 40 168 171 41 167 173 40 165
173 41 163 173 41 163 173 41 161 173 42 156 174 43 155 175 44 160
176 43 162 178 40 162 177 37 162 175 34 162 174 34 159 163 24 149
160 26 147 157 26 142 150 26 136 150 30 136 145 30 131 133 22 117
110 18 95 130 73 116 214 179 201 255 233 251 255 242 255 255 238 244
247 237 236 254 251 246 247 248 240 249 255 245 244 254 243
242 252 243 240 251 243 242 251 248 244 253 252 246 254 255
247 255 255 244 253 252 244 253 250 246 252 250 250 252 249
254 253 249 255 253 248 255 251 248 255 252 246 255 251 248
255 252 249 255 254 250 255 255 250 254 255 251 251 255 253
249 255 253 251 255 253 254 255 255 255 254 255 255 255 255
255 255 255 255 255 255 255 255 255 254 255 255 254 255 255
254 255 255 254 255 255 255 255 255 255 255 255 255 255 255
255 255 255 255 254 255 255 254 255 255 255 255 255 255 255
255 255 255 255 255 255 255 255 255 255 255 255 255 255 255
255 255 255 255 255 255 255 255 255 255 255 255 255 255 255
255 255 255 255 255 255 255 255 255 255 255 255 255 255 255
255 255 255 255 255 255 255 255 255 255 255 255 255 255 255
255 255 255 255 255 255 255 255 255 255 255 255 255 255 255
255 255 255 255 255 255 255 255 255 255 255 255 255 255 255
255 255 255 255 255 255 255 255 255 255 255 255 255 255 255
255 255 255 255 255 255 255 255 255 255 255 255 255 255 255
255 255 255 255 255 255 255 255 255 255 255 255 255 255 255
255 255 255 255 255 255 255 255 255 255 255 255 255 255 255
255 255 255 255 255 255 255 255 255 255 255 255 255 255 255
255 255 255 255 255 255 255 255 255 255 255 255 255 255 255
255 255 255 255 255 255 255 255 255 255 255 255 255 255 255
255 255 255 255 255 255 255 255 255 255 255 255 255 255 255
255 255 255 255 255 255 255 255 255 255 255 255 255 255 255
255 255 255 255 255 255 255 255 255 255 255 255 255 255 255
255 255 255 255 255 255 255 255 255 255 255 255 255 255 255
255 255 255 255 255 255 255 255 255 255 255 255 255 255 255
255 255 255 255 255 255 255 255 255 255 255 255 255 255 255
255 255 255 255 255 255 255 255 255 255 255 255 255 255 255
255 255 255 255 255 255 255 255 255 255 255 255 255 255 255
255 255 255 255 255 255 255 255 255 255 255 255 255 255 255
255 255 255 255 255 255 255 255 255 255 255 255 255 255 255
255 255 255 255 255 255 255 255 255 255 255 255 255 255 255
255 255 255 255 255 255 255 255 255 255 255 255 255 255 255
255 255 255 255 255 255 255 255 255 255 255 255 255 255 255
255 255 255 255 255 255 255 255 255 255 255 255 255 255 255
255 255 255 255 255 255 255 255 255 255 255 255 255 255 255
255 255 255 255 255 255 254 254 254 254 254 254 254 254 254
254 254 254 254 254 254 254 254 254 254 254 254 254 254 254
254 254 254 254 254 254 254 254 254 254 254 254 253 253 253
252 252 252 251 251 251 251 251 249 247 250 243 247 250 241
246 251 244 248 253 247 251 255 252 254 255 255 255 254 255
255 252 255 255 243 255 255 241 255 255 241 255 255 226 255
220 179 213 158 110 148 108 55 97 89 30 76 142 72 126 132 54 114
132 50 116 127 37 111 115 15 101 139 29 124 163 46 150 155 29 139
169 37 156 174 38 162 181 40 168 185 42 170 184 41 169 183 38 167
181 36 163 176 36 159 174 42 161 169 42 157 168 39 157 168 39 157
171 39 158 171 39 159 171 37 158 169 35 158 170 34 158 174 35 160
177 38 165 180 39 167 181 40 168 181 38 166 179 36 164 177 34 162
179 38 168 174 35 162 170 31 158 167 32 153 168 36 155 167 39 152
162 38 148 157 38 142 151 37 135 156 47 140 162 56 144 162 60 143
151 52 132 135 38 115 119 25 99 106 21 88 105 35 89 91 29 76 91 32 76
124 67 108 182 130 168 235 190 223 255 219 249 255 225 251
255 228 250 255 235 251 255 241 253 255 242 252 255 246 252
255 252 255 255 253 255 255 254 255 251 253 252 249 253 252
249 253 252 248 252 251 249 253 252 250 254 253 250 254 253
251 255 254 250 254 253 249 253 252 248 252 251 247 251 250
248 252 251 250 254 253 252 255 255 252 255 255 252 255 255
254 255 255 254 255 255 254 255 255 255 255 255 255 255 255
255 255 255 255 255 255 255 254 255 255 254 255 255 254 255
255 254 255 255 255 253 255 255 253 255 255 253 255 255 253
255 255 253 255 255 253 255 255 253 255 255 255 255 255 255
255 255 255 255 254 255 255 254 255 253 252 255 251 250 255
248 247 252 249 248 253 255 254 255 255 253 255 255 251 255
248 242 246 255 247 255 255 238 250 251 223 245 217 178 209
143 92 135 86 18 77 99 17 89 151 55 142 159 52 148 166 49 154
171 47 159 175 43 162 174 40 161 172 36 160 171 35 159 170 35 156
173 39 154 173 40 155 174 41 158 174 42 161 174 42 162 171 41 163
170 40 164 168 40 163 170 41 167 170 41 167 170 41 167 170 42 165
171 41 165 171 41 163 173 41 163 173 41 160 173 45 158 174 46 157
176 45 161 178 45 164 178 43 164 179 41 163 177 38 163 174 38 162
174 38 162 171 39 158 167 39 152 163 42 148 161 44 148 154 42 140
139 29 124 114 23 100 148 89 137 247 204 234 255 241 255 253 224 244
255 232 246 255 247 254 255 252 255 252 251 247 241 243 238
236 243 236 233 243 235 236 245 240 240 251 247 245 255 254
247 255 255 248 255 255 241 249 251 244 250 250 247 251 252
251 253 252 253 253 251 253 252 248 254 250 247 255 250 246
255 252 249 255 253 250 255 254 251 255 255 253 255 255 253
255 255 255 254 255 255 254 255 255 255 255 255 255 255 255
255 255 255 255 255 255 255 255 255 255 255 255 255 255 255
255 255 255 255 255 255 255 255 255 255 255 255 255 255 255
255 255 255 255 255 255 255 255 255 255 255 255 255 255 255
255 255 255 255 255 255 255 255 255 255 255 255 255 255 255
255 255 255 255 255 255 255 255 255 255 255 255 255 255 255
255 255 255 255 255 255 255 255 255 255 255 255 255 255 255
255 255 255 255 255 255 255 255 255 255 255 255 255 255 255
255 255 255 255 255 255 255 255 255 255 255 255 255 255 255
255 255 255 255 255 255 255 255 255 255 255 255 255 255 255
255 255 255 255 255 255 255 255 255 255 255 255 255 255 255
255 255 255 255 255 255 255 255 255 255 255 255 255 255 255
255 255 255 255 255 255 255 255 255 255 255 255 255 255 255
255 255 255 255 255 255 255 255 255 255 255 255 255 255 255
255 255 255 255 255 255 255 255 255 255 255 255 255 255 255
255 255 255 255 255 255 255 255 255 255 255 255 255 255 255
255 255 255 255 255 255 255 255 255 255 255 255 255 255 255
255 255 255 255 255 255 255 255 255 255 255 255 255 255 255
255 255 255 255 255 255 255 255 255 255 255 255 255 255 255
255 255 255 255 255 255 255 255 255 255 255 255 255 255 255
255 255 255 255 255 255 255 255 255 255 255 255 255 255 255
255 255 255 255 255 255 255 255 255 255 255 255 255 255 255
255 255 255 255 255 255 255 255 255 255 255 255 255 255 255
255 255 255 255 255 255 255 255 255 255 255 255 255 255 255
255 255 255 255 255 255 255 255 255 255 255 255 255 255 255
255 255 255 255 255 255 255 255 255 255 255 255 255 255 255
255 255 255 255 255 255 255 255 255 255 255 255 255 255 255
255 255 255 255 255 255 255 255 255 255 255 255 255 255 255
255 255 255 255 255 255 255 255 255 255 255 255 255 255 255
255 255 255 255 255 255 255 255 255 255 255 255 255 255 255
255 255 255 255 255 255 255 255 255 255 255 255 255 255 255
255 255 255 255 255 255 255 255 255 255 255 255 255 255 255
255 255 255 255 255 255 255 255 255 254 254 254 254 254 254
254 254 254 254 254 254 254 254 254 254 254 254 254 254 254
254 254 254 254 254 254 255 255 255 255 255 255 255 255 255
254 254 254 254 254 254 253 253 253 252 252 250 252 255 248
251 254 247 250 252 247 248 253 247 250 255 251 253 255 254
253 253 255 253 251 255 255 251 255 255 245 255 255 235 254
255 231 254 255 229 255 240 201 232 176 132 167 114 66 104 92 35 78
133 69 119 146 77 132 147 68 133 146 58 132 122 24 107 116 9 103
151 35 136 157 31 141 166 35 149 177 39 158 184 42 164 183 39 162
180 34 158 177 32 153 174 32 152 171 33 154 168 35 154 170 35 156
173 38 159 176 41 162 177 42 163 175 40 161 174 39 160 178 42 166
179 40 165 178 39 164 177 38 163 179 39 164 180 40 165 182 42 167
182 44 166 185 52 169 180 52 165 179 51 162 177 54 161 176 57 161
170 56 154 162 52 147 154 50 139 159 61 144 142 51 128 121 35 106
105 24 91 98 22 86 101 27 88 106 35 93 106 42 94 111 59 98
170 123 155 238 193 224 255 228 255 255 232 255 255 231 255
255 237 255 255 242 255 255 236 248 255 239 249 253 242 248
254 245 248 254 248 248 255 251 250 253 252 248 250 250 248
250 252 251 248 252 251 248 252 251 248 252 251 248 252 251
249 253 252 249 253 252 250 254 253 250 254 253 249 253 252
248 252 251 248 252 251 249 253 252 250 254 253 252 255 255
252 255 255 254 255 255 254 255 255 255 255 255 255 255 255
255 255 255 255 255 255 255 255 255 255 255 255 255 254 255
255 254 255 255 254 255 255 255 253 255 255 253 255 255 253
255 255 253 255 255 253 255 253 253 255 252 253 255 253 253
255 253 253 255 254 253 255 255 253 255 255 255 255 255 255
250 250 252 244 244 246 245 243 248 253 248 254 253 246 254
250 240 249 253 241 253 255 246 255 255 242 255 241 207 234
176 134 170 112 60 106 101 38 93 135 58 126 159 67 150 158 55 147
162 50 152 166 46 156 168 41 158 171 39 159 173 39 162 176 40 164
177 41 167 177 43 164 173 40 157 173 40 155 173 42 158 174 43 159
172 43 162 171 42 161 169 41 162 169 41 164 170 41 167 170 42 165
170 42 165 171 41 163 171 41 163 173 41 163 173 41 161 173 41 160
173 45 158 173 45 158 175 44 160 176 44 163 176 42 163 176 41 162
175 39 163 173 39 162 175 41 162 170 41 159 166 39 152 161 41 147
160 45 146 153 43 140 137 30 124 114 21 102 134 66 123 210 159 202
255 216 253 255 231 255 255 237 255 255 232 250 248 232 243
254 245 250 255 254 255 252 254 251 248 253 249 248 254 252
248 255 254 247 255 255 243 251 253 239 247 249 244 249 252
245 250 253 248 252 255 248 252 253 249 251 250 249 249 247
249 249 247 250 249 245 253 249 246 254 250 247 255 252 251
255 254 253 255 254 255 255 254 255 255 254 255 255 254 255
255 255 255 255 255 255 255 255 255 255 255 255 255 255 255
255 255 255 255 255 255 255 255 255 255 255 255 255 255 255
255 255 255 255 255 255 255 255 255 255 255 255 255 255 255
255 255 255 255 255 255 255 255 255 255 255 255 255 255 255
255 255 255 255 255 255 255 255 255 255 255 255 255 255 255
255 255 255 255 255 255 255 255 255 255 255 255 255 255 255
255 255 255 255 255 255 255 255 255 255 255 255 255 255 255
255 255 255 255 255 255 255 255 255 255 255 255 255 255 255
255 255 255 255 255 255 255 255 255 255 255 255 255 255 255
255 255 255 255 255 255 255 255 255 255 255 255 255 255 255
255 255 255 255 255 255 255 255 255 255 255 255 255 255 255
255 255 255 255 255 255 255 255 255 255 255 255 255 255 255
255 255 255 255 255 255 255 255 255 255 255 255 255 255 255
255 255 255 255 255 255 255 255 255 255 255 255 255 255 255
255 255 255 255 255 255 255 255 255 255 255 255 255 255 255
255 255 255 255 255 255 255 255 255 255 255 255 255 255 255
255 255 255 255 255 255 255 255 255 255 255 255 255 255 255
255 255 255 255 255 255 255 255 255 255 255 255 255 255 255
255 255 255 255 255 255 255 255 255 255 255 255 255 255 255
255 255 255 255 255 255 255 255 255 255 255 255 255 255 255
255 255 255 255 255 255 255 255 255 255 255 255 255 255 255
255 255 255 255 255 255 255 255 255 255 255 255 255 255 255
255 255 255 255 255 255 255 255 255 255 255 255 255 255 255
255 255 255 255 255 255 255 255 255 255 255 255 255 255 255
255 255 255 255 255 255 255 255 255 255 255 255 255 255 255
255 255 255 255 255 255 255 255 255 255 255 255 255 255 255
255 255 255 255 255 255 255 255 255 255 255 255 255 255 255
255 255 255 255 255 255 255 255 255 255 255 255 255 255 255
255 255 255 255 255 255 255 255 255 255 255 255 255 255 255
255 255 255 255 255 255 255 255 255 255 255 255 255 255 255
255 255 255 255 255 255 255 255 255 255 255 255 255 255 255
255 255 255 255 255 255 255 255 255 255 255 255 255 255 255
254 254 254 254 254 254 254 254 254 254 254 254 254 254 254
254 254 254 254 254 254 254 254 254 254 254 254 255 255 255
255 255 255 255 255 255 255 255 255 254 254 254 253 253 253
253 253 251 255 255 251 253 255 250 250 252 247 250 252 247
248 253 249 249 253 252 251 252 254 251 250 255 253 250 255
255 251 255 255 247 255 255 237 253 255 241 255 255 242 255
242 210 234 201 165 193 140 99 131 92 44 82 100 47 91 144 82 133
143 72 132 133 50 120 141 46 128 145 39 129 163 47 144 165 42 146
167 37 145 166 30 141 166 25 138 169 26 140 176 32 146 181 38 154
178 38 160 178 40 162 181 43 165 184 46 168 185 47 169 182 47 168
178 43 164 174 39 159 171 36 157 171 36 156 170 35 155 171 36 156
171 38 157 174 41 160 176 43 162 175 47 160 164 43 146 164 50 145
170 56 151 168 59 150 160 56 143 145 48 129 128 37 114 115 32 102
92 16 81 98 28 88 101 38 91 95 37 87 96 43 89 127 79 121 184 139 180
228 188 222 255 229 252 255 236 251 255 236 251 254 230 244
253 231 243 255 239 250 255 243 251 255 241 246 255 251 255
255 251 251 255 251 248 254 253 249 253 254 248 249 250 244
243 246 239 240 242 237 247 252 248 247 251 250 248 252 251
248 252 251 249 253 252 249 253 252 249 253 252 249 253 252
250 254 253 249 253 252 249 253 252 249 253 252 250 254 253
251 255 254 252 255 255 254 255 255 255 255 255 255 254 255
255 254 255 255 255 255 255 255 255 255 255 255 255 255 255
255 255 255 255 255 255 255 255 255 255 255 253 254 255 253
254 255 253 254 255 251 254 255 251 255 255 251 255 252 253
255 251 253 255 252 251 255 253 250 255 254 250 255 255 250
255 255 250 254 255 251 243 243 241 248 246 247 251 246 250
249 239 248 247 233 248 250 233 251 253 231 252 255 227 255
222 180 218 160 108 156 99 40 94 97 29 90 137 60 130 169 80 162
166 65 157 149 38 140 166 48 158 170 45 162 172 43 162 173 39 164
171 37 162 171 37 162 173 38 166 175 41 164 174 41 158 173 42 156
173 42 158 173 42 158 171 42 161 170 42 161 170 42 163 170 42 163
170 42 165 170 42 165 171 41 165 171 41 163 173 41 163 174 40 161
174 40 161 174 41 160 170 41 157 170 42 155 172 41 157 172 40 159
173 39 160 172 38 159 172 38 161 172 38 161 172 40 160 167 40 157
162 38 152 159 39 147 160 45 148 157 47 144 145 38 132 127 32 116
111 34 102 128 65 122 187 129 180 245 193 239 255 227 255 255 237 255
255 235 255 254 236 250 255 245 255 251 246 250 247 245 248
246 247 249 246 250 251 247 251 252 245 250 253 243 248 251
248 251 255 249 252 255 249 252 255 247 251 254 244 248 249
243 247 246 245 249 248 247 252 248 245 247 244 248 248 246
251 249 250 255 252 253 255 253 255 255 253 255 255 252 255
255 253 255 255 254 255 255 255 255 255 255 255 255 255 255
255 255 255 255 255 255 255 255 255 255 255 255 255 255 255
255 255 255 255 255 255 255 255 255 255 255 255 255 255 255
255 255 255 255 255 255 255 255 255 255 255 255 255 255 255
255 255 255 255 255 255 255 255 255 255 255 255 255 255 255
255 255 255 255 255 255 255 255 255 255 255 255 255 255 255
255 255 255 255 255 255 255 255 255 255 255 255 255 255 255
255 255 255 255 255 255 255 255 255 255 255 255 255 255 255
255 255 255 255 255 255 255 255 255 255 255 255 255 255 255
255 255 255 255 255 255 255 255 255 255 255 255 255 255 255
255 255 255 255 255 255 255 255 255 255 255 255 255 255 255
255 255 255 255 255 255 255 255 255 255 255 255 255 255 255
255 255 255 255 255 255 255 255 255 255 255 255 255 255 255
255 255 255 255 255 255 255 255 255 255 255 255 255 255 255
255 255 255 255 255 255 255 255 255 255 255 255 255 255 255
255 255 255 255 255 255 255 255 255 255 255 255 255 255 255
255 255 255 255 255 255 255 255 255 255 255 255 255 255 255
255 255 255 255 255 255 255 255 255 255 255 255 255 255 255
255 255 255 255 255 255 255 255 255 255 255 255 255 255 255
255 255 255 255 255 255 255 255 255 255 255 255 255 255 255
255 255 255 255 255 255 255 255 255 255 255 255 255 255 255
255 255 255 255 255 255 255 255 255 255 255 255 255 255 255
255 255 255 255 255 255 255 255 255 255 255 255 255 255 255
255 255 255 255 255 255 255 255 255 255 255 255 255 255 255
255 255 255 255 255 255 255 255 255 255 255 255 255 255 255
255 255 255 255 255 255 255 255 255 255 255 255 255 255 255
255 255 255 255 255 255 255 255 255 255 255 255 255 255 255
255 255 255 255 255 255 255 255 255 255 255 255 255 255 255
255 255 255 255 255 255 255 255 255 255 255 255 255 255 255
255 255 255 255 255 255 255 255 255 255 255 255 255 255 255
255 255 255 255 255 255 255 255 255 255 255 255 255 255 255
255 255 255 255 255 255 255 255 255 255 255 255 255 255 255
255 255 255 254 254 254 254 254 254 254 254 254 254 254 254
254 254 254 254 254 254 254 254 254 254 254 254 254 254 254
254 254 254 254 254 254 255 255 255 255 255 255 254 254 254
254 254 254 253 253 253 254 254 252 252 253 248 251 252 247
250 252 247 250 255 251 251 255 252 251 255 254 252 253 255
250 249 254 255 253 255 255 252 255 255 245 254 252 238 251
254 236 250 255 235 252 255 232 250 239 210 232 201 167 192
126 87 118 87 41 78 107 49 97 121 52 109 128 47 114 151 60 137
161 59 143 164 54 143 166 48 144 166 41 141 166 37 138 168 37 139
172 40 142 174 41 148 181 47 162 181 48 165 181 48 165 182 49 166
181 48 165 176 45 161 169 41 154 164 36 149 163 36 149 163 39 149
167 43 153 170 47 154 170 49 155 169 48 154 168 47 153 162 48 146
155 53 137 146 52 126 138 46 119 129 39 109 117 35 101 112 34 96
107 36 94 104 40 92 105 47 95 110 59 102 134 90 126 177 140 173
227 194 223 255 229 254 255 237 255 254 233 252 253 236 246
253 238 243 252 240 244 254 242 246 255 250 251 255 252 253
255 252 253 255 253 250 254 250 247 248 247 243 246 247 241
248 249 243 247 250 241 245 248 239 242 248 238 243 248 241
249 254 250 249 253 252 250 254 253 251 255 254 251 255 254
251 255 254 251 255 254 250 254 253 249 253 252 249 253 252
249 253 252 250 254 253 250 254 253 251 255 254 252 255 255
254 255 255 255 254 255 255 254 255 255 254 255 255 254 255
255 255 255 255 255 255 255 255 255 255 255 255 255 255 255
255 255 253 254 255 253 254 255 253 254 255 251 254 255 251
254 255 251 255 255 251 255 252 253 255 251 251 255 252 251
255 253 250 255 255 248 255 255 246 254 255 248 254 255 248
246 247 241 255 251 250 254 243 251 252 236 249 255 244 255
255 243 255 232 198 233 183 138 181 131 72 128 109 38 104 114 38 110
152 69 147 165 73 158 145 44 138 149 38 141 177 59 169 165 40 157
171 42 161 174 41 166 174 40 165 172 37 165 171 36 164 173 38 166
175 42 167 174 41 160 173 42 158 173 41 160 173 41 160 171 42 161
170 42 163 171 41 163 171 41 163 171 41 165 171 41 165 173 41 163
173 41 163 174 40 163 175 40 161 177 38 163 175 40 161 170 38 157
170 39 155 170 38 157 171 37 158 171 37 160 171 37 160 171 37 160
171 37 160 174 42 164 172 43 162 168 44 158 167 47 157 169 52 157
170 58 160 165 55 154 152 51 143 128 41 120 100 23 95 121 46 113
154 86 147 184 125 179 225 176 221 249 209 244 255 226 253
255 235 255 254 238 251 251 239 249 251 241 250 250 243 250
251 246 252 250 247 254 250 249 255 252 252 255 252 252 255
250 253 255 246 250 253 242 247 250 239 248 247 242 251 248
245 254 249 241 247 243 244 249 245 249 251 248 253 251 252
255 253 254 255 253 255 255 251 255 255 252 255 255 254 255
255 255 255 255 255 255 255 255 255 255 255 255 255 255 255
255 255 255 255 255 255 255 255 255 255 255 255 255 255 255
255 255 255 255 255 255 255 255 255 255 255 255 255 255 255
255 255 255 255 255 255 255 255 255 255 255 255 255 255 255
255 255 255 255 255 255 255 255 255 255 255 255 255 255 255
255 255 255 255 255 255 255 255 255 255 255 255 255 255 255
255 255 255 255 255 255 255 255 255 255 255 255 255 255 255
255 255 255 255 255 255 255 255 255 255 255 255 255 255 255
255 255 255 255 255 255 255 255 255 255 255 255 255 255 255
255 255 255 255 255 255 255 255 255 255 255 255 255 255 255
255 255 255 255 255 255 255 255 255 255 255 255 255 255 255
255 255 255 255 255 255 255 255 255 255 255 255 255 255 255
255 255 255 255 255 255 255 255 255 255 255 255 255 255 255
255 255 255 255 255 255 255 255 255 255 255 255 255 255 255
255 255 255 255 255 255 255 255 255 255 255 255 255 255 255
255 255 255 255 255 255 255 255 255 255 255 255 255 255 255
255 255 255 255 255 255 255 255 255 255 255 255 255 255 255
255 255 255 255 255 255 255 255 255 255 255 255 255 255 255
255 255 255 255 255 255 255 255 255 255 255 255 255 255 255
255 255 255 255 255 255 255 255 255 255 255 255 255 255 255
255 255 255 255 255 255 255 255 255 255 255 255 255 255 255
255 255 255 255 255 255 255 255 255 255 255 255 255 255 255
255 255 255 255 255 255 255 255 255 255 255 255 255 255 255
255 255 255 255 255 255 255 255 255 255 255 255 255 255 255
255 255 255 255 255 255 255 255 255 255 255 255 255 255 255
255 255 255 255 255 255 255 255 255 255 255 255 255 255 255
255 255 255 255 255 255 255 255 255 255 255 255 255 255 255
255 255 255 255 255 255 255 255 255 255 255 255 255 255 255
255 255 255 255 255 255 255 255 255 255 255 255 255 255 255
255 255 255 255 255 255 255 255 255 255 255 255 255 255 255
255 255 255 255 255 255 255 255 255 255 255 255 255 255 255
255 255 255 255 255 255 255 255 255 255 255 255 254 254 254
254 254 254 254 254 254 254 254 254 254 254 254 254 254 254
254 254 254 254 254 254 253 253 253 253 253 253 254 254 254
254 254 254 254 254 254 254 254 254 253 253 253 253 253 253
255 254 252 253 253 251 253 253 251 253 255 252 252 255 253
252 255 253 252 255 255 251 255 254 252 255 255 254 255 255
255 255 255 255 254 255 255 252 255 252 245 252 255 245 253
255 251 255 255 238 250 255 236 252 240 213 232 175 141 166
110 66 101 102 49 93 123 59 111 123 49 110 139 56 124 146 54 129
153 54 134 159 56 139 164 56 142 166 53 141 164 50 138 163 45 139
168 47 150 168 47 153 167 46 152 167 47 153 168 49 153 165 48 152
162 47 148 158 46 146 160 50 147 159 52 146 158 53 146 158 53 145
153 50 141 147 47 137 142 42 132 135 42 123 115 37 99 100 30 84
88 19 73 84 20 70 97 35 82 116 61 103 137 87 125 147 103 138
190 153 184 222 190 214 255 230 251 255 247 255 255 241 255
247 235 247 253 243 254 255 252 255 255 250 250 251 247 244
250 246 243 254 250 247 255 255 251 254 253 249 251 250 246
249 250 244 255 255 250 255 255 250 253 255 249 253 255 249
249 252 245 244 247 240 243 246 239 246 248 243 251 253 250
252 254 253 253 255 254 254 255 255 254 255 255 254 255 255
253 255 254 253 255 254 251 253 252 251 253 252 252 254 253
252 254 253 253 255 254 254 255 255 254 255 255 255 255 255
255 253 255 255 253 255 255 253 255 255 254 255 255 254 255
255 255 255 254 255 255 254 255 255 254 255 255 254 255 253
254 255 253 254 255 251 254 255 251 254 255 251 255 255 250
255 255 251 255 253 253 255 253 251 255 254 251 255 255 248
255 255 246 254 255 244 252 255 246 254 255 246 255 254 249
255 248 251 255 237 249 253 228 250 250 215 248 221 178 221
163 113 162 115 54 114 106 28 103 141 53 137 158 66 153 148 51 144
153 47 147 171 58 164 177 56 169 164 39 156 166 36 158 170 37 162
173 39 164 174 39 167 173 40 167 174 41 168 176 43 170 177 44 169
174 40 163 174 40 161 174 40 161 172 40 162 172 40 162 171 41 165
173 40 165 173 40 165 173 40 165 173 40 165 174 40 165 175 39 165
177 38 165 177 38 163 178 37 165 177 38 163 172 38 159 171 37 158
171 37 160 172 36 160 172 36 162 172 36 162 173 37 163 172 38 163
169 35 160 171 39 161 169 41 160 166 43 159 167 47 157 168 51 158
165 50 154 156 48 149 155 54 148 146 52 140 146 54 137 118 34 111
105 30 99 124 58 119 155 98 149 203 155 197 233 193 227 240 207 234
252 224 247 255 236 255 255 240 255 255 240 254 255 239 252
251 239 251 252 246 255 252 251 255 252 253 255 249 253 255
242 250 252 240 250 249 241 253 249 244 255 250 242 253 247
244 254 246 249 254 248 254 254 252 255 255 253 255 253 255
255 251 255 255 252 255 255 254 255 254 255 255 255 255 255
255 255 255 255 255 255 255 255 255 255 254 255 255 254 255
255 254 255 255 254 255 255 255 255 255 255 255 255 255 255
255 255 255 254 255 255 254 255 255 255 255 255 255 255 255
255 255 255 255 255 255 255 255 255 255 255 255 255 255 255
255 255 255 255 255 255 255 255 255 255 255 255 255 255 255
255 255 255 255 255 255 255 255 255 255 255 255 255 255 255
255 255 255 255 255 255 255 255 255 255 255 255 255 255 255
255 255 255 255 255 255 255 255 255 255 255 255 255 255 255
255 255 255 255 255 255 255 255 255 255 255 255 255 255 255
255 255 255 255 255 255 255 255 255 255 255 255 255 255 255
255 255 255 255 255 255 255 255 255 255 255 255 255 255 255
255 255 255 255 255 255 255 255 255 255 255 255 255 255 255
255 255 255 255 255 255 255 255 255 255 255 255 255 255 255
255 255 255 255 255 255 255 255 255 255 255 255 255 255 255
255 255 255 255 255 255 255 255 255 255 255 255 255 255 255
255 255 255 255 255 255 255 255 255 255 255 255 255 255 255
255 255 255 255 255 255 255 255 255 255 255 255 255 255 255
255 255 255 255 255 255 255 255 255 255 255 255 255 255 255
255 255 255 255 255 255 255 255 255 255 255 255 255 255 255
255 255 255 255 255 255 255 255 255 255 255 255 255 255 255
255 255 255 255 255 255 255 255 255 255 255 255 255 255 255
255 255 255 255 255 255 255 255 255 255 255 255 255 255 255
255 255 255 255 255 255 255 255 255 255 255 255 255 255 255
255 255 255 255 255 255 255 255 255 255 255 255 255 255 255
255 255 255 255 255 255 255 255 255 255 255 255 255 255 255
255 255 255 255 255 255 255 255 255 255 255 255 255 255 255
255 255 255 255 255 255 255 255 255 255 255 255 255 255 255
255 255 255 255 255 255 255 255 255 255 255 255 255 255 255
255 255 255 255 255 255 255 255 255 255 255 255 255 255 255
255 255 255 255 255 255 255 255 255 255 255 255 255 255 255
255 255 255 255 255 255 255 255 255 255 255 255 255 255 255
255 255 255 255 255 255 254 254 254 254 254 254 254 254 254
254 254 254 254 254 254 254 254 254 254 254 254 254 254 254
252 252 252 252 252 252 253 253 253 254 254 254 254 254 254
253 253 253 253 253 253 253 253 253 255 255 253 255 255 253
255 255 253 254 255 253 254 255 253 252 255 253 251 255 255
249 255 253 247 253 251 250 255 254 251 255 254 251 253 252
251 253 252 252 252 252 250 248 249 247 243 244 255 252 255
250 237 244 248 231 241 255 232 248 241 209 232 187 148 179
140 92 130 129 73 118 119 54 108 121 50 108 123 47 109 129 48 114
138 53 121 146 59 130 151 61 133 153 59 137 150 47 136 150 45 138
149 46 137 152 49 140 156 56 144 160 62 149 161 66 150 161 68 149
153 62 141 146 59 137 136 52 127 127 45 117 118 38 109 109 32 102
105 28 98 99 29 91 104 48 93 97 52 85 106 61 94 133 89 122
173 134 163 216 180 206 248 216 240 255 235 254 255 244 255
255 241 253 251 238 247 249 240 245 250 245 249 252 250 253
250 250 250 248 248 246 249 250 245 243 246 239 245 246 240
252 255 248 254 255 250 249 251 246 250 252 247 254 255 251
248 250 245 247 249 244 250 252 247 255 255 251 254 255 250
248 249 244 248 249 244 252 252 250 250 252 251 251 253 252
252 254 253 253 255 254 253 255 254 253 255 254 252 254 253
251 253 252 251 253 252 252 254 253 252 254 253 253 255 254
253 255 254 254 255 255 254 255 255 255 255 255 255 253 255
255 252 255 255 253 255 255 254 255 255 254 255 255 255 255
254 255 255 254 255 255 254 255 255 254 255 253 254 255 253
254 255 251 254 255 251 254 255 251 255 255 250 255 255 251
255 255 253 255 255 253 255 255 251 254 255 250 252 255 248
252 255 246 254 255 246 255 255 248 255 252 250 255 243 253
255 237 255 248 211 244 187 138 185 114 55 111 91 25 89 114 36 111
157 64 153 160 58 157 161 55 156 163 52 157 160 44 153 158 35 151
163 35 154 171 41 163 177 43 168 176 42 167 174 39 167 174 39 167
174 41 168 172 42 166 171 41 165 171 38 163 175 41 166 175 39 163
175 39 163 173 39 162 173 39 164 173 40 165 173 40 165 174 41 166
174 40 165 174 40 165 175 39 165 175 39 165 178 37 165 178 37 165
180 37 165 178 37 165 174 38 162 173 39 162 173 37 163 173 37 163
173 36 165 174 37 166 174 37 166 175 38 167 175 38 167 178 44 169
179 47 169 174 46 167 171 46 164 170 47 163 166 45 158 160 42 152
164 48 155 156 45 148 148 42 140 140 39 131 156 64 147 139 55 132
94 19 86 107 39 98 125 67 117 152 101 144 194 148 185 232 191 223
255 218 247 255 232 255 255 237 255 255 241 255 253 239 255
253 245 255 255 251 255 254 253 255 248 252 255 243 252 251
243 254 250 245 255 251 244 255 248 246 255 249 251 255 251
254 255 251 255 255 251 255 254 251 255 253 251 255 253 253
255 255 255 254 255 255 255 255 255 255 255 255 255 255 255
255 255 255 255 254 255 255 254 255 255 254 255 255 254 255
255 254 255 255 255 255 255 255 255 254 255 255 254 255 255
254 255 255 255 255 255 255 255 255 255 255 255 255 255 255
255 255 255 255 255 255 255 255 255 255 255 255 255 255 255
255 255 255 255 255 255 255 255 255 255 255 255 255 255 255
255 255 255 255 255 255 255 255 255 255 255 255 255 255 255
255 255 255 255 255 255 255 255 255 255 255 255 255 255 255
255 255 255 255 255 255 255 255 255 255 255 255 255 255 255
255 255 255 255 255 255 255 255 255 255 255 255 255 255 255
255 255 255 255 255 255 255 255 255 255 255 255 255 255 255
255 255 255 255 255 255 255 255 255 255 255 255 255 255 255
255 255 255 255 255 255 255 255 255 255 255 255 255 255 255
255 255 255 255 255 255 255 255 255 255 255 255 255 255 255
255 255 255 255 255 255 255 255 255 255 255 255 255 255 255
255 255 255 255 255 255 255 255 255 255 255 255 255 255 255
255 255 255 255 255 255 255 255 255 255 255 255 255 255 255
255 255 255 255 255 255 255 255 255 255 255 255 255 255 255
255 255 255 255 255 255 255 255 255 255 255 255 255 255 255
255 255 255 255 255 255 255 255 255 255 255 255 255 255 255
255 255 255 255 255 255 255 255 255 255 255 255 255 255 255
255 255 255 255 255 255 255 255 255 255 255 255 255 255 255
255 255 255 255 255 255 255 255 255 255 255 255 255 255 255
255 255 255 255 255 255 255 255 255 255 255 255 255 255 255
255 255 255 255 255 255 255 255 255 255 255 255 255 255 255
255 255 255 255 255 255 255 255 255 255 255 255 255 255 255
255 255 255 255 255 255 255 255 255 255 255 255 255 255 255
255 255 255 255 255 255 255 255 255 255 255 255 255 255 255
255 255 255 255 255 255 255 255 255 255 255 255 255 255 255
255 255 255 255 255 255 255 255 255 255 255 255 255 255 255
255 255 255 255 255 255 255 255 255 255 255 255 255 255 255
255 255 255 255 255 255 255 255 255 255 255 255 255 255 255
254 254 254 254 254 254 254 254 254 254 254 254 254 254 254
254 254 254 254 254 254 254 254 254 254 254 254 254 254 254
254 254 254 254 254 254 254 254 254 254 254 254 254 254 254
254 254 254 255 255 253 255 255 253 255 255 253 254 255 253
254 255 253 252 255 253 251 255 253 251 255 253 249 255 253
248 255 252 249 255 251 247 253 249 245 251 247 244 250 246
243 248 244 245 247 244 250 246 245 253 244 245 252 241 245
255 240 250 255 240 255 255 232 254 243 210 237 226 186 220
165 121 157 145 97 139 124 71 117 114 58 107 113 55 106 111 51 103
109 46 99 109 41 100 107 30 98 114 32 106 117 37 108 118 38 109
115 38 106 115 40 107 118 46 110 120 52 113 113 48 106 112 49 106
106 47 101 103 46 97 105 48 99 116 62 111 136 82 131 146 101 140
179 149 175 202 179 197 235 212 230 255 235 250 255 240 255
255 238 250 253 237 248 252 239 248 255 245 251 252 243 246
245 239 241 242 238 237 242 241 239 246 247 242 254 255 250
254 255 251 251 253 248 249 254 248 251 253 248 251 253 248
251 253 248 251 253 250 251 253 250 251 253 250 252 252 250
251 251 249 250 250 250 249 247 248 249 247 250 251 249 252
252 250 253 253 251 254 253 253 253 252 254 253 252 254 253
252 254 253 252 254 253 252 254 253 252 254 253 252 254 253
252 254 253 252 254 253 252 254 253 253 255 254 253 255 254
254 255 255 254 255 255 255 255 255 255 253 255 255 252 255
255 252 255 255 253 255 254 254 255 254 254 255 252 253 255
250 254 253 252 255 255 251 255 252 249 251 248 246 248 245
253 254 249 255 255 251 255 255 251 255 255 251 252 255 255
249 255 253 246 252 248 249 255 249 251 255 250 252 255 250
255 255 251 255 252 252 254 239 246 254 227 246 214 175 206
145 92 138 97 31 92 101 24 94 126 42 120 146 51 141 153 47 148
158 45 153 161 45 156 163 42 157 163 38 156 165 37 156 171 39 161
175 41 166 172 38 163 173 37 163 173 39 164 173 39 164 172 39 164
171 41 163 171 41 163 171 41 163 172 36 162 175 36 163 177 38 165
176 40 166 174 40 165 174 40 165 175 41 164 175 41 164 176 42 165
175 41 164 174 38 162 172 36 160 174 33 161 174 33 161 177 34 162
176 35 163 178 39 166 174 38 164 174 35 164 175 36 165 177 37 168
178 38 169 177 37 168 175 35 166 179 39 170 177 40 169 176 41 169
176 41 169 176 43 168 175 45 167 176 46 168 176 48 167 174 47 164
167 43 157 162 42 150 160 45 148 161 51 148 160 57 148 154 61 142
148 62 135 131 52 118 100 29 89 97 30 84 134 72 121 175 116 162
201 144 187 232 177 217 255 212 248 255 234 255 255 248 255
255 249 255 255 247 255 248 245 252 251 252 255 251 255 255
249 255 253 248 255 251 243 255 245 246 253 245 252 255 250
255 255 250 255 255 250 255 255 250 255 254 251 250 252 249
250 254 253 254 255 255 255 255 255 254 254 254 254 252 253
255 252 253 255 252 253 255 253 254 255 254 255 255 254 255
255 255 255 255 255 255 254 255 255 254 255 255 253 255 254
255 255 255 254 254 254 254 254 254 254 254 254 254 254 254
255 255 255 255 255 255 255 255 255 255 255 255 255 255 255
255 255 255 255 255 255 255 255 255 255 255 255 255 255 255
255 255 255 255 255 255 255 255 255 255 255 255 255 255 255
255 255 255 255 255 255 255 255 255 255 255 255 255 255 255
255 255 255 255 255 255 255 255 255 255 255 255 255 255 255
255 255 255 255 255 255 255 255 255 255 255 255 255 255 255
255 255 255 255 255 255 255 255 255 255 255 255 255 255 255
255 255 255 255 255 255 255 255 255 255 255 255 255 255 255
255 255 255 255 255 255 255 255 255 255 255 255 255 255 255
255 255 255 255 255 255 255 255 255 255 255 255 255 255 255
255 255 255 255 255 255 255 255 255 255 255 255 255 255 255
255 255 255 255 255 255 255 255 255 255 255 255 255 255 255
255 255 255 255 255 255 255 255 255 255 255 255 255 255 255
255 255 255 255 255 255 255 255 255 255 255 255 255 255 255
255 255 255 255 255 255 255 255 255 255 255 255 255 255 255
255 255 255 255 255 255 255 255 255 255 255 255 255 255 255
255 255 255 255 255 255 255 255 255 255 255 255 255 255 255
255 255 255 255 255 255 255 255 255 255 255 255 255 255 255
255 255 255 255 255 255 255 255 255 255 255 255 255 255 255
255 255 255 255 255 255 255 255 255 255 255 255 255 255 255
255 255 255 255 255 255 255 255 255 255 255 255 255 255 255
255 255 255 255 255 255 255 255 255 255 255 255 255 255 255
255 255 255 255 255 255 255 255 255 255 255 255 255 255 255
255 255 255 255 255 255 255 255 255 255 255 255 255 255 255
255 255 255 255 255 255 255 255 255 255 255 255 255 255 255
255 255 255 255 255 255 255 255 255 255 255 255 255 255 255
255 255 255 255 255 255 255 255 255 255 255 255 255 255 255
255 255 255 255 255 255 255 255 255 255 255 255 254 254 254
254 254 254 254 254 254 254 254 254 254 254 254 254 254 254
254 254 254 254 254 254 254 254 254 254 254 254 254 254 254
254 254 254 254 254 254 254 254 254 254 254 254 254 254 254
255 255 253 255 255 253 255 255 253 254 255 253 254 255 253
252 255 253 252 255 253 251 255 253 250 255 252 248 255 252
247 255 249 247 255 249 246 255 248 245 255 247 247 254 247
247 252 246 252 251 247 255 251 248 254 248 248 255 246 249
255 247 255 255 249 255 255 243 255 255 234 254 255 244 255
255 225 253 231 198 229 206 172 205 181 145 181 154 116 153
133 95 132 125 83 123 135 81 131 138 79 133 135 77 128 131 74 125
127 73 123 131 79 127 139 90 135 146 99 141 153 111 151 162 122 159
175 138 172 193 158 190 213 180 211 236 203 232 255 226 254
255 242 255 255 245 255 255 251 255 255 253 255 255 253 255
254 249 253 251 246 250 253 249 250 255 252 251 254 250 249
250 249 247 248 247 243 246 245 241 247 246 241 249 250 244
253 254 248 255 255 251 252 254 249 250 255 251 252 254 251
252 254 251 252 254 251 252 254 253 252 254 253 253 253 255
254 254 255 253 253 255 253 251 254 252 250 255 254 249 255
255 250 255 255 251 255 255 253 255 254 254 255 253 255 254
253 255 254 253 255 254 253 255 254 253 255 254 253 255 254
253 255 254 252 254 253 252 254 253 253 255 254 253 255 254
253 255 254 253 255 254 254 255 255 255 255 255 255 253 255
255 253 255 255 253 255 254 254 255 254 254 255 252 253 255
250 254 253 250 254 253 252 255 255 252 255 255 254 255 253
255 255 253 249 249 247 249 248 244 252 248 247 250 250 248
244 250 250 247 255 255 249 255 255 251 255 255 252 254 253
250 248 249 254 245 250 255 240 252 223 195 217 175 134 166
126 70 117 113 43 103 125 43 117 140 46 130 152 51 143 163 55 156
162 46 157 166 45 161 167 44 161 166 41 159 166 36 158 168 36 158
171 37 160 173 39 162 177 41 165 176 42 165 175 41 164 173 41 161
169 40 159 167 40 157 166 39 156 167 38 157 177 43 166 176 40 166
175 39 163 174 40 163 175 41 164 174 42 162 173 41 161 172 40 159
171 39 158 171 39 158 172 40 159 174 40 161 177 42 163 178 43 164
181 42 167 180 44 168 180 44 168 177 43 166 177 41 165 178 42 168
179 43 169 179 42 171 177 40 169 175 38 167 170 33 162 170 33 163
172 35 165 173 36 166 175 38 167 176 41 169 177 42 170 178 44 169
181 47 170 176 42 163 171 40 156 167 40 153 166 45 151 165 49 150
159 49 144 153 50 139 156 59 140 152 60 135 148 61 132 138 56 122
121 41 104 116 38 98 135 60 117 157 93 145 197 152 191 217 186 217
248 219 247 255 237 255 255 241 255 251 241 252 247 242 248
244 244 246 248 250 247 247 252 246 250 255 248 254 255 248
252 253 245 250 250 242 251 251 243 255 254 249 247 249 246
247 251 250 252 254 253 252 254 253 253 251 252 252 250 251
255 251 252 255 251 252 255 253 254 255 253 254 255 254 255
255 255 255 255 255 255 254 255 255 251 255 254 251 255 254
254 255 255 254 254 254 254 254 254 254 254 254 254 254 254
255 255 255 255 255 255 255 255 255 255 255 255 255 255 255
255 255 255 255 255 255 255 255 255 255 255 255 255 255 255
255 255 255 255 255 255 255 255 255 255 255 255 255 255 255
255 255 255 255 255 255 255 255 255 255 255 255 255 255 255
255 255 255 255 255 255 255 255 255 255 255 255 255 255 255
255 255 255 255 255 255 255 255 255 255 255 255 255 255 255
255 255 255 255 255 255 255 255 255 255 255 255 255 255 255
255 255 255 255 255 255 255 255 255 255 255 255 255 255 255
255 255 255 255 255 255 255 255 255 255 255 255 255 255 255
255 255 255 255 255 255 255 255 255 255 255 255 255 255 255
255 255 255 255 255 255 255 255 255 255 255 255 255 255 255
255 255 255 255 255 255 255 255 255 255 255 255 255 255 255
255 255 255 255 255 255 255 255 255 255 255 255 255 255 255
255 255 255 255 255 255 255 255 255 255 255 255 255 255 255
255 255 255 255 255 255 255 255 255 255 255 255 255 255 255
255 255 255 255 255 255 255 255 255 255 255 255 255 255 255
255 255 255 255 255 255 255 255 255 255 255 255 255 255 255
255 255 255 255 255 255 255 255 255 255 255 255 255 255 255
255 255 255 255 255 255 255 255 255 255 255 255 255 255 255
255 255 255 255 255 255 255 255 255 255 255 255 255 255 255
255 255 255 255 255 255 255 255 255 255 255 255 255 255 255
255 255 255 255 255 255 255 255 255 255 255 255 255 255 255
255 255 255 255 255 255 255 255 255 255 255 255 255 255 255
255 255 255 255 255 255 255 255 255 255 255 255 255 255 255
255 255 255 255 255 255 255 255 255 255 255 255 255 255 255
255 255 255 255 255 255 255 255 255 255 255 255 255 255 255
255 255 255 255 255 255 255 255 255 255 255 255 255 255 255
255 255 255 255 255 255 255 255 255 255 255 255 254 254 254
254 254 254 254 254 254 254 254 254 254 254 254 254 254 254
254 254 254 254 254 254 254 254 254 254 254 254 254 254 254
254 254 254 254 254 254 254 254 254 254 254 254 254 254 254
255 255 253 255 255 253 255 255 253 254 255 253 254 255 253
252 255 253 252 255 253 252 255 253 251 255 250 250 255 250
250 255 250 250 255 250 251 255 251 251 255 251 251 255 251
252 255 251 255 255 251 255 254 251 255 254 253 255 250 252
255 249 251 255 252 255 255 251 255 255 250 255 255 245 255
255 245 255 255 248 255 255 248 255 255 247 255 255 240 255
255 239 255 255 239 255 255 226 255 255 223 255 254 219 252
248 215 246 246 213 244 249 219 247 255 229 254 255 238 255
255 245 255 255 247 255 255 247 255 255 248 255 255 249 255
255 246 255 255 244 255 254 244 253 255 255 255 250 254 253
248 252 251 248 252 251 252 254 253 254 255 255 254 255 253
255 255 253 254 254 252 255 254 250 254 253 249 254 253 249
254 253 249 255 252 249 255 252 249 254 253 249 254 254 252
253 255 254 254 254 254 254 254 254 254 254 254 254 254 255
254 254 255 255 253 255 255 254 255 255 254 255 255 252 255
255 251 255 255 251 255 255 252 255 255 251 255 255 253 255
255 254 255 255 255 255 255 255 255 255 255 255 255 255 255
255 255 255 255 255 255 255 255 255 255 255 255 255 255 255
254 254 254 254 254 254 254 254 254 254 254 254 253 253 253
253 253 253 255 253 254 255 253 254 255 253 255 254 254 254
252 254 253 250 254 253 250 254 253 249 255 253 247 253 251
246 250 249 247 249 248 246 246 246 246 242 243 246 240 240
254 245 248 255 254 255 253 254 255 245 248 253 241 242 247
248 245 254 255 251 255 255 243 255 226 203 223 195 162 189
142 96 133 110 52 102 96 24 87 121 35 110 150 52 139 159 52 148
166 51 155 176 56 166 170 47 163 171 46 166 172 44 165 171 41 163
168 39 158 168 36 156 170 36 157 171 37 158 173 40 159 174 41 160
173 42 158 172 43 159 171 44 159 169 45 157 169 45 157 171 44 157
176 44 163 175 41 162 173 41 160 172 43 161 175 46 162 176 49 162
173 49 161 171 47 157 163 39 149 164 40 150 164 40 150 166 39 152
166 39 152 166 39 152 166 37 153 165 36 152 166 37 153 166 37 153
166 37 153 167 38 156 171 39 159 170 38 158 169 35 158 167 33 156
167 33 158 169 32 161 170 33 162 172 35 164 174 37 167 176 39 169
178 41 171 179 42 172 184 45 172 180 41 166 174 39 160 171 38 157
171 40 154 169 43 153 164 43 148 159 43 142 165 54 149 163 54 145
160 54 142 163 59 144 171 69 152 169 70 150 149 51 128 117 32 100
104 39 95 120 68 116 163 115 157 214 172 210 252 217 249 255 240 255
255 246 255 255 247 255 250 239 245 252 246 246 253 249 246
249 248 243 248 247 242 249 248 243 248 248 240 245 246 240
244 249 245 246 250 249 250 252 251 251 253 252 252 250 251
251 249 250 253 249 250 255 249 251 255 251 253 255 252 253
254 252 253 254 254 254 254 254 254 252 254 253 250 254 253
250 254 253 253 255 254 254 254 254 254 254 254 254 254 254
254 254 254 255 255 255 255 255 255 255 255 255 255 255 255
255 255 255 255 255 255 255 255 255 255 255 255 255 255 255
255 255 255 255 255 255 255 255 255 255 255 255 255 255 255
255 255 255 255 255 255 255 255 255 255 255 255 255 255 255
255 255 255 255 255 255 255 255 255 255 255 255 255 255 255
255 255 255 255 255 255 255 255 255 255 255 255 255 255 255
255 255 255 255 255 255 255 255 255 255 255 255 255 255 255
255 255 255 255 255 255 255 255 255 255 255 255 255 255 255
255 255 255 255 255 255 255 255 255 255 255 255 255 255 255
255 255 255 255 255 255 255 255 255 255 255 255 255 255 255
255 255 255 255 255 255 255 255 255 255 255 255 255 255 255
255 255 255 255 255 255 255 255 255 255 255 255 255 255 255
255 255 255 255 255 255 255 255 255 255 255 255 255 255 255
255 255 255 255 255 255 255 255 255 255 255 255 255 255 255
255 255 255 255 255 255 255 255 255 255 255 255 255 255 255
255 255 255 255 255 255 255 255 255 255 255 255 255 255 255
255 255 255 255 255 255 255 255 255 255 255 255 255 255 255
255 255 255 255 255 255 255 255 255 255 255 255 255 255 255
255 255 255 255 255 255 255 255 255 255 255 255 255 255 255
255 255 255 255 255 255 255 255 255 255 255 255 255 255 255
255 255 255 255 255 255 255 255 255 255 255 255 255 255 255
255 255 255 255 255 255 255 255 255 255 255 255 255 255 255
255 255 255 255 255 255 255 255 255 255 255 255 255 255 255
255 255 255 255 255 255 255 255 255 255 255 255 255 255 255
255 255 255 255 255 255 255 255 255 255 255 255 255 255 255
255 255 255 255 255 255 255 255 255 255 255 255 255 255 255
255 255 255 255 255 255 255 255 255 255 255 255 255 255 255
255 255 255 255 255 255 255 255 255 255 255 255 255 255 255
255 255 255 255 255 255 255 255 255 255 255 255 255 255 255
255 255 255 255 255 255 255 255 255 255 255 255 255 255 255
255 255 255 255 255 255 255 255 255 255 255 255 255 255 255
255 255 255 255 255 253 254 255 253 254 255 253 254 255 253
254 255 253 254 255 253 254 255 253 252 255 253 253 255 250
251 255 250 252 255 251 252 255 251 252 255 251 252 255 251
252 255 251 254 255 251 254 253 249 255 254 253 255 254 253
255 254 253 255 251 252 251 249 250 252 250 253 253 251 254
255 253 255 255 253 255 255 253 255 255 253 255 255 253 255
254 251 255 255 253 255 255 251 255 255 248 255 255 247 255
255 247 255 255 248 255 255 247 255 255 248 255 255 249 255
255 250 255 255 248 255 254 247 255 253 246 253 254 249 255
255 252 255 255 254 255 255 254 255 255 255 255 248 254 250
246 255 250 248 255 252 251 255 253 251 255 253 252 255 253
251 255 252 249 251 248 255 255 253 255 255 253 255 255 253
255 255 253 255 254 253 255 254 253 255 252 252 255 252 251
255 254 255 255 255 255 255 255 255 255 255 255 255 255 255
255 255 255 255 254 255 255 254 255 255 253 255 255 253 255
255 253 255 255 252 255 255 252 255 255 253 255 255 252 255
255 253 255 255 254 255 255 255 255 255 255 255 255 255 255
255 255 255 255 255 255 255 255 255 255 255 255 255 255 255
255 255 255 255 255 255 254 254 254 254 254 254 253 253 253
252 252 252 252 252 252 255 254 252 255 254 252 254 254 252
252 254 251 250 254 253 249 255 253 249 255 253 248 254 252
251 255 255 247 251 250 247 249 248 255 253 254 255 253 255
255 252 255 255 249 255 255 249 255 242 234 245 249 241 254
255 246 255 255 246 255 255 231 255 220 187 216 153 111 147 99 46 92
95 30 86 118 41 109 141 52 132 152 52 142 156 46 145 162 45 152
170 46 160 175 48 165 174 46 165 173 45 164 173 44 163 172 43 162
170 41 160 170 38 157 170 39 155 170 39 155 169 38 152 170 39 151
170 42 153 170 44 152 169 46 153 169 48 153 168 47 152 168 47 152
171 47 157 173 47 157 171 47 157 170 49 155 168 49 153 164 48 149
161 45 144 159 45 143 169 55 151 167 56 151 167 53 151 166 52 150
165 50 151 165 50 151 165 49 150 165 49 150 165 46 150 167 46 151
170 49 154 173 52 158 177 53 163 178 54 166 179 52 165 180 51 167
169 40 158 170 38 158 170 36 159 170 36 161 171 34 163 173 36 165
175 38 168 178 38 169 181 42 169 179 40 165 174 39 160 174 39 160
174 41 160 173 42 158 170 42 155 168 42 152 169 46 153 173 52 157
173 52 155 170 51 151 177 59 156 189 71 168 190 75 170 177 71 159
146 60 135 121 46 113 109 39 101 125 60 116 160 102 152 202 151 194
243 199 234 255 232 255 255 241 255 255 246 255 255 246 253
249 239 240 246 240 240 253 249 246 255 254 250 250 252 247
245 250 246 246 252 250 249 253 252 251 253 252 251 249 250
252 248 249 252 246 248 253 247 249 255 250 252 255 250 252
255 252 253 254 252 253 252 254 253 250 254 253 248 254 252
249 253 252 253 255 254 254 254 254 253 253 253 253 253 253
254 254 254 254 254 254 255 255 255 255 255 255 255 255 255
255 255 255 255 255 255 255 255 255 255 255 255 255 255 255
255 255 255 255 255 255 255 255 255 255 255 255 255 255 255
255 255 255 255 255 255 255 255 255 255 255 255 255 255 255
255 255 255 255 255 255 255 255 255 255 255 255 255 255 255
255 255 255 255 255 255 255 255 255 255 255 255 255 255 255
255 255 255 255 255 255 255 255 255 255 255 255 255 255 255
255 255 255 255 255 255 255 255 255 255 255 255 255 255 255
255 255 255 255 255 255 255 255 255 255 255 255 255 255 255
255 255 255 255 255 255 255 255 255 255 255 255 255 255 255
255 255 255 255 255 255 255 255 255 255 255 255 255 255 255
255 255 255 255 255 255 255 255 255 255 255 255 255 255 255
255 255 255 255 255 255 255 255 255 255 255 255 255 255 255
255 255 255 255 255 255 255 255 255 255 255 255 255 255 255
255 255 255 255 255 255 255 255 255 255 255 255 255 255 255
255 255 255 255 255 255 255 255 255 255 255 255 255 255 255
255 255 255 255 255 255 255 255 255 255 255 255 255 255 255
255 255 255 255 255 255 255 255 255 255 255 255 255 255 255
255 255 255 255 255 255 255 255 255 255 255 255 255 255 255
255 255 255 255 255 255 255 255 255 255 255 255 255 255 255
255 255 255 255 255 255 255 255 255 255 255 255 255 255 255
255 255 255 255 255 255 255 255 255 255 255 255 255 255 255
255 255 255 255 255 255 255 255 255 255 255 255 255 255 255
255 255 255 255 255 255 255 255 255 255 255 255 255 255 255
255 255 255 255 255 255 255 255 255 255 255 255 255 255 255
255 255 255 255 255 255 255 255 255 255 255 255 255 255 255
255 255 255 255 255 255 255 255 255 255 255 255 255 255 255
255 255 255 255 255 255 255 255 255 255 255 255 255 255 255
255 255 255 255 255 255 255 255 255 255 255 255 255 255 255
255 255 255 255 255 255 255 255 255 255 255 255 255 255 255
255 255 255 255 255 255 255 255 255 255 255 255 255 255 255
255 255 255 254 255 253 254 255 253 254 255 253 254 255 253
254 255 253 254 255 253 254 255 253 254 255 253 255 255 253
254 255 253 254 255 253 254 255 253 254 255 253 254 255 253
253 255 252 254 254 252 254 253 251 254 252 253 255 253 254
255 254 255 255 254 255 255 255 255 255 255 255 255 255 255
254 254 255 250 250 252 248 248 250 250 250 252 251 250 255
250 249 254 252 251 255 255 253 255 253 246 254 255 248 255
255 249 255 255 251 255 255 249 255 253 248 254 252 247 253
249 247 250 255 254 255 252 252 252 248 248 248 248 248 248
251 251 249 253 253 251 251 253 250 249 251 248 252 255 253
251 255 253 251 255 255 252 255 255 251 255 254 254 255 255
254 255 255 255 255 255 255 255 255 255 254 255 255 254 255
255 254 255 255 253 255 255 253 255 255 253 255 255 253 255
255 254 255 255 254 255 255 254 255 255 254 255 255 255 255
255 255 255 255 255 255 255 255 255 255 254 255 255 254 255
255 254 255 254 253 255 254 253 255 255 254 255 255 254 255
255 254 255 255 255 255 255 255 255 255 255 255 255 255 255
255 255 255 255 255 255 255 255 255 255 255 255 255 255 255
255 255 255 255 255 255 254 254 254 254 254 254 253 253 253
252 252 252 252 252 250 254 255 250 254 255 250 252 254 249
250 255 249 249 255 251 246 255 250 246 255 250 246 255 252
250 255 254 248 252 253 253 253 255 255 253 255 255 251 255
255 248 255 253 237 247 249 231 243 255 237 255 255 242 255
255 226 252 215 178 211 165 119 158 130 74 121 115 47 104 111 35 100
136 50 125 156 60 147 166 61 156 159 46 150 161 41 151 173 48 165
178 49 168 169 39 161 172 44 163 170 45 162 171 44 161 171 44 159
170 43 158 171 43 156 169 41 152 169 41 152 170 42 151 169 43 150
170 44 151 169 46 150 168 45 149 165 45 145 163 43 143 161 43 140
159 43 140 164 48 145 168 54 149 168 57 149 166 57 146 163 58 143
163 60 143 163 61 144 148 49 131 148 49 131 146 49 130 146 49 130
149 50 133 152 53 136 155 55 141 159 57 143 165 59 149 167 58 149
166 57 148 164 55 148 161 50 145 160 46 144 158 42 143 158 39 143
169 48 154 168 44 156 167 40 155 165 36 155 166 34 156 168 34 157
170 36 161 171 37 162 178 44 167 176 44 164 174 42 162 174 42 162
174 42 162 174 42 161 174 42 161 173 41 160 169 38 154 176 45 161
180 49 165 175 44 158 168 37 151 171 40 152 186 55 167 196 73 180
194 84 181 173 73 163 151 53 138 129 36 116 115 29 100 126 48 110
162 93 147 197 138 182 246 196 231 255 219 246 255 238 255
255 240 253 254 241 250 255 247 252 255 254 255 255 255 255
248 254 252 249 255 253 252 255 255 253 255 254 252 250 251
251 247 248 251 245 247 253 244 247 255 248 251 255 250 252
255 251 252 254 252 253 252 254 253 249 253 252 248 254 252
247 253 251 253 255 254 253 253 253 253 253 253 253 253 253
253 253 253 254 254 254 255 255 255 255 255 255 255 255 255
255 255 255 255 255 255 255 255 255 255 255 255 255 255 255
255 255 255 255 255 255 255 255 255 255 255 255 255 255 255
255 255 255 255 255 255 255 255 255 255 255 255 255 255 255
255 255 255 255 255 255 255 255 255 255 255 255 255 255 255
255 255 255 255 255 255 255 255 255 255 255 255 255 255 255
255 255 255 255 255 255 255 255 255 255 255 255 255 255 255
255 255 255 255 255 255 255 255 255 255 255 255 255 255 255
255 255 255 255 255 255 255 255 255 255 255 255 255 255 255
255 255 255 255 255 255 255 255 255 255 255 255 255 255 255
255 255 255 255 255 255 255 255 255 255 255 255 255 255 255
255 255 255 255 255 255 255 255 255 255 255 255 255 255 255
255 255 255 255 255 255 255 255 255 255 255 255 255 255 255
255 255 255 255 255 255 255 255 255 255 255 255 255 255 255
255 255 255 255 255 255 255 255 255 255 255 255 255 255 255
255 255 255 255 255 255 255 255 255 255 255 255 255 255 255
255 255 255 255 255 255 255 255 255 255 255 255 255 255 255
255 255 255 255 255 255 255 255 255 255 255 255 255 255 255
255 255 255 255 255 255 255 255 255 255 255 255 255 255 255
255 255 255 255 255 255 255 255 255 255 255 255 255 255 255
255 255 255 255 255 255 255 255 255 255 255 255 255 255 255
255 255 255 255 255 255 255 255 255 255 255 255 255 255 255
255 255 255 255 255 255 255 255 255 255 255 255 255 255 255
255 255 255 255 255 255 255 255 255 255 255 255 255 255 255
255 255 255 255 255 255 255 255 255 255 255 255 255 255 255
255 255 255 255 255 255 255 255 255 255 255 255 255 255 255
255 255 255 255 255 255 255 255 255 255 255 255 255 255 255
255 255 255 255 255 255 255 255 255 255 255 255 255 255 255
255 255 255 255 255 255 255 255 255 255 255 255 255 255 255
255 255 255 255 255 255 255 255 255 255 255 255 255 255 255
255 255 255 255 255 255 255 255 255 255 255 255 255 255 255
254 255 255 252 255 253 252 255 253 254 255 253 254 255 253
254 255 253 254 255 253 255 255 253 255 255 253 255 255 253
255 255 253 255 255 253 255 255 253 255 254 252 255 254 252
254 252 253 254 252 253 255 254 255 255 254 255 253 251 252
254 254 254 255 255 255 255 255 255 254 255 253 254 255 253
254 255 253 254 255 253 253 255 254 255 255 255 255 255 255
255 255 255 254 254 254 253 253 255 255 255 255 255 255 255
255 254 255 255 255 255 255 255 255 255 255 255 255 255 255
255 255 255 251 253 250 251 253 250 252 254 251 254 255 253
255 255 251 254 255 251 254 255 251 252 254 249 248 248 246
249 249 249 251 251 251 250 250 250 250 250 250 251 251 251
255 254 255 255 254 255 255 254 255 255 253 255 255 252 255
255 251 255 255 252 255 255 253 255 255 253 255 255 253 255
255 254 255 255 254 255 255 254 255 255 255 255 255 255 255
255 255 255 255 255 255 255 255 255 253 254 255 253 254 255
253 254 255 253 254 255 253 254 255 251 255 255 251 255 255
253 254 255 255 255 255 255 255 255 255 255 255 255 255 255
255 255 255 255 255 255 255 255 255 255 255 255 255 255 255
255 255 255 255 255 255 254 254 254 254 254 254 253 253 253
252 252 252 252 252 250 253 254 248 252 255 248 250 255 248
249 255 249 246 255 248 246 255 248 245 255 250 245 255 250
242 248 248 246 250 251 249 248 253 247 242 248 249 239 247
255 242 252 255 245 255 255 244 255 255 233 255 234 190 223
176 126 163 126 69 112 104 37 90 112 36 100 139 51 125 162 64 147
173 68 161 170 58 158 168 48 156 170 46 160 175 47 166 178 48 170
176 43 168 169 39 161 169 44 162 168 44 158 167 43 157 168 44 156
171 44 157 171 45 155 169 43 151 168 43 147 168 43 147 168 46 147
170 48 147 170 50 148 170 50 147 168 50 146 167 49 143 164 49 142
154 44 133 151 46 130 151 46 130 145 44 122 137 39 114 131 35 107
125 34 103 123 34 102 126 39 107 124 39 106 123 38 105 123 38 105
124 39 107 126 41 109 128 42 113 131 44 115 128 34 110 132 35 112
137 38 118 140 41 121 145 43 126 150 46 131 156 47 136 160 49 143
163 49 147 163 47 148 165 43 152 166 42 154 168 41 156 170 41 159
173 41 163 174 42 164 175 47 166 174 46 165 174 46 165 173 45 164
173 44 163 174 42 162 174 40 163 173 39 162 174 38 162 168 29 154
169 30 155 183 43 168 193 53 178 191 51 176 186 46 171 181 46 167
171 42 158 178 56 165 191 70 175 188 72 169 168 59 150 144 43 123
130 39 109 124 44 105 153 85 136 190 133 174 238 195 225 255 233 255
255 245 255 255 244 255 250 243 251 244 243 248 249 255 255
249 255 255 252 255 255 254 255 255 253 251 252 252 248 249
254 245 248 254 245 248 255 249 252 255 250 252 255 250 252
254 252 253 252 254 253 248 254 252 248 254 252 248 254 252
252 254 253 253 253 253 253 253 253 253 253 253 253 253 253
254 254 254 255 255 255 255 255 255 255 255 255 255 255 255
255 255 255 255 255 255 255 255 255 255 255 255 255 255 255
255 255 255 255 255 255 255 255 255 255 255 255 255 255 255
255 255 255 255 255 255 255 255 255 255 255 255 255 255 255
255 255 255 255 255 255 255 255 255 255 255 255 255 255 255
255 255 255 255 255 255 255 255 255 255 255 255 255 255 255
255 255 255 255 255 255 255 255 255 255 255 255 255 255 255
255 255 255 255 255 255 255 255 255 255 255 255 255 255 255
255 255 255 255 255 255 255 255 255 255 255 255 255 255 255
255 255 255 255 255 255 255 255 255 255 255 255 255 255 255
255 255 255 255 255 255 255 255 255 255 255 255 255 255 255
255 255 255 255 255 255 255 255 255 255 255 255 255 255 255
255 255 255 255 255 255 255 255 255 255 255 255 255 255 255
255 255 255 255 255 255 255 255 255 255 255 255 255 255 255
255 255 255 255 255 255 255 255 255 255 255 255 255 255 255
255 255 255 255 255 255 255 255 255 255 255 255 255 255 255
255 255 255 255 255 255 255 255 255 255 255 255 255 255 255
255 255 255 255 255 255 255 255 255 255 255 255 255 255 255
255 255 255 255 255 255 255 255 255 255 255 255 255 255 255
255 255 255 255 255 255 255 255 255 255 255 255 255 255 255
255 255 255 255 255 255 255 255 255 255 255 255 255 255 255
255 255 255 255 255 255 255 255 255 255 255 255 255 255 255
255 255 255 255 255 255 255 255 255 255 255 255 255 255 255
255 255 255 255 255 255 255 255 255 255 255 255 255 255 255
255 255 255 255 255 255 255 255 255 255 255 255 255 255 255
255 255 255 255 255 255 255 255 255 255 255 255 255 255 255
255 255 255 255 255 255 255 255 255 255 255 255 255 255 255
255 255 255 255 255 255 255 255 255 255 255 255 255 255 255
255 255 255 255 255 255 255 255 255 255 255 255 255 255 255
255 255 255 255 255 255 255 255 255 255 255 255 255 255 255
255 255 255 255 255 255 255 255 255 255 255 255 254 255 255
252 255 253 251 255 253 252 255 253 254 255 253 254 255 253
255 255 253 255 254 255 255 254 255 255 254 255 255 254 255
255 254 255 255 254 255 255 254 255 255 253 254 255 252 255
255 252 255 255 254 255 255 255 255 253 253 255 254 254 255
254 254 254 250 252 251 250 252 249 253 255 252 247 247 245
244 245 240 245 245 243 251 250 248 255 251 250 253 249 248
251 247 246 250 249 247 253 253 253 251 253 252 250 250 252
248 250 249 249 251 250 251 253 252 253 253 253 254 254 252
250 250 248 251 251 249 253 253 251 255 255 253 255 255 251
255 255 251 255 255 251 254 253 251 255 253 255 255 253 255
255 253 255 255 253 255 255 253 255 255 251 255 252 247 253
251 246 252 255 252 255 255 252 255 255 253 255 255 253 255
255 253 255 255 253 255 255 253 255 255 253 255 255 253 255
255 254 252 254 254 252 254 254 252 254 254 252 253 255 252
253 255 254 253 255 254 251 255 254 252 255 255 252 255 255
251 255 255 251 255 255 251 255 255 249 255 255 250 255 255
255 255 255 255 254 255 255 254 255 255 254 255 255 254 255
255 254 255 255 254 255 255 254 255 255 254 255 255 254 255
255 254 255 255 253 254 255 253 254 254 252 253 254 252 253
253 253 251 252 255 248 250 255 246 250 255 246 249 255 248
246 255 247 245 255 248 245 255 250 245 255 250 250 255 255
252 255 255 252 250 255 248 241 249 254 242 252 255 246 255
255 235 250 246 214 237 189 140 172 154 93 134 119 51 98 119 44 100
142 56 121 157 60 137 157 51 139 155 41 137 171 50 156 171 44 157
175 46 164 184 52 174 182 49 174 173 40 167 169 36 163 170 42 165
168 45 161 166 44 155 166 44 155 167 45 154 169 46 153 169 46 152
166 43 147 164 42 141 165 43 142 165 45 142 166 47 141 166 47 141
165 46 138 162 45 136 159 42 133 154 41 129 144 41 120 133 35 108
121 25 97 112 20 87 108 18 82 102 16 77 95 14 72 90 11 66 79 2 56
78 4 57 79 5 58 78 5 58 77 4 59 76 3 58 74 1 57 74 0 56 88 6 68
94 8 71 101 12 78 105 16 84 111 20 90 119 25 99 129 31 108 137 35 118
140 34 122 146 37 130 155 40 141 164 45 149 169 47 156 172 48 160
174 47 164 173 46 163 168 45 161 168 47 162 169 48 163 170 47 164
170 45 163 172 42 164 174 41 166 176 39 168 185 46 175 181 40 171
178 34 166 174 28 161 169 23 156 171 24 157 181 34 167 191 45 178
188 44 175 189 49 174 193 53 175 194 60 175 193 63 169 183 62 159
160 50 137 137 39 114 114 29 94 129 59 113 167 110 153 213 169 202
244 214 240 253 234 253 246 235 249 236 233 242 248 252 253
247 255 253 252 255 255 253 255 254 253 251 252 253 249 250
255 247 250 255 247 250 255 249 252 255 251 253 255 251 253
254 252 253 252 254 253 249 255 253 249 255 253 248 254 252
252 254 253 253 253 253 252 252 252 252 252 252 253 253 253
253 253 253 254 254 254 255 255 255 255 255 255 255 255 255
255 255 255 255 255 255 255 255 255 255 255 255 255 255 255
255 255 255 255 255 255 255 255 255 255 255 255 255 255 255
255 255 255 255 255 255 255 255 255 255 255 255 255 255 255
255 255 255 255 255 255 255 255 255 255 255 255 255 255 255
255 255 255 255 255 255 255 255 255 255 255 255 255 255 255
255 255 255 255 255 255 255 255 255 255 255 255 255 255 255
255 255 255 255 255 255 255 255 255 255 255 255 255 255 255
255 255 255 255 255 255 255 255 255 255 255 255 255 255 255
255 255 255 255 255 255 255 255 255 255 255 255 255 255 255
255 255 255 255 255 255 255 255 255 255 255 255 255 255 255
255 255 255 255 255 255 255 255 255 255 255 255 255 255 255
255 255 255 255 255 255 255 255 255 255 255 255 255 255 255
255 255 255 255 255 255 255 255 255 255 255 255 255 255 255
255 255 255 255 255 255 255 255 255 255 255 255 255 255 255
255 255 255 255 255 255 255 255 255 255 255 255 255 255 255
255 255 255 255 255 255 255 255 255 255 255 255 255 255 255
255 255 255 255 255 255 255 255 255 255 255 255 255 255 255
255 255 255 255 255 255 255 255 255 255 255 255 255 255 255
255 255 255 255 255 255 255 255 255 255 255 255 255 255 255
255 255 255 255 255 255 255 255 255 255 255 255 255 255 255
255 255 255 255 255 255 255 255 255 255 255 255 255 255 255
255 255 255 255 255 255 255 255 255 255 255 255 255 255 255
255 255 255 255 255 255 255 255 255 255 255 255 255 255 255
255 255 255 255 255 255 255 255 255 255 255 255 255 255 255
255 255 255 255 255 255 255 255 255 255 255 255 255 255 255
255 255 255 255 255 255 255 255 255 255 255 255 255 255 255
255 255 255 255 255 255 255 255 255 255 255 255 255 255 255
255 255 255 255 255 255 255 255 255 255 255 255 255 255 255
255 255 255 255 255 255 255 255 255 255 255 255 255 255 255
255 255 255 255 255 255 255 255 255 255 255 255 254 255 255
252 255 253 252 255 253 252 255 253 254 255 253 255 255 253
255 255 253 255 254 255 255 254 255 255 254 255 255 254 255
255 254 255 255 254 255 255 253 255 255 253 255 255 253 255
255 253 255 254 252 255 252 252 254 255 255 255 255 255 255
254 255 255 253 255 254 252 254 251 254 255 253 255 255 253
252 253 248 251 250 248 252 251 247 253 249 248 252 248 245
255 251 250 255 255 253 253 253 253 253 255 254 254 255 255
254 255 255 254 255 255 254 255 255 255 255 253 255 255 253
255 255 253 255 255 253 255 255 253 255 255 253 255 255 253
255 255 251 255 255 253 255 255 253 255 253 255 255 250 255
255 248 253 255 248 253 255 251 255 255 253 255 255 253 255
255 253 255 255 253 255 255 254 255 255 253 255 255 253 255
255 253 255 255 253 255 255 252 255 254 251 255 255 253 255
255 254 252 254 254 254 254 254 252 253 255 254 253 255 252
253 255 254 253 255 252 252 255 255 252 255 255 252 255 255
252 255 255 251 255 255 251 255 255 249 255 255 251 255 255
254 255 255 255 255 255 255 255 255 255 255 255 255 254 255
255 254 255 255 254 255 255 254 255 255 254 255 255 254 255
255 254 255 255 253 254 255 253 254 253 253 255 253 253 255
252 254 251 252 255 246 250 255 244 249 255 246 246 255 247
246 255 247 245 255 248 246 255 250 247 253 253 245 249 252
251 248 255 253 242 255 255 239 255 255 241 255 251 221 245
197 163 190 145 98 132 117 49 98 122 41 99 134 45 111 152 56 128
158 53 137 153 38 133 155 32 136 169 38 150 172 37 157 179 40 165
182 43 170 180 41 168 174 38 164 172 38 163 172 39 164 171 41 163
169 45 159 167 45 154 166 45 151 167 46 151 168 48 148 166 48 145
163 45 139 158 44 132 162 50 136 159 50 133 153 48 130 147 44 125
138 37 115 127 30 107 120 23 100 111 21 93 99 19 80 90 15 71 89 16 69
102 32 82 127 61 107 150 87 130 161 103 143 163 107 144 186 132 166
188 137 170 192 141 174 196 146 181 197 147 182 194 147 181
194 144 179 192 140 178 189 128 170 183 117 163 166 100 146
143 75 124 119 49 101 100 27 82 91 13 73 86 5 71 105 19 90 116 25 102
132 34 117 147 44 133 157 50 144 163 51 149 164 49 150 163 46 150
159 42 147 161 44 151 165 45 155 167 46 159 170 45 162 173 45 166
177 44 169 180 43 172 173 33 164 178 36 170 180 36 170 177 31 166
175 27 163 176 28 164 178 30 166 181 30 167 192 41 178 196 46 180
194 47 177 189 45 169 190 51 168 197 65 175 198 73 175 189 74 167
169 66 149 131 41 113 111 37 98 143 85 135 202 157 196 244 214 242
255 234 255 250 239 253 249 248 254 248 252 255 250 254 255
252 254 253 252 252 250 252 251 249 252 251 247 255 251 248
255 251 251 255 252 251 255 253 254 255 253 254 253 255 254
251 255 254 249 255 253 249 255 253 252 254 253 253 253 253
252 252 252 252 252 252 253 253 253 253 253 253 254 254 254
255 255 255 255 255 255 255 255 255 255 255 255 255 255 255
255 255 255 255 255 255 255 255 255 255 255 255 255 255 255
255 255 255 255 255 255 255 255 255 255 255 255 255 255 255
255 255 255 255 255 255 255 255 255 255 255 255 255 255 255
255 255 255 255 255 255 255 255 255 255 255 255 255 255 255
255 255 255 255 255 255 255 255 255 255 255 255 255 255 255
255 255 255 255 255 255 255 255 255 255 255 255 255 255 255
255 255 255 255 255 255 255 255 255 255 255 255 255 255 255
255 255 255 255 255 255 255 255 255 255 255 255 255 255 255
255 255 255 255 255 255 255 255 255 255 255 255 255 255 255
255 255 255 255 255 255 255 255 255 255 255 255 255 255 255
255 255 255 255 255 255 255 255 255 255 255 255 255 255 255
255 255 255 255 255 255 255 255 255 255 255 255 255 255 255
255 255 255 255 255 255 255 255 255 255 255 255 255 255 255
255 255 255 255 255 255 255 255 255 255 255 255 255 255 255
255 255 255 255 255 255 255 255 255 255 255 255 255 255 255
255 255 255 255 255 255 255 255 255 255 255 255 255 255 255
255 255 255 255 255 255 255 255 255 255 255 255 255 255 255
255 255 255 255 255 255 255 255 255 255 255 255 255 255 255
255 255 255 255 255 255 255 255 255 255 255 255 255 255 255
255 255 255 255 255 255 255 255 255 255 255 255 255 255 255
255 255 255 255 255 255 255 255 255 255 255 255 255 255 255
255 255 255 255 255 255 255 255 255 255 255 255 255 255 255
255 255 255 255 255 255 255 255 255 255 255 255 255 255 255
255 255 255 255 255 255 255 255 255 255 255 255 255 255 255
255 255 255 255 255 255 255 255 255 255 255 255 255 255 255
255 255 255 255 255 255 255 255 255 255 255 255 255 255 255
255 255 255 255 255 255 255 255 255 255 255 255 255 255 255
255 255 255 255 255 255 255 255 255 255 255 255 255 255 255
255 255 255 255 255 255 255 255 255 255 255 255 255 255 255
255 255 255 255 255 255 255 255 255 254 255 255 254 255 255
254 255 255 255 255 255 255 255 255 255 255 255 255 255 255
255 255 255 255 255 255 255 254 255 255 254 255 255 254 255
255 254 255 255 254 255 255 254 255 255 254 255 255 255 255
255 255 255 255 255 255 255 255 255 255 255 255 255 255 255
255 255 255 255 255 255 254 254 254 254 254 252 254 254 254
254 254 252 255 253 254 255 254 252 255 253 254 254 254 254
255 255 255 255 255 255 255 255 255 255 255 255 255 255 255
255 255 255 255 255 255 255 255 255 255 255 255 255 255 255
255 255 255 255 255 255 255 255 255 255 255 253 255 255 255
255 255 255 255 254 255 255 254 255 255 254 255 255 254 255
255 254 255 255 254 255 255 254 255 255 254 255 255 254 255
255 255 255 255 254 255 255 255 255 255 255 255 255 255 255
255 255 255 255 255 255 255 255 255 255 255 255 255 255 255
255 255 255 255 255 255 255 255 255 255 255 255 255 255 255
254 255 255 254 255 255 254 255 255 254 255 255 254 255 255
254 255 255 254 255 255 252 255 255 251 255 255 251 255 255
252 255 255 254 255 255 255 255 255 255 254 255 255 254 255
255 254 255 255 251 253 254 250 251 255 254 255 255 254 255
255 255 255 252 253 255 247 251 254 249 253 252 248 253 246
252 255 246 250 255 247 242 252 243 247 255 251 249 255 255
250 255 255 250 251 255 255 250 255 249 236 254 255 234 255
255 228 255 220 174 213 145 92 134 104 42 89 108 35 91 151 57 131
163 55 140 164 53 145 165 47 144 169 43 150 176 43 158 180 40 163
177 34 162 173 26 158 179 32 165 180 34 167 177 33 164 176 36 161
181 43 165 182 47 168 177 46 162 179 53 163 167 44 150 164 42 143
169 49 146 168 51 142 157 43 128 150 41 120 149 47 120 139 44 110
128 40 101 115 35 94 106 33 89 93 25 82 86 26 80 97 40 93 110 61 108
146 106 140 162 128 153 189 157 181 212 183 205 228 199 219
238 211 230 245 221 237 250 228 241 255 240 252 255 243 254
255 247 255 255 250 255 255 250 255 255 249 255 255 247 254
255 244 252 255 236 251 255 224 242 243 211 232 235 201 225
225 191 216 206 170 198 181 140 174 162 116 155 124 71 117 104 44 96
87 19 78 92 16 81 111 28 98 131 41 115 141 47 125 148 46 130
163 49 144 148 29 131 159 38 143 171 48 155 164 37 150 170 41 159
185 53 175 180 44 170 179 40 169 182 41 172 180 39 170 179 35 167
181 37 168 186 42 173 187 42 171 183 38 169 190 40 174 191 41 175
189 42 174 190 45 174 189 49 174 192 54 176 192 57 177 190 62 175
187 65 174 171 61 160 138 42 129 137 55 129 133 70 125 172 124 164
253 217 245 255 235 255 255 243 255 255 249 255 248 247 253
246 247 249 251 255 250 249 255 246 246 254 241 252 255 246
254 255 249 254 255 250 255 253 254 255 253 255 253 254 255
251 255 255 250 255 255 250 255 255 253 255 254 254 254 254
253 253 253 253 253 253 254 254 254 254 254 254 255 255 255
255 255 255 255 255 255 255 255 255 255 255 255 255 255 255
255 255 255 255 255 255 255 255 255 255 255 255 255 255 255
255 255 255 255 255 255 255 255 255 255 255 255 255 255 255
255 255 255 255 255 255 255 255 255 255 255 255 255 255 255
255 255 255 255 255 255 255 255 255 255 255 255 255 255 255
255 255 255 255 255 255 255 255 255 255 255 255 255 255 255
255 255 255 255 255 255 255 255 255 255 255 255 255 255 255
255 255 255 255 255 255 255 255 255 255 255 255 255 255 255
255 255 255 255 255 255 255 255 255 255 255 255 255 255 255
255 255 255 255 255 255 255 255 255 255 255 255 255 255 255
255 255 255 255 255 255 255 255 255 255 255 255 255 255 255
255 255 255 255 255 255 255 255 255 255 255 255 255 255 255
255 255 255 255 255 255 255 255 255 255 255 255 255 255 255
255 255 255 255 255 255 255 255 255 255 255 255 255 255 255
255 255 255 255 255 255 255 255 255 255 255 255 255 255 255
255 255 255 255 255 255 255 255 255 255 255 255 255 255 255
255 255 255 255 255 255 255 255 255 255 255 255 255 255 255
255 255 255 255 255 255 255 255 255 255 255 255 255 255 255
255 255 255 255 255 255 255 255 255 255 255 255 255 255 255
255 255 255 255 255 255 255 255 255 255 255 255 255 255 255
255 255 255 255 255 255 255 255 255 255 255 255 255 255 255
255 255 255 255 255 255 255 255 255 255 255 255 255 255 255
255 255 255 255 255 255 255 255 255 255 255 255 255 255 255
255 255 255 255 255 255 255 255 255 255 255 255 255 255 255
255 255 255 255 255 255 255 255 255 255 255 255 255 255 255
255 255 255 255 255 255 255 255 255 255 255 255 255 255 255
255 255 255 255 255 255 255 255 255 255 255 255 255 255 255
255 255 255 255 255 255 255 255 255 255 255 255 255 255 255
255 255 255 255 255 255 255 255 255 255 255 255 255 255 255
255 255 255 255 255 255 255 255 255 255 255 255 255 255 255
255 255 255 255 255 255 255 255 255 255 255 255 255 255 255
255 255 255 255 255 255 255 255 255 255 255 255 255 255 255
255 255 255 255 255 255 255 255 255 255 255 255 255 255 255
255 255 255 255 255 255 255 255 255 255 255 255 255 255 255
255 255 255 255 255 255 255 255 255 255 255 255 255 255 255
255 255 255 255 255 255 254 254 254 254 254 254 254 254 254
254 254 254 254 254 254 254 254 254 254 254 254 254 254 254
255 255 255 255 255 255 255 255 255 255 255 255 255 255 255
255 255 255 255 255 255 255 255 255 255 255 255 255 255 255
255 255 255 255 255 255 255 255 255 255 255 255 255 255 255
255 255 255 255 255 255 255 255 255 255 255 255 255 255 255
255 255 255 255 255 255 255 255 255 255 255 255 255 255 255
255 255 255 255 255 255 255 255 255 255 255 255 255 255 255
255 255 255 255 255 255 255 255 255 255 255 255 255 255 255
255 255 255 255 255 255 255 255 255 255 255 255 255 255 255
255 255 255 255 255 255 255 255 255 255 255 255 255 255 255
255 255 255 255 255 255 254 255 255 252 255 255 251 255 255
252 255 255 254 255 255 255 255 255 255 254 255 255 254 255
255 254 255 255 254 255 255 254 255 253 253 255 252 253 255
249 250 254 241 245 248 241 246 250 245 251 251 248 253 247
238 241 232 250 255 249 252 255 253 250 254 253 238 242 245
248 247 255 255 248 255 255 237 255 255 234 255 229 189 226
159 106 152 111 46 100 115 40 99 134 52 114 146 53 124 159 49 138
170 50 148 175 49 156 174 46 157 178 43 163 183 43 168 184 38 171
182 31 168 188 37 174 187 36 173 184 37 170 185 42 170 184 44 167
179 44 162 173 40 155 165 37 146 158 35 139 165 47 144 165 50 143
155 43 129 144 37 117 140 38 111 135 39 103 126 38 96 97 17 68
89 20 65 95 34 76 117 65 104 151 106 145 186 148 185 217 183 220
233 206 237 230 211 230 236 222 235 247 235 245 255 244 254
255 248 255 255 248 255 255 251 255 255 252 254 252 248 249
252 251 249 253 254 249 255 255 251 254 255 250 253 255 249
251 254 245 251 250 245 255 250 248 255 243 245 251 238 245
254 241 248 255 245 255 255 243 255 252 231 250 243 218 240
227 194 223 209 169 204 173 125 167 129 71 119 96 32 84 91 20 76
110 32 92 134 45 113 146 41 125 170 55 146 159 44 139 149 30 130
166 43 149 171 45 155 163 34 150 170 38 158 176 40 164 178 39 166
175 36 165 172 31 159 174 34 159 180 40 165 183 40 164 182 37 164
184 37 169 184 37 170 184 39 170 184 40 171 185 44 172 188 47 175
190 51 178 190 54 180 194 62 184 187 64 180 168 57 160 147 51 138
120 43 111 138 76 127 208 161 197 245 211 238 255 232 255 254 243 255
248 242 254 243 243 245 248 253 246 246 255 241 244 255 239
249 255 244 251 255 247 254 255 250 255 253 254 254 254 255
254 253 255 251 255 255 250 255 255 250 255 255 253 255 254
254 254 254 253 253 253 253 253 253 254 254 254 254 254 254
255 255 255 255 255 255 255 255 255 255 255 255 255 255 255
255 255 255 255 255 255 255 255 255 255 255 255 255 255 255
255 255 255 255 255 255 255 255 255 255 255 255 255 255 255
255 255 255 255 255 255 255 255 255 255 255 255 255 255 255
255 255 255 255 255 255 255 255 255 255 255 255 255 255 255
255 255 255 255 255 255 255 255 255 255 255 255 255 255 255
255 255 255 255 255 255 255 255 255 255 255 255 255 255 255
255 255 255 255 255 255 255 255 255 255 255 255 255 255 255
255 255 255 255 255 255 255 255 255 255 255 255 255 255 255
255 255 255 255 255 255 255 255 255 255 255 255 255 255 255
255 255 255 255 255 255 255 255 255 255 255 255 255 255 255
255 255 255 255 255 255 255 255 255 255 255 255 255 255 255
255 255 255 255 255 255 255 255 255 255 255 255 255 255 255
255 255 255 255 255 255 255 255 255 255 255 255 255 255 255
255 255 255 255 255 255 255 255 255 255 255 255 255 255 255
255 255 255 255 255 255 255 255 255 255 255 255 255 255 255
255 255 255 255 255 255 255 255 255 255 255 255 255 255 255
255 255 255 255 255 255 255 255 255 255 255 255 255 255 255
255 255 255 255 255 255 255 255 255 255 255 255 255 255 255
255 255 255 255 255 255 255 255 255 255 255 255 255 255 255
255 255 255 255 255 255 255 255 255 255 255 255 255 255 255
255 255 255 255 255 255 255 255 255 255 255 255 255 255 255
255 255 255 255 255 255 255 255 255 255 255 255 255 255 255
255 255 255 255 255 255 255 255 255 255 255 255 255 255 255
255 255 255 255 255 255 255 255 255 255 255 255 255 255 255
255 255 255 255 255 255 255 255 255 255 255 255 255 255 255
255 255 255 255 255 255 255 255 255 255 255 255 255 255 255
255 255 255 255 255 255 255 255 255 255 255 255 255 255 255
255 255 255 255 255 255 255 255 255 255 255 255 255 255 255
255 255 255 255 255 255 255 255 255 255 255 255 255 255 255
255 255 255 255 255 255 255 255 255 255 255 255 255 255 255
255 255 255 255 255 255 255 255 255 255 255 255 255 255 255
255 255 255 255 255 255 255 255 255 255 255 255 255 255 255
255 255 255 255 255 255 255 255 255 255 255 255 255 255 255
255 255 255 255 255 255 255 255 255 255 255 255 255 255 255
255 255 255 255 255 255 255 255 255 254 254 254 254 254 254
254 254 254 254 254 254 254 254 254 254 254 254 254 254 254
254 254 254 255 255 255 255 255 255 255 255 255 255 255 255
255 255 255 255 255 255 255 255 255 255 255 255 255 255 255
255 255 255 255 255 255 255 255 255 255 255 255 255 255 255
255 255 255 255 255 255 255 255 255 255 255 255 255 255 255
255 255 255 255 255 255 255 255 255 255 255 255 255 255 255
255 255 255 255 255 255 255 255 255 255 255 255 255 255 255
255 255 255 255 255 255 255 255 255 255 255 255 255 255 255
255 255 255 255 255 255 255 255 255 255 255 255 255 255 255
255 255 255 255 255 255 255 255 255 255 255 255 255 255 255
255 255 255 255 255 255 255 255 255 255 255 255 255 254 255
255 254 255 255 254 255 255 255 255 255 254 255 255 254 255
255 254 255 255 255 253 255 255 253 252 254 251 250 254 253
248 254 252 245 251 251 241 250 249 242 252 253 248 255 255
250 252 249 255 255 251 245 243 244 233 231 234 255 250 255
255 251 255 250 236 253 255 232 255 238 203 236 156 109 151 94 36 86
104 33 91 136 54 120 144 51 122 142 41 117 150 43 125 163 48 141
170 50 150 175 49 157 177 46 160 178 43 163 181 41 166 180 35 166
177 30 163 179 32 165 173 27 160 170 27 155 170 30 155 170 35 153
173 42 154 181 53 162 187 67 167 170 59 151 161 58 141 148 47 127
134 36 109 123 31 98 113 28 87 99 21 71 86 15 59 124 59 99 151 95 130
190 143 175 223 182 212 243 209 236 255 225 251 255 234 255
255 238 255 255 248 255 255 250 255 255 250 255 255 250 255
255 251 255 255 249 255 255 249 253 254 248 250 255 251 252
253 252 250 253 254 249 253 254 249 252 255 248 251 254 247
251 254 247 251 252 246 255 254 250 255 248 245 249 243 243
249 243 243 255 246 251 255 247 255 255 244 254 255 238 252
255 240 255 255 236 255 255 219 250 233 187 223 201 149 188
167 108 152 131 68 115 109 34 90 115 22 92 142 39 118 141 36 120
142 34 120 162 48 143 165 46 146 159 38 144 174 47 160 177 46 162
176 43 162 172 37 158 170 32 154 171 31 153 176 36 158 180 38 160
179 36 160 180 35 164 179 35 166 180 36 167 180 39 167 182 41 169
186 45 173 189 48 178 190 51 178 191 57 182 189 61 180 187 71 178
160 59 151 127 43 118 121 52 109 159 104 146 221 180 214 252 226 253
255 240 255 252 241 255 244 242 245 248 251 244 248 255 241
246 254 239 250 255 243 253 255 247 254 255 250 255 253 254
254 254 255 254 253 255 251 255 255 248 255 255 248 255 255
253 255 254 254 254 254 253 253 253 253 253 253 254 254 254
254 254 254 255 255 255 255 255 255 255 255 255 255 255 255
255 255 255 255 255 255 255 255 255 255 255 255 255 255 255
255 255 255 255 255 255 255 255 255 255 255 255 255 255 255
255 255 255 255 255 255 255 255 255 255 255 255 255 255 255
255 255 255 255 255 255 255 255 255 255 255 255 255 255 255
255 255 255 255 255 255 255 255 255 255 255 255 255 255 255
255 255 255 255 255 255 255 255 255 255 255 255 255 255 255
255 255 255 255 255 255 255 255 255 255 255 255 255 255 255
255 255 255 255 255 255 255 255 255 255 255 255 255 255 255
255 255 255 255 255 255 255 255 255 255 255 255 255 255 255
255 255 255 255 255 255 255 255 255 255 255 255 255 255 255
255 255 255 255 255 255 255 255 255 255 255 255 255 255 255
255 255 255 255 255 255 255 255 255 255 255 255 255 255 255
255 255 255 255 255 255 255 255 255 255 255 255 255 255 255
255 255 255 255 255 255 255 255 255 255 255 255 255 255 255
255 255 255 255 255 255 255 255 255 255 255 255 255 255 255
255 255 255 255 255 255 255 255 255 255 255 255 255 255 255
255 255 255 255 255 255 255 255 255 255 255 255 255 255 255
255 255 255 255 255 255 255 255 255 255 255 255 255 255 255
255 255 255 255 255 255 255 255 255 255 255 255 255 255 255
255 255 255 255 255 255 255 255 255 255 255 255 255 255 255
255 255 255 255 255 255 255 255 255 255 255 255 255 255 255
255 255 255 255 255 255 255 255 255 255 255 255 255 255 255
255 255 255 255 255 255 255 255 255 255 255 255 255 255 255
255 255 255 255 255 255 255 255 255 255 255 255 255 255 255
255 255 255 255 255 255 255 255 255 255 255 255 255 255 255
255 255 255 255 255 255 255 255 255 255 255 255 255 255 255
255 255 255 255 255 255 255 255 255 255 255 255 255 255 255
255 255 255 255 255 255 255 255 255 255 255 255 255 255 255
255 255 255 255 255 255 255 255 255 255 255 255 255 255 255
255 255 255 255 255 255 255 255 255 255 255 255 255 255 255
255 255 255 255 255 255 255 255 255 255 255 255 255 255 255
255 255 255 255 255 255 255 255 255 255 255 255 255 255 255
255 255 255 255 255 255 255 255 255 255 255 255 255 255 255
255 255 255 255 255 255 255 255 255 255 255 255 255 255 255
255 255 255 255 255 255 255 255 255 255 255 255 255 255 255
255 255 255 255 255 255 255 255 255 255 255 255 255 255 255
255 255 255 255 255 255 255 255 255 255 255 255 255 255 255
255 255 255 255 255 255 255 255 255 255 255 255 255 255 255
255 255 255 255 255 255 255 255 255 255 255 255 255 255 255
255 255 255 255 255 255 255 255 255 255 255 255 255 255 255
255 255 255 255 255 255 255 255 255 255 255 255 255 255 255
255 255 255 255 255 255 255 255 255 255 255 255 255 255 255
255 255 255 255 255 255 255 255 255 255 255 255 255 255 255
255 255 255 255 255 255 255 255 255 255 255 255 255 255 255
255 255 255 255 255 255 255 255 255 255 255 255 255 255 255
255 255 255 255 255 255 255 255 255 255 255 255 255 254 255
255 253 255 255 253 255 255 253 255 255 254 255 255 254 255
255 255 253 254 255 253 252 255 253 246 251 247 248 254 250
251 255 255 249 255 255 248 255 255 244 254 253 244 254 255
249 254 255 251 249 252 252 246 250 255 251 255 255 247 255
242 224 240 246 221 243 228 195 226 175 130 169 108 52 99 107 39 96
119 40 105 143 53 125 158 55 136 156 46 132 163 46 135 174 55 149
168 48 148 170 47 153 173 47 155 174 43 157 175 40 160 174 35 160
174 31 159 172 28 159 168 24 155 176 35 163 182 44 166 176 43 160
166 38 149 161 38 144 163 43 143 159 48 140 153 56 135 132 42 112
116 31 96 110 30 89 102 28 79 106 39 83 141 81 117 181 128 158
212 166 192 239 200 221 255 231 250 255 241 255 255 240 255
255 241 255 255 243 255 255 242 255 255 243 255 254 242 252
252 240 250 251 241 249 255 245 253 255 249 255 255 250 254
255 251 252 255 253 254 254 253 251 253 254 249 252 253 248
250 252 247 250 253 246 251 254 247 252 253 247 249 249 241
248 245 238 242 241 236 241 240 235 242 241 237 248 244 243
252 246 248 255 247 252 254 241 251 255 241 255 255 237 255
255 235 255 255 233 255 255 213 243 207 160 194 164 106 147 122 45 99
101 12 76 114 23 92 144 48 122 144 43 123 147 41 129 169 55 151
178 59 161 179 53 161 177 49 162 175 42 157 173 38 156 174 37 153
176 37 154 178 36 154 177 35 157 177 37 162 177 36 164 178 37 165
180 40 165 183 42 170 186 45 173 189 48 178 191 50 180 192 53 182
182 50 172 191 68 182 175 65 164 157 64 145 134 55 121 123 59 111
182 134 174 248 217 248 255 241 255 255 247 255 250 245 249
250 251 245 249 255 241 248 254 240 250 255 242 254 255 247
254 255 250 255 253 254 255 253 255 254 253 255 251 255 255
248 255 255 248 255 255 253 255 254 254 254 254 253 253 253
253 253 253 254 254 254 254 254 254 255 255 255 255 255 255
255 255 255 255 255 255 255 255 255 255 255 255 255 255 255
255 255 255 255 255 255 255 255 255 255 255 255 255 255 255
255 255 255 255 255 255 255 255 255 255 255 255 255 255 255
255 255 255 255 255 255 255 255 255 255 255 255 255 255 255
255 255 255 255 255 255 255 255 255 255 255 255 255 255 255
255 255 255 255 255 255 255 255 255 255 255 255 255 255 255
255 255 255 255 255 255 255 255 255 255 255 255 255 255 255
255 255 255 255 255 255 255 255 255 255 255 255 255 255 255
255 255 255 255 255 255 255 255 255 255 255 255 255 255 255
255 255 255 255 255 255 255 255 255 255 255 255 255 255 255
255 255 255 255 255 255 255 255 255 255 255 255 255 255 255
255 255 255 255 255 255 255 255 255 255 255 255 255 255 255
255 255 255 255 255 255 255 255 255 255 255 255 255 255 255
255 255 255 255 255 255 255 255 255 255 255 255 255 255 255
255 255 255 255 255 255 255 255 255 255 255 255 255 255 255
255 255 255 255 255 255 255 255 255 255 255 255 255 255 255
255 255 255 255 255 255 255 255 255 255 255 255 255 255 255
255 255 255 255 255 255 255 255 255 255 255 255 255 255 255
255 255 255 255 255 255 255 255 255 255 255 255 255 255 255
255 255 255 255 255 255 255 255 255 255 255 255 255 255 255
255 255 255 255 255 255 255 255 255 255 255 255 255 255 255
255 255 255 255 255 255 255 255 255 255 255 255 255 255 255
255 255 255 255 255 255 255 255 255 255 255 255 255 255 255
255 255 255 255 255 255 255 255 255 255 255 255 255 255 255
255 255 255 255 255 255 255 255 255 255 255 255 255 255 255
255 255 255 255 255 255 255 255 255 255 255 255 255 255 255
255 255 255 255 255 255 255 255 255 255 255 255 255 255 255
255 255 255 255 255 255 255 255 255 255 255 255 255 255 255
255 255 255 255 255 255 255 255 255 255 255 255 255 255 255
255 255 255 255 255 255 255 255 255 255 255 255 255 255 255
255 255 255 255 255 255 255 255 255 255 255 255 255 255 255
255 255 255 255 255 255 255 255 255 255 255 255 255 255 255
255 255 255 255 255 255 255 255 255 255 255 255 255 255 255
255 255 255 255 255 255 255 255 255 255 255 255 255 255 255
255 255 255 255 255 255 255 255 255 255 255 255 255 255 255
255 255 255 255 255 255 255 255 255 255 255 255 255 255 255
255 255 255 255 255 255 255 255 255 255 255 255 255 255 255
255 255 255 255 255 255 255 255 255 255 255 255 255 255 255
255 255 255 255 255 255 255 255 255 255 255 255 255 255 255
255 255 255 255 255 255 255 255 255 255 255 255 255 255 255
255 255 255 255 255 255 255 255 255 255 255 255 255 255 255
255 255 255 255 255 255 255 255 255 255 255 255 255 255 255
255 255 255 255 255 255 255 255 255 255 255 255 255 255 255
255 255 255 255 255 255 255 255 255 255 255 255 255 255 255
255 255 255 255 255 255 255 255 255 255 255 255 255 255 255
255 255 255 255 255 255 255 255 255 255 255 255 255 255 255
255 255 255 255 254 255 255 252 255 255 251 255 255 252 255
255 254 253 255 255 253 254 255 251 252 255 251 249 255 251
247 255 249 248 255 253 248 255 255 249 255 255 247 255 255
247 253 253 245 250 253 246 247 252 251 241 252 255 247 255
254 233 252 250 222 245 245 210 240 187 143 179 117 61 108 99 32 86
113 34 99 138 48 120 155 53 136 160 47 137 170 49 146 187 58 161
187 54 161 173 40 147 172 46 153 169 46 153 169 43 153 172 41 157
172 39 158 174 36 158 174 35 160 175 36 161 179 40 165 184 51 170
180 49 163 164 38 146 157 38 140 160 46 142 156 47 138 140 41 121
117 37 100 109 39 93 96 30 78 91 30 72 126 74 110 192 148 175
241 203 224 255 224 239 255 234 245 255 240 247 255 240 246
252 237 242 254 242 246 255 251 255 255 251 255 255 251 255
255 250 255 255 247 255 254 244 252 255 245 253 255 249 255
255 253 255 255 253 255 255 253 254 255 253 254 255 254 252
252 252 250 251 252 247 250 252 247 250 252 247 251 254 247
251 254 245 254 255 245 253 255 242 250 253 242 249 252 241
248 251 242 250 253 246 254 255 251 255 255 253 250 246 245
251 245 247 250 237 244 247 230 240 255 233 246 255 236 251
253 222 240 240 197 224 192 132 170 135 66 111 108 34 85 117 38 95
119 32 100 132 38 114 156 54 138 164 53 145 171 52 152 171 48 152
172 44 153 176 44 154 179 42 156 178 41 155 177 38 153 176 37 154
176 38 160 177 38 163 177 38 163 179 41 163 181 42 167 185 45 170
190 47 175 191 47 178 197 53 184 181 42 169 193 61 180 181 61 167
174 69 161 142 51 128 102 23 88 147 88 136 230 193 227 251 229 250
255 247 255 255 247 252 252 251 246 253 255 243 252 255 242
253 255 243 254 255 247 255 254 250 255 253 254 255 253 255
254 253 255 251 255 255 248 255 255 248 255 255 253 255 254
254 254 254 253 253 253 253 253 253 254 254 254 254 254 254
255 255 255 255 255 255 255 255 255 255 255 255 255 255 255
255 255 255 255 255 255 255 255 255 255 255 255 255 255 255
255 255 255 255 255 255 255 255 255 255 255 255 255 255 255
255 255 255 255 255 255 255 255 255 255 255 255 255 255 255
255 255 255 255 255 255 255 255 255 255 255 255 255 255 255
255 255 255 255 255 255 255 255 255 255 255 255 255 255 255
255 255 255 255 255 255 255 255 255 255 255 255 255 255 255
255 255 255 255 255 255 255 255 255 255 255 255 255 255 255
255 255 255 255 255 255 255 255 255 255 255 255 255 255 255
255 255 255 255 255 255 255 255 255 255 255 255 255 255 255
255 255 255 255 255 255 255 255 255 255 255 255 255 255 255
255 255 255 255 255 255 255 255 255 255 255 255 255 255 255
255 255 255 255 255 255 255 255 255 255 255 255 255 255 255
255 255 255 255 255 255 255 255 255 255 255 255 255 255 255
255 255 255 255 255 255 255 255 255 255 255 255 255 255 255
255 255 255 255 255 255 255 255 255 255 255 255 255 255 255
255 255 255 255 255 255 255 255 255 255 255 255 255 255 255
255 255 255 255 255 255 255 255 255 255 255 255 255 255 255
255 255 255 255 255 255 255 255 255 255 255 255 255 255 255
255 255 255 255 255 255 255 255 255 255 255 255 255 255 255
255 255 255 255 255 255 255 255 255 255 255 255 255 255 255
255 255 255 255 255 255 255 255 255 255 255 255 255 255 255
255 255 255 255 255 255 255 255 255 255 255 255 255 255 255
255 255 255 255 255 255 255 255 255 255 255 255 255 255 255
255 255 255 255 255 255 255 255 255 255 255 255 255 255 255
255 255 255 255 255 255 255 255 255 255 255 255 255 255 255
255 255 255 255 255 255 255 255 255 255 255 255 255 255 255
255 255 255 255 255 255 255 255 255 255 255 255 255 255 255
255 255 255 255 255 255 255 255 255 255 255 255 255 255 255
255 255 255 255 255 255 255 255 255 255 255 255 255 255 255
255 255 255 255 255 255 255 255 255 255 255 255 255 255 255
255 255 255 255 255 255 255 255 255 255 255 255 255 255 255
255 255 255 255 255 255 255 255 255 255 255 255 255 255 255
255 255 255 255 255 255 255 255 255 255 255 255 255 255 255
255 255 255 255 255 255 255 255 255 255 255 255 255 255 255
255 255 255 255 255 255 255 255 255 255 255 255 255 255 255
255 255 255 255 255 255 255 255 255 255 255 255 255 255 255
255 255 255 255 255 255 255 255 255 255 255 255 255 255 255
255 255 255 255 255 255 255 255 255 255 255 255 255 255 255
255 255 255 255 255 255 255 255 255 255 255 255 255 255 255
255 255 255 255 255 255 255 255 255 255 255 255 255 255 255
255 255 255 255 255 255 255 255 255 255 255 255 255 255 255
255 255 255 255 255 255 255 255 255 255 255 255 255 255 255
255 255 255 255 255 255 255 255 255 255 255 255 255 255 255
255 255 255 255 255 255 255 255 255 255 255 255 255 255 255
255 255 255 255 255 255 255 255 255 255 255 255 255 255 255
255 255 255 255 255 255 255 255 255 255 254 255 255 252 255
255 252 253 255 252 253 255 254 253 254 255 251 252 255 251
249 255 251 248 255 251 248 255 251 248 255 253 248 255 254
249 253 254 252 253 255 255 254 255 255 250 255 252 242 253
255 234 255 247 217 245 239 202 235 194 150 186 116 63 107 89 25 77
115 39 101 133 46 115 160 61 141 154 44 133 163 43 141 183 53 159
186 50 161 174 33 148 176 32 153 191 49 167 175 44 156 169 43 153
169 41 154 173 42 158 175 42 161 176 41 162 178 43 164 181 47 168
181 50 166 175 48 161 162 41 146 151 37 135 153 44 135 157 55 139
144 47 126 119 34 101 108 41 92 81 26 66 113 63 98 197 154 182
246 211 233 239 212 227 243 223 232 255 251 255 255 248 246
255 253 249 255 255 250 255 253 248 255 250 246 255 250 247
255 248 246 253 244 245 255 251 255 255 247 255 254 244 252
252 245 252 253 247 251 254 248 252 252 247 251 250 246 247
254 252 253 254 253 251 252 252 250 252 252 250 250 252 247
251 253 248 251 254 247 252 255 246 254 255 244 254 255 244
254 255 244 249 255 241 244 252 239 242 250 239 241 249 238
242 247 240 247 250 243 251 252 247 251 250 248 249 243 243
254 243 247 255 248 252 255 243 251 255 233 246 255 218 242
223 169 201 141 83 121 92 29 72 108 35 90 125 43 107 131 39 114
149 47 131 158 47 139 161 42 142 166 41 145 174 44 152 178 44 155
179 43 154 178 39 154 178 41 157 173 38 158 172 38 159 173 38 159
174 39 160 178 40 162 181 41 166 187 42 171 189 42 174 195 48 181
185 40 171 195 56 181 183 55 168 177 62 163 149 49 135 111 23 97
145 76 133 198 156 194 233 209 231 255 243 255 255 247 253
254 251 246 254 255 243 254 255 243 255 255 244 255 255 247
255 254 250 255 253 254 255 253 255 254 253 255 251 255 255
248 255 255 248 255 255 253 255 254 254 254 254 253 253 253
253 253 253 254 254 254 254 254 254 255 255 255 255 255 255
255 255 255 255 255 255 255 255 255 255 255 255 255 255 255
255 255 255 255 255 255 255 255 255 255 255 255 255 255 255
255 255 255 255 255 255 255 255 255 255 255 255 255 255 255
255 255 255 255 255 255 255 255 255 255 255 255 255 255 255
255 255 255 255 255 255 255 255 255 255 255 255 255 255 255
255 255 255 255 255 255 255 255 255 255 255 255 255 255 255
255 255 255 255 255 255 255 255 255 255 255 255 255 255 255
255 255 255 255 255 255 255 255 255 255 255 255 255 255 255
255 255 255 255 255 255 255 255 255 255 255 255 255 255 255
255 255 255 255 255 255 255 255 255 255 255 255 255 255 255
255 255 255 255 255 255 255 255 255 255 255 255 255 255 255
255 255 255 255 255 255 255 255 255 255 255 255 255 255 255
255 255 255 255 255 255 255 255 255 255 255 255 255 255 255
255 255 255 255 255 255 255 255 255 255 255 255 255 255 255
255 255 255 255 255 255 255 255 255 255 255 255 255 255 255
255 255 255 255 255 255 255 255 255 255 255 255 255 255 255
255 255 255 255 255 255 255 255 255 255 255 255 255 255 255
255 255 255 255 255 255 255 255 255 255 255 255 255 255 255
255 255 255 255 255 255 255 255 255 255 255 255 255 255 255
255 255 255 255 255 255 255 255 255 255 255 255 255 255 255
255 255 255 255 255 255 255 255 255 255 255 255 255 255 255
255 255 255 255 255 255 255 255 255 255 255 255 255 255 255
255 255 255 255 255 255 255 255 255 255 255 255 255 255 255
255 255 255 255 255 255 255 255 255 255 255 255 255 255 255
255 255 255 255 255 255 255 255 255 255 255 255 255 255 255
255 255 255 255 255 255 255 255 255 255 255 255 255 255 255
255 255 255 255 255 255 255 255 255 255 255 255 255 255 255
255 255 255 255 255 255 255 255 255 255 255 255 255 255 255
255 255 255 255 255 255 255 255 255 255 255 255 255 255 255
255 255 255 255 255 255 255 255 255 255 255 255 255 255 255
255 255 255 255 255 255 255 255 255 255 255 255 255 255 255
255 255 255 255 255 255 255 255 255 255 255 255 255 255 255
255 255 255 255 255 255 255 255 255 255 255 255 255 255 255
255 255 255 255 255 255 255 255 255 255 255 255 255 255 255
255 255 255 255 255 255 255 255 255 255 255 255 255 255 255
255 255 255 255 255 255 255 255 255 255 255 255 255 255 255
255 255 255 255 255 255 255 255 255 255 255 255 255 255 255
255 255 255 255 255 255 255 255 255 255 255 255 255 255 255
255 255 255 255 255 255 255 255 255 255 255 255 255 255 255
255 255 255 255 255 255 255 255 255 255 255 255 255 255 255
255 255 255 255 255 255 255 255 255 255 255 255 255 255 255
255 255 255 255 255 255 255 255 255 255 255 255 255 255 255
255 255 255 255 255 255 255 255 255 255 255 255 255 255 255
255 255 255 255 255 253 255 255 253 255 255 253 255 255 253
255 255 253 255 255 253 255 255 253 255 255 253 255 255 253
255 255 253 255 255 253 255 255 253 255 255 253 255 255 253
255 255 253 255 255 253 255 253 253 255 253 253 255 254 253
255 255 251 252 255 251 249 255 251 248 255 251 248 255 251
246 255 251 250 255 254 251 252 254 255 250 255 255 249 255
255 245 255 251 230 247 240 212 235 240 200 235 201 153 195
127 71 118 86 23 76 110 36 97 139 56 124 149 55 133 158 53 138
161 46 141 165 40 142 169 37 147 177 38 155 185 43 165 187 43 167
182 35 165 173 30 156 175 44 160 169 42 157 170 41 157 173 44 162
176 44 163 175 43 162 176 44 163 178 49 165 168 44 154 167 48 152
168 57 152 170 66 153 156 62 140 132 42 114 106 21 88 87 14 69
80 28 66 164 124 151 239 205 229 252 225 244 251 231 243 255 250 255
255 254 255 243 244 239 249 254 247 251 255 247 252 255 248
251 254 245 246 247 239 247 244 239 255 253 249 255 254 251
255 251 255 255 249 255 254 247 254 253 246 253 254 248 252
254 249 253 255 251 252 255 251 252 253 251 252 253 251 252
252 252 250 252 252 250 252 253 248 253 254 249 252 254 249
252 255 248 247 249 238 247 250 239 248 251 240 248 254 242
248 255 245 249 255 246 249 255 246 249 255 246 251 255 248
250 255 249 246 251 244 248 250 245 254 253 249 255 254 251
255 254 251 255 251 253 255 246 255 255 230 250 204 164 190
136 87 119 110 51 95 104 33 89 113 30 98 139 47 124 154 50 139
156 42 138 161 38 142 170 42 151 176 44 156 177 40 154 178 39 156
180 43 159 173 40 159 171 39 159 172 38 159 172 39 158 174 39 159
179 39 162 184 39 168 188 38 171 193 41 176 189 39 173 195 50 179
185 50 170 182 61 167 166 56 151 139 41 124 151 75 139 171 125 164
220 192 215 255 239 255 255 248 255 255 249 246 255 254 242
254 254 242 255 255 243 255 255 247 255 253 250 255 253 254
255 253 255 254 253 255 251 255 255 248 255 255 248 255 255
253 255 254 254 254 254 253 253 253 253 253 253 254 254 254
254 254 254 255 255 255 255 255 255 255 255 255 255 255 255
255 255 255 255 255 255 255 255 255 255 255 255 255 255 255
255 255 255 255 255 255 255 255 255 255 255 255 255 255 255
255 255 255 255 255 255 255 255 255 255 255 255 255 255 255
255 255 255 255 255 255 255 255 255 255 255 255 255 255 255
255 255 255 255 255 255 255 255 255 255 255 255 255 255 255
255 255 255 255 255 255 255 255 255 255 255 255 255 255 255
255 255 255 255 255 255 255 255 255 255 255 255 255 255 255
255 255 255 255 255 255 255 255 255 255 255 255 255 255 255
255 255 255 255 255 255 255 255 255 255 255 255 255 255 255
255 255 255 255 255 255 255 255 255 255 255 255 255 255 255
255 255 255 255 255 255 255 255 255 255 255 255 255 255 255
255 255 255 255 255 255 255 255 255 255 255 255 255 255 255
255 255 255 255 255 255 255 255 255 255 255 255 255 255 255
255 255 255 255 255 255 255 255 255 255 255 255 255 255 255
255 255 255 255 255 255 255 255 255 255 255 255 255 255 255
255 255 255 255 255 255 255 255 255 255 255 255 255 255 255
255 255 255 255 255 255 255 255 255 255 255 255 255 255 255
255 255 255 255 255 255 255 255 255 255 255 255 255 255 255
255 255 255 255 255 255 255 255 255 255 255 255 255 255 255
255 255 255 255 255 255 255 255 255 255 255 255 255 255 255
255 255 255 255 255 255 255 255 255 255 255 255 255 255 255
255 255 255 255 255 255 255 255 255 255 255 255 255 255 255
255 255 255 255 255 255 255 255 255 255 255 255 255 255 255
255 255 255 255 255 255 255 255 255 255 255 255 255 255 255
255 255 255 255 255 255 255 255 255 255 255 255 255 255 255
255 255 255 255 255 255 255 255 255 255 255 255 255 255 255
255 255 255 255 255 255 255 255 255 255 255 255 255 255 255
255 255 255 255 255 255 255 255 255 255 255 255 255 255 255
255 255 255 255 255 255 255 255 255 255 255 255 255 255 255
255 255 255 255 255 255 255 255 255 255 255 255 255 255 255
255 255 255 255 255 255 255 255 255 255 255 255 255 255 255
255 255 255 255 255 255 255 255 255 255 255 255 255 255 255
255 255 255 255 255 255 255 255 255 255 255 255 255 255 255
255 255 255 255 255 255 255 255 255 255 255 255 255 255 255
255 255 255 255 255 255 255 255 255 255 255 255 255 255 255
255 255 255 255 255 255 255 255 255 255 255 255 255 255 255
255 255 255 255 255 255 255 255 255 255 255 255 255 255 255
255 255 255 255 255 255 255 255 255 255 255 255 255 255 255
255 255 255 255 255 255 255 255 255 255 255 255 255 255 255
255 255 255 255 255 255 255 255 255 255 255 255 255 255 255
255 255 255 255 255 255 255 255 255 255 255 255 255 255 255
255 255 255 255 255 255 255 255 255 255 255 255 255 255 255
255 255 255 255 255 255 255 255 255 255 255 255 255 255 253
255 255 253 255 255 253 255 255 253 255 255 253 255 255 253
255 255 253 255 255 253 255 255 253 255 255 253 255 255 253
255 255 253 255 255 253 255 255 253 255 255 253 255 255 253
255 255 253 255 255 253 255 255 251 252 255 251 251 255 251
249 255 253 248 255 253 249 255 255 248 252 253 254 252 255
255 250 255 255 246 255 255 238 255 255 222 247 230 189 219
208 160 198 136 78 128 111 43 102 110 36 99 139 58 125 158 68 142
156 57 139 158 47 139 165 45 143 171 44 149 178 44 157 182 43 162
180 37 161 174 31 159 173 29 160 178 34 168 182 41 171 176 44 164
170 43 160 171 42 160 175 46 164 176 44 163 169 40 156 167 40 153
168 44 154 173 56 160 161 51 146 157 55 141 150 58 135 122 39 107
98 23 82 111 41 95 139 80 124 221 180 210 239 210 230 255 233 249
253 235 247 243 233 241 243 241 242 248 253 249 249 255 251
247 255 249 237 249 237 237 247 236 249 255 246 254 255 248
255 255 248 254 249 245 253 248 245 255 250 252 255 248 255
253 246 253 251 246 252 251 246 250 253 248 252 255 252 253
255 254 255 251 249 250 252 250 251 252 252 250 253 253 251
253 254 249 253 254 249 252 254 249 253 254 249 253 254 248
252 253 245 251 252 244 249 252 243 247 252 245 244 251 243
242 249 241 238 248 239 241 248 240 244 251 243 251 255 250
252 255 250 248 253 247 241 244 237 242 243 237 250 246 243
251 239 243 255 235 247 255 232 249 209 173 199 116 66 104 74 12 63
100 26 89 131 43 119 157 57 145 157 47 144 162 41 146 170 42 153
174 41 156 173 38 156 177 38 157 179 41 162 175 41 162 173 41 161
173 41 160 173 40 159 177 39 160 179 39 162 185 38 168 189 37 171
197 42 178 191 39 174 190 43 175 187 47 170 188 62 172 177 63 161
152 48 137 140 59 128 159 111 153 216 186 210 255 241 255 255 250 255
255 250 248 255 253 241 255 253 241 253 253 241 255 254 247
255 253 250 255 253 254 255 253 255 254 253 255 251 255 255
248 255 255 248 255 255 253 255 254 254 254 254 253 253 253
253 253 253 254 254 254 254 254 254 255 255 255 255 255 255
255 255 255 255 255 255 255 255 255 255 255 255 255 255 255
255 255 255 255 255 255 255 255 255 255 255 255 255 255 255
255 255 255 255 255 255 255 255 255 255 255 255 255 255 255
255 255 255 255 255 255 255 255 255 255 255 255 255 255 255
255 255 255 255 255 255 255 255 255 255 255 255 255 255 255
255 255 255 255 255 255 255 255 255 255 255 255 255 255 255
255 255 255 255 255 255 255 255 255 255 255 255 255 255 255
255 255 255 255 255 255 255 255 255 255 255 255 255 255 255
255 255 255 255 255 255 255 255 255 255 255 255 255 255 255
255 255 255 255 255 255 255 255 255 255 255 255 255 255 255
255 255 255 255 255 255 255 255 255 255 255 255 255 255 255
255 255 255 255 255 255 255 255 255 255 255 255 255 255 255
255 255 255 255 255 255 255 255 255 255 255 255 255 255 255
255 255 255 255 255 255 255 255 255 255 255 255 255 255 255
255 255 255 255 255 255 255 255 255 255 255 255 255 255 255
255 255 255 255 255 255 255 255 255 255 255 255 255 255 255
255 255 255 255 255 255 255 255 255 255 255 255 255 255 255
255 255 255 255 255 255 255 255 255 255 255 255 255 255 255
255 255 255 255 255 255 255 255 255 255 255 255 255 255 255
255 255 255 255 255 255 255 255 255 255 255 255 255 255 255
255 255 255 255 255 255 255 255 255 255 255 255 255 255 255
255 255 255 255 255 255 255 255 255 255 255 255 255 255 255
255 255 255 255 255 255 255 255 255 255 255 255 255 255 255
255 255 255 255 255 255 255 255 255 255 255 255 255 255 255
255 255 255 255 255 255 255 255 255 255 255 255 255 255 255
255 255 255 255 255 255 255 255 255 255 255 255 255 255 255
255 255 255 255 255 255 255 255 255 255 255 255 255 255 255
255 255 255 255 255 255 255 255 255 255 255 255 255 255 255
255 255 255 255 255 255 255 255 255 255 255 255 255 255 255
255 255 255 255 255 255 255 255 255 255 255 255 255 255 255
255 255 255 255 255 255 255 255 255 255 255 255 255 255 255
255 255 255 255 255 255 255 255 255 255 255 255 255 255 255
255 255 255 255 255 255 255 255 255 255 255 255 255 255 255
255 255 255 255 255 255 255 255 255 255 255 255 255 255 255
255 255 255 255 255 255 255 255 255 255 255 255 255 255 255
255 255 255 255 255 255 255 255 255 255 255 255 255 255 255
255 255 255 255 255 255 255 255 255 255 255 255 255 255 255
255 255 255 255 255 255 255 255 255 255 255 255 255 255 255
255 255 255 255 255 255 255 255 255 255 255 255 255 255 255
255 255 255 255 255 255 255 255 255 255 255 255 255 255 255
255 255 255 255 255 255 255 255 255 255 255 255 255 255 255
255 255 255 255 255 255 255 255 255 255 255 255 255 255 255
255 255 255 255 255 255 255 255 255 255 255 255 255 255 255
255 255 255 255 255 253 255 255 253 255 255 253 254 254 252
254 254 252 255 255 253 255 255 253 255 255 253 254 254 252
254 254 252 255 255 253 255 255 253 254 254 252 254 254 252
253 253 251 252 252 250 253 255 252 252 255 253 250 255 252
247 253 249 246 255 250 249 255 255 251 255 255 254 255 255
255 251 255 255 244 255 255 240 255 255 235 255 255 207 244
208 150 191 144 78 124 100 27 82 119 40 106 137 51 126 154 61 141
159 60 143 160 54 144 164 50 146 167 45 146 170 40 148 171 37 150
178 40 161 183 44 169 183 44 173 177 40 170 172 36 168 172 36 172
173 39 170 172 42 164 170 41 159 171 42 160 175 46 164 172 43 159
165 38 151 161 37 147 160 43 147 160 50 145 140 38 124 153 63 137
118 37 103 83 12 68 129 65 115 189 132 175 226 179 213 255 227 251
255 235 253 255 242 255 255 245 255 251 246 252 246 247 249
242 251 248 243 255 249 238 251 242 240 253 243 243 255 245
248 255 247 253 254 248 255 252 247 255 249 247 255 248 246
252 246 248 252 247 251 252 247 251 252 250 253 253 251 254
254 252 255 255 253 254 255 253 254 254 252 253 253 253 253
253 253 251 253 253 251 253 253 251 253 253 251 253 253 251
253 253 251 255 254 252 255 254 252 255 254 252 254 254 252
254 255 250 253 255 250 251 255 250 250 255 250 250 255 249
249 254 248 248 253 247 248 253 247 249 254 250 249 254 248
250 252 247 249 250 245 249 245 244 250 241 246 255 242 254
239 211 233 134 92 128 73 17 66 109 39 102 122 38 115 142 43 133
156 48 147 167 47 155 166 39 154 171 38 157 179 44 165 184 44 169
178 39 164 175 41 162 173 41 161 172 39 158 170 37 156 177 39 160
185 42 166 189 40 168 186 34 168 192 36 172 195 40 176 189 39 172
195 55 180 193 65 178 168 52 153 155 49 141 145 62 134 160 109 152
217 187 211 255 238 255 255 243 250 253 243 241 255 254 242
255 254 242 249 249 237 255 252 245 255 252 249 255 251 253
255 251 255 253 252 255 251 255 255 250 255 255 250 255 255
253 255 254 254 254 254 253 253 253 253 253 253 254 254 254
254 254 254 255 255 255 255 255 255 255 255 255 255 255 255
255 255 255 255 255 255 255 255 255 255 255 255 255 255 255
255 255 255 255 255 255 255 255 255 255 255 255 255 255 255
255 255 255 255 255 255 255 255 255 255 255 255 255 255 255
255 255 255 255 255 255 255 255 255 255 255 255 255 255 255
255 255 255 255 255 255 255 255 255 255 255 255 255 255 255
255 255 255 255 255 255 255 255 255 255 255 255 255 255 255
255 255 255 255 255 255 255 255 255 255 255 255 255 255 255
255 255 255 255 255 255 255 255 255 255 255 255 255 255 255
255 255 255 255 255 255 255 255 255 255 255 255 255 255 255
255 255 255 255 255 255 255 255 255 255 255 255 255 255 255
255 255 255 255 255 255 255 255 255 255 255 255 255 255 255
255 255 255 255 255 255 255 255 255 255 255 255 255 255 255
255 255 255 255 255 255 255 255 255 255 255 255 255 255 255
255 255 255 255 255 255 255 255 255 255 255 255 255 255 255
255 255 255 255 255 255 255 255 255 255 255 255 255 255 255
255 255 255 255 255 255 255 255 255 255 255 255 255 255 255
255 255 255 255 255 255 255 255 255 255 255 255 255 255 255
255 255 255 255 255 255 255 255 255 255 255 255 255 255 255
255 255 255 255 255 255 255 255 255 255 255 255 255 255 255
255 255 255 255 255 255 255 255 255 255 255 255 255 255 255
255 255 255 255 255 255 255 255 255 255 255 255 255 255 255
255 255 255 255 255 255 255 255 255 255 255 255 255 255 255
255 255 255 255 255 255 255 255 255 255 255 255 255 255 255
255 255 255 255 255 255 255 255 255 255 255 255 255 255 255
255 255 255 255 255 255 255 255 255 255 255 255 255 255 255
255 255 255 255 255 255 255 255 255 255 255 255 255 255 255
255 255 255 255 255 255 255 255 255 255 255 255 255 255 255
255 255 255 255 255 255 255 255 255 255 255 255 255 255 255
255 255 255 255 255 255 255 255 255 255 255 255 255 255 255
255 255 255 255 255 255 255 255 255 255 255 255 255 255 255
255 255 255 255 255 255 255 255 255 255 255 255 255 255 255
255 255 255 255 255 255 255 255 255 255 255 255 255 255 255
255 255 255 255 255 255 255 255 255 255 255 255 255 255 255
255 255 255 255 255 255 255 255 255 255 255 255 255 255 255
255 255 255 255 255 255 255 255 255 255 255 255 255 255 255
255 255 255 255 255 255 255 255 255 255 255 255 255 255 255
255 255 255 255 255 255 255 255 255 255 255 255 255 255 255
255 255 255 255 255 255 255 255 255 255 255 255 255 255 255
255 255 255 255 255 255 255 255 255 255 255 255 255 255 255
255 255 255 255 255 255 255 255 255 255 255 255 255 255 255
255 255 255 255 255 255 255 255 255 255 255 255 255 255 255
255 255 255 255 255 255 255 255 255 255 255 255 255 255 255
255 255 255 255 255 255 255 255 255 255 255 255 254 254 252
254 254 252 254 254 252 253 253 251 253 253 251 254 254 252
254 254 252 254 254 252 253 253 251 253 253 251 254 254 252
254 254 252 253 253 251 253 253 251 252 252 250 250 252 249
243 249 245 245 254 249 248 255 252 250 255 254 251 255 255
251 252 255 245 242 249 241 231 242 255 238 255 255 234 255
250 206 241 201 144 189 145 75 129 117 37 96 126 37 101 143 50 121
144 45 128 157 52 144 167 57 152 168 54 152 168 47 150 171 45 152
176 45 157 178 44 159 177 39 160 181 43 165 181 45 171 178 43 172
170 39 169 165 35 167 163 36 169 164 37 166 169 39 163 169 40 159
171 42 160 175 46 162 172 44 157 164 40 150 161 42 146 160 49 144
150 48 134 146 54 131 128 47 114 112 43 98 118 59 105 166 116 154
234 190 223 255 234 255 255 237 255 255 244 255 255 248 255
255 250 255 250 249 254 244 248 249 242 251 250 242 254 250
241 254 247 243 254 248 246 255 250 251 255 252 254 254 252
255 253 252 255 250 251 255 249 250 254 250 251 252 250 253
253 251 254 254 252 255 255 253 255 255 253 255 255 254 255
255 254 255 254 254 254 254 254 254 254 254 252 254 254 252
254 254 252 254 254 252 254 254 252 255 253 254 255 253 254
255 253 254 255 252 255 255 253 254 255 253 254 254 254 254
253 255 254 253 255 254 253 255 254 250 255 251 252 254 253
250 255 251 253 255 254 251 255 252 251 253 250 250 252 249
252 254 251 245 243 244 255 246 255 245 224 243 166 131 164
108 56 104 108 42 104 110 28 104 139 43 132 155 47 148 166 48 158
169 42 159 173 39 162 179 43 169 182 41 171 176 37 166 176 40 166
174 40 161 172 38 159 172 37 157 178 38 160 185 42 166 189 40 168
187 33 165 190 34 170 200 45 181 194 44 177 189 49 172 183 55 168
164 48 149 151 46 138 142 59 131 162 111 154 218 188 212 255 240 255
255 247 254 255 247 244 255 254 242 252 252 240 247 247 235
255 250 244 255 250 247 255 249 251 255 250 254 252 251 255
249 253 255 248 254 254 249 255 255 253 255 254 254 254 254
253 253 253 253 253 253 254 254 254 254 254 254 255 255 255
255 255 255 255 255 255 255 255 255 255 255 255 255 255 255
255 255 255 255 255 255 255 255 255 255 255 255 255 255 255
255 255 255 255 255 255 255 255 255 255 255 255 255 255 255
255 255 255 255 255 255 255 255 255 255 255 255 255 255 255
255 255 255 255 255 255 255 255 255 255 255 255 255 255 255
255 255 255 255 255 255 255 255 255 255 255 255 255 255 255
255 255 255 255 255 255 255 255 255 255 255 255 255 255 255
255 255 255 255 255 255 255 255 255 255 255 255 255 255 255
255 255 255 255 255 255 255 255 255 255 255 255 255 255 255
255 255 255 255 255 255 255 255 255 255 255 255 255 255 255
255 255 255 255 255 255 255 255 255 255 255 255 255 255 255
255 255 255 255 255 255 255 255 255 255 255 255 255 255 255
255 255 255 255 255 255 255 255 255 255 255 255 255 255 255
255 255 255 255 255 255 255 255 255 255 255 255 255 255 255
255 255 255 255 255 255 255 255 255 255 255 255 255 255 255
255 255 255 255 255 255 255 255 255 255 255 255 255 255 255
255 255 255 255 255 255 255 255 255 255 255 255 255 255 255
255 255 255 255 255 255 255 255 255 255 255 255 255 255 255
255 255 255 255 255 255 255 255 255 255 255 255 255 255 255
255 255 255 255 255 255 255 255 255 255 255 255 255 255 255
255 255 255 255 255 255 255 255 255 255 255 255 255 255 255
255 255 255 255 255 255 255 255 255 255 255 255 255 255 255
255 255 255 255 255 255 255 255 255 255 255 255 255 255 255
255 255 255 255 255 255 255 255 255 255 255 255 255 255 255
255 255 255 255 255 255 255 255 255 255 255 255 255 255 255
255 255 255 255 255 255 255 255 255 255 255 255 255 255 255
255 255 255 255 255 255 255 255 255 255 255 255 255 255 255
255 255 255 255 255 255 255 255 255 255 255 255 255 255 255
255 255 255 255 255 255 255 255 255 255 255 255 255 255 255
255 255 255 255 255 255 255 255 255 255 255 255 255 255 255
255 255 255 255 255 255 255 255 255 255 255 255 255 255 255
255 255 255 255 255 255 255 255 255 255 255 255 255 255 255
255 255 255 255 255 255 255 255 255 255 255 255 255 255 255
255 255 255 255 255 255 255 255 255 255 255 255 255 255 255
255 255 255 255 255 255 255 255 255 255 255 255 255 255 255
255 255 255 255 255 255 255 255 255 255 255 255 255 255 255
255 255 255 255 255 255 255 255 255 255 255 255 255 255 255
255 255 255 255 255 255 255 255 255 255 255 255 255 255 255
255 255 255 255 255 255 255 255 255 255 255 255 255 255 255
255 255 255 255 255 255 255 255 255 255 255 255 255 255 255
255 255 255 255 255 255 255 255 255 255 255 255 255 255 255
255 255 255 255 255 255 255 255 255 255 255 255 255 255 255
255 255 255 255 255 255 255 255 255 255 255 255 255 255 255
255 255 255 255 255 255 254 254 252 253 254 249 253 254 249
252 253 248 252 253 248 253 254 249 253 254 249 254 255 250
252 253 248 253 254 249 253 254 249 253 254 249 253 254 249
252 253 248 251 252 247 250 252 249 241 247 243 240 249 246
239 248 245 241 245 246 246 245 250 255 247 255 255 245 255
255 236 255 253 216 249 202 151 192 142 78 130 117 39 101 121 30 100
132 31 109 143 36 118 152 39 129 169 53 152 175 55 161 177 54 161
173 47 155 171 40 152 173 40 155 178 43 161 181 46 166 176 41 162
177 43 166 177 44 169 171 42 168 164 39 165 161 38 165 159 38 165
163 40 165 166 38 159 170 38 158 172 40 159 173 44 160 171 45 155
166 45 150 163 49 147 162 56 146 155 58 139 146 61 129 98 27 85
118 59 107 179 132 168 223 184 213 255 234 255 255 246 255
255 244 255 255 249 255 255 252 255 255 253 255 252 251 255
247 251 254 245 253 255 246 255 254 246 255 254 249 255 253
251 255 254 254 255 255 255 254 255 255 254 255 255 251 254
255 251 253 255 253 254 254 254 254 254 254 254 255 255 255
255 255 255 255 255 255 255 255 255 255 255 255 255 255 255
255 255 255 255 255 255 255 255 255 255 255 255 255 255 255
255 255 255 255 254 255 255 252 255 255 252 255 255 252 255
255 252 255 255 252 255 255 253 255 255 253 255 254 254 255
255 255 255 254 255 255 255 255 255 254 255 255 255 255 255
254 255 255 254 254 254 251 253 252 248 253 249 239 241 240
255 249 255 247 228 247 194 160 193 136 87 134 102 36 98 100 19 96
139 43 133 155 47 149 168 47 160 171 43 162 175 41 166 179 42 172
181 39 173 176 35 166 178 39 168 175 39 165 173 37 161 174 36 158
178 38 160 186 42 166 188 39 167 185 34 165 186 32 166 200 48 182
196 51 180 183 48 168 178 54 164 162 50 148 146 46 134 144 64 133
164 117 159 219 191 214 255 241 255 255 250 255 255 250 247
255 255 243 253 253 241 249 249 237 253 248 242 254 249 246
254 248 250 253 248 252 251 249 254 250 251 255 248 252 253
248 252 253 253 255 254 254 254 254 253 253 253 253 253 253
254 254 254 254 254 254 255 255 255 255 255 255 255 255 255
255 255 255 255 255 255 255 255 255 255 255 255 255 255 255
255 255 255 255 255 255 255 255 255 255 255 255 255 255 255
255 255 255 255 255 255 255 255 255 255 255 255 255 255 255
255 255 255 255 255 255 255 255 255 255 255 255 255 255 255
255 255 255 255 255 255 255 255 255 255 255 255 255 255 255
255 255 255 255 255 255 255 255 255 255 255 255 255 255 255
255 255 255 255 255 255 255 255 255 255 255 255 255 255 255
255 255 255 255 255 255 255 255 255 255 255 255 255 255 255
255 255 255 255 255 255 255 255 255 255 255 255 255 255 255
255 255 255 255 255 255 255 255 255 255 255 255 255 255 255
255 255 255 255 255 255 255 255 255 255 255 255 255 255 255
255 255 255 255 255 255 255 255 255 255 255 255 255 255 255
255 255 255 255 255 255 255 255 255 255 255 255 255 255 255
255 255 255 255 255 255 255 255 255 255 255 255 255 255 255
255 255 255 255 255 255 255 255 255 255 255 255 255 255 255
255 255 255 255 255 255 255 255 255 255 255 255 255 255 255
255 255 255 255 255 255 255 255 255 255 255 255 255 255 255
255 255 255 255 255 255 255 255 255 255 255 255 255 255 255
255 255 255 255 255 255 255 255 255 255 255 255 255 255 255
255 255 255 255 255 255 255 255 255 255 255 255 255 255 255
255 255 255 255 255 255 255 255 255 255 255 255 255 255 255
255 255 255 255 255 255 255 255 255 255 255 255 255 255 255
255 255 255 255 255 255 255 255 255 255 255 255 255 255 255
255 255 255 255 255 255 255 255 255 255 255 255 255 255 255
255 255 255 255 255 255 255 255 255 255 255 255 255 255 255
255 255 255 255 255 255 255 255 255 255 255 255 255 255 255
255 255 255 255 255 255 255 255 255 255 255 255 255 255 255
255 255 255 255 255 255 255 255 255 255 255 255 255 255 255
255 255 255 255 255 255 255 255 255 255 255 255 255 255 255
255 255 255 255 255 255 255 255 255 255 255 255 255 255 255
255 255 255 255 255 255 255 255 255 255 255 255 255 255 255
255 255 255 255 255 255 255 255 255 255 255 255 255 255 255
255 255 255 255 255 255 255 255 255 255 255 255 255 255 255
255 255 255 255 255 255 255 255 255 255 255 255 255 255 255
255 255 255 255 255 255 255 255 255 255 255 255 255 255 255
255 255 255 255 255 255 255 255 255 255 255 255 255 255 255
255 255 255 255 255 255 255 255 255 255 255 255 255 255 255
255 255 255 255 255 255 255 255 255 255 255 255 255 255 255
255 255 255 255 255 255 255 255 255 255 255 255 255 255 255
255 255 255 255 255 255 255 255 255 255 255 255 255 255 255
255 255 255 255 255 255 255 255 255 255 255 255 255 255 255
255 255 255 255 255 255 255 255 255 255 255 255 255 255 255
255 255 255 255 255 255 255 255 255 255 255 255 255 255 253
254 254 252 254 255 250 253 254 249 253 254 249 253 254 249
253 254 249 254 255 250 254 255 250 253 254 249 253 254 249
253 254 249 253 254 249 253 254 249 252 253 248 252 253 248
250 252 249 239 243 242 235 241 241 237 238 240 246 243 250
255 251 255 255 241 255 241 211 237 222 180 216 164 108 155
121 52 109 99 18 85 129 35 113 161 55 143 168 53 148 170 48 147
182 55 162 183 55 168 184 52 171 181 48 167 174 41 160 171 36 156
171 36 157 177 39 161 178 42 166 172 38 161 172 40 162 171 41 165
167 41 164 165 41 165 163 43 166 166 46 169 170 48 169 168 38 160
170 38 157 171 40 156 170 42 155 170 44 152 168 49 151 167 56 150
166 64 148 140 50 124 124 46 108 113 49 101 166 116 154 232 193 222
255 231 250 255 244 255 250 237 247 255 246 255 255 250 255
254 251 255 253 252 255 252 251 255 249 252 255 250 254 255
251 255 255 251 255 255 251 255 255 254 255 255 255 255 255
255 254 255 255 253 255 255 252 254 255 252 253 255 254 255
255 255 255 255 255 255 255 255 255 255 255 255 255 255 255
255 255 255 255 255 255 255 255 255 255 255 255 255 255 255
255 255 255 255 255 255 255 255 255 255 255 255 255 255 255
255 253 255 255 253 255 255 253 255 255 254 255 255 253 255
255 254 255 255 254 255 255 254 255 255 255 255 255 255 255
255 255 255 255 255 255 255 255 255 255 255 255 255 255 255
252 254 253 244 249 243 241 243 240 255 253 255 247 230 248
205 172 203 147 98 145 94 28 90 102 19 97 142 46 136 155 47 149
167 46 159 170 42 163 174 39 167 177 40 170 179 39 172 177 35 169
179 38 169 179 38 168 177 36 164 176 36 161 181 38 162 186 42 166
188 39 165 184 33 162 183 32 163 194 45 175 192 52 177 186 55 171
183 66 170 161 56 149 137 43 127 146 74 138 176 131 172 222 197 219
255 241 255 255 249 255 255 252 248 255 255 244 255 255 243
254 254 242 253 250 243 254 249 246 254 248 250 253 248 252
252 250 255 250 251 255 248 252 253 248 252 253 253 255 254
254 254 254 253 253 253 253 253 253 254 254 254 254 254 254
255 255 255 255 255 255 255 255 255 255 255 255 255 255 255
255 255 255 255 255 255 255 255 255 255 255 255 255 255 255
255 255 255 255 255 255 255 255 255 255 255 255 255 255 255
255 255 255 255 255 255 255 255 255 255 255 255 255 255 255
255 255 255 255 255 255 255 255 255 255 255 255 255 255 255
255 255 255 255 255 255 255 255 255 255 255 255 255 255 255
255 255 255 255 255 255 255 255 255 255 255 255 255 255 255
255 255 255 255 255 255 255 255 255 255 255 255 255 255 255
255 255 255 255 255 255 255 255 255 255 255 255 255 255 255
255 255 255 255 255 255 255 255 255 255 255 255 255 255 255
255 255 255 255 255 255 255 255 255 255 255 255 255 255 255
255 255 255 255 255 255 255 255 255 255 255 255 255 255 255
255 255 255 255 255 255 255 255 255 255 255 255 255 255 255
255 255 255 255 255 255 255 255 255 255 255 255 255 255 255
255 255 255 255 255 255 255 255 255 255 255 255 255 255 255
255 255 255 255 255 255 255 255 255 255 255 255 255 255 255
255 255 255 255 255 255 255 255 255 255 255 255 255 255 255
255 255 255 255 255 255 255 255 255 255 255 255 255 255 255
255 255 255 255 255 255 255 255 255 255 255 255 255 255 255
255 255 255 255 255 255 255 255 255 255 255 255 255 255 255
255 255 255 255 255 255 255 255 255 255 255 255 255 255 255
255 255 255 255 255 255 255 255 255 255 255 255 255 255 255
255 255 255 255 255 255 255 255 255 255 255 255 255 255 255
255 255 255 255 255 255 255 255 255 255 255 255 255 255 255
255 255 255 255 255 255 255 255 255 255 255 255 255 255 255
255 255 255 255 255 255 255 255 255 255 255 255 255 255 255
255 255 255 255 255 255 255 255 255 255 255 255 255 255 255
255 255 255 255 255 255 255 255 255 255 255 255 255 255 255
255 255 255 255 255 255 255 255 255 255 255 255 255 255 255
255 255 255 255 255 255 255 255 255 255 255 255 255 255 255
255 255 255 255 255 255 255 255 255 255 255 255 255 255 255
255 255 255 255 255 255 255 255 255 255 255 255 255 255 255
255 255 255 255 255 255 255 255 255 255 255 255 255 255 255
255 255 255 255 255 255 255 255 255 255 255 255 255 255 255
255 255 255 255 255 255 255 255 255 255 255 255 255 255 255
255 255 255 255 255 255 255 255 255 255 255 255 255 255 255
255 255 255 255 255 255 255 255 255 255 255 255 255 255 255
255 255 255 255 255 255 255 255 255 255 255 255 255 255 255
255 255 255 255 255 255 255 255 255 255 255 255 255 255 255
255 255 255 255 255 255 255 255 255 255 255 255 255 255 255
255 255 255 255 255 255 255 255 255 255 255 255 255 255 255
255 255 255 255 255 255 255 255 255 255 255 255 255 255 255
255 255 255 255 255 255 255 255 255 255 255 255 255 255 255
255 255 255 255 255 255 255 255 253 255 255 253 255 255 251
254 255 250 254 255 250 254 255 250 254 255 250 255 255 251
255 255 251 254 255 250 254 255 250 254 255 250 255 255 251
254 255 250 253 254 249 253 254 249 252 252 250 242 242 244
245 243 248 253 246 254 255 248 255 255 236 255 224 190 217
163 117 154 115 57 105 94 23 81 111 25 96 141 43 126 171 62 155
180 61 163 175 49 159 183 52 166 202 67 187 189 50 175 186 47 174
182 43 170 178 39 166 175 36 163 173 34 161 172 36 162 174 38 162
171 37 160 171 39 161 170 40 162 169 41 162 168 43 161 170 47 164
174 51 168 177 52 170 173 41 160 172 39 156 169 38 152 167 39 150
167 44 150 168 52 149 167 58 147 161 64 143 110 25 93 103 32 88
171 114 159 236 192 225 254 225 247 255 243 255 255 247 255
255 253 255 250 249 254 249 250 254 249 250 254 248 249 253
248 249 253 249 250 254 251 252 255 253 254 255 253 254 255
253 254 255 254 254 255 254 254 255 254 254 255 255 253 255
254 252 253 254 252 253 255 255 255 254 255 255 254 255 255
254 255 255 253 255 254 253 255 254 254 254 254 254 254 254
255 255 255 255 255 255 255 255 255 255 255 255 255 255 255
255 255 255 255 255 255 255 255 255 255 255 255 255 255 255
255 255 255 255 255 255 255 254 255 255 254 255 255 254 255
255 254 255 255 254 255 255 254 255 255 253 255 255 254 255
255 254 255 255 254 255 255 253 255 252 252 252 249 254 248
247 249 244 255 253 255 252 234 250 217 182 212 155 106 151 96 28 89
102 18 95 148 49 140 158 47 150 167 44 158 169 40 159 172 38 163
175 38 168 178 38 169 179 37 171 182 38 172 182 38 172 181 37 168
180 37 165 184 40 164 187 43 167 188 39 165 183 34 162 186 37 165
183 38 165 185 50 170 185 61 171 186 76 175 147 51 138 112 28 105
140 74 135 201 161 198 234 212 233 255 243 255 255 248 253
254 251 246 253 255 242 252 254 241 254 255 243 254 251 244
254 250 247 255 250 252 255 250 254 253 251 255 253 252 255
252 253 255 250 254 255 253 255 254 254 254 254 253 253 253
253 253 253 254 254 254 254 254 254 255 255 255 255 255 255
255 255 255 255 255 255 255 255 255 255 255 255 255 255 255
255 255 255 255 255 255 255 255 255 255 255 255 255 255 255
255 255 255 255 255 255 255 255 255 255 255 255 255 255 255
255 255 255 255 255 255 255 255 255 255 255 255 255 255 255
255 255 255 255 255 255 255 255 255 255 255 255 255 255 255
255 255 255 255 255 255 255 255 255 255 255 255 255 255 255
255 255 255 255 255 255 255 255 255 255 255 255 255 255 255
255 255 255 255 255 255 255 255 255 255 255 255 255 255 255
255 255 255 255 255 255 255 255 255 255 255 255 255 255 255
255 255 255 255 255 255 255 255 255 255 255 255 255 255 255
255 255 255 255 255 255 255 255 255 255 255 255 255 255 255
255 255 255 255 255 255 255 255 255 255 255 255 255 255 255
255 255 255 255 255 255 255 255 255 255 255 255 255 255 255
255 255 255 255 255 255 255 255 255 255 255 255 255 255 255
255 255 255 255 255 255 255 255 255 255 255 255 255 255 255
255 255 255 255 255 255 255 255 255 255 255 255 255 255 255
255 255 255 255 255 255 255 255 255 255 255 255 255 255 255
255 255 255 255 255 255 255 255 255 255 255 255 255 255 255
255 255 255 255 255 255 255 255 255 255 255 255 255 255 255
255 255 255 255 255 255 255 255 255 255 255 255 255 255 255
255 255 255 255 255 255 255 255 255 255 255 255 255 255 255
255 255 255 255 255 255 255 255 255 255 255 255 255 255 255
255 255 255 255 255 255 255 255 255 255 255 255 255 255 255
255 255 255 255 255 255 255 255 255 255 255 255 255 255 255
255 255 255 255 255 255 255 255 255 255 255 255 255 255 255
255 255 255 255 255 255 255 255 255 255 255 255 255 255 255
255 255 255 255 255 255 255 255 255 255 255 255 255 255 255
255 255 255 255 255 255 255 255 255 255 255 255 255 255 255
255 255 255 255 255 255 255 255 255 255 255 255 255 255 255
255 255 255 255 255 255 255 255 255 255 255 255 255 255 255
255 255 255 255 255 255 255 255 255 255 255 255 255 255 255
255 255 255 255 255 255 255 255 255 255 255 255 255 255 255
255 255 255 255 255 255 255 255 255 255 255 255 255 255 255
255 255 255 255 255 255 255 255 255 255 255 255 255 255 255
255 255 255 255 255 255 255 255 255 255 255 255 255 255 255
255 255 255 255 255 255 255 255 255 255 255 255 255 255 255
255 255 255 255 255 255 255 255 255 255 255 255 255 255 255
255 255 255 255 255 255 255 255 255 255 255 255 255 255 255
255 255 255 255 255 255 255 255 255 255 255 255 255 255 255
255 255 255 255 255 255 255 255 255 255 255 255 255 255 255
255 255 255 255 255 255 255 255 255 255 255 255 255 255 255
255 255 255 255 255 255 255 255 255 255 255 255 255 255 255
255 255 255 255 255 255 255 255 255 255 255 255 255 255 255
255 255 253 255 255 253 255 255 251 255 255 251 254 255 250
254 255 250 255 255 251 255 255 251 255 255 251 254 255 250
255 255 251 255 255 251 255 255 251 255 255 251 254 255 250
253 254 249 254 253 251 254 248 252 255 250 255 255 243 255
227 202 223 177 141 169 131 85 121 104 45 91 97 23 82 126 40 111
149 52 133 163 53 148 166 47 151 176 49 164 194 62 184 197 61 187
188 47 177 189 45 179 185 41 175 183 39 171 182 41 172 181 41 172
176 39 168 174 38 164 173 39 164 173 41 163 173 41 161 171 42 161
171 42 160 173 44 160 175 46 162 177 48 164 180 49 165 177 44 161
174 41 156 169 38 150 166 38 147 168 45 149 168 53 148 158 53 138
144 50 126 115 35 98 120 53 106 214 164 202 255 231 255 255 237 255
255 248 255 251 249 252 252 255 255 249 255 253 247 253 251
245 251 249 244 248 249 246 247 249 247 248 250 249 248 253
250 250 252 253 252 255 253 253 255 253 253 255 253 253 255
253 253 255 252 254 253 252 254 253 252 254 253 253 255 254
253 255 254 253 255 254 253 255 254 253 255 254 253 255 254
254 254 254 254 254 254 255 255 255 255 255 255 255 255 255
255 255 255 255 255 255 255 255 255 255 255 255 254 255 255
254 255 255 252 255 253 254 255 253 254 255 253 254 255 255
255 255 255 255 255 255 255 254 255 255 254 255 255 253 254
254 252 255 255 253 254 255 254 255 255 254 255 254 252 255
251 251 249 252 255 250 249 252 245 255 250 253 253 232 247
219 185 212 157 106 149 101 31 91 95 11 86 152 52 142 160 48 150
166 44 155 169 40 158 171 37 160 173 36 165 178 39 168 181 40 171
184 38 175 186 38 176 185 38 171 183 38 169 185 40 167 190 44 169
187 41 166 182 36 161 187 41 166 177 37 159 181 50 166 181 61 167
178 75 167 133 44 124 95 18 88 140 81 135 230 194 230 249 230 250
255 247 255 253 247 251 249 248 243 248 252 238 247 251 237
249 253 239 254 254 246 255 252 249 255 251 253 255 251 255
255 252 255 254 253 255 253 254 255 253 254 255 254 254 254
254 254 254 253 253 253 253 253 253 254 254 254 254 254 254
255 255 255 255 255 255 255 255 255 255 255 255 255 255 255
255 255 255 255 255 255 255 255 255 255 255 255 255 255 255
255 255 255 255 255 255 255 255 255 255 255 255 255 255 255
255 255 255 255 255 255 255 255 255 255 255 255 255 255 255
255 255 255 255 255 255 255 255 255 255 255 255 255 255 255
255 255 255 255 255 255 255 255 255 255 255 255 255 255 255
255 255 255 255 255 255 255 255 255 255 255 255 255 255 255
255 255 255 255 255 255 255 255 255 255 255 255 255 255 255
255 255 255 255 255 255 255 255 255 255 255 255 255 255 255
255 255 255 255 255 255 255 255 255 255 255 255 255 255 255
255 255 255 255 255 255 255 255 255 255 255 255 255 255 255
255 255 255 255 255 255 255 255 255 255 255 255 255 255 255
255 255 255 255 255 255 255 255 255 255 255 255 255 255 255
255 255 255 255 255 255 255 255 255 255 255 255 255 255 255
255 255 255 255 255 255 255 255 255 255 255 255 255 255 255
255 255 255 255 255 255 255 255 255 255 255 255 255 255 255
255 255 255 255 255 255 255 255 255 255 255 255 255 255 255
255 255 255 255 255 255 255 255 255 255 255 255 255 255 255
255 255 255 255 255 255 255 255 255 255 255 255 255 255 255
255 255 255 255 255 255 255 255 255 255 255 255 255 255 255
255 255 255 255 255 255 255 255 255 255 255 255 255 255 255
255 255 255 255 255 255 255 255 255 255 255 255 255 255 255
255 255 255 255 255 255 255 255 255 255 255 255 255 255 255
255 255 255 255 255 255 255 255 255 255 255 255 255 255 255
255 255 255 255 255 255 255 255 255 255 255 255 255 255 255
255 255 255 255 255 255 255 255 255 255 255 255 255 255 255
255 255 255 255 255 255 255 255 255 255 255 255 255 255 255
255 255 255 255 255 255 255 255 255 255 255 255 255 255 255
255 255 255 255 255 255 255 255 255 255 255 255 255 255 255
255 255 255 255 255 255 255 255 255 255 255 255 255 255 255
255 255 255 255 255 255 255 255 255 255 255 255 255 255 255
255 255 255 255 255 255 255 255 255 255 255 255 255 255 255
255 255 255 255 255 255 255 255 255 255 255 255 255 255 255
255 255 255 255 255 255 255 255 255 255 255 255 255 255 255
255 255 255 255 255 255 255 255 255 255 255 255 255 255 255
255 255 255 255 255 255 255 255 255 255 255 255 255 255 255
255 255 255 255 255 255 255 255 255 255 255 255 255 255 255
255 255 255 255 255 255 255 255 255 255 255 255 255 255 255
255 255 255 255 255 255 255 255 255 255 255 255 255 255 255
255 255 255 255 255 255 255 255 255 255 255 255 255 255 255
255 255 255 255 255 255 255 255 255 255 255 255 255 255 255
255 255 255 255 255 255 255 255 255 255 255 255 255 255 255
255 255 255 255 255 255 255 255 255 255 255 255 255 255 255
255 255 255 255 255 255 255 255 253 255 255 253 254 255 250
254 255 250 254 255 250 254 255 250 254 255 250 254 255 250
255 255 251 254 255 250 254 255 250 254 255 250 254 255 250
254 255 250 253 254 249 252 253 248 255 251 250 255 245 255
251 228 244 212 183 203 147 111 137 93 46 80 81 22 66 110 37 92
142 57 124 153 56 135 168 62 152 174 57 161 169 45 157 176 46 168
194 59 188 195 57 192 185 43 181 183 38 177 179 34 173 179 34 171
182 40 176 184 44 177 179 42 172 176 39 168 175 41 166 173 41 163
173 41 161 173 42 158 174 41 156 176 44 156 178 44 157 181 45 156
181 44 158 180 46 161 176 43 158 170 39 151 167 40 147 169 49 149
164 50 145 144 40 125 120 28 101 146 68 128 176 114 163 236 190 226
255 235 255 255 243 255 255 252 255 252 254 253 239 248 243
247 255 252 245 255 250 243 252 247 243 249 247 245 249 248
248 250 249 252 252 254 254 252 253 253 251 254 253 251 252
252 252 252 252 252 252 252 254 253 251 255 252 251 255 253
251 255 253 253 255 252 253 255 252 253 255 252 253 255 252
253 255 254 253 255 254 253 255 254 253 255 254 255 255 255
255 255 255 255 255 255 255 255 255 255 255 255 255 255 255
255 255 255 254 255 255 251 255 253 249 255 251 251 255 251
251 255 251 252 255 253 252 255 253 254 255 253 255 255 253
255 255 253 254 254 252 254 254 254 254 254 252 255 255 255
255 255 253 253 253 253 252 253 248 252 255 246 253 254 246
254 244 243 249 227 239 203 167 193 137 84 126 109 38 96 105 19 92
154 52 138 159 47 145 166 45 151 171 42 158 173 39 160 173 37 161
176 37 164 179 38 169 187 39 177 190 39 180 189 38 175 186 39 172
188 41 171 191 45 170 188 42 167 183 37 161 182 38 161 179 41 160
183 56 169 173 58 161 170 71 161 134 50 127 104 33 99 166 112 162
249 218 250 255 242 255 255 248 255 250 245 249 249 250 244
247 253 239 244 250 236 246 250 236 254 254 246 255 252 249
255 251 253 255 251 255 255 252 255 254 253 255 253 254 255
253 254 255 254 254 254 254 254 254 253 253 253 253 253 253
254 254 254 254 254 254 255 255 255 255 255 255 255 255 255
255 255 255 255 255 255 255 255 255 255 255 255 255 255 255
255 255 255 255 255 255 255 255 255 255 255 255 255 255 255
255 255 255 255 255 255 255 255 255 255 255 255 255 255 255
255 255 255 255 255 255 255 255 255 255 255 255 255 255 255
255 255 255 255 255 255 255 255 255 255 255 255 255 255 255
255 255 255 255 255 255 255 255 255 255 255 255 255 255 255
255 255 255 255 255 255 255 255 255 255 255 255 255 255 255
255 255 255 255 255 255 255 255 255 255 255 255 255 255 255
255 255 255 255 255 255 255 255 255 255 255 255 255 255 255
255 255 255 255 255 255 255 255 255 255 255 255 255 255 255
255 255 255 255 255 255 255 255 255 255 255 255 255 255 255
255 255 255 255 255 255 255 255 255 255 255 255 255 255 255
255 255 255 255 255 255 255 255 255 255 255 255 255 255 255
255 255 255 255 255 255 255 255 255 255 255 255 255 255 255
255 255 255 255 255 255 255 255 255 255 255 255 255 255 255
255 255 255 255 255 255 255 255 255 255 255 255 255 255 255
255 255 255 255 255 255 255 255 255 255 255 255 255 255 255
255 255 255 255 255 255 255 255 255 255 255 255 255 255 255
255 255 255 255 255 255 255 255 255 255 255 255 255 255 255
255 255 255 255 255 255 255 255 255 255 255 255 255 255 255
255 255 255 255 255 255 255 255 255 255 255 255 255 255 255
255 255 255 255 255 255 255 255 255 255 255 255 255 255 255
255 255 255 255 255 255 255 255 255 255 255 255 255 255 255
255 255 255 255 255 255 255 255 255 255 255 255 255 255 255
255 255 255 255 255 255 255 255 255 255 255 255 255 255 255
255 255 255 255 255 255 255 255 255 255 255 255 255 255 255
255 255 255 255 255 255 255 255 255 255 255 255 255 255 255
255 255 255 255 255 255 255 255 255 255 255 255 255 255 255
255 255 255 255 255 255 255 255 255 255 255 255 255 255 255
255 255 255 255 255 255 255 255 255 255 255 255 255 255 255
255 255 255 255 255 255 255 255 255 255 255 255 255 255 255
255 255 255 255 255 255 255 255 255 255 255 255 255 255 255
255 255 255 255 255 255 255 255 255 255 255 255 255 255 255
255 255 255 255 255 255 255 255 255 255 255 255 255 255 255
255 255 255 255 255 255 255 255 255 255 255 255 255 255 255
255 255 255 255 255 255 255 255 255 255 255 255 255 255 255
255 255 255 255 255 255 255 255 255 255 255 255 255 255 255
255 255 255 255 255 255 255 255 255 255 255 255 255 255 255
255 255 255 255 255 255 255 255 255 255 255 255 255 255 255
255 255 255 255 255 255 255 255 255 255 255 255 255 255 255
255 255 255 255 255 255 255 255 255 255 255 255 255 255 255
255 255 255 255 255 255 255 255 255 255 255 255 255 255 255
255 255 255 255 255 255 255 255 255 255 255 255 255 255 255
254 254 252 253 253 251 253 253 251 252 252 250 252 252 250
253 253 251 253 253 251 254 255 250 252 252 250 254 253 249
254 253 249 254 253 249 255 252 249 255 251 248 254 250 247
255 247 251 251 227 241 210 175 199 144 101 129 96 44 82 87 24 71
107 32 89 133 43 113 147 48 130 159 48 143 159 40 144 169 42 157
190 58 180 202 65 195 193 55 190 182 41 181 176 33 174 179 34 173
174 29 168 173 31 167 180 38 174 184 44 177 179 42 172 175 40 168
176 42 167 171 39 161 171 39 159 172 39 158 174 41 158 177 43 158
180 43 157 181 44 158 181 44 158 179 48 160 173 45 156 171 40 152
169 41 150 173 48 152 164 46 143 134 28 116 102 10 83 152 79 135
225 170 212 254 218 246 255 240 255 255 247 255 247 247 249
252 255 255 249 255 253 246 255 251 243 254 248 242 251 246
244 250 246 247 251 250 252 254 253 255 255 255 255 254 255
254 252 253 254 252 253 252 252 252 252 254 253 251 255 252
251 255 253 249 255 253 251 255 253 253 255 252 254 254 252
254 254 252 255 255 253 255 255 253 255 255 253 255 255 255
255 255 253 255 254 255 255 255 253 255 255 253 255 255 253
255 254 255 255 254 255 255 254 255 255 255 255 252 255 253
251 255 251 251 255 253 251 255 253 251 255 253 252 255 253
252 255 253 254 255 253 254 255 253 254 255 253 254 254 252
255 255 253 255 255 253 255 255 253 254 254 252 253 252 248
252 251 246 255 254 250 255 247 252 251 224 241 185 144 174
117 60 105 120 46 107 128 40 116 153 50 139 161 46 147 167 45 154
173 44 160 175 41 162 173 37 161 175 36 163 177 36 167 188 40 178
191 40 181 188 40 178 187 39 175 189 42 174 191 46 175 189 43 170
182 38 162 172 32 154 179 46 161 187 66 171 165 60 153 163 74 154
140 68 134 123 64 120 194 151 194 252 228 254 255 245 255 255 248 255
248 246 249 250 252 247 250 255 246 246 252 240 248 251 242
252 253 247 253 252 250 255 252 253 255 251 255 254 252 255
254 253 255 253 254 255 253 254 255 254 254 254 254 254 254
253 253 253 253 253 253 254 254 254 254 254 254 255 255 255
255 255 255 255 255 255 255 255 255 255 255 255 255 255 255
255 255 255 255 255 255 255 255 255 255 255 255 255 255 255
255 255 255 255 255 255 255 255 255 255 255 255 255 255 255
255 255 255 255 255 255 255 255 255 255 255 255 255 255 255
255 255 255 255 255 255 255 255 255 255 255 255 255 255 255
255 255 255 255 255 255 255 255 255 255 255 255 255 255 255
255 255 255 255 255 255 255 255 255 255 255 255 255 255 255
255 255 255 255 255 255 255 255 255 255 255 255 255 255 255
255 255 255 255 255 255 255 255 255 255 255 255 255 255 255
255 255 255 255 255 255 255 255 255 255 255 255 255 255 255
255 255 255 255 255 255 255 255 255 255 255 255 255 255 255
255 255 255 255 255 255 255 255 255 255 255 255 255 255 255
255 255 255 255 255 255 255 255 255 255 255 255 255 255 255
255 255 255 255 255 255 255 255 255 255 255 255 255 255 255
255 255 255 255 255 255 255 255 255 255 255 255 255 255 255
255 255 255 255 255 255 255 255 255 255 255 255 255 255 255
255 255 255 255 255 255 255 255 255 255 255 255 255 255 255
255 255 255 255 255 255 255 255 255 255 255 255 255 255 255
255 255 255 255 255 255 255 255 255 255 255 255 255 255 255
255 255 255 255 255 255 255 255 255 255 255 255 255 255 255
255 255 255 255 255 255 255 255 255 255 255 255 255 255 255
255 255 255 255 255 255 255 255 255 255 255 255 255 255 255
255 255 255 255 255 255 255 255 255 255 255 255 255 255 255
255 255 255 255 255 255 255 255 255 255 255 255 255 255 255
255 255 255 255 255 255 255 255 255 255 255 255 255 255 255
255 255 255 255 255 255 255 255 255 255 255 255 255 255 255
255 255 255 255 255 255 255 255 255 255 255 255 255 255 255
255 255 255 255 255 255 255 255 255 255 255 255 255 255 255
255 255 255 255 255 255 255 255 255 255 255 255 255 255 255
255 255 255 255 255 255 255 255 255 255 255 255 255 255 255
255 255 255 255 255 255 255 255 255 255 255 255 255 255 255
255 255 255 255 255 255 255 255 255 255 255 255 255 255 255
255 255 255 255 255 255 255 255 255 255 255 255 255 255 255
255 255 255 255 255 255 255 255 255 255 255 255 255 255 255
255 255 255 255 255 255 255 255 255 255 255 255 255 255 255
255 255 255 255 255 255 255 255 255 255 255 255 255 255 255
255 255 255 255 255 255 255 255 255 255 255 255 255 255 255
255 255 255 255 255 255 255 255 255 255 255 255 255 255 255
255 255 255 255 255 255 255 255 255 255 255 255 255 255 255
255 255 255 255 255 255 255 255 255 255 255 255 255 255 255
255 255 255 255 255 255 255 255 255 255 255 255 255 255 255
255 255 255 255 255 255 255 255 255 255 255 255 255 255 255
255 255 255 255 255 255 255 255 255 255 255 255 255 255 255
255 255 255 255 255 255 254 255 255 252 253 255 250 251 253
250 251 253 252 254 253 253 255 254 254 254 254 253 253 251
249 247 248 255 254 253 255 249 249 254 245 246 255 252 251
252 240 240 255 251 251 250 229 236 229 189 213 138 87 120 81 23 64
89 19 71 122 40 106 146 52 130 150 41 134 162 41 147 161 32 148
174 38 162 189 48 179 198 53 190 196 51 190 187 45 183 181 38 179
178 36 174 168 28 163 169 29 162 173 33 166 178 38 171 180 43 173
180 43 173 176 41 169 174 40 165 174 40 165 176 42 165 173 39 160
167 33 154 171 37 158 181 48 167 182 49 168 172 43 159 170 51 155
170 51 153 170 44 152 171 40 152 176 44 156 169 43 150 136 25 119
99 7 82 161 94 147 228 184 217 250 227 243 255 252 255 245 245 245
252 255 255 252 255 255 242 246 245 244 248 247 246 250 249
248 252 251 248 252 251 249 250 252 250 251 253 253 254 255
254 255 255 252 253 255 252 253 255 250 254 253 249 255 253
247 255 251 247 255 251 246 255 251 249 255 251 252 254 251
254 253 251 255 254 250 255 254 250 255 253 250 255 253 250
255 253 253 255 254 251 255 252 253 255 253 251 255 253 251
255 253 251 255 253 251 255 253 251 255 254 251 255 254 253
252 252 252 249 250 252 248 250 249 247 251 250 249 253 252
252 255 255 252 255 255 252 255 255 252 255 255 251 255 254
252 254 253 255 255 255 255 255 253 252 251 249 251 250 248
255 251 250 255 252 255 255 248 255 255 246 255 248 215 242
158 112 151 107 47 101 133 56 124 127 35 118 146 42 137 162 46 153
170 47 161 170 40 162 169 35 160 172 35 164 178 38 169 181 39 173
189 44 181 182 37 174 181 36 175 190 45 182 193 49 183 186 42 174
182 37 168 180 40 165 180 45 163 164 38 146 181 70 165 157 62 144
119 44 111 132 75 128 171 130 172 217 191 220 250 239 253 249 246 253
251 250 255 250 250 252 246 248 247 246 248 245 249 251 248
252 254 251 251 253 252 253 253 253 253 253 255 254 254 255
254 254 255 252 253 255 252 253 255 251 252 254 253 253 253
253 253 253 254 254 254 254 254 254 254 254 254 254 254 254
255 255 255 255 255 255 255 255 255 255 255 255 255 255 255
255 255 255 255 255 255 255 255 255 255 255 255 255 255 255
255 255 255 255 255 255 255 255 255 255 255 255 255 255 255
255 255 255 255 255 255 255 255 255 255 255 255 255 255 255
255 255 255 255 255 255 255 255 255 255 255 255 255 255 255
255 255 255 255 255 255 255 255 255 255 255 255 255 255 255
255 255 255 255 255 255 255 255 255 255 255 255 255 255 255
255 255 255 255 255 255 255 255 255 255 255 255 255 255 255
255 255 255 255 255 255 255 255 255 255 255 255 255 255 255
255 255 255 255 255 255 255 255 255 255 255 255 255 255 255
255 255 255 255 255 255 255 255 255 255 255 255 255 255 255
255 255 255 255 255 255 255 255 255 255 255 255 255 255 255
255 255 255 255 255 255 255 255 255 255 255 255 255 255 255
255 255 255 255 255 255 255 255 255 255 255 255 255 255 255
255 255 255 255 255 255 255 255 255 255 255 255 255 255 255
255 255 255 255 255 255 255 255 255 255 255 255 255 255 255
255 255 255 255 255 255 255 255 255 255 255 255 255 255 255
255 255 255 255 255 255 255 255 255 255 255 255 255 255 255
255 255 255 255 255 255 255 255 255 255 255 255 255 255 255
255 255 255 255 255 255 255 255 255 255 255 255 255 255 255
255 255 255 255 255 255 255 255 255 255 255 255 255 255 255
255 255 255 255 255 255 255 255 255 255 255 255 255 255 255
255 255 255 255 255 255 255 255 255 255 255 255 255 255 255
255 255 255 255 255 255 255 255 255 255 255 255 255 255 255
255 255 255 255 255 255 255 255 255 255 255 255 255 255 255
255 255 255 255 255 255 255 255 255 255 255 255 255 255 255
255 255 255 255 255 255 255 255 255 255 255 255 255 255 255
255 255 255 255 255 255 255 255 255 255 255 255 255 255 255
255 255 255 255 255 255 255 255 255 255 255 255 255 255 255
255 255 255 255 255 255 255 255 255 255 255 255 255 255 255
255 255 255 255 255 255 255 255 255 255 255 255 255 255 255
255 255 255 255 255 255 255 255 255 255 255 255 255 255 255
255 255 255 255 255 255 255 255 255 255 255 255 255 255 255
255 255 255 255 255 255 255 255 255 255 255 255 255 255 255
255 255 255 255 255 255 255 255 255 255 255 255 255 255 255
255 255 255 255 255 255 255 255 255 255 255 255 255 255 255
255 255 255 255 255 255 255 255 255 255 255 255 255 255 255
255 255 255 255 255 255 255 255 255 255 255 255 255 255 255
255 255 255 255 255 255 255 255 255 255 255 255 255 255 255
255 255 255 255 255 255 255 255 255 255 255 255 255 255 255
255 255 255 255 255 255 255 255 255 255 255 255 255 255 255
255 255 255 255 255 255 255 255 255 255 255 255 255 255 255
255 255 255 255 255 255 255 255 255 255 255 255 255 255 255
255 255 255 255 255 255 255 255 255 254 255 255 252 253 255
250 251 255 250 251 255 252 253 255 253 254 255 254 254 254
253 253 253 252 250 251 255 254 255 255 250 250 255 245 246
255 251 251 251 237 237 255 243 244 229 201 213 180 134 160 118 58 96
88 20 67 103 25 83 135 43 116 156 52 139 159 40 144 167 38 154
174 35 162 184 40 172 193 47 184 197 50 190 195 48 188 190 45 184
184 41 182 181 40 178 172 32 165 170 33 163 171 34 164 173 36 166
177 40 170 178 41 170 178 41 170 176 42 167 174 40 165 176 42 165
173 39 162 167 33 156 170 38 160 179 47 169 180 48 170 169 45 159
166 51 154 166 51 152 168 45 152 171 40 154 177 43 158 171 41 150
139 25 120 101 9 84 158 94 146 244 203 233 255 241 251 254 253 251
246 248 245 250 255 251 247 249 248 246 247 249 243 247 248
246 250 249 249 253 254 250 254 255 252 253 255 251 252 254
252 253 255 253 254 255 252 253 255 252 253 255 250 254 255
250 254 253 249 255 253 249 255 251 249 255 251 250 255 251
252 254 253 253 253 253 254 254 252 254 254 252 255 254 252
255 254 252 255 254 253 255 254 253 255 253 253 255 253 253
255 254 251 255 254 251 255 254 251 255 254 251 255 254 251
255 254 253 255 254 255 254 252 255 251 251 253 250 252 251
252 253 255 252 255 255 251 255 255 251 255 255 242 248 246
251 255 255 252 255 255 250 252 251 246 246 244 251 250 248
255 254 252 255 253 255 255 250 255 249 228 243 255 231 255
245 205 239 138 85 131 76 8 67 122 40 114 150 54 141 161 53 154
166 48 158 168 43 161 170 38 160 168 31 160 172 32 163 181 39 173
190 48 182 188 46 180 184 42 178 181 39 175 184 42 178 189 47 183
191 50 181 189 48 178 184 46 168 179 48 162 159 40 142 174 70 157
160 74 147 100 35 93 123 77 123 215 184 218 244 229 250 247 242 249
246 247 249 249 250 252 249 250 252 246 247 249 246 247 249
249 250 252 252 253 255 251 252 254 252 253 255 252 253 255
253 254 255 253 254 255 252 253 255 252 253 255 251 252 254
253 253 253 253 253 253 254 254 254 254 254 254 254 254 254
254 254 254 255 255 255 255 255 255 255 255 255 255 255 255
255 255 255 255 255 255 255 255 255 255 255 255 255 255 255
255 255 255 255 255 255 255 255 255 255 255 255 255 255 255
255 255 255 255 255 255 255 255 255 255 255 255 255 255 255
255 255 255 255 255 255 255 255 255 255 255 255 255 255 255
255 255 255 255 255 255 255 255 255 255 255 255 255 255 255
255 255 255 255 255 255 255 255 255 255 255 255 255 255 255
255 255 255 255 255 255 255 255 255 255 255 255 255 255 255
255 255 255 255 255 255 255 255 255 255 255 255 255 255 255
255 255 255 255 255 255 255 255 255 255 255 255 255 255 255
255 255 255 255 255 255 255 255 255 255 255 255 255 255 255
255 255 255 255 255 255 255 255 255 255 255 255 255 255 255
255 255 255 255 255 255 255 255 255 255 255 255 255 255 255
255 255 255 255 255 255 255 255 255 255 255 255 255 255 255
255 255 255 255 255 255 255 255 255 255 255 255 255 255 255
255 255 255 255 255 255 255 255 255 255 255 255 255 255 255
255 255 255 255 255 255 255 255 255 255 255 255 255 255 255
255 255 255 255 255 255 255 255 255 255 255 255 255 255 255
255 255 255 255 255 255 255 255 255 255 255 255 255 255 255
255 255 255 255 255 255 255 255 255 255 255 255 255 255 255
255 255 255 255 255 255 255 255 255 255 255 255 255 255 255
255 255 255 255 255 255 255 255 255 255 255 255 255 255 255
255 255 255 255 255 255 255 255 255 255 255 255 255 255 255
255 255 255 255 255 255 255 255 255 255 255 255 255 255 255
255 255 255 255 255 255 255 255 255 255 255 255 255 255 255
255 255 255 255 255 255 255 255 255 255 255 255 255 255 255
255 255 255 255 255 255 255 255 255 255 255 255 255 255 255
255 255 255 255 255 255 255 255 255 255 255 255 255 255 255
255 255 255 255 255 255 255 255 255 255 255 255 255 255 255
255 255 255 255 255 255 255 255 255 255 255 255 255 255 255
255 255 255 255 255 255 255 255 255 255 255 255 255 255 255
255 255 255 255 255 255 255 255 255 255 255 255 255 255 255
255 255 255 255 255 255 255 255 255 255 255 255 255 255 255
255 255 255 255 255 255 255 255 255 255 255 255 255 255 255
255 255 255 255 255 255 255 255 255 255 255 255 255 255 255
255 255 255 255 255 255 255 255 255 255 255 255 255 255 255
255 255 255 255 255 255 255 255 255 255 255 255 255 255 255
255 255 255 255 255 255 255 255 255 255 255 255 255 255 255
255 255 255 255 255 255 255 255 255 255 255 255 255 255 255
255 255 255 255 255 255 255 255 255 255 255 255 255 255 255
255 255 255 255 255 255 255 255 255 255 255 255 255 255 255
255 255 255 255 255 255 255 255 255 255 255 255 255 255 255
255 255 255 255 255 255 255 255 255 255 255 255 255 255 255
255 255 255 255 255 255 255 255 255 255 255 255 254 255 255
252 253 255 250 251 253 250 251 253 252 253 255 253 254 255
254 254 254 253 253 253 255 253 254 255 254 255 255 251 251
255 246 247 255 246 248 252 237 240 255 240 243 197 171 182
123 77 103 96 36 74 96 28 75 113 35 93 137 46 116 157 53 138
161 45 144 169 42 155 175 39 163 186 45 175 199 55 189 205 60 197
204 59 196 195 53 189 185 44 182 179 39 174 178 38 171 176 36 167
173 33 164 173 33 164 175 36 165 176 39 168 178 41 170 179 43 169
174 40 165 175 41 164 171 39 161 167 35 155 171 39 159 179 47 167
177 48 167 169 45 159 166 51 154 167 50 154 170 44 154 173 40 155
176 42 157 171 41 150 142 27 122 107 13 89 164 97 150 254 210 243
255 246 255 254 248 250 255 255 253 253 255 252 238 238 238
242 243 245 242 248 248 243 252 251 249 254 255 250 255 255
251 255 255 252 253 255 252 253 255 253 252 255 253 252 255
253 253 255 254 252 255 254 252 253 254 252 253 254 252 253
255 252 253 253 253 253 250 254 255 249 255 255 250 255 255
250 255 255 251 255 255 251 255 255 252 255 255 252 255 255
252 255 255 252 255 255 252 255 255 252 255 255 252 255 255
252 255 255 252 255 255 254 255 255 255 254 255 255 254 255
253 251 252 252 252 250 252 254 253 251 255 252 251 255 255
250 255 254 249 255 255 250 255 254 249 255 253 251 255 254
254 255 255 255 255 255 252 252 252 252 246 250 255 239 251
255 235 254 233 197 223 176 130 166 113 53 104 98 24 87 138 50 128
163 63 153 170 58 158 171 49 158 171 42 160 172 36 160 173 34 163
176 35 165 186 42 174 196 52 184 184 40 172 186 42 176 187 43 177
184 43 174 188 47 178 191 52 181 187 51 175 180 47 164 171 45 153
172 58 154 160 61 144 145 64 133 116 56 108 155 114 154 246 220 249
253 240 255 247 244 251 247 248 250 250 251 253 250 251 253
249 250 252 249 250 252 251 252 254 254 255 255 251 252 254
252 253 255 252 253 255 253 254 255 253 254 255 252 253 255
252 253 255 251 252 254 253 253 253 253 253 253 254 254 254
254 254 254 254 254 254 254 254 254 255 255 255 255 255 255
255 255 255 255 255 255 255 255 255 255 255 255 255 255 255
255 255 255 255 255 255 255 255 255 255 255 255 255 255 255
255 255 255 255 255 255 255 255 255 255 255 255 255 255 255
255 255 255 255 255 255 255 255 255 255 255 255 255 255 255
255 255 255 255 255 255 255 255 255 255 255 255 255 255 255
255 255 255 255 255 255 255 255 255 255 255 255 255 255 255
255 255 255 255 255 255 255 255 255 255 255 255 255 255 255
255 255 255 255 255 255 255 255 255 255 255 255 255 255 255
255 255 255 255 255 255 255 255 255 255 255 255 255 255 255
255 255 255 255 255 255 255 255 255 255 255 255 255 255 255
255 255 255 255 255 255 255 255 255 255 255 255 255 255 255
255 255 255 255 255 255 255 255 255 255 255 255 255 255 255
255 255 255 255 255 255 255 255 255 255 255 255 255 255 255
255 255 255 255 255 255 255 255 255 255 255 255 255 255 255
255 255 255 255 255 255 255 255 255 255 255 255 255 255 255
255 255 255 255 255 255 255 255 255 255 255 255 255 255 255
255 255 255 255 255 255 255 255 255 255 255 255 255 255 255
255 255 255 255 255 255 255 255 255 255 255 255 255 255 255
255 255 255 255 255 255 255 255 255 255 255 255 255 255 255
255 255 255 255 255 255 255 255 255 255 255 255 255 255 255
255 255 255 255 255 255 255 255 255 255 255 255 255 255 255
255 255 255 255 255 255 255 255 255 255 255 255 255 255 255
255 255 255 255 255 255 255 255 255 255 255 255 255 255 255
255 255 255 255 255 255 255 255 255 255 255 255 255 255 255
255 255 255 255 255 255 255 255 255 255 255 255 255 255 255
255 255 255 255 255 255 255 255 255 255 255 255 255 255 255
255 255 255 255 255 255 255 255 255 255 255 255 255 255 255
255 255 255 255 255 255 255 255 255 255 255 255 255 255 255
255 255 255 255 255 255 255 255 255 255 255 255 255 255 255
255 255 255 255 255 255 255 255 255 255 255 255 255 255 255
255 255 255 255 255 255 255 255 255 255 255 255 255 255 255
255 255 255 255 255 255 255 255 255 255 255 255 255 255 255
255 255 255 255 255 255 255 255 255 255 255 255 255 255 255
255 255 255 255 255 255 255 255 255 255 255 255 255 255 255
255 255 255 255 255 255 255 255 255 255 255 255 255 255 255
255 255 255 255 255 255 255 255 255 255 255 255 255 255 255
255 255 255 255 255 255 255 255 255 255 255 255 255 255 255
255 255 255 255 255 255 255 255 255 255 255 255 255 255 255
255 255 255 255 255 255 255 255 255 255 255 255 255 255 255
255 255 255 255 255 255 255 255 255 255 255 255 255 255 255
255 255 255 255 255 255 255 255 255 255 255 255 255 255 255
255 255 255 255 255 255 255 255 255 255 255 255 255 255 255
255 255 255 255 255 255 255 255 255 255 255 255 255 255 255
255 255 255 254 255 255 252 254 253 250 251 253 250 252 251
252 253 255 253 255 254 254 254 254 253 253 253 255 254 255
254 250 251 255 252 254 255 249 250 255 244 248 255 242 245
255 240 246 174 148 159 91 45 71 89 29 65 107 40 84 120 43 99
132 42 112 153 51 134 164 48 145 175 49 159 179 45 166 186 47 174
194 53 184 199 57 191 199 57 193 194 54 189 185 47 182 181 41 174
182 41 172 179 38 169 176 35 166 174 34 165 175 36 165 178 39 168
179 40 167 178 42 166 173 39 162 174 40 161 170 38 158 168 36 156
172 40 160 176 47 165 176 47 165 169 45 157 166 49 154 168 48 154
169 43 153 173 40 155 177 43 158 171 41 150 146 31 126 115 21 99
174 105 160 235 189 225 255 232 251 254 243 249 255 252 253
252 250 251 245 240 244 249 249 251 243 251 253 243 253 254
244 254 255 246 254 255 248 253 255 250 254 255 252 253 255
254 253 255 254 252 255 254 252 255 255 251 255 255 251 255
255 250 253 255 250 253 255 249 253 255 251 255 250 254 255
246 255 255 248 255 255 248 255 255 248 255 255 248 255 255
249 255 255 249 255 255 249 255 255 249 255 255 249 255 255
249 255 255 249 255 255 249 255 255 249 255 255 251 255 255
255 255 253 255 255 251 254 253 249 253 254 249 253 255 250
254 255 253 252 255 253 250 255 252 251 255 255 246 252 250
239 243 242 248 252 253 254 255 255 248 248 250 247 245 248
255 248 255 254 230 246 255 220 244 171 126 157 98 43 83 116 47 102
144 63 130 148 53 135 159 53 145 169 50 154 177 49 162 179 44 164
177 37 162 182 37 166 189 44 175 194 47 180 192 45 178 180 33 165
183 38 169 189 45 176 190 49 177 188 49 176 181 47 168 177 46 162
173 47 155 174 55 155 183 77 165 132 42 116 113 39 100 163 110 156
219 184 217 249 230 252 247 239 252 248 247 253 250 251 253
252 253 255 252 253 255 252 253 255 252 253 255 254 255 255
254 255 255 251 252 254 252 253 255 252 253 255 253 254 255
253 254 255 252 253 255 252 253 255 251 252 254 253 253 253
253 253 253 254 254 254 254 254 254 254 254 254 254 254 254
255 255 255 255 255 255 255 255 255 255 255 255 255 255 255
255 255 255 255 255 255 255 255 255 255 255 255 255 255 255
255 255 255 255 255 255 255 255 255 255 255 255 255 255 255
255 255 255 255 255 255 255 255 255 255 255 255 255 255 255
255 255 255 255 255 255 255 255 255 255 255 255 255 255 255
255 255 255 255 255 255 255 255 255 255 255 255 255 255 255
255 255 255 255 255 255 255 255 255 255 255 255 255 255 255
255 255 255 255 255 255 255 255 255 255 255 255 255 255 255
255 255 255 255 255 255 255 255 255 255 255 255 255 255 255
255 255 255 255 255 255 255 255 255 255 255 255 255 255 255
255 255 255 255 255 255 255 255 255 255 255 255 255 255 255
255 255 255 255 255 255 255 255 255 255 255 255 255 255 255
255 255 255 255 255 255 255 255 255 255 255 255 255 255 255
255 255 255 255 255 255 255 255 255 255 255 255 255 255 255
255 255 255 255 255 255 255 255 255 255 255 255 255 255 255
255 255 255 255 255 255 255 255 255 255 255 255 255 255 255
255 255 255 255 255 255 255 255 255 255 255 255 255 255 255
255 255 255 255 255 255 255 255 255 255 255 255 255 255 255
255 255 255 255 255 255 255 255 255 255 255 255 255 255 255
255 255 255 255 255 255 255 255 255 255 255 255 255 255 255
255 255 255 255 255 255 255 255 255 255 255 255 255 255 255
255 255 255 255 255 255 255 255 255 255 255 255 255 255 255
255 255 255 255 255 255 255 255 255 255 255 255 255 255 255
255 255 255 255 255 255 255 255 255 255 255 255 255 255 255
255 255 255 255 255 255 255 255 255 255 255 255 255 255 255
255 255 255 255 255 255 255 255 255 255 255 255 255 255 255
255 255 255 255 255 255 255 255 255 255 255 255 255 255 255
255 255 255 255 255 255 255 255 255 255 255 255 255 255 255
255 255 255 255 255 255 255 255 255 255 255 255 255 255 255
255 255 255 255 255 255 255 255 255 255 255 255 255 255 255
255 255 255 255 255 255 255 255 255 255 255 255 255 255 255
255 255 255 255 255 255 255 255 255 255 255 255 255 255 255
255 255 255 255 255 255 255 255 255 255 255 255 255 255 255
255 255 255 255 255 255 255 255 255 255 255 255 255 255 255
255 255 255 255 255 255 255 255 255 255 255 255 255 255 255
255 255 255 255 255 255 255 255 255 255 255 255 255 255 255
255 255 255 255 255 255 255 255 255 255 255 255 255 255 255
255 255 255 255 255 255 255 255 255 255 255 255 255 255 255
255 255 255 255 255 255 255 255 255 255 255 255 255 255 255
255 255 255 255 255 255 255 255 255 255 255 255 255 255 255
255 255 255 255 255 255 255 255 255 255 255 255 255 255 255
255 255 255 255 255 255 255 255 255 255 255 255 255 255 255
255 255 255 255 255 255 255 255 255 255 255 255 255 255 255
255 255 255 255 255 255 255 255 255 254 255 255 252 254 251
250 252 251 250 252 249 252 254 253 253 255 254 253 255 254
253 253 253 255 254 255 253 249 250 255 253 255 255 250 253
255 242 249 255 245 249 254 239 246 160 134 147 72 26 52 85 25 61
113 46 90 124 47 101 131 42 110 154 52 135 167 51 148 178 52 160
185 52 171 185 46 171 182 41 171 182 41 172 185 43 177 187 47 180
187 50 182 188 48 181 182 41 172 182 38 170 180 36 168 177 36 167
178 37 167 178 39 168 178 39 166 175 39 163 173 39 162 172 38 159
169 37 157 169 37 156 171 42 160 175 46 162 175 46 162 168 44 156
168 48 156 168 46 155 171 43 156 175 42 159 178 44 159 170 42 151
150 34 131 127 30 111 154 83 141 184 133 174 240 208 232 255 243 255
253 242 248 248 239 244 255 249 254 255 254 255 247 255 255
243 254 255 241 252 254 241 251 253 243 251 253 247 252 255
251 255 255 254 255 255 253 253 255 255 251 255 255 251 255
255 250 253 255 249 253 255 249 253 255 248 253 255 250 255
252 253 255 247 255 255 250 255 255 250 255 255 250 255 255
250 255 255 249 255 255 249 255 255 249 255 255 249 255 255
249 255 255 249 255 255 249 255 255 249 255 255 249 255 255
251 255 255 255 255 251 254 254 246 253 252 247 253 254 248
253 255 249 254 255 251 254 255 253 251 255 252 251 255 254
247 251 250 244 245 247 242 241 246 244 242 247 247 245 250
251 246 253 255 244 255 229 193 219 175 125 160 110 53 94 102 35 86
141 63 125 154 62 137 146 42 129 162 46 145 169 41 150 184 46 165
185 42 166 177 31 158 184 35 165 201 49 183 203 51 186 191 39 173
185 36 166 185 39 166 190 47 171 193 55 177 186 53 172 174 46 159
173 50 157 180 61 161 176 67 158 147 50 129 111 30 96 121 57 109
208 164 200 255 238 255 251 238 255 255 253 255 249 248 253
249 250 252 250 251 253 251 252 254 251 252 254 252 253 255
253 254 255 254 255 255 251 252 254 252 253 255 252 253 255
253 254 255 253 254 255 252 253 255 252 253 255 251 252 254
253 253 253 253 253 253 254 254 254 254 254 254 254 254 254
254 254 254 255 255 255 255 255 255 255 255 255 255 255 255
255 255 255 255 255 255 255 255 255 255 255 255 255 255 255
255 255 255 255 255 255 255 255 255 255 255 255 255 255 255
255 255 255 255 255 255 255 255 255 255 255 255 255 255 255
255 255 255 255 255 255 255 255 255 255 255 255 255 255 255
255 255 255 255 255 255 255 255 255 255 255 255 255 255 255
255 255 255 255 255 255 255 255 255 255 255 255 255 255 255
255 255 255 255 255 255 255 255 255 255 255 255 255 255 255
255 255 255 255 255 255 255 255 255 255 255 255 255 255 255
255 255 255 255 255 255 255 255 255 255 255 255 255 255 255
255 255 255 255 255 255 255 255 255 255 255 255 255 255 255
255 255 255 255 255 255 255 255 255 255 255 255 255 255 255
255 255 255 255 255 255 255 255 255 255 255 255 255 255 255
255 255 255 255 255 255 255 255 255 255 255 255 255 255 255
255 255 255 255 255 255 255 255 255 255 255 255 255 255 255
255 255 255 255 255 255 255 255 255 255 255 255 255 255 255
255 255 255 255 255 255 255 255 255 255 255 255 255 255 255
255 255 255 255 255 255 255 255 255 255 255 255 255 255 255
255 255 255 255 255 255 255 255 255 255 255 255 255 255 255
255 255 255 255 255 255 255 255 255 255 255 255 255 255 255
255 255 255 255 255 255 255 255 255 255 255 255 255 255 255
255 255 255 255 255 255 255 255 255 255 255 255 255 255 255
255 255 255 255 255 255 255 255 255 255 255 255 255 255 255
255 255 255 255 255 255 255 255 255 255 255 255 255 255 255
255 255 255 255 255 255 255 255 255 255 255 255 255 255 255
255 255 255 255 255 255 255 255 255 255 255 255 255 255 255
255 255 255 255 255 255 255 255 255 255 255 255 255 255 255
255 255 255 255 255 255 255 255 255 255 255 255 255 255 255
255 255 255 255 255 255 255 255 255 255 255 255 255 255 255
255 255 255 255 255 255 255 255 255 255 255 255 255 255 255
255 255 255 255 255 255 255 255 255 255 255 255 255 255 255
255 255 255 255 255 255 255 255 255 255 255 255 255 255 255
255 255 255 255 255 255 255 255 255 255 255 255 255 255 255
255 255 255 255 255 255 255 255 255 255 255 255 255 255 255
255 255 255 255 255 255 255 255 255 255 255 255 255 255 255
255 255 255 255 255 255 255 255 255 255 255 255 255 255 255
255 255 255 255 255 255 255 255 255 255 255 255 255 255 255
255 255 255 255 255 255 255 255 255 255 255 255 255 255 255
255 255 255 255 255 255 255 255 255 255 255 255 255 255 255
255 255 255 255 255 255 255 255 255 255 255 255 255 255 255
255 255 255 255 255 255 255 255 255 255 255 255 255 255 255
255 255 255 255 255 255 255 255 255 255 255 255 255 255 255
255 255 255 255 255 255 255 255 255 255 255 255 255 255 255
255 255 255 255 255 255 255 255 255 255 255 255 254 255 253
252 254 251 250 252 249 250 252 249 252 254 251 253 255 252
253 255 254 252 254 253 255 255 255 252 250 251 255 252 255
255 249 253 254 243 249 254 241 248 248 233 240 156 129 144 64 15 44
80 18 57 112 43 90 126 47 104 137 46 115 160 57 140 170 54 151
177 51 159 176 43 160 179 40 165 182 41 171 188 47 178 194 52 186
194 54 187 190 50 183 185 45 178 184 40 172 183 39 171 181 37 169
181 37 168 182 38 169 180 39 167 178 39 164 174 38 162 174 39 160
171 37 158 168 36 155 170 38 157 172 43 159 174 45 161 172 45 158
168 44 156 168 46 157 168 44 156 173 42 158 176 43 160 180 46 161
172 44 153 156 40 137 138 39 121 105 29 93 122 64 112 213 174 205
255 237 255 255 245 255 251 235 245 255 244 254 255 248 255
251 255 255 243 254 255 238 249 251 237 247 248 239 249 250
244 253 252 249 255 255 252 255 255 252 254 253 253 253 253
255 252 253 255 251 251 255 250 253 255 250 251 255 249 253
255 250 253 254 252 255 252 253 255 253 254 255 253 254 255
253 254 255 251 255 255 252 255 255 251 255 255 251 255 255
251 255 255 251 255 255 251 255 255 251 255 255 251 255 255
252 255 255 252 255 255 253 255 249 252 254 243 252 253 245
251 254 247 253 255 249 253 255 250 253 253 251 252 252 252
243 241 244 255 253 255 255 252 255 251 243 254 255 250 255
255 250 255 245 231 246 206 181 203 156 109 145 95 33 80 108 39 93
148 70 130 150 60 132 159 57 141 171 57 153 174 48 155 176 42 157
186 44 166 184 35 163 174 23 154 184 30 164 203 48 184 206 51 187
193 39 173 193 44 170 190 46 167 188 49 168 185 52 167 180 52 163
174 53 158 176 62 158 180 74 162 145 48 127 95 10 77 130 60 114
192 139 181 243 209 236 255 247 255 250 244 254 253 254 255
247 248 252 247 248 250 248 249 251 248 249 251 249 250 252
249 250 252 250 251 253 250 251 253 251 252 254 252 253 255
252 253 255 253 254 255 253 254 255 252 253 255 252 253 255
251 252 254 253 253 253 253 253 253 254 254 254 254 254 254
254 254 254 254 254 254 255 255 255 255 255 255 255 255 255
255 255 255 255 255 255 255 255 255 255 255 255 255 255 255
255 255 255 255 255 255 255 255 255 255 255 255 255 255 255
255 255 255 255 255 255 255 255 255 255 255 255 255 255 255
255 255 255 255 255 255 255 255 255 255 255 255 255 255 255
255 255 255 255 255 255 255 255 255 255 255 255 255 255 255
255 255 255 255 255 255 255 255 255 255 255 255 255 255 255
255 255 255 255 255 255 255 255 255 255 255 255 255 255 255
255 255 255 255 255 255 255 255 255 255 255 255 255 255 255
255 255 255 255 255 255 255 255 255 255 255 255 255 255 255
255 255 255 255 255 255 255 255 255 255 255 255 255 255 255
255 255 255 255 255 255 255 255 255 255 255 255 255 255 255
255 255 255 255 255 255 255 255 255 255 255 255 255 255 255
255 255 255 255 255 255 255 255 255 255 255 255 255 255 255
255 255 255 255 255 255 255 255 255 255 255 255 255 255 255
255 255 255 255 255 255 255 255 255 255 255 255 255 255 255
255 255 255 255 255 255 255 255 255 255 255 255 255 255 255
255 255 255 255 255 255 255 255 255 255 255 255 255 255 255
255 255 255 255 255 255 255 255 255 255 255 255 255 255 255
255 255 255 255 255 255 255 255 255 255 255 255 255 255 255
255 255 255 255 255 255 255 255 255 255 255 255 255 255 255
255 255 255 255 255 255 255 255 255 255 255 255 255 255 255
255 255 255 255 255 255 255 255 255 255 255 255 255 255 255
255 255 255 255 255 255 255 255 255 255 255 255 255 255 255
255 255 255 255 255 255 255 255 255 255 255 255 255 255 255
255 255 255 255 255 255 255 255 255 255 255 255 255 255 255
255 255 255 255 255 255 255 255 255 255 255 255 255 255 255
255 255 255 255 255 255 255 255 255 255 255 255 255 255 255
255 255 255 255 255 255 255 255 255 255 255 255 255 255 255
255 255 255 255 255 255 255 255 255 255 255 255 255 255 255
255 255 255 255 255 255 255 255 255 255 255 255 255 255 255
255 255 255 255 255 255 255 255 255 255 255 255 255 255 255
255 255 255 255 255 255 255 255 255 255 255 255 255 255 255
255 255 255 255 255 255 255 255 255 255 255 255 255 255 255
255 255 255 255 255 255 255 255 255 255 255 255 255 255 255
255 255 255 255 255 255 255 255 255 255 255 255 255 255 255
255 255 255 255 255 255 255 255 255 255 255 255 255 255 255
255 255 255 255 255 255 255 255 255 255 255 255 255 255 255
255 255 255 255 255 255 255 255 255 255 255 255 255 255 255
255 255 255 255 255 255 255 255 255 255 255 255 255 255 255
255 255 255 255 255 255 255 255 255 255 255 255 255 255 255
255 255 255 255 255 255 255 255 255 255 255 255 255 255 255
255 255 255 255 255 255 255 255 255 255 255 255 255 255 255
255 255 255 255 255 255 255 255 255 255 255 255 255 255 255
255 255 253 253 254 249 250 252 247 250 252 247 252 254 251
253 255 252 253 255 254 252 254 253 255 255 255 254 252 253
255 252 255 255 249 253 255 246 254 253 242 250 247 234 243
166 139 156 80 29 60 88 21 64 111 39 89 124 43 102 138 47 117
163 59 144 170 54 151 175 49 157 169 36 153 173 34 159 183 39 170
193 49 181 202 58 192 203 58 195 195 50 187 187 43 177 187 41 174
185 39 172 183 38 169 181 37 168 182 38 169 180 39 167 178 39 164
175 39 163 174 39 160 170 36 157 168 36 155 170 39 155 172 43 159
174 45 161 172 45 158 170 43 156 168 43 160 169 42 159 174 41 160
179 44 162 181 47 162 177 47 156 163 44 144 148 46 130 100 17 87
93 28 82 158 110 150 210 174 202 255 226 248 255 237 254 255 236 252
252 236 247 252 253 255 242 252 254 238 248 249 237 247 248
239 249 248 242 253 249 245 254 251 246 255 250 249 255 251
250 255 251 250 255 251 252 254 249 253 253 251 254 253 249
255 252 251 255 252 251 255 251 251 255 251 251 255 253 252
255 253 252 255 253 254 255 253 254 255 254 255 255 255 255
255 255 255 255 255 255 255 255 255 255 255 255 255 255 255
255 255 255 255 254 255 255 255 253 253 255 249 250 255 246
249 254 247 251 254 247 252 254 249 252 252 250 254 250 251
253 247 251 254 243 251 255 249 255 255 248 255 255 235 254
252 227 249 235 207 232 183 153 179 135 93 129 108 46 97 104 28 90
141 58 126 155 63 138 151 49 133 177 63 159 187 61 168 182 48 163
184 42 164 183 34 162 179 27 161 183 27 163 192 36 172 199 42 181
196 39 178 189 35 167 192 44 166 194 53 166 186 52 163 172 45 152
169 50 150 174 65 158 168 66 150 151 57 133 123 38 105 127 54 109
193 134 178 255 215 245 255 237 255 252 240 250 245 244 249
239 245 245 249 250 252 248 249 251 248 249 251 248 249 251
249 250 252 249 250 252 249 250 252 249 250 252 251 252 254
252 253 255 252 253 255 253 254 255 253 254 255 252 253 255
252 253 255 251 252 254 253 253 253 253 253 253 254 254 254
254 254 254 254 254 254 254 254 254 255 255 255 255 255 255
255 255 255 255 255 255 255 255 255 255 255 255 255 255 255
255 255 255 255 255 255 255 255 255 255 255 255 255 255 255
255 255 255 255 255 255 255 255 255 255 255 255 255 255 255
255 255 255 255 255 255 255 255 255 255 255 255 255 255 255
255 255 255 255 255 255 255 255 255 255 255 255 255 255 255
255 255 255 255 255 255 255 255 255 255 255 255 255 255 255
255 255 255 255 255 255 255 255 255 255 255 255 255 255 255
255 255 255 255 255 255 255 255 255 255 255 255 255 255 255
255 255 255 255 255 255 255 255 255 255 255 255 255 255 255
255 255 255 255 255 255 255 255 255 255 255 255 255 255 255
255 255 255 255 255 255 255 255 255 255 255 255 255 255 255
255 255 255 255 255 255 255 255 255 255 255 255 255 255 255
255 255 255 255 255 255 255 255 255 255 255 255 255 255 255
255 255 255 255 255 255 255 255 255 255 255 255 255 255 255
255 255 255 255 255 255 255 255 255 255 255 255 255 255 255
255 255 255 255 255 255 255 255 255 255 255 255 255 255 255
255 255 255 255 255 255 255 255 255 255 255 255 255 255 255
255 255 255 255 255 255 255 255 255 255 255 255 255 255 255
255 255 255 255 255 255 255 255 255 255 255 255 255 255 255
255 255 255 255 255 255 255 255 255 255 255 255 255 255 255
255 255 255 255 255 255 255 255 255 255 255 255 255 255 255
255 255 255 255 255 255 255 255 255 255 255 255 255 255 255
255 255 255 255 255 255 255 255 255 255 255 255 255 255 255
255 255 255 255 255 255 255 255 255 255 255 255 255 255 255
255 255 255 255 255 255 255 255 255 255 255 255 255 255 255
255 255 255 255 255 255 255 255 255 255 255 255 255 255 255
255 255 255 255 255 255 255 255 255 255 255 255 255 255 255
255 255 255 255 255 255 255 255 255 255 255 255 255 255 255
255 255 255 255 255 255 255 255 255 255 255 255 255 255 255
255 255 255 255 255 255 255 255 255 255 255 255 255 255 255
255 255 255 255 255 255 255 255 255 255 255 255 255 255 255
255 255 255 255 255 255 255 255 255 255 255 255 255 255 255
255 255 255 255 255 255 255 255 255 255 255 255 255 255 255
255 255 255 255 255 255 255 255 255 255 255 255 255 255 255
255 255 255 255 255 255 255 255 255 255 255 255 255 255 255
255 255 255 255 255 255 255 255 255 255 255 255 255 255 255
255 255 255 255 255 255 255 255 255 255 255 255 255 255 255
255 255 255 255 255 255 255 255 255 255 255 255 255 255 255
255 255 255 255 255 255 255 255 255 255 255 255 255 255 255
255 255 255 255 255 255 255 255 255 255 255 255 255 255 255
255 255 255 255 255 255 255 255 255 255 255 255 255 255 255
255 255 255 255 255 255 255 255 255 255 255 255 255 255 255
255 255 255 255 255 255 255 255 255 255 255 255 255 255 255
255 255 253 255 255 253 253 254 249 250 252 247 250 252 247
252 254 251 253 255 252 253 255 254 252 254 253 253 253 253
254 254 254 254 252 255 255 250 254 255 251 255 255 246 254
251 240 248 178 154 170 104 53 86 100 32 79 112 38 91 120 38 100
136 42 116 161 57 142 168 52 149 171 48 155 175 42 159 172 32 157
169 25 156 174 28 161 184 38 175 195 49 186 199 53 190 199 53 190
189 42 175 187 40 172 182 37 168 181 36 167 181 38 166 182 39 167
180 40 165 179 40 165 174 39 160 170 36 157 168 35 154 171 40 156
175 43 162 173 44 160 172 43 159 170 43 158 171 42 161 172 40 160
174 40 161 180 45 165 182 48 163 178 48 157 167 47 147 155 49 139
146 55 132 102 28 91 104 44 96 130 82 122 228 184 217 255 233 255
255 236 255 255 241 255 254 248 255 245 248 253 241 246 250
240 245 248 243 249 249 243 252 249 244 253 248 242 253 245
246 255 249 246 255 249 246 255 249 247 255 249 249 255 249
249 255 249 250 255 249 252 254 249 255 252 248 255 251 248
255 252 249 255 253 249 255 253 250 255 253 250 255 254 251
255 255 251 255 255 251 255 255 251 255 255 253 255 255 253
255 254 253 255 254 253 255 254 253 255 255 253 252 255 251
251 255 250 250 255 249 251 253 250 253 251 252 255 249 253
255 244 252 255 239 253 255 245 255 255 243 255 255 235 255
245 205 239 193 149 185 134 88 125 104 56 96 106 48 98 122 46 111
158 67 146 157 62 144 132 28 117 160 46 144 180 57 164 162 29 144
182 42 165 185 38 168 175 23 157 177 22 158 194 37 176 203 46 185
194 37 176 184 29 167 180 31 159 179 38 153 189 56 161 182 56 156
159 41 137 157 51 139 170 73 152 150 63 132 110 30 91 133 63 117
209 151 192 249 202 234 255 235 255 255 246 255 242 235 242
243 247 246 239 248 245 250 254 255 252 253 255 251 252 254
251 252 254 252 253 255 252 253 255 251 252 254 250 251 253
251 252 254 252 253 255 252 253 255 253 254 255 253 254 255
252 253 255 252 253 255 251 252 254 253 253 253 253 253 253
254 254 254 254 254 254 254 254 254 254 254 254 255 255 255
255 255 255 255 255 255 255 255 255 255 255 255 255 255 255
255 255 255 255 255 255 255 255 255 255 255 255 255 255 255
255 255 255 255 255 255 255 255 255 255 255 255 255 255 255
255 255 255 255 255 255 255 255 255 255 255 255 255 255 255
255 255 255 255 255 255 255 255 255 255 255 255 255 255 255
255 255 255 255 255 255 255 255 255 255 255 255 255 255 255
255 255 255 255 255 255 255 255 255 255 255 255 255 255 255
255 255 255 255 255 255 255 255 255 255 255 255 255 255 255
255 255 255 255 255 255 255 255 255 255 255 255 255 255 255
255 255 255 255 255 255 255 255 255 255 255 255 255 255 255
255 255 255 255 255 255 255 255 255 255 255 255 255 255 255
255 255 255 255 255 255 255 255 255 255 255 255 255 255 255
255 255 255 255 255 255 255 255 255 255 255 255 255 255 255
255 255 255 255 255 255 255 255 255 255 255 255 255 255 255
255 255 255 255 255 255 255 255 255 255 255 255 255 255 255
255 255 255 255 255 255 255 255 255 255 255 255 255 255 255
255 255 255 255 255 255 255 255 255 255 255 255 255 255 255
255 255 255 255 255 255 255 255 255 255 255 255 255 255 255
255 255 255 255 255 255 255 255 255 255 255 255 255 255 255
255 255 255 255 255 255 255 255 255 255 255 255 255 255 255
255 255 255 255 255 255 255 255 255 255 255 255 255 255 255
255 255 255 255 255 255 255 255 255 255 255 255 255 255 255
255 255 255 255 255 255 255 255 255 255 255 255 255 255 255
255 255 255 255 255 255 255 255 255 255 255 255 255 255 255
255 255 255 255 255 255 255 255 255 255 255 255 255 255 255
255 255 255 255 255 255 255 255 255 255 255 255 255 255 255
255 255 255 255 255 255 255 255 255 255 255 255 255 255 255
255 255 255 255 255 255 255 255 255 255 255 255 255 255 255
255 255 255 255 255 255 255 255 255 255 255 255 255 255 255
255 255 255 255 255 255 255 255 255 255 255 255 255 255 255
255 255 255 255 255 255 255 255 255 255 255 255 255 255 255
255 255 255 255 255 255 255 255 255 255 255 255 255 255 255
255 255 255 255 255 255 255 255 255 255 255 255 255 255 255
255 255 255 255 255 255 255 255 255 255 255 255 255 255 255
255 255 255 255 255 255 255 255 255 255 255 255 255 255 255
255 255 255 255 255 255 255 255 255 255 255 255 255 255 255
255 255 255 255 255 255 255 255 255 255 255 255 255 255 255
255 255 255 255 255 255 255 255 255 255 255 255 255 255 255
255 255 255 255 255 255 255 255 255 255 255 255 255 255 255
255 255 255 255 255 255 255 255 255 255 255 255 255 255 255
255 255 255 255 255 255 255 255 255 255 255 255 255 255 255
255 255 255 255 255 255 255 255 255 255 255 255 255 255 255
255 255 255 255 255 255 255 255 255 255 255 255 255 255 255
255 255 255 255 255 253 254 254 252 254 255 250 253 255 250
253 255 250 253 255 252 253 255 252 251 255 254 251 255 254
248 250 249 255 255 255 255 253 255 251 246 250 255 250 255
255 251 255 246 235 243 225 201 217 172 120 156 119 53 101 99 26 81
115 35 98 121 29 102 134 32 116 163 49 145 177 54 161 173 40 157
171 33 155 171 27 158 176 30 163 186 38 176 194 46 184 196 48 188
195 47 185 197 50 183 196 51 182 193 48 179 186 41 170 178 35 163
174 31 159 172 32 157 173 34 159 170 34 158 174 40 161 179 45 166
180 48 167 178 46 166 175 46 164 175 46 164 176 47 165 175 43 165
176 42 167 177 42 163 176 41 161 176 42 157 173 43 152 167 46 149
160 49 144 163 65 150 150 66 141 122 47 112 98 35 90 128 70 118
199 147 186 255 209 244 255 235 255 255 237 253 246 238 249
250 245 252 255 254 255 255 255 255 249 253 252 245 251 247
245 255 248 240 253 244 239 255 244 240 255 245 242 255 247
243 255 249 244 255 250 244 255 250 248 255 249 255 252 243
255 250 240 254 250 241 253 250 241 252 252 242 251 253 242
249 250 242 248 249 241 248 249 241 250 251 243 252 253 247
252 253 247 252 251 247 251 250 246 254 250 247 252 251 247
253 255 254 252 255 255 251 251 253 242 240 245 245 235 244
255 240 253 255 241 255 255 235 255 255 230 255 237 191 228
186 133 177 140 81 129 115 51 103 112 43 98 122 51 109 135 56 122
150 56 140 156 52 147 158 50 149 163 48 152 168 44 156 173 41 160
177 38 163 181 36 167 181 31 165 183 31 168 183 31 168 184 32 169
187 35 172 190 38 175 187 37 171 178 35 159 186 55 161 172 51 146
162 47 138 161 58 141 155 63 136 131 49 115 123 50 106 138 75 122
201 144 185 238 191 223 255 233 255 255 243 255 255 244 253
255 253 254 251 255 253 242 251 246 252 255 255 254 255 255
254 255 255 254 255 255 254 255 255 254 255 255 254 255 255
254 255 255 254 255 255 254 255 255 254 255 255 254 255 255
254 255 255 254 255 255 254 255 255 254 255 255 255 255 255
255 255 255 255 255 255 255 255 255 255 255 255 255 255 255
255 255 255 255 255 255 255 255 255 255 255 255 255 255 255
255 255 255 255 255 255 255 255 255 255 255 255 255 255 255
255 255 255 255 255 255 255 255 255 255 255 255 255 255 255
255 255 255 255 255 255 255 255 255 255 255 255 255 255 255
255 255 255 255 255 255 255 255 255 255 255 255 255 255 255
255 255 255 255 255 255 255 255 255 255 255 255 255 255 255
255 255 255 255 255 255 255 255 255 255 255 255 255 255 255
255 255 255 255 255 255 255 255 255 255 255 255 255 255 255
255 255 255 255 255 255 255 255 255 255 255 255 255 255 255
255 255 255 255 255 255 255 255 255 255 255 255 255 255 255
255 255 255 255 255 255 255 255 255 255 255 255 255 255 255
255 255 255 255 255 255 255 255 255 255 255 255 255 255 255
255 255 255 255 255 255 255 255 255 255 255 255 255 255 255
255 255 255 255 255 255 255 255 255 255 255 255 255 255 255
255 255 255 255 255 255 255 255 255 255 255 255 255 255 255
255 255 255 255 255 255 255 255 255 255 255 255 255 255 255
255 255 255 255 255 255 255 255 255 255 255 255 255 255 255
255 255 255 255 255 255 255 255 255 255 255 255 255 255 255
255 255 255 255 255 255 255 255 255 255 255 255 255 255 255
255 255 255 255 255 255 255 255 255 255 255 255 255 255 255
255 255 255 255 255 255 255 255 255 255 255 255 255 255 255
255 255 255 255 255 255 255 255 255 255 255 255 255 255 255
255 255 255 255 255 255 255 255 255 255 255 255 255 255 255
255 255 255 255 255 255 255 255 255 255 255 255 255 255 255
255 255 255 255 255 255 255 255 255 255 255 255 255 255 255
255 255 255 255 255 255 255 255 255 255 255 255 255 255 255
255 255 255 255 255 255 255 255 255 255 255 255 255 255 255
255 255 255 255 255 255 255 255 255 255 255 255 255 255 255
255 255 255 255 255 255 255 255 255 255 255 255 255 255 255
255 255 255 255 255 255 255 255 255 255 255 255 255 255 255
255 255 255 255 255 255 255 255 255 255 255 255 255 255 255
255 255 255 255 255 255 255 255 255 255 255 255 255 255 255
255 255 255 255 255 255 255 255 255 255 255 255 255 255 255
255 255 255 255 255 255 255 255 255 255 255 255 255 255 255
255 255 255 255 255 255 255 255 255 255 255 255 255 255 255
255 255 255 255 255 255 255 255 255 255 255 255 255 255 255
255 255 255 255 255 255 255 255 255 255 255 255 255 255 255
255 255 255 255 255 255 255 255 255 255 255 255 255 255 255
255 255 255 255 255 255 255 255 255 255 255 255 255 255 255
255 255 255 255 255 255 255 255 255 255 255 255 255 255 255
255 255 255 255 255 255 255 255 255 255 255 255 255 255 255
255 255 255 255 255 255 255 255 255 255 255 255 255 255 255
255 255 255 255 255 255 255 255 255 255 255 255 255 255 255
255 255 255 255 255 255 255 255 255 254 254 252 254 255 250
253 255 250 253 255 250 253 255 252 253 255 252 251 255 254
251 255 254 247 249 248 254 255 255 255 255 255 252 250 253
255 252 255 255 252 255 255 245 253 246 223 239 220 173 207
129 67 114 78 9 63 103 28 87 128 41 112 130 33 114 143 34 127
159 40 142 167 39 150 176 41 161 183 42 170 184 39 170 180 33 166
182 34 170 191 43 181 200 52 188 195 50 181 196 51 180 196 51 180
192 49 177 188 45 173 184 41 169 179 39 164 178 38 163 173 34 159
173 37 161 176 40 164 176 42 165 176 42 165 175 43 165 175 43 163
176 44 166 176 39 168 178 39 168 178 39 164 176 41 161 175 41 156
173 43 152 168 45 151 164 48 149 143 38 131 153 57 144 157 70 149
134 54 125 99 28 88 101 34 87 158 95 140 215 163 201 255 226 253
255 234 255 255 238 255 253 237 250 248 236 246 248 243 247
251 251 251 251 255 252 246 255 250 246 255 249 247 255 251
245 255 251 244 255 252 242 255 250 239 254 249 240 251 243
254 254 246 255 251 240 252 249 240 250 250 240 250 252 241
250 253 242 249 252 243 246 252 242 248 254 244 249 252 245
248 251 244 249 250 245 251 250 246 255 252 249 255 254 253
255 254 255 251 246 253 253 247 255 255 245 255 255 242 255
255 236 255 255 225 253 243 206 240 234 188 227 156 100 147
137 72 126 116 45 105 114 35 100 129 44 112 142 55 126 145 55 129
145 47 130 157 51 149 161 48 156 164 46 158 168 43 161 173 41 163
175 38 167 180 36 168 182 34 170 188 37 174 186 35 174 185 34 171
181 33 169 176 30 163 178 34 165 190 49 177 201 68 183 163 43 140
162 53 136 148 47 125 154 64 134 155 77 139 104 37 90 117 60 105
214 167 203 247 204 232 255 230 251 255 245 255 255 249 255
255 248 251 254 254 252 249 255 253 245 254 249 252 255 255
254 255 255 254 255 255 254 255 255 254 255 255 254 255 255
254 255 255 254 255 255 254 255 255 254 255 255 254 255 255
254 255 255 254 255 255 254 255 255 254 255 255 254 255 255
255 255 255 255 255 255 255 255 255 255 255 255 255 255 255
255 255 255 255 255 255 255 255 255 255 255 255 255 255 255
255 255 255 255 255 255 255 255 255 255 255 255 255 255 255
255 255 255 255 255 255 255 255 255 255 255 255 255 255 255
255 255 255 255 255 255 255 255 255 255 255 255 255 255 255
255 255 255 255 255 255 255 255 255 255 255 255 255 255 255
255 255 255 255 255 255 255 255 255 255 255 255 255 255 255
255 255 255 255 255 255 255 255 255 255 255 255 255 255 255
255 255 255 255 255 255 255 255 255 255 255 255 255 255 255
255 255 255 255 255 255 255 255 255 255 255 255 255 255 255
255 255 255 255 255 255 255 255 255 255 255 255 255 255 255
255 255 255 255 255 255 255 255 255 255 255 255 255 255 255
255 255 255 255 255 255 255 255 255 255 255 255 255 255 255
255 255 255 255 255 255 255 255 255 255 255 255 255 255 255
255 255 255 255 255 255 255 255 255 255 255 255 255 255 255
255 255 255 255 255 255 255 255 255 255 255 255 255 255 255
255 255 255 255 255 255 255 255 255 255 255 255 255 255 255
255 255 255 255 255 255 255 255 255 255 255 255 255 255 255
255 255 255 255 255 255 255 255 255 255 255 255 255 255 255
255 255 255 255 255 255 255 255 255 255 255 255 255 255 255
255 255 255 255 255 255 255 255 255 255 255 255 255 255 255
255 255 255 255 255 255 255 255 255 255 255 255 255 255 255
255 255 255 255 255 255 255 255 255 255 255 255 255 255 255
255 255 255 255 255 255 255 255 255 255 255 255 255 255 255
255 255 255 255 255 255 255 255 255 255 255 255 255 255 255
255 255 255 255 255 255 255 255 255 255 255 255 255 255 255
255 255 255 255 255 255 255 255 255 255 255 255 255 255 255
255 255 255 255 255 255 255 255 255 255 255 255 255 255 255
255 255 255 255 255 255 255 255 255 255 255 255 255 255 255
255 255 255 255 255 255 255 255 255 255 255 255 255 255 255
255 255 255 255 255 255 255 255 255 255 255 255 255 255 255
255 255 255 255 255 255 255 255 255 255 255 255 255 255 255
255 255 255 255 255 255 255 255 255 255 255 255 255 255 255
255 255 255 255 255 255 255 255 255 255 255 255 255 255 255
255 255 255 255 255 255 255 255 255 255 255 255 255 255 255
255 255 255 255 255 255 255 255 255 255 255 255 255 255 255
255 255 255 255 255 255 255 255 255 255 255 255 255 255 255
255 255 255 255 255 255 255 255 255 255 255 255 255 255 255
255 255 255 255 255 255 255 255 255 255 255 255 255 255 255
255 255 255 255 255 255 255 255 255 255 255 255 255 255 255
255 255 255 255 255 255 255 255 255 255 255 255 255 255 255
255 255 255 255 255 255 255 255 255 255 255 255 255 255 255
255 255 255 255 255 255 255 255 255 255 255 255 255 255 255
255 255 255 255 255 255 255 255 255 255 255 255 255 255 255
255 255 255 255 255 255 255 255 255 255 255 255 254 254 252
254 254 252 253 255 252 253 255 252 253 255 252 253 255 252
251 255 254 251 255 254 249 251 250 253 255 254 255 255 255
254 252 255 255 251 255 255 253 255 255 253 255 255 246 255
254 215 244 171 119 158 107 48 94 111 44 97 123 44 109 112 24 98
123 24 107 155 44 139 170 49 154 172 44 155 174 39 159 177 37 162
182 39 167 185 40 171 186 40 173 186 41 172 192 47 176 193 50 176
196 53 179 197 57 182 198 57 185 195 54 182 189 48 176 185 44 172
177 38 165 175 36 163 174 35 162 172 36 162 173 36 165 174 39 167
174 39 167 175 38 167 176 36 167 176 36 167 177 38 165 175 40 161
175 41 156 173 42 154 170 44 152 167 46 151 170 55 158 164 56 155
156 55 147 149 55 141 144 58 133 138 57 123 129 51 109 114 46 97
134 79 119 184 138 174 242 201 233 255 231 255 255 235 255
255 238 253 255 244 254 255 247 252 255 251 255 251 251 253
245 249 250 243 249 249 244 249 252 244 252 254 248 255 255
252 255 255 252 253 248 252 251 246 251 250 245 251 252 246
250 255 249 251 255 251 251 255 253 251 255 253 251 255 253
252 255 255 253 255 254 255 255 255 255 254 255 255 253 255
255 248 255 254 242 252 255 241 255 255 231 255 251 222 253
243 209 244 219 178 218 174 125 170 125 67 118 95 27 86 108 33 98
124 41 111 141 50 127 149 51 134 151 49 135 154 48 136 164 55 146
174 62 160 164 46 156 167 43 163 170 42 165 173 40 167 175 38 168
178 37 168 180 36 170 181 35 170 182 34 170 177 31 166 178 34 166
181 40 168 177 41 165 169 36 155 165 36 152 166 45 150 159 54 139
153 60 131 154 69 136 122 49 105 93 34 82 149 99 137 221 180 212
236 202 227 255 238 255 255 244 255 255 247 255 255 247 251
255 251 253 255 255 253 251 255 253 249 255 253 252 255 255
254 255 255 254 255 255 254 255 255 254 255 255 254 255 255
254 255 255 254 255 255 254 255 255 254 255 255 254 255 255
254 255 255 254 255 255 254 255 255 254 255 255 254 255 255
255 255 255 255 255 255 255 255 255 255 255 255 255 255 255
255 255 255 255 255 255 255 255 255 255 255 255 255 255 255
255 255 255 255 255 255 255 255 255 255 255 255 255 255 255
255 255 255 255 255 255 255 255 255 255 255 255 255 255 255
255 255 255 255 255 255 255 255 255 255 255 255 255 255 255
255 255 255 255 255 255 255 255 255 255 255 255 255 255 255
255 255 255 255 255 255 255 255 255 255 255 255 255 255 255
255 255 255 255 255 255 255 255 255 255 255 255 255 255 255
255 255 255 255 255 255 255 255 255 255 255 255 255 255 255
255 255 255 255 255 255 255 255 255 255 255 255 255 255 255
255 255 255 255 255 255 255 255 255 255 255 255 255 255 255
255 255 255 255 255 255 255 255 255 255 255 255 255 255 255
255 255 255 255 255 255 255 255 255 255 255 255 255 255 255
255 255 255 255 255 255 255 255 255 255 255 255 255 255 255
255 255 255 255 255 255 255 255 255 255 255 255 255 255 255
255 255 255 255 255 255 255 255 255 255 255 255 255 255 255
255 255 255 255 255 255 255 255 255 255 255 255 255 255 255
255 255 255 255 255 255 255 255 255 255 255 255 255 255 255
255 255 255 255 255 255 255 255 255 255 255 255 255 255 255
255 255 255 255 255 255 255 255 255 255 255 255 255 255 255
255 255 255 255 255 255 255 255 255 255 255 255 255 255 255
255 255 255 255 255 255 255 255 255 255 255 255 255 255 255
255 255 255 255 255 255 255 255 255 255 255 255 255 255 255
255 255 255 255 255 255 255 255 255 255 255 255 255 255 255
255 255 255 255 255 255 255 255 255 255 255 255 255 255 255
255 255 255 255 255 255 255 255 255 255 255 255 255 255 255
255 255 255 255 255 255 255 255 255 255 255 255 255 255 255
255 255 255 255 255 255 255 255 255 255 255 255 255 255 255
255 255 255 255 255 255 255 255 255 255 255 255 255 255 255
255 255 255 255 255 255 255 255 255 255 255 255 255 255 255
255 255 255 255 255 255 255 255 255 255 255 255 255 255 255
255 255 255 255 255 255 255 255 255 255 255 255 255 255 255
255 255 255 255 255 255 255 255 255 255 255 255 255 255 255
255 255 255 255 255 255 255 255 255 255 255 255 255 255 255
255 255 255 255 255 255 255 255 255 255 255 255 255 255 255
255 255 255 255 255 255 255 255 255 255 255 255 255 255 255
255 255 255 255 255 255 255 255 255 255 255 255 255 255 255
255 255 255 255 255 255 255 255 255 255 255 255 255 255 255
255 255 255 255 255 255 255 255 255 255 255 255 255 255 255
255 255 255 255 255 255 255 255 255 255 255 255 255 255 255
255 255 255 255 255 255 255 255 255 255 255 255 255 255 255
255 255 255 255 255 255 255 255 255 255 255 255 255 255 255
255 255 255 255 255 255 255 255 255 255 255 255 255 255 255
255 255 255 255 255 255 255 255 255 255 255 255 255 255 255
255 255 255 255 255 255 255 255 255 255 255 255 254 254 254
254 254 252 253 255 254 253 255 252 253 255 254 253 255 254
251 255 254 251 255 254 254 255 255 252 254 253 252 252 252
254 254 254 254 252 255 254 250 251 255 251 255 255 250 255
255 230 252 246 205 237 176 129 165 99 44 86 94 27 80 133 57 119
145 57 131 131 32 115 157 48 141 160 41 143 162 36 144 170 39 153
178 43 161 183 45 166 179 39 162 174 34 159 183 43 168 185 45 170
190 50 175 197 57 182 202 61 189 202 61 189 197 56 184 193 52 182
183 44 173 179 39 170 174 34 165 172 32 163 174 34 167 176 36 169
176 36 169 175 35 168 177 35 169 177 36 167 176 37 164 174 39 160
175 41 156 173 42 154 171 43 154 171 45 155 169 45 157 163 45 155
158 45 151 160 52 151 167 67 155 164 69 150 140 49 119 107 25 89
100 27 83 102 35 88 117 55 104 151 96 138 199 152 188 242 203 232
255 231 255 255 241 255 255 241 255 255 241 255 255 241 255
254 242 255 255 244 255 255 247 255 255 249 255 255 249 255
255 249 255 255 248 255 255 247 255 255 246 254 252 247 254
248 245 252 244 241 250 241 238 247 246 243 254 249 243 255
255 244 255 255 247 255 255 248 255 255 241 255 251 229 250
245 216 244 239 198 238 198 151 197 143 93 142 111 54 107 101 38 95
107 37 100 127 47 118 147 61 136 147 54 135 151 51 139 156 49 143
163 51 149 169 53 154 170 51 155 166 45 150 160 38 147 170 42 161
171 41 167 173 40 168 175 38 168 177 37 170 178 36 170 180 36 170
180 36 170 176 32 164 175 34 162 174 39 160 174 43 159 172 46 156
167 46 152 160 44 145 151 45 135 152 60 133 135 57 117 110 41 95
109 52 97 156 112 148 217 183 210 252 227 248 255 245 255 255 241 251
252 239 246 252 241 245 255 250 250 255 254 253 255 255 253
252 255 255 250 255 254 254 255 255 254 255 255 254 255 255
254 255 255 254 255 255 254 255 255 254 255 255 254 255 255
254 255 255 254 255 255 254 255 255 254 255 255 254 255 255
254 255 255 254 255 255 254 255 255 255 255 255 255 255 255
255 255 255 255 255 255 255 255 255 255 255 255 255 255 255
255 255 255 255 255 255 255 255 255 255 255 255 255 255 255
255 255 255 255 255 255 255 255 255 255 255 255 255 255 255
255 255 255 255 255 255 255 255 255 255 255 255 255 255 255
255 255 255 255 255 255 255 255 255 255 255 255 255 255 255
255 255 255 255 255 255 255 255 255 255 255 255 255 255 255
255 255 255 255 255 255 255 255 255 255 255 255 255 255 255
255 255 255 255 255 255 255 255 255 255 255 255 255 255 255
255 255 255 255 255 255 255 255 255 255 255 255 255 255 255
255 255 255 255 255 255 255 255 255 255 255 255 255 255 255
255 255 255 255 255 255 255 255 255 255 255 255 255 255 255
255 255 255 255 255 255 255 255 255 255 255 255 255 255 255
255 255 255 255 255 255 255 255 255 255 255 255 255 255 255
255 255 255 255 255 255 255 255 255 255 255 255 255 255 255
255 255 255 255 255 255 255 255 255 255 255 255 255 255 255
255 255 255 255 255 255 255 255 255 255 255 255 255 255 255
255 255 255 255 255 255 255 255 255 255 255 255 255 255 255
255 255 255 255 255 255 255 255 255 255 255 255 255 255 255
255 255 255 255 255 255 255 255 255 255 255 255 255 255 255
255 255 255 255 255 255 255 255 255 255 255 255 255 255 255
255 255 255 255 255 255 255 255 255 255 255 255 255 255 255
255 255 255 255 255 255 255 255 255 255 255 255 255 255 255
255 255 255 255 255 255 255 255 255 255 255 255 255 255 255
255 255 255 255 255 255 255 255 255 255 255 255 255 255 255
255 255 255 255 255 255 255 255 255 255 255 255 255 255 255
255 255 255 255 255 255 255 255 255 255 255 255 255 255 255
255 255 255 255 255 255 255 255 255 255 255 255 255 255 255
255 255 255 255 255 255 255 255 255 255 255 255 255 255 255
255 255 255 255 255 255 255 255 255 255 255 255 255 255 255
255 255 255 255 255 255 255 255 255 255 255 255 255 255 255
255 255 255 255 255 255 255 255 255 255 255 255 255 255 255
255 255 255 255 255 255 255 255 255 255 255 255 255 255 255
255 255 255 255 255 255 255 255 255 255 255 255 255 255 255
255 255 255 255 255 255 255 255 255 255 255 255 255 255 255
255 255 255 255 255 255 255 255 255 255 255 255 255 255 255
255 255 255 255 255 255 255 255 255 255 255 255 255 255 255
255 255 255 255 255 255 255 255 255 255 255 255 255 255 255
255 255 255 255 255 255 255 255 255 255 255 255 255 255 255
255 255 255 255 255 255 255 255 255 255 255 255 255 255 255
255 255 255 255 255 255 255 255 255 255 255 255 255 255 255
255 255 255 255 255 255 255 255 255 255 255 255 255 255 255
255 255 255 255 255 255 255 255 255 255 255 255 255 255 255
255 255 255 255 255 255 255 255 255 255 255 255 255 255 255
255 255 255 255 255 255 255 255 255 255 255 255 255 255 255
255 255 255 255 255 255 254 254 254 254 254 254 254 254 255
253 255 254 253 254 255 251 255 254 251 255 254 251 255 254
252 255 255 250 252 251 250 250 250 254 254 252 255 254 255
253 252 250 255 251 252 255 251 255 255 240 252 255 238 255
230 198 221 162 123 152 109 59 97 93 31 80 111 37 96 139 54 122
126 32 110 143 39 126 162 48 143 169 49 149 168 42 149 166 38 147
172 41 153 179 46 161 175 40 160 178 40 162 181 43 165 188 50 172
195 56 181 198 59 186 198 57 185 196 55 185 191 50 181 186 44 178
180 38 174 178 36 172 179 37 175 180 38 176 179 36 177 180 35 174
180 35 174 180 36 170 178 37 165 175 40 161 175 41 156 174 42 154
173 42 156 173 42 158 174 42 162 161 33 152 164 39 157 174 53 166
163 48 151 141 32 125 143 40 123 164 66 143 163 69 145 145 58 129
131 48 116 124 46 108 117 47 101 122 60 107 148 91 134 175 125 163
192 146 182 208 167 199 237 196 230 255 222 255 255 235 255
255 232 255 255 220 255 251 211 248 255 226 255 255 230 255
255 234 255 255 239 255 255 243 255 255 243 255 255 240 255
255 237 255 255 232 255 251 221 255 236 202 239 216 178 217
192 149 192 162 117 160 133 84 131 118 61 112 100 31 94 109 34 101
128 51 121 154 72 146 167 79 157 160 66 150 150 50 138 147 42 135
154 42 142 154 39 142 156 36 144 160 38 149 165 41 155 169 42 159
169 42 159 168 40 159 173 40 165 174 39 167 175 38 168 177 37 168
178 37 168 178 37 168 178 37 167 178 37 165 178 39 164 181 48 165
176 48 159 163 42 145 158 44 140 167 58 149 173 69 154 168 76 151
115 37 99 100 36 86 119 64 106 177 136 170 236 208 233 254 236 252
254 242 252 255 253 255 255 251 252 252 248 247 255 250 250
255 254 253 255 255 253 254 254 254 251 251 253 250 251 253
254 255 255 254 255 255 254 255 255 254 255 255 254 255 255
254 255 255 254 255 255 254 255 255 254 255 255 254 255 255
254 255 255 254 255 255 254 255 255 254 255 255 254 255 255
254 255 255 255 255 255 255 255 255 255 255 255 255 255 255
255 255 255 255 255 255 255 255 255 255 255 255 255 255 255
255 255 255 255 255 255 255 255 255 255 255 255 255 255 255
255 255 255 255 255 255 255 255 255 255 255 255 255 255 255
255 255 255 255 255 255 255 255 255 255 255 255 255 255 255
255 255 255 255 255 255 255 255 255 255 255 255 255 255 255
255 255 255 255 255 255 255 255 255 255 255 255 255 255 255
255 255 255 255 255 255 255 255 255 255 255 255 255 255 255
255 255 255 255 255 255 255 255 255 255 255 255 255 255 255
255 255 255 255 255 255 255 255 255 255 255 255 255 255 255
255 255 255 255 255 255 255 255 255 255 255 255 255 255 255
255 255 255 255 255 255 255 255 255 255 255 255 255 255 255
255 255 255 255 255 255 255 255 255 255 255 255 255 255 255
255 255 255 255 255 255 255 255 255 255 255 255 255 255 255
255 255 255 255 255 255 255 255 255 255 255 255 255 255 255
255 255 255 255 255 255 255 255 255 255 255 255 255 255 255
255 255 255 255 255 255 255 255 255 255 255 255 255 255 255
255 255 255 255 255 255 255 255 255 255 255 255 255 255 255
255 255 255 255 255 255 255 255 255 255 255 255 255 255 255
255 255 255 255 255 255 255 255 255 255 255 255 255 255 255
255 255 255 255 255 255 255 255 255 255 255 255 255 255 255
255 255 255 255 255 255 255 255 255 255 255 255 255 255 255
255 255 255 255 255 255 255 255 255 255 255 255 255 255 255
255 255 255 255 255 255 255 255 255 255 255 255 255 255 255
255 255 255 255 255 255 255 255 255 255 255 255 255 255 255
255 255 255 255 255 255 255 255 255 255 255 255 255 255 255
255 255 255 255 255 255 255 255 255 255 255 255 255 255 255
255 255 255 255 255 255 255 255 255 255 255 255 255 255 255
255 255 255 255 255 255 255 255 255 255 255 255 255 255 255
255 255 255 255 255 255 255 255 255 255 255 255 255 255 255
255 255 255 255 255 255 255 255 255 255 255 255 255 255 255
255 255 255 255 255 255 255 255 255 255 255 255 255 255 255
255 255 255 255 255 255 255 255 255 255 255 255 255 255 255
255 255 255 255 255 255 255 255 255 255 255 255 255 255 255
255 255 255 255 255 255 255 255 255 255 255 255 255 255 255
255 255 255 255 255 255 255 255 255 255 255 255 255 255 255
255 255 255 255 255 255 255 255 255 255 255 255 255 255 255
255 255 255 255 255 255 255 255 255 255 255 255 255 255 255
255 255 255 255 255 255 255 255 255 255 255 255 255 255 255
255 255 255 255 255 255 255 255 255 255 255 255 255 255 255
255 255 255 255 255 255 255 255 255 255 255 255 255 255 255
255 255 255 255 255 255 255 255 255 255 255 255 255 255 255
255 255 255 255 255 255 255 255 255 255 255 255 255 255 255
255 255 255 255 255 255 255 255 255 255 255 255 255 255 255
255 255 255 255 255 255 255 255 255 255 255 255 255 255 255
254 254 255 254 254 255 254 254 255 253 254 255 253 254 255
251 255 255 251 255 254 251 255 254 252 255 255 248 252 251
249 251 248 254 254 252 255 255 253 255 255 253 255 254 253
255 252 252 255 252 255 245 234 240 252 235 245 252 225 242
184 148 174 93 46 80 70 11 57 106 36 90 113 31 97 129 35 109
145 43 126 156 47 136 162 47 140 165 45 142 169 47 148 173 47 154
172 39 154 173 38 158 175 40 161 181 43 165 185 46 171 189 50 177
192 51 181 193 52 183 192 50 184 190 48 184 189 44 183 187 42 183
187 42 183 187 41 184 187 39 185 186 39 182 184 37 179 183 38 175
180 39 169 176 41 162 175 41 156 174 41 156 173 40 157 173 40 159
180 44 170 169 32 161 165 30 158 174 42 164 177 50 163 169 48 151
163 48 141 163 53 142 157 48 139 142 36 124 143 41 125 158 61 140
159 69 141 136 54 118 120 42 102 114 44 98 114 45 99 108 41 92
101 37 87 105 38 91 118 51 105 141 72 129 164 94 154 178 110 167
184 124 176 179 123 172 174 117 168 165 111 161 154 101 153
139 89 140 126 76 129 117 66 122 101 48 104 102 44 103 104 43 103
109 43 107 116 45 111 122 47 116 124 44 115 125 41 116 145 52 133
148 48 134 152 49 138 157 52 144 160 50 145 161 47 145 164 45 149
168 47 153 159 35 147 171 44 159 180 51 170 177 47 169 167 37 161
164 34 160 172 42 168 183 53 179 174 39 167 175 38 167 177 38 167
177 38 167 178 37 167 178 37 165 178 38 163 177 39 161 176 43 158
173 45 154 167 47 147 163 50 142 163 60 143 160 64 138 143 52 122
119 37 99 110 46 98 142 91 132 213 172 206 250 220 246 243 226 244
255 251 255 255 255 255 236 241 237 254 255 251 254 255 251
255 255 251 255 255 253 255 254 255 253 251 254 253 251 255
255 254 255 254 255 255 254 255 255 254 255 255 254 255 255
254 255 255 254 255 255 254 255 255 254 255 255 254 255 255
254 255 255 254 255 255 254 255 255 254 255 255 254 255 255
254 255 255 254 255 255 255 255 255 255 255 255 255 255 255
255 255 255 255 255 255 255 255 255 255 255 255 255 255 255
255 255 255 255 255 255 255 255 255 255 255 255 255 255 255
255 255 255 255 255 255 255 255 255 255 255 255 255 255 255
255 255 255 255 255 255 255 255 255 255 255 255 255 255 255
255 255 255 255 255 255 255 255 255 255 255 255 255 255 255
255 255 255 255 255 255 255 255 255 255 255 255 255 255 255
255 255 255 255 255 255 255 255 255 255 255 255 255 255 255
255 255 255 255 255 255 255 255 255 255 255 255 255 255 255
255 255 255 255 255 255 255 255 255 255 255 255 255 255 255
255 255 255 255 255 255 255 255 255 255 255 255 255 255 255
255 255 255 255 255 255 255 255 255 255 255 255 255 255 255
255 255 255 255 255 255 255 255 255 255 255 255 255 255 255
255 255 255 255 255 255 255 255 255 255 255 255 255 255 255
255 255 255 255 255 255 255 255 255 255 255 255 255 255 255
255 255 255 255 255 255 255 255 255 255 255 255 255 255 255
255 255 255 255 255 255 255 255 255 255 255 255 255 255 255
255 255 255 255 255 255 255 255 255 255 255 255 255 255 255
255 255 255 255 255 255 255 255 255 255 255 255 255 255 255
255 255 255 255 255 255 255 255 255 255 255 255 255 255 255
255 255 255 255 255 255 255 255 255 255 255 255 255 255 255
255 255 255 255 255 255 255 255 255 255 255 255 255 255 255
255 255 255 255 255 255 255 255 255 255 255 255 255 255 255
255 255 255 255 255 255 255 255 255 255 255 255 255 255 255
255 255 255 255 255 255 255 255 255 255 255 255 255 255 255
255 255 255 255 255 255 255 255 255 255 255 255 255 255 255
255 255 255 255 255 255 255 255 255 255 255 255 255 255 255
255 255 255 255 255 255 255 255 255 255 255 255 255 255 255
255 255 255 255 255 255 255 255 255 255 255 255 255 255 255
255 255 255 255 255 255 255 255 255 255 255 255 255 255 255
255 255 255 255 255 255 255 255 255 255 255 255 255 255 255
255 255 255 255 255 255 255 255 255 255 255 255 255 255 255
255 255 255 255 255 255 255 255 255 255 255 255 255 255 255
255 255 255 255 255 255 255 255 255 255 255 255 255 255 255
255 255 255 255 255 255 255 255 255 255 255 255 255 255 255
255 255 255 255 255 255 255 255 255 255 255 255 255 255 255
255 255 255 255 255 255 255 255 255 255 255 255 255 255 255
255 255 255 255 255 255 255 255 255 255 255 255 255 255 255
255 255 255 255 255 255 255 255 255 255 255 255 255 255 255
255 255 255 255 255 255 255 255 255 255 255 255 255 255 255
255 255 255 255 255 255 255 255 255 255 255 255 255 255 255
255 255 255 255 255 255 255 255 255 255 255 255 255 255 255
255 255 255 255 255 255 255 255 255 255 255 255 255 255 255
255 255 255 255 255 255 255 255 255 255 255 255 255 255 255
255 255 255 255 255 255 255 255 255 255 255 255 255 255 255
255 255 255 255 253 255 255 253 255 254 253 255 253 254 255
253 254 255 251 255 255 251 255 254 251 255 254 251 255 254
251 255 254 251 253 250 252 252 250 255 255 251 255 255 251
255 254 251 254 253 249 255 255 250 248 249 243 251 246 243
249 237 241 240 216 230 215 180 202 149 99 134 70 9 51 109 36 91
114 32 94 123 32 102 136 38 115 150 45 127 159 49 135 161 48 138
163 43 141 171 43 154 174 41 160 175 41 162 175 40 161 176 40 164
177 41 167 182 43 172 185 44 175 189 47 183 192 47 186 195 48 190
196 49 192 195 47 193 193 45 191 194 44 193 194 44 191 189 40 184
187 41 178 183 42 172 178 43 164 176 42 157 173 40 155 173 38 156
172 37 158 159 20 149 174 32 166 179 37 173 173 33 164 173 39 160
179 51 162 171 49 150 155 35 133 167 44 148 166 45 148 170 51 151
166 55 147 152 47 132 140 39 119 149 53 127 166 75 144 143 54 122
141 55 120 143 54 122 143 54 122 142 49 120 140 44 118 136 39 116
132 38 114 126 36 110 124 38 111 124 40 115 127 45 119 130 48 124
130 49 125 129 48 125 127 46 123 139 54 135 139 51 135 140 48 133
143 44 134 149 46 137 155 48 142 163 52 147 169 53 152 164 45 145
166 46 146 163 40 144 160 34 141 162 34 143 170 39 151 177 44 161
179 46 165 191 55 179 181 45 171 172 37 165 173 40 168 177 46 176
178 47 179 166 36 168 156 25 155 174 39 167 177 38 165 177 38 165
178 37 165 178 38 163 178 38 161 177 39 160 175 41 156 173 43 151
162 40 139 159 46 136 162 58 137 155 59 130 139 51 112 128 44 103
122 50 100 183 128 170 242 200 236 255 229 255 255 239 255
255 251 255 243 244 248 223 232 229 248 255 251 243 253 244
248 255 247 252 254 249 253 252 250 255 251 252 255 252 255
255 253 255 255 253 255 255 254 255 254 255 255 254 255 255
254 255 255 254 255 255 254 255 255 254 255 255 254 255 255
254 255 255 254 255 255 254 255 255 254 255 255 254 255 255
254 255 255 254 255 255 254 255 255 255 255 255 255 255 255
255 255 255 255 255 255 255 255 255 255 255 255 255 255 255
255 255 255 255 255 255 255 255 255 255 255 255 255 255 255
255 255 255 255 255 255 255 255 255 255 255 255 255 255 255
255 255 255 255 255 255 255 255 255 255 255 255 255 255 255
255 255 255 255 255 255 255 255 255 255 255 255 255 255 255
255 255 255 255 255 255 255 255 255 255 255 255 255 255 255
255 255 255 255 255 255 255 255 255 255 255 255 255 255 255
255 255 255 255 255 255 255 255 255 255 255 255 255 255 255
255 255 255 255 255 255 255 255 255 255 255 255 255 255 255
255 255 255 255 255 255 255 255 255 255 255 255 255 255 255
255 255 255 255 255 255 255 255 255 255 255 255 255 255 255
255 255 255 255 255 255 255 255 255 255 255 255 255 255 255
255 255 255 255 255 255 255 255 255 255 255 255 255 255 255
255 255 255 255 255 255 255 255 255 255 255 255 255 255 255
255 255 255 255 255 255 255 255 255 255 255 255 255 255 255
255 255 255 255 255 255 255 255 255 255 255 255 255 255 255
255 255 255 255 255 255 255 255 255 255 255 255 255 255 255
255 255 255 255 255 255 255 255 255 255 255 255 255 255 255
255 255 255 255 255 255 255 255 255 255 255 255 255 255 255
255 255 255 255 255 255 255 255 255 255 255 255 255 255 255
255 255 255 255 255 255 255 255 255 255 255 255 255 255 255
255 255 255 255 255 255 255 255 255 255 255 255 255 255 255
255 255 255 255 255 255 255 255 255 255 255 255 255 255 255
255 255 255 255 255 255 255 255 255 255 255 255 255 255 255
255 255 255 255 255 255 255 255 255 255 255 255 255 255 255
255 255 255 255 255 255 255 255 255 255 255 255 255 255 255
255 255 255 255 255 255 255 255 255 255 255 255 255 255 255
255 255 255 255 255 255 255 255 255 255 255 255 255 255 255
255 255 255 255 255 255 255 255 255 255 255 255 255 255 255
255 255 255 255 255 255 255 255 255 255 255 255 255 255 255
255 255 255 255 255 255 255 255 255 255 255 255 255 255 255
255 255 255 255 255 255 255 255 255 255 255 255 255 255 255
255 255 255 255 255 255 255 255 255 255 255 255 255 255 255
255 255 255 255 255 255 255 255 255 255 255 255 255 255 255
255 255 255 255 255 255 255 255 255 255 255 255 255 255 255
255 255 255 255 255 255 255 255 255 255 255 255 255 255 255
255 255 255 255 255 255 255 255 255 255 255 255 255 255 255
255 255 255 255 255 255 255 255 255 255 255 255 255 255 255
255 255 255 255 255 255 255 255 255 255 255 255 255 255 255
255 255 255 255 255 255 255 255 255 255 255 255 255 255 255
255 255 255 255 255 255 255 255 255 255 255 255 255 255 255
255 255 255 255 255 255 255 255 255 255 255 255 255 255 255
255 255 255 255 255 255 255 255 255 255 255 255 255 255 255
255 255 255 255 255 255 255 255 255 255 255 255 255 255 255
255 255 255 255 255 255 255 253 255 255 253 255 254 253 255
254 254 255 253 254 255 251 255 255 253 255 254 251 255 254
252 254 253 254 255 255 254 255 253 250 250 248 250 250 248
255 254 250 255 254 252 251 250 246 249 252 245 238 241 232
247 246 241 255 251 248 255 240 245 255 231 244 224 189 211
164 119 148 88 32 71 103 37 83 116 41 97 122 41 100 126 35 102
133 37 108 144 46 119 159 54 138 169 49 149 174 46 155 174 46 157
172 44 157 170 39 155 170 37 156 172 38 161 176 40 166 185 44 175
191 46 183 197 52 191 200 53 195 200 51 195 198 48 195 198 48 197
200 50 197 190 43 183 188 44 178 184 43 171 181 43 165 176 41 159
173 40 157 172 37 157 171 35 159 183 43 174 178 36 170 176 34 170
178 38 171 176 40 166 171 39 158 173 45 156 181 53 162 179 45 158
176 42 155 173 41 151 171 44 149 173 48 148 169 49 146 164 47 138
157 44 132 164 52 138 163 53 139 166 56 143 169 56 144 169 54 145
169 52 143 166 47 141 163 45 139 157 46 138 155 46 137 152 46 138
154 48 140 157 50 144 158 53 146 159 54 147 160 53 149 151 41 140
152 40 140 155 38 142 158 37 142 161 35 143 166 36 145 171 39 151
175 41 154 167 34 149 172 39 156 173 38 156 168 33 151 171 33 154
178 40 162 179 39 164 174 33 161 177 36 166 179 39 170 178 41 171
177 41 173 174 40 173 173 39 172 172 40 175 176 42 173 175 38 167
177 38 163 177 38 163 175 40 161 174 41 160 173 42 156 170 44 152
167 46 149 166 52 147 158 55 138 154 60 134 141 57 119 110 33 87
102 33 80 160 95 137 227 173 209 253 214 243 255 242 255 255 247 255
255 247 255 255 254 255 251 255 255 244 253 248 240 251 243
241 251 242 249 255 248 254 255 251 254 253 251 255 253 254
255 253 255 255 252 255 255 253 255 255 255 255 254 255 255
254 255 255 254 255 255 254 255 255 254 255 255 254 255 255
254 255 255 254 255 255 254 255 255 254 255 255 254 255 255
254 255 255 254 255 255 254 255 255 254 255 255 255 255 255
255 255 255 255 255 255 255 255 255 255 255 255 255 255 255
255 255 255 255 255 255 255 255 255 255 255 255 255 255 255
255 255 255 255 255 255 255 255 255 255 255 255 255 255 255
255 255 255 255 255 255 255 255 255 255 255 255 255 255 255
255 255 255 255 255 255 255 255 255 255 255 255 255 255 255
255 255 255 255 255 255 255 255 255 255 255 255 255 255 255
255 255 255 255 255 255 255 255 255 255 255 255 255 255 255
255 255 255 255 255 255 255 255 255 255 255 255 255 255 255
255 255 255 255 255 255 255 255 255 255 255 255 255 255 255
255 255 255 255 255 255 255 255 255 255 255 255 255 255 255
255 255 255 255 255 255 255 255 255 255 255 255 255 255 255
255 255 255 255 255 255 255 255 255 255 255 255 255 255 255
255 255 255 255 255 255 255 255 255 255 255 255 255 255 255
255 255 255 255 255 255 255 255 255 255 255 255 255 255 255
255 255 255 255 255 255 255 255 255 255 255 255 255 255 255
255 255 255 255 255 255 255 255 255 255 255 255 255 255 255
255 255 255 255 255 255 255 255 255 255 255 255 255 255 255
255 255 255 255 255 255 255 255 255 255 255 255 255 255 255
255 255 255 255 255 255 255 255 255 255 255 255 255 255 255
255 255 255 255 255 255 255 255 255 255 255 255 255 255 255
255 255 255 255 255 255 255 255 255 255 255 255 255 255 255
255 255 255 255 255 255 255 255 255 255 255 255 255 255 255
255 255 255 255 255 255 255 255 255 255 255 255 255 255 255
255 255 255 255 255 255 255 255 255 255 255 255 255 255 255
255 255 255 255 255 255 255 255 255 255 255 255 255 255 255
255 255 255 255 255 255 255 255 255 255 255 255 255 255 255
255 255 255 255 255 255 255 255 255 255 255 255 255 255 255
255 255 255 255 255 255 255 255 255 255 255 255 255 255 255
255 255 255 255 255 255 255 255 255 255 255 255 255 255 255
255 255 255 255 255 255 255 255 255 255 255 255 255 255 255
255 255 255 255 255 255 255 255 255 255 255 255 255 255 255
255 255 255 255 255 255 255 255 255 255 255 255 255 255 255
255 255 255 255 255 255 255 255 255 255 255 255 255 255 255
255 255 255 255 255 255 255 255 255 255 255 255 255 255 255
255 255 255 255 255 255 255 255 255 255 255 255 255 255 255
255 255 255 255 255 255 255 255 255 255 255 255 255 255 255
255 255 255 255 255 255 255 255 255 255 255 255 255 255 255
255 255 255 255 255 255 255 255 255 255 255 255 255 255 255
255 255 255 255 255 255 255 255 255 255 255 255 255 255 255
255 255 255 255 255 255 255 255 255 255 255 255 255 255 255
255 255 255 255 255 255 255 255 255 255 255 255 255 255 255
255 255 255 255 255 255 255 255 255 255 255 255 255 255 255
255 255 255 255 255 255 255 255 255 255 255 255 255 255 255
255 255 255 255 255 255 255 255 255 255 255 255 255 255 255
255 255 255 255 255 255 255 255 255 254 254 254 254 254 254
254 254 255 254 254 254 254 254 254 253 255 254 254 254 254
253 255 254 255 255 255 255 255 255 255 255 255 255 255 255
254 254 254 253 253 251 252 252 252 252 251 249 250 249 245
250 246 243 249 245 242 251 245 245 254 245 246 253 241 245
251 231 240 249 222 237 186 153 174 138 95 123 91 42 74 86 28 68
105 37 84 117 43 94 119 42 96 127 38 102 148 43 125 160 45 136
160 45 138 157 39 135 160 40 140 171 48 154 179 51 162 180 49 165
174 39 160 175 36 163 178 34 166 182 36 171 189 41 181 196 47 190
203 51 196 204 56 196 197 53 185 197 56 184 197 58 183 197 59 181
192 57 178 187 52 173 182 48 171 179 45 170 178 41 170 177 40 170
175 39 171 173 38 167 172 39 166 170 40 164 171 41 165 175 41 162
181 37 160 184 36 156 184 36 156 181 36 153 180 37 153 179 38 151
177 39 151 176 40 150 178 42 152 176 43 152 176 43 152 175 43 152
176 42 153 176 42 153 176 42 153 175 43 152 169 42 147 168 43 145
169 44 148 169 44 148 169 43 150 170 43 150 170 43 150 170 42 151
173 43 152 174 42 154 175 41 156 176 39 155 177 38 157 179 37 157
180 36 157 178 35 159 167 30 159 170 35 164 174 39 168 175 38 168
173 36 166 172 35 165 175 35 166 177 37 168 170 30 163 175 35 166
178 38 169 173 36 166 167 30 160 166 29 159 171 34 164 177 40 169
173 37 161 171 36 157 166 34 153 163 36 151 162 40 149 158 46 146
155 50 142 149 54 136 142 56 129 147 73 134 113 49 101 78 23 65
127 82 115 234 195 222 255 242 255 250 223 240 255 246 255
254 249 255 252 250 255 251 251 253 249 250 252 249 251 250
247 251 250 247 252 248 249 251 248 249 251 248 252 252 250
254 252 253 255 253 254 255 254 255 255 253 255 255 253 255
255 255 255 255 255 255 255 255 255 255 255 255 255 255 255
255 255 255 255 255 255 255 255 255 255 255 255 255 255 255
255 255 255 255 255 255 255 255 255 255 255 255 255 255 255
255 255 255 255 255 255 255 255 255 255 255 255 255 255 255
255 255 255 255 255 255 255 255 255 255 255 255 255 255 255
255 255 255 255 255 255 255 255 255 255 255 255 255 255 255
255 255 255 255 255 255 255 255 255 255 255 255 255 255 255
255 255 255 255 255 255 255 255 255 255 255 255 255 255 255
255 255 255 255 255 255 255 255 255 255 255 255 255 255 255
255 255 255 255 255 255 255 255 255 255 255 255 255 255 255
255 255 255 255 255 255 255 255 255 255 255 255 255 255 255
255 255 255 255 255 255 255 255 255 255 255 255 255 255 255
255 255 255 255 255 255 255 255 255 255 255 255 255 255 255
255 255 255 255 255 255 255 255 255 255 255 255 255 255 255
255 255 255 255 255 255 255 255 255 255 255 255 255 255 255
255 255 255 255 255 255 255 255 255 255 255 255 255 255 255
255 255 255 255 255 255 255 255 255 255 255 255 255 255 255
255 255 255 255 255 255 255 255 255 255 255 255 255 255 255
255 255 255 255 255 255 255 255 255 255 255 255 255 255 255
255 255 255 255 255 255 255 255 255 255 255 255 255 255 255
255 255 255 255 255 255 255 255 255 255 255 255 255 255 255
255 255 255 255 255 255 255 255 255 255 255 255 255 255 255
255 255 255 255 255 255 255 255 255 255 255 255 255 255 255
255 255 255 255 255 255 255 255 255 255 255 255 255 255 255
255 255 255 255 255 255 255 255 255 255 255 255 255 255 255
255 255 255 255 255 255 255 255 255 255 255 255 255 255 255
255 255 255 255 255 255 255 255 255 255 255 255 255 255 255
255 255 255 255 255 255 255 255 255 255 255 255 255 255 255
255 255 255 255 255 255 255 255 255 255 255 255 255 255 255
255 255 255 255 255 255 255 255 255 255 255 255 255 255 255
255 255 255 255 255 255 255 255 255 255 255 255 255 255 255
255 255 255 255 255 255 255 255 255 255 255 255 255 255 255
255 255 255 255 255 255 255 255 255 255 255 255 255 255 255
255 255 255 255 255 255 255 255 255 255 255 255 255 255 255
255 255 255 255 255 255 255 255 255 255 255 255 255 255 255
255 255 255 255 255 255 255 255 255 255 255 255 255 255 255
255 255 255 255 255 255 255 255 255 255 255 255 255 255 255
255 255 255 255 255 255 255 255 255 255 255 255 255 255 255
255 255 255 255 255 255 255 255 255 255 255 255 255 255 255
255 255 255 255 255 255 255 255 255 255 255 255 255 255 255
255 255 255 255 255 255 255 255 255 255 255 255 255 255 255
255 255 255 255 255 255 255 255 255 255 255 255 255 255 255
255 255 255 255 255 255 255 255 255 255 255 255 255 255 255
255 255 255 255 255 255 255 255 255 255 255 255 255 255 255
255 255 255 255 255 255 255 255 255 255 255 255 255 255 255
255 255 255 255 255 255 255 255 255 255 255 255 255 255 255
255 255 255 255 255 255 255 255 255 255 255 255 255 255 255
255 255 255 255 255 255 255 255 255 255 255 255 255 255 255
254 254 254 254 254 254 254 254 254 254 254 254 254 254 254
254 254 254 254 254 254 254 254 254 255 255 255 255 255 255
255 255 255 255 255 255 254 254 254 254 254 254 253 253 253
253 251 252 254 250 249 253 249 248 253 249 248 255 251 250
255 253 252 254 248 248 248 239 242 244 232 236 243 223 234
229 202 217 182 149 170 122 79 106 87 36 69 89 33 70 105 43 84
115 43 93 116 27 93 126 28 101 137 36 112 149 46 127 163 55 141
169 59 148 166 50 147 160 39 142 172 44 153 172 39 154 171 33 155
170 30 155 172 28 159 175 27 163 177 26 163 175 28 161 186 43 169
185 47 168 187 49 171 191 53 175 195 57 179 197 58 183 195 59 183
195 59 185 179 42 171 179 42 171 177 42 171 176 41 170 175 40 169
175 40 169 175 39 171 178 39 168 180 36 160 183 35 157 183 35 159
183 35 157 180 34 158 180 35 156 179 35 158 179 35 156 179 37 159
177 38 157 177 37 159 176 38 157 176 38 159 176 38 157 176 38 159
174 39 157 173 41 153 172 42 151 171 40 152 172 40 152 171 39 151
172 38 151 172 38 153 171 37 152 176 39 155 177 38 157 177 38 157
179 37 157 179 37 159 179 37 159 180 36 159 179 36 162 184 47 179
179 43 177 173 37 171 169 33 165 169 33 165 172 37 166 176 41 170
178 43 172 186 49 178 178 41 170 171 35 161 172 38 163 180 46 169
185 51 174 184 48 172 178 44 165 168 39 155 164 40 150 162 42 150
161 46 149 158 53 146 152 56 143 143 57 132 134 58 123 104 39 95
96 43 89 131 87 122 200 166 193 248 221 240 253 233 245 255 238 250
255 251 255 251 251 253 248 252 251 248 252 251 248 252 251
250 252 251 250 252 251 250 250 250 250 250 250 250 250 250
251 251 251 253 251 252 254 252 253 255 253 254 255 254 255
255 254 255 255 254 255 255 255 255 255 255 255 255 255 255
255 255 255 255 255 255 255 255 255 255 255 255 255 255 255
255 255 255 255 255 255 255 255 255 255 255 255 255 255 255
255 255 255 255 255 255 255 255 255 255 255 255 255 255 255
255 255 255 255 255 255 255 255 255 255 255 255 255 255 255
255 255 255 255 255 255 255 255 255 255 255 255 255 255 255
255 255 255 255 255 255 255 255 255 255 255 255 255 255 255
255 255 255 255 255 255 255 255 255 255 255 255 255 255 255
255 255 255 255 255 255 255 255 255 255 255 255 255 255 255
255 255 255 255 255 255 255 255 255 255 255 255 255 255 255
255 255 255 255 255 255 255 255 255 255 255 255 255 255 255
255 255 255 255 255 255 255 255 255 255 255 255 255 255 255
255 255 255 255 255 255 255 255 255 255 255 255 255 255 255
255 255 255 255 255 255 255 255 255 255 255 255 255 255 255
255 255 255 255 255 255 255 255 255 255 255 255 255 255 255
255 255 255 255 255 255 255 255 255 255 255 255 255 255 255
255 255 255 255 255 255 255 255 255 255 255 255 255 255 255
255 255 255 255 255 255 255 255 255 255 255 255 255 255 255
255 255 255 255 255 255 255 255 255 255 255 255 255 255 255
255 255 255 255 255 255 255 255 255 255 255 255 255 255 255
255 255 255 255 255 255 255 255 255 255 255 255 255 255 255
255 255 255 255 255 255 255 255 255 255 255 255 255 255 255
255 255 255 255 255 255 255 255 255 255 255 255 255 255 255
255 255 255 255 255 255 255 255 255 255 255 255 255 255 255
255 255 255 255 255 255 255 255 255 255 255 255 255 255 255
255 255 255 255 255 255 255 255 255 255 255 255 255 255 255
255 255 255 255 255 255 255 255 255 255 255 255 255 255 255
255 255 255 255 255 255 255 255 255 255 255 255 255 255 255
255 255 255 255 255 255 255 255 255 255 255 255 255 255 255
255 255 255 255 255 255 255 255 255 255 255 255 255 255 255
255 255 255 255 255 255 255 255 255 255 255 255 255 255 255
255 255 255 255 255 255 255 255 255 255 255 255 255 255 255
255 255 255 255 255 255 255 255 255 255 255 255 255 255 255
255 255 255 255 255 255 255 255 255 255 255 255 255 255 255
255 255 255 255 255 255 255 255 255 255 255 255 255 255 255
255 255 255 255 255 255 255 255 255 255 255 255 255 255 255
255 255 255 255 255 255 255 255 255 255 255 255 255 255 255
255 255 255 255 255 255 255 255 255 255 255 255 255 255 255
255 255 255 255 255 255 255 255 255 255 255 255 255 255 255
255 255 255 255 255 255 255 255 255 255 255 255 255 255 255
255 255 255 255 255 255 255 255 255 255 255 255 255 255 255
255 255 255 255 255 255 255 255 255 255 255 255 255 255 255
255 255 255 255 255 255 255 255 255 255 255 255 255 255 255
255 255 255 255 255 255 255 255 255 255 255 255 255 255 255
255 255 255 255 255 255 255 255 255 255 255 255 255 255 255
255 255 255 255 255 255 255 255 255 255 255 255 255 255 255
255 255 255 255 255 255 255 255 255 255 255 255 255 255 255
255 255 255 255 255 255 255 255 255 255 255 255 255 255 255
255 255 255 255 255 255 254 254 254 254 254 254 254 254 254
254 254 254 254 254 254 254 254 254 254 254 254 254 254 254
254 254 254 254 254 254 254 254 254 255 255 255 255 255 255
254 254 254 253 253 253 253 253 253 250 249 247 250 249 247
251 250 248 253 252 250 254 254 252 252 251 249 247 243 242
242 236 238 255 245 252 255 241 251 255 236 252 243 210 231
182 142 168 110 65 94 84 33 66 96 38 79 113 40 93 123 43 102
128 46 108 125 40 105 118 28 98 121 25 99 139 37 120 160 51 140
168 53 148 169 47 148 170 42 151 172 40 152 177 39 158 182 40 162
183 39 163 183 39 163 180 38 160 176 37 156 176 36 158 179 39 161
184 44 166 189 49 172 190 50 175 190 50 175 189 48 176 189 48 176
189 48 178 189 48 178 188 47 178 187 46 177 186 44 178 186 45 176
182 43 168 180 45 165 179 44 165 179 44 164 178 44 165 177 44 163
177 43 164 176 44 163 173 41 161 171 42 160 171 42 161 171 42 160
171 42 161 170 43 160 170 42 161 170 43 160 171 44 159 169 45 157
168 44 156 169 42 155 168 41 154 168 40 153 168 39 155 167 38 154
170 39 155 170 38 157 171 39 158 171 39 158 173 40 159 173 40 159
174 40 161 174 40 163 169 34 162 168 33 161 169 34 162 174 40 165
180 46 171 182 50 172 181 49 171 178 46 166 165 36 154 168 39 157
172 43 159 173 46 161 172 45 158 170 43 156 164 40 150 161 41 147
160 48 146 151 46 138 148 45 136 145 50 134 143 55 133 133 52 121
113 41 104 96 33 86 147 94 138 201 157 192 255 221 248 255 244 255
255 241 253 253 240 247 254 243 249 252 246 248 251 251 251
250 252 251 250 252 251 250 252 251 250 252 251 250 252 251
251 251 251 251 251 251 250 250 250 251 251 251 253 251 252
255 253 254 255 254 255 255 254 255 255 254 255 255 254 255
255 255 255 255 255 255 255 255 255 255 255 255 255 255 255
255 255 255 255 255 255 255 255 255 255 255 255 255 255 255
255 255 255 255 255 255 255 255 255 255 255 255 255 255 255
255 255 255 255 255 255 255 255 255 255 255 255 255 255 255
255 255 255 255 255 255 255 255 255 255 255 255 255 255 255
255 255 255 255 255 255 255 255 255 255 255 255 255 255 255
255 255 255 255 255 255 255 255 255 255 255 255 255 255 255
255 255 255 255 255 255 255 255 255 255 255 255 255 255 255
255 255 255 255 255 255 255 255 255 255 255 255 255 255 255
255 255 255 255 255 255 255 255 255 255 255 255 255 255 255
255 255 255 255 255 255 255 255 255 255 255 255 255 255 255
255 255 255 255 255 255 255 255 255 255 255 255 255 255 255
255 255 255 255 255 255 255 255 255 255 255 255 255 255 255
255 255 255 255 255 255 255 255 255 255 255 255 255 255 255
255 255 255 255 255 255 255 255 255 255 255 255 255 255 255
255 255 255 255 255 255 255 255 255 255 255 255 255 255 255
255 255 255 255 255 255 255 255 255 255 255 255 255 255 255
255 255 255 255 255 255 255 255 255 255 255 255 255 255 255
255 255 255 255 255 255 255 255 255 255 255 255 255 255 255
255 255 255 255 255 255 255 255 255 255 255 255 255 255 255
255 255 255 255 255 255 255 255 255 255 255 255 255 255 255
255 255 255 255 255 255 255 255 255 255 255 255 255 255 255
255 255 255 255 255 255 255 255 255 255 255 255 255 255 255
255 255 255 255 255 255 255 255 255 255 255 255 255 255 255
255 255 255 255 255 255 255 255 255 255 255 255 255 255 255
255 255 255 255 255 255 255 255 255 255 255 255 255 255 255
255 255 255 255 255 255 255 255 255 255 255 255 255 255 255
255 255 255 255 255 255 255 255 255 255 255 255 255 255 255
255 255 255 255 255 255 255 255 255 255 255 255 255 255 255
255 255 255 255 255 255 255 255 255 255 255 255 255 255 255
255 255 255 255 255 255 255 255 255 255 255 255 255 255 255
255 255 255 255 255 255 255 255 255 255 255 255 255 255 255
255 255 255 255 255 255 255 255 255 255 255 255 255 255 255
255 255 255 255 255 255 255 255 255 255 255 255 255 255 255
255 255 255 255 255 255 255 255 255 255 255 255 255 255 255
255 255 255 255 255 255 255 255 255 255 255 255 255 255 255
255 255 255 255 255 255 255 255 255 255 255 255 255 255 255
255 255 255 255 255 255 255 255 255 255 255 255 255 255 255
255 255 255 255 255 255 255 255 255 255 255 255 255 255 255
255 255 255 255 255 255 255 255 255 255 255 255 255 255 255
255 255 255 255 255 255 255 255 255 255 255 255 255 255 255
255 255 255 255 255 255 255 255 255 255 255 255 255 255 255
255 255 255 255 255 255 255 255 255 255 255 255 255 255 255
255 255 255 255 255 255 255 255 255 255 255 255 255 255 255
255 255 255 255 255 255 255 255 255 255 255 255 255 255 255
255 255 255 255 255 255 255 255 255 255 255 255 255 255 255
255 255 255 255 255 255 255 255 255 255 255 255 255 255 255
255 255 255 255 255 255 255 255 255 255 255 255 255 255 255
254 254 254 254 254 254 254 254 254 254 254 254 254 254 254
254 254 254 254 254 254 254 254 254 253 253 253 254 254 254
254 254 254 255 255 255 255 255 255 254 254 254 254 254 254
254 254 254 250 250 248 249 249 247 249 249 247 250 252 249
251 253 250 249 251 248 246 248 245 244 243 241 255 253 254
254 243 249 252 236 246 255 238 251 255 240 255 253 220 241
202 164 189 154 111 141 119 67 105 98 41 82 82 23 67 92 29 76
112 42 96 124 46 104 129 44 109 133 42 112 141 40 120 145 37 123
150 35 128 157 36 133 166 39 142 174 43 149 181 45 155 182 46 157
173 36 150 170 33 147 168 31 147 169 32 148 174 35 152 177 38 157
177 37 159 175 35 158 189 46 172 190 47 173 191 48 176 192 47 176
191 46 177 190 45 176 189 42 175 184 43 173 177 45 167 174 46 165
174 46 165 173 45 164 171 46 164 171 46 164 171 46 164 171 46 164
169 44 162 169 44 162 169 44 162 169 44 162 168 45 162 168 45 162
168 45 162 168 45 161 167 42 159 167 43 157 167 43 157 166 42 156
166 42 156 165 41 155 165 41 155 165 41 155 168 41 156 168 41 156
169 42 159 169 42 157 170 43 158 171 44 159 172 43 161 173 44 162
171 42 160 174 42 161 176 44 163 177 48 164 178 49 165 173 46 159
163 39 151 157 35 144 157 37 143 161 42 146 163 47 148 161 46 147
158 44 142 158 46 144 163 52 147 164 61 150 147 56 135 144 61 133
135 55 124 115 40 105 105 35 95 127 64 117 179 123 170 219 173 210
252 213 244 255 232 255 255 243 255 255 243 255 255 243 250
255 251 254 255 252 252 248 247 245 251 251 251 250 252 251
251 251 251 250 252 251 251 251 251 252 252 252 252 252 252
252 252 252 251 251 251 252 252 252 253 253 253 254 254 254
255 254 255 255 255 255 255 254 255 255 255 255 255 255 255
255 255 255 255 255 255 255 255 255 255 255 255 255 255 255
255 255 255 255 255 255 255 255 255 255 255 255 255 255 255
255 255 255 255 255 255 255 255 255 255 255 255 255 255 255
255 255 255 255 255 255 255 255 255 255 255 255 255 255 255
255 255 255 255 255 255 255 255 255 255 255 255 255 255 255
255 255 255 255 255 255 255 255 255 255 255 255 255 255 255
255 255 255 255 255 255 255 255 255 255 255 255 255 255 255
255 255 255 255 255 255 255 255 255 255 255 255 255 255 255
255 255 255 255 255 255 255 255 255 255 255 255 255 255 255
255 255 255 255 255 255 255 255 255 255 255 255 255 255 255
255 255 255 255 255 255 255 255 255 255 255 255 255 255 255
255 255 255 255 255 255 255 255 255 255 255 255 255 255 255
255 255 255 255 255 255 255 255 255 255 255 255 255 255 255
255 255 255 255 255 255 255 255 255 255 255 255 255 255 255
255 255 255 255 255 255 255 255 255 255 255 255 255 255 255
255 255 255 255 255 255 255 255 255 255 255 255 255 255 255
255 255 255 255 255 255 255 255 255 255 255 255 255 255 255
255 255 255 255 255 255 255 255 255 255 255 255 255 255 255
255 255 255 255 255 255 255 255 255 255 255 255 255 255 255
255 255 255 255 255 255 255 255 255 255 255 255 255 255 255
255 255 255 255 255 255 255 255 255 255 255 255 255 255 255
255 255 255 255 255 255 255 255 255 255 255 255 255 255 255
255 255 255 255 255 255 255 255 255 255 255 255 255 255 255
255 255 255 255 255 255 255 255 255 255 255 255 255 255 255
255 255 255 255 255 255 255 255 255 255 255 255 255 255 255
255 255 255 255 255 255 255 255 255 255 255 255 255 255 255
255 255 255 255 255 255 255 255 255 255 255 255 255 255 255
255 255 255 255 255 255 255 255 255 255 255 255 255 255 255
255 255 255 255 255 255 255 255 255 255 255 255 255 255 255
255 255 255 255 255 255 255 255 255 255 255 255 255 255 255
255 255 255 255 255 255 255 255 255 255 255 255 255 255 255
255 255 255 255 255 255 255 255 255 255 255 255 255 255 255
255 255 255 255 255 255 255 255 255 255 255 255 255 255 255
255 255 255 255 255 255 255 255 255 255 255 255 255 255 255
255 255 255 255 255 255 255 255 255 255 255 255 255 255 255
255 255 255 255 255 255 255 255 255 255 255 255 255 255 255
255 255 255 255 255 255 255 255 255 255 255 255 255 255 255
255 255 255 255 255 255 255 255 255 255 255 255 255 255 255
255 255 255 255 255 255 255 255 255 255 255 255 255 255 255
255 255 255 255 255 255 255 255 255 255 255 255 255 255 255
255 255 255 255 255 255 255 255 255 255 255 255 255 255 255
255 255 255 255 255 255 255 255 255 255 255 255 255 255 255
255 255 255 255 255 255 255 255 255 255 255 255 255 255 255
255 255 255 255 255 255 255 255 255 255 255 255 255 255 255
255 255 255 255 255 255 255 255 255 255 255 255 255 255 255
255 255 255 255 255 255 255 255 255 255 255 255 255 255 255
255 255 255 255 255 255 255 255 255 255 255 255 255 255 255
255 255 255 255 255 255 255 255 255 255 255 255 254 254 254
254 254 254 254 254 254 254 254 254 254 254 254 254 254 254
254 254 254 254 254 254 253 253 253 254 254 254 254 254 254
255 255 255 255 255 255 254 254 254 254 254 254 254 254 254
254 255 255 252 254 253 251 253 250 249 254 250 249 255 251
249 255 251 248 255 248 248 253 249 242 244 241 255 254 255
255 253 255 255 247 253 255 239 250 255 241 253 255 239 255
255 234 253 223 191 212 177 143 167 124 88 114 96 56 83 90 43 77
93 36 77 97 34 79 105 32 85 118 37 96 124 33 100 129 31 104
140 33 111 150 38 122 160 43 131 167 47 136 171 47 141 165 36 139
164 34 140 164 34 142 167 35 144 173 39 150 176 42 155 178 41 157
177 39 158 176 36 158 179 37 159 180 37 161 182 38 162 182 36 163
181 34 164 182 32 165 175 34 162 167 39 160 163 42 158 163 42 158
163 42 158 164 41 158 164 41 158 164 41 158 164 41 158 166 43 160
166 43 160 166 43 160 166 43 160 166 43 160 166 43 160 166 43 160
167 42 159 167 40 157 167 40 155 168 41 156 168 41 156 168 41 156
169 42 157 169 42 155 169 42 155 170 46 158 170 46 158 170 46 160
170 46 158 171 47 159 171 47 159 173 46 159 172 48 158 173 50 157
172 49 155 170 47 153 166 45 148 162 43 145 161 45 144 163 49 145
163 54 147 166 60 150 159 57 143 154 55 138 155 57 140 154 59 140
147 54 134 132 40 117 113 30 100 109 41 98 102 46 93 114 61 107
152 101 144 201 155 194 244 203 237 255 228 255 255 237 255
255 240 255 253 233 245 246 233 242 255 246 251 255 254 253
255 254 250 251 252 247 252 253 248 250 250 248 251 251 251
252 250 251 251 251 251 253 251 252 252 252 252 253 253 253
253 253 253 252 252 252 253 253 253 254 254 254 254 255 255
255 255 255 254 255 255 255 255 255 255 255 255 255 255 255
255 255 255 255 255 255 255 255 255 255 255 255 255 255 255
255 255 255 255 255 255 255 255 255 255 255 255 255 255 255
255 255 255 255 255 255 255 255 255 255 255 255 255 255 255
255 255 255 255 255 255 255 255 255 255 255 255 255 255 255
255 255 255 255 255 255 255 255 255 255 255 255 255 255 255
255 255 255 255 255 255 255 255 255 255 255 255 255 255 255
255 255 255 255 255 255 255 255 255 255 255 255 255 255 255
255 255 255 255 255 255 255 255 255 255 255 255 255 255 255
255 255 255 255 255 255 255 255 255 255 255 255 255 255 255
255 255 255 255 255 255 255 255 255 255 255 255 255 255 255
255 255 255 255 255 255 255 255 255 255 255 255 255 255 255
255 255 255 255 255 255 255 255 255 255 255 255 255 255 255
255 255 255 255 255 255 255 255 255 255 255 255 255 255 255
255 255 255 255 255 255 255 255 255 255 255 255 255 255 255
255 255 255 255 255 255 255 255 255 255 255 255 255 255 255
255 255 255 255 255 255 255 255 255 255 255 255 255 255 255
255 255 255 255 255 255 255 255 255 255 255 255 255 255 255
255 255 255 255 255 255 255 255 255 255 255 255 255 255 255
255 255 255 255 255 255 255 255 255 255 255 255 255 255 255
255 255 255 255 255 255 255 255 255 255 255 255 255 255 255
255 255 255 255 255 255 255 255 255 255 255 255 255 255 255
255 255 255 255 255 255 255 255 255 255 255 255 255 255 255
255 255 255 255 255 255 255 255 255 255 255 255 255 255 255
255 255 255 255 255 255 255 255 255 255 255 255 255 255 255
255 255 255 255 255 255 255 255 255 255 255 255 255 255 255
255 255 255 255 255 255 255 255 255 255 255 255 255 255 255
255 255 255 255 255 255 255 255 255 255 255 255 255 255 255
255 255 255 255 255 255 255 255 255 255 255 255 255 255 255
255 255 255 255 255 255 255 255 255 255 255 255 255 255 255
255 255 255 255 255 255 255 255 255 255 255 255 255 255 255
255 255 255 255 255 255 255 255 255 255 255 255 255 255 255
255 255 255 255 255 255 255 255 255 255 255 255 255 255 255
255 255 255 255 255 255 255 255 255 255 255 255 255 255 255
255 255 255 255 255 255 255 255 255 255 255 255 255 255 255
255 255 255 255 255 255 255 255 255 255 255 255 255 255 255
255 255 255 255 255 255 255 255 255 255 255 255 255 255 255
255 255 255 255 255 255 255 255 255 255 255 255 255 255 255
255 255 255 255 255 255 255 255 255 255 255 255 255 255 255
255 255 255 255 255 255 255 255 255 255 255 255 255 255 255
255 255 255 255 255 255 255 255 255 255 255 255 255 255 255
255 255 255 255 255 255 255 255 255 255 255 255 255 255 255
255 255 255 255 255 255 255 255 255 255 255 255 255 255 255
255 255 255 255 255 255 255 255 255 255 255 255 255 255 255
255 255 255 255 255 255 255 255 255 255 255 255 255 255 255
255 255 255 255 255 255 255 255 255 255 255 255 255 255 255
255 255 255 255 255 255 255 255 255 255 255 255 255 255 255
255 255 255 255 255 255 255 255 255 255 255 255 255 255 255
255 255 255 255 255 255 255 255 255 255 255 255 254 254 254
254 254 254 254 254 254 254 254 254 254 254 254 254 254 254
254 254 254 254 254 254 254 254 254 254 254 254 254 254 254
255 255 255 255 255 255 254 254 254 253 253 253 253 253 253
253 253 253 251 253 252 250 252 251 247 252 248 246 252 248
244 254 246 245 255 247 245 255 247 251 255 251 243 248 244
240 242 239 255 253 254 255 253 255 247 238 243 240 229 237
245 232 241 255 245 254 255 244 254 252 235 245 225 203 216
177 148 168 128 90 115 94 49 80 85 31 67 95 32 75 99 27 77 103 24 79
113 25 85 123 28 94 134 34 104 140 39 109 146 39 117 151 37 125
154 36 130 155 37 131 156 38 134 160 38 137 161 39 140 165 40 144
166 39 146 168 38 147 170 38 150 172 38 151 174 37 153 178 36 156
178 36 158 177 35 157 172 37 157 166 42 156 162 44 156 163 45 157
165 44 157 166 45 158 168 45 159 168 45 159 168 45 159 169 46 160
169 46 160 170 46 160 170 46 160 170 46 160 170 46 160 172 45 160
172 45 160 172 44 157 174 43 155 175 44 158 174 46 157 175 47 158
176 48 159 176 48 159 176 50 158 173 47 155 171 48 155 171 48 155
170 47 153 170 47 153 169 46 152 169 46 152 168 47 150 160 45 140
162 49 141 161 50 142 159 50 139 153 47 135 151 47 132 150 51 133
150 56 132 137 47 121 129 44 112 118 37 104 112 33 98 108 32 94
111 37 98 115 44 102 115 53 104 122 78 113 159 126 153 217 184 211
255 227 251 255 242 255 255 239 255 255 235 250 252 234 246
247 234 243 255 252 255 255 253 255 252 248 247 237 238 233
242 243 238 248 251 244 247 248 243 251 250 248 252 250 251
252 250 251 253 251 252 253 251 252 254 252 253 253 253 253
253 253 253 253 253 253 253 253 253 253 255 254 254 255 255
254 255 255 254 255 255 254 255 255 254 255 255 255 255 255
255 255 255 255 255 255 255 255 255 255 255 255 255 255 255
255 255 255 255 255 255 255 255 255 255 255 255 255 255 255
255 255 255 255 255 255 255 255 255 255 255 255 255 255 255
255 255 255 255 255 255 255 255 255 255 255 255 255 255 255
255 255 255 255 255 255 255 255 255 255 255 255 255 255 255
255 255 255 255 255 255 255 255 255 255 255 255 255 255 255
255 255 255 255 255 255 255 255 255 255 255 255 255 255 255
255 255 255 255 255 255 255 255 255 255 255 255 255 255 255
255 255 255 255 255 255 255 255 255 255 255 255 255 255 255
255 255 255 255 255 255 255 255 255 255 255 255 255 255 255
255 255 255 255 255 255 255 255 255 255 255 255 255 255 255
255 255 255 255 255 255 255 255 255 255 255 255 255 255 255
255 255 255 255 255 255 255 255 255 255 255 255 255 255 255
255 255 255 255 255 255 255 255 255 255 255 255 255 255 255
255 255 255 255 255 255 255 255 255 255 255 255 255 255 255
255 255 255 255 255 255 255 255 255 255 255 255 255 255 255
255 255 255 255 255 255 255 255 255 255 255 255 255 255 255
255 255 255 255 255 255 255 255 255 255 255 255 255 255 255
255 255 255 255 255 255 255 255 255 255 255 255 255 255 255
255 255 255 255 255 255 255 255 255 255 255 255 255 255 255
255 255 255 255 255 255 255 255 255 255 255 255 255 255 255
255 255 255 255 255 255 255 255 255 255 255 255 255 255 255
255 255 255 255 255 255 255 255 255 255 255 255 255 255 255
255 255 255 255 255 255 255 255 255 255 255 255 255 255 255
255 255 255 255 255 255 255 255 255 255 255 255 255 255 255
255 255 255 255 255 255 255 255 255 255 255 255 255 255 255
255 255 255 255 255 255 255 255 255 255 255 255 255 255 255
255 255 255 255 255 255 255 255 255 255 255 255 255 255 255
255 255 255 255 255 255 255 255 255 255 255 255 255 255 255
255 255 255 255 255 255 255 255 255 255 255 255 255 255 255
255 255 255 255 255 255 255 255 255 255 255 255 255 255 255
255 255 255 255 255 255 255 255 255 255 255 255 255 255 255
255 255 255 255 255 255 255 255 255 255 255 255 255 255 255
255 255 255 255 255 255 255 255 255 255 255 255 255 255 255
255 255 255 255 255 255 255 255 255 255 255 255 255 255 255
255 255 255 255 255 255 255 255 255 255 255 255 255 255 255
255 255 255 255 255 255 255 255 255 255 255 255 255 255 255
255 255 255 255 255 255 255 255 255 255 255 255 255 255 255
255 255 255 255 255 255 255 255 255 255 255 255 255 255 255
255 255 255 255 255 255 255 255 255 255 255 255 255 255 255
255 255 255 255 255 255 255 255 255 255 255 255 255 255 255
255 255 255 255 255 255 255 255 255 255 255 255 255 255 255
255 255 255 255 255 255 255 255 255 255 255 255 255 255 255
255 255 255 255 255 255 255 255 255 255 255 255 255 255 255
255 255 255 255 255 255 255 255 255 255 255 255 255 255 255
255 255 255 255 255 255 255 255 255 255 255 255 255 255 255
255 255 255 255 255 255 255 255 255 255 255 255 255 255 255
255 255 255 255 255 255 255 255 255 255 255 255 254 254 254
254 254 254 254 254 254 254 254 254 254 254 254 254 254 254
254 254 254 254 254 254 255 255 255 255 255 255 255 255 255
255 255 255 254 254 254 254 254 254 253 253 253 252 252 252
247 247 249 248 248 248 249 249 249 249 251 248 246 251 247
243 250 243 240 250 242 239 249 240 231 241 232 251 255 251
252 255 251 241 246 242 239 241 238 255 255 255 255 254 255
251 249 250 251 250 248 252 251 249 254 250 249 255 247 250
255 240 247 240 218 230 213 184 202 190 155 179 133 88 117 129 77 113
120 62 102 113 48 91 108 36 84 105 28 80 102 24 76 103 19 78
127 34 104 130 34 108 131 33 110 129 31 108 129 26 107 131 26 110
138 30 116 143 33 122 154 39 132 156 38 134 157 37 135 158 36 137
162 35 140 164 37 144 167 37 145 165 39 146 162 41 146 162 43 147
163 44 148 165 44 149 166 45 150 168 45 151 169 46 152 170 47 153
170 44 151 170 44 151 171 44 151 173 43 151 173 43 151 173 43 151
174 42 151 174 42 151 175 42 151 175 42 149 174 42 151 175 44 150
175 44 150 175 46 149 175 46 149 173 46 149 168 42 142 167 42 142
164 43 140 162 41 138 160 40 137 158 39 133 157 38 132 154 39 130
150 47 128 148 50 125 147 51 125 142 49 120 134 44 114 123 38 105
112 32 95 105 30 87 108 37 93 110 43 94 110 48 97 109 52 97
118 65 107 151 100 141 197 149 187 228 189 220 255 243 255
255 248 255 255 247 255 255 244 252 251 240 248 249 239 247
253 244 249 255 250 252 255 254 255 250 248 249 241 240 238
246 246 244 252 253 248 250 252 247 250 252 247 255 255 251
251 250 248 254 250 251 254 250 251 255 251 252 254 252 253
254 252 253 254 254 254 254 254 254 253 253 253 254 254 254
254 255 255 254 255 255 252 255 255 252 255 255 252 255 255
254 255 255 255 255 255 255 255 255 255 255 255 255 255 255
255 255 255 255 255 255 255 255 255 255 255 255 255 255 255
255 255 255 255 255 255 255 255 255 255 255 255 255 255 255
255 255 255 255 255 255 255 255 255 255 255 255 255 255 255
255 255 255 255 255 255 255 255 255 255 255 255 255 255 255
255 255 255 255 255 255 255 255 255 255 255 255 255 255 255
255 255 255 255 255 255 255 255 255 255 255 255 255 255 255
255 255 255 255 255 255 255 255 255 255 255 255 255 255 255
255 255 255 255 255 255 255 255 255 255 255 255 255 255 255
255 255 255 255 255 255 255 255 255 255 255 255 255 255 255
255 255 255 255 255 255 255 255 255 255 255 255 255 255 255
255 255 255 255 255 255 255 255 255 255 255 255 255 255 255
255 255 255 255 255 255 255 255 255 255 255 255 255 255 255
255 255 255 255 255 255 255 255 255 255 255 255 255 255 255
255 255 255 255 255 255 255 255 255 255 255 255 255 255 255
255 255 255 255 255 255 255 255 255 255 255 255 255 255 255
255 255 255 255 255 255 255 255 255 255 255 255 255 255 255
255 255 255 255 255 255 255 255 255 255 255 255 255 255 255
255 255 255 255 255 255 255 255 255 255 255 255 255 255 255
255 255 255 255 255 255 255 255 255 255 255 255 255 255 255
255 255 255 255 255 255 255 255 255 255 255 255 255 255 255
255 255 255 255 255 255 255 255 255 255 255 255 255 255 255
255 255 255 255 255 255 255 255 255 255 255 255 255 255 255
255 255 255 255 255 255 255 255 255 255 255 255 255 255 255
255 255 255 255 255 255 255 255 255 255 255 255 255 255 255
255 255 255 255 255 255 255 255 255 255 255 255 255 255 255
255 255 255 255 255 255 255 255 255 255 255 255 255 255 255
255 255 255 255 255 255 255 255 255 255 255 255 255 255 255
255 255 255 255 255 255 255 255 255 255 255 255 255 255 255
255 255 255 255 255 255 255 255 255 255 255 255 255 255 255
255 255 255 255 255 255 255 255 255 255 255 255 255 255 255
255 255 255 255 255 255 255 255 255 255 255 255 255 255 255
255 255 255 255 255 255 255 255 255 255 255 255 255 255 255
255 255 255 255 255 255 255 255 255 255 255 255 255 255 255
255 255 255 255 255 255 255 255 255 255 255 255 255 255 255
255 255 255 255 255 255 255 255 255 255 255 255 255 255 255
255 255 255 255 255 255 255 255 255 255 255 255 255 255 255
255 255 255 255 255 255 255 255 255 255 255 255 255 255 255
255 255 255 255 255 255 255 255 255 255 255 255 255 255 255
255 255 255 255 255 255 255 255 255 255 255 255 255 255 255
255 255 255 255 255 255 255 255 255 255 255 255 255 255 255
255 255 255 255 255 255 255 255 255 255 255 255 255 255 255
255 255 255 255 255 255 255 255 255 255 255 255 255 255 255
255 255 255 255 255 255 255 255 255 255 255 255 255 255 255
255 255 255 255 255 255 255 255 255 255 255 255 255 255 255
255 255 255 255 255 255 255 255 255 255 255 255 255 255 255
255 255 255 255 255 255 255 255 255 255 255 255 255 255 255
255 255 255 255 255 255 255 255 255 255 255 255 255 255 255
255 255 255 254 254 254 254 254 254 254 254 254 254 254 254
254 254 254 254 254 254 254 254 254 254 254 254 255 255 255
255 255 255 255 255 255 255 255 255 254 254 254 253 253 253
252 252 252 251 251 251 249 244 248 252 247 251 254 252 253
255 255 253 253 253 251 247 252 246 243 248 241 240 247 239
247 254 246 242 249 241 241 248 241 246 253 246 252 255 251
252 255 253 248 250 247 244 246 243 242 247 241 246 251 244
248 250 245 247 246 242 254 248 250 255 251 255 255 248 255
255 236 249 255 235 255 248 214 238 221 181 208 187 142 171
155 105 140 127 75 111 107 52 91 98 40 81 97 27 79 103 28 84
103 28 85 103 25 83 101 21 82 106 24 88 118 31 99 128 38 108
125 31 105 127 30 107 129 28 108 131 28 111 133 28 113 137 28 117
141 31 120 142 31 123 142 31 123 142 31 123 144 33 125 147 34 126
149 36 128 152 37 130 155 37 131 155 37 131 159 40 134 159 40 134
160 39 134 162 38 134 163 37 134 163 37 134 163 37 134 163 37 134
161 35 132 161 35 132 160 36 132 160 36 132 158 37 130 158 37 130
156 37 127 155 38 127 155 38 126 152 38 125 150 38 122 146 37 120
143 34 117 140 33 113 140 31 112 135 33 109 117 28 94 107 27 86
102 24 82 101 26 82 105 32 87 109 41 92 108 46 93 106 49 90
119 67 106 144 97 131 184 143 175 225 189 217 254 220 245 255 235 255
255 240 255 255 243 255 247 241 245 247 246 244 252 251 249
255 255 253 255 255 255 255 255 253 250 250 248 246 246 244
242 242 240 251 251 249 255 255 253 255 255 253 252 252 250
251 251 249 251 251 249 250 250 248 251 249 250 253 249 250
254 250 251 255 251 252 254 252 253 254 252 253 254 254 254
254 254 254 254 254 254 254 254 254 254 255 255 254 255 255
252 255 255 252 255 255 252 255 255 252 255 255 255 255 255
255 255 255 255 255 255 255 255 255 255 255 255 255 255 255
255 255 255 255 255 255 255 255 255 255 255 255 255 255 255
255 255 255 255 255 255 255 255 255 255 255 255 255 255 255
255 255 255 255 255 255 255 255 255 255 255 255 255 255 255
255 255 255 255 255 255 255 255 255 255 255 255 255 255 255
255 255 255 255 255 255 255 255 255 255 255 255 255 255 255
255 255 255 255 255 255 255 255 255 255 255 255 255 255 255
255 255 255 255 255 255 255 255 255 255 255 255 255 255 255
255 255 255 255 255 255 255 255 255 255 255 255 255 255 255
255 255 255 255 255 255 255 255 255 255 255 255 255 255 255
255 255 255 255 255 255 255 255 255 255 255 255 255 255 255
255 255 255 255 255 255 255 255 255 255 255 255 255 255 255
255 255 255 255 255 255 255 255 255 255 255 255 255 255 255
255 255 255 255 255 255 255 255 255 255 255 255 255 255 255
255 255 255 255 255 255 255 255 255 255 255 255 255 255 255
255 255 255 255 255 255 255 255 255 255 255 255 255 255 255
255 255 255 255 255 255 255 255 255 255 255 255 255 255 255
255 255 255 255 255 255 255 255 255 255 255 255 255 255 255
255 255 255 255 255 255 255 255 255 255 255 255 255 255 255
255 255 255 255 255 255 255 255 255 255 255 255 255 255 255
255 255 255 255 255 255 255 255 255 255 255 255 255 255 255
255 255 255 255 255 255 255 255 255 255 255 255 255 255 255
255 255 255 255 255 255 255 255 255 255 255 255 255 255 255
255 255 255 255 255 255 255 255 255 255 255 255 255 255 255
255 255 255 255 255 255 255 255 255 255 255 255 255 255 255
255 255 255 255 255 255 255 255 255 255 255 255 255 255 255
255 255 255 255 255 255 255 255 255 255 255 255 255 255 255
255 255 255 255 255 255 255 255 255 255 255 255 255 255 255
255 255 255 255 255 255 255 255 255 255 255 255 255 255 255
255 255 255 255 255 255 255 255 255 255 255 255 255 255 255
255 255 255 255 255 255 255 255 255 255 255 255 255 255 255
255 255 255 255 255 255 255 255 255 255 255 255 255 255 255
255 255 255 255 255 255 255 255 255 255 255 255 255 255 255
255 255 255 255 255 255 255 255 255 255 255 255 255 255 255
255 255 255 255 255 255 255 255 255 255 255 255 255 255 255
255 255 255 255 255 255 255 255 255 255 255 255 255 255 255
255 255 255 255 255 255 255 255 255 255 255 255 255 255 255
255 255 255 255 255 255 255 255 255 255 255 255 255 255 255
255 255 255 255 255 255 255 255 255 255 255 255 255 255 255
255 255 255 255 255 255 255 255 255 255 255 255 255 255 255
255 255 255 255 255 255 255 255 255 255 255 255 255 255 255
255 255 255 255 255 255 255 255 255 255 255 255 255 255 255
255 255 255 255 255 255 255 255 255 255 255 255 255 255 255
255 255 255 255 255 255 255 255 255 255 255 255 255 255 255
255 255 255 255 255 255 255 255 255 255 255 255 255 255 255
255 255 255 255 255 255 255 255 255 255 255 255 255 255 255
255 255 255 255 255 255 255 255 255 255 255 255 255 255 255
255 255 255 255 255 255 255 255 255 255 255 255 255 255 255
255 255 255 255 255 255 255 255 255 255 255 255 255 255 255
255 255 255 255 255 255 255 255 255 255 255 255 255 255 255
255 255 255 255 255 255 255 255 255 255 255 255 255 254 255
255 253 255 255 252 255 255 253 255 255 254 253 255 254 253
255 255 251 255 255 250 254 255 250 252 255 248 252 255 248
252 255 250 252 255 250 252 255 250 252 255 251 252 255 251
252 255 251 251 255 250 251 255 250 253 255 250 255 255 251
255 254 255 255 254 255 255 252 255 255 251 255 255 241 252
255 243 255 255 242 255 255 239 255 255 233 255 249 219 243
224 194 218 204 170 197 166 121 154 151 101 136 128 78 115 115 63 101
113 56 97 111 52 96 106 44 91 99 35 85 94 25 79 94 23 79 97 22 81
102 24 86 108 26 90 112 30 96 116 31 98 118 31 100 127 35 108
128 34 108 127 33 107 129 33 107 130 32 107 131 33 108 133 32 108
135 33 109 132 28 105 133 29 106 135 28 106 137 28 107 140 29 108
139 28 107 139 28 107 137 28 107 132 25 103 129 25 102 129 25 102
129 25 102 128 26 100 129 27 101 129 29 101 127 30 101 124 29 97
120 28 95 115 23 90 106 16 80 100 11 75 99 13 76 108 20 81 109 28 86
101 33 82 104 43 87 113 54 98 124 69 109 142 90 129 169 122 158
202 158 191 224 185 212 255 227 251 255 233 252 255 238 255
255 243 255 255 246 255 255 247 255 255 249 255 255 252 255
254 255 253 252 255 251 252 255 251 252 255 251 252 255 253
252 255 253 254 255 253 254 255 253 254 255 255 254 255 255
255 255 255 255 255 255 255 255 255 255 254 255 255 254 255
255 254 255 255 254 255 255 254 255 255 254 255 255 254 255
255 254 255 255 254 255 255 255 255 255 255 255 255 255 255
255 255 255 254 255 255 254 255 255 252 255 255 252 255 255
252 255 255 252 255 255 255 255 255 255 255 255 255 255 255
255 255 255 255 255 255 255 255 255 255 255 255 255 255 255
255 255 255 255 255 255 255 255 255 255 255 255 255 255 255
255 255 255 255 255 255 255 255 255 255 255 255 255 255 255
255 255 255 255 255 255 255 255 255 255 255 255 255 255 255
255 255 255 255 255 255 255 255 255 255 255 255 255 255 255
255 255 255 255 255 255 255 255 255 255 255 255 255 255 255
255 255 255 255 255 255 255 255 255 255 255 255 255 255 255
255 255 255 255 255 255 255 255 255 255 255 255 255 255 255
255 255 255 255 255 255 255 255 255 255 255 255 255 255 255
255 255 255 255 255 255 255 255 255 255 255 255 255 255 255
255 255 255 255 255 255 255 255 255 255 255 255 255 255 255
255 255 255 255 255 255 255 255 255 255 255 255 255 255 255
255 255 255 255 255 255 255 255 255 255 255 255 255 255 255
255 255 255 255 255 255 255 255 255 255 255 255 255 255 255
255 255 255 255 255 255 255 255 255 255 255 255 255 255 255
255 255 255 255 255 255 255 255 255 255 255 255 255 255 255
255 255 255 255 255 255 255 255 255 255 255 255 255 255 255
255 255 255 255 255 255 255 255 255 255 255 255 255 255 255
255 255 255 255 255 255 255 255 255 255 255 255 255 255 255
255 255 255 255 255 255 255 255 255 255 255 255 255 255 255
255 255 255 255 255 255 255 255 255 255 255 255 255 255 255
255 255 255 255 255 255 255 255 255 255 255 255 255 255 255
255 255 255 255 255 255 255 255 255 255 255 255 255 255 255
255 255 255 255 255 255 255 255 255 255 255 255 255 255 255
255 255 255 255 255 255 255 255 255 255 255 255 255 255 255
255 255 255 255 255 255 255 255 255 255 255 255 255 255 255
255 255 255 255 255 255 255 255 255 255 255 255 255 255 255
255 255 255 255 255 255 255 255 255 255 255 255 255 255 255
255 255 255 255 255 255 255 255 255 255 255 255 255 255 255
255 255 255 255 255 255 255 255 255 255 255 255 255 255 255
255 255 255 255 255 255 255 255 255 255 255 255 255 255 255
255 255 255 255 255 255 255 255 255 255 255 255 255 255 255
255 255 255 255 255 255 255 255 255 255 255 255 255 255 255
255 255 255 255 255 255 255 255 255 255 255 255 255 255 255
255 255 255 255 255 255 255 255 255 255 255 255 255 255 255
255 255 255 255 255 255 255 255 255 255 255 255 255 255 255
255 255 255 255 255 255 255 255 255 255 255 255 255 255 255
255 255 255 255 255 255 255 255 255 255 255 255 255 255 255
255 255 255 255 255 255 255 255 255 255 255 255 255 255 255
255 255 255 255 255 255 255 255 255 255 255 255 255 255 255
255 255 255 255 255 255 255 255 255 255 255 255 255 255 255
255 255 255 255 255 255 255 255 255 255 255 255 255 255 255
255 255 255 255 255 255 255 255 255 255 255 255 255 255 255
255 255 255 255 255 255 255 255 255 255 255 255 255 255 255
255 255 255 255 255 255 255 255 255 255 255 255 255 255 255
255 255 255 255 255 255 255 255 255 255 255 255 255 255 255
255 255 255 255 255 255 255 255 255 255 255 255 255 255 255
255 255 255 255 255 255 255 255 255 255 255 255 255 255 255
255 255 255 255 255 255 255 255 255 255 255 255 255 255 255
255 255 255 255 255 255 255 255 255 255 255 255 255 255 255
255 255 255 255 255 255 255 254 255 255 252 255 255 251 255
255 251 255 255 252 253 255 253 253 255 254 251 255 255 250
255 255 250 255 255 248 254 255 248 254 255 250 254 255 250
254 255 250 252 255 250 254 255 251 254 255 251 253 255 250
253 255 250 253 255 252 255 255 253 255 255 255 255 255 255
255 254 255 255 253 255 255 253 255 255 252 255 255 251 255
255 251 255 255 250 255 255 250 255 255 247 255 252 235 251
255 246 255 255 240 255 251 222 242 235 203 224 216 182 206
190 154 180 164 125 154 145 104 134 131 86 119 129 82 118 128 76 115
125 70 112 121 64 107 116 57 103 112 50 97 109 45 95 97 28 82
97 27 81 95 25 79 94 21 76 92 17 73 90 15 71 90 13 69 91 12 69
100 19 77 100 19 77 102 18 77 103 18 77 106 18 78 106 18 78 106 18 78
104 19 78 96 15 73 93 14 71 92 13 70 92 15 71 97 20 76 103 29 82
110 37 90 113 43 93 112 44 93 116 50 98 123 57 105 128 65 110
134 73 117 146 85 129 159 98 140 165 109 148 189 142 176 204 161 191
228 187 217 251 212 239 255 230 255 255 239 255 255 244 255
255 246 255 255 241 255 255 245 255 255 248 255 255 250 254
252 250 253 250 250 250 249 251 250 248 253 249 251 255 251
251 255 250 251 255 251 251 255 251 251 255 251 252 255 253
252 255 253 254 255 255 254 255 255 255 255 255 255 255 255
255 254 255 255 254 255 255 254 255 255 253 255 255 253 255
255 253 255 255 254 255 255 254 255 255 254 255 255 254 255
255 254 255 255 255 255 255 255 255 255 255 255 255 255 255
254 255 255 254 255 255 252 255 255 252 255 255 252 255 255
254 255 255 255 255 255 255 255 255 255 255 255 255 255 255
255 255 255 255 255 255 255 255 255 255 255 255 255 255 255
255 255 255 255 255 255 255 255 255 255 255 255 255 255 255
255 255 255 255 255 255 255 255 255 255 255 255 255 255 255
255 255 255 255 255 255 255 255 255 255 255 255 255 255 255
255 255 255 255 255 255 255 255 255 255 255 255 255 255 255
255 255 255 255 255 255 255 255 255 255 255 255 255 255 255
255 255 255 255 255 255 255 255 255 255 255 255 255 255 255
255 255 255 255 255 255 255 255 255 255 255 255 255 255 255
255 255 255 255 255 255 255 255 255 255 255 255 255 255 255
255 255 255 255 255 255 255 255 255 255 255 255 255 255 255
255 255 255 255 255 255 255 255 255 255 255 255 255 255 255
255 255 255 255 255 255 255 255 255 255 255 255 255 255 255
255 255 255 255 255 255 255 255 255 255 255 255 255 255 255
255 255 255 255 255 255 255 255 255 255 255 255 255 255 255
255 255 255 255 255 255 255 255 255 255 255 255 255 255 255
255 255 255 255 255 255 255 255 255 255 255 255 255 255 255
255 255 255 255 255 255 255 255 255 255 255 255 255 255 255
255 255 255 255 255 255 255 255 255 255 255 255 255 255 255
255 255 255 255 255 255 255 255 255 255 255 255 255 255 255
255 255 255 255 255 255 255 255 255 255 255 255 255 255 255
255 255 255 255 255 255 255 255 255 255 255 255 255 255 255
255 255 255 255 255 255 255 255 255 255 255 255 255 255 255
255 255 255 255 255 255 255 255 255 255 255 255 255 255 255
255 255 255 255 255 255 255 255 255 255 255 255 255 255 255
255 255 255 255 255 255 255 255 255 255 255 255 255 255 255
255 255 255 255 255 255 255 255 255 255 255 255 255 255 255
255 255 255 255 255 255 255 255 255 255 255 255 255 255 255
255 255 255 255 255 255 255 255 255 255 255 255 255 255 255
255 255 255 255 255 255 255 255 255 255 255 255 255 255 255
255 255 255 255 255 255 255 255 255 255 255 255 255 255 255
255 255 255 255 255 255 255 255 255 255 255 255 255 255 255
255 255 255 255 255 255 255 255 255 255 255 255 255 255 255
255 255 255 255 255 255 255 255 255 255 255 255 255 255 255
255 255 255 255 255 255 255 255 255 255 255 255 255 255 255
255 255 255 255 255 255 255 255 255 255 255 255 255 255 255
255 255 255 255 255 255 255 255 255 255 255 255 255 255 255
255 255 255 255 255 255 255 255 255 255 255 255 255 255 255
255 255 255 255 255 255 255 255 255 255 255 255 255 255 255
255 255 255 255 255 255 255 255 255 255 255 255 255 255 255
255 255 255 255 255 255 255 255 255 255 255 255 255 255 255
255 255 255 255 255 255 255 255 255 255 255 255 255 255 255
255 255 255 255 255 255 255 255 255 255 255 255 255 255 255
255 255 255 255 255 255 255 255 255 255 255 255 255 255 255
255 255 255 255 255 255 255 255 255 255 255 255 255 255 255
255 255 255 255 255 255 255 255 255 255 255 255 255 255 255
255 255 255 255 255 255 255 255 255 255 255 255 255 255 255
255 255 255 255 255 255 255 255 255 255 255 255 255 255 255
255 255 255 255 255 255 255 255 255 255 255 255 255 255 255
255 255 255 255 255 255 255 255 255 255 255 255 255 255 255
255 255 255 255 255 255 255 255 255 255 255 255 255 255 255
255 255 255 255 254 255 255 252 255 255 251 255 255 251 255
255 252 253 255 252 253 255 254 251 255 254 250 255 255 250
255 255 250 255 255 250 255 255 250 255 255 250 255 255 251
254 255 251 255 255 253 255 255 253 254 254 252 254 254 252
254 254 254 255 255 255 255 255 255 255 255 255 255 255 255
255 255 255 254 253 255 251 252 255 247 248 253 243 244 249
247 246 254 253 252 255 254 254 255 255 254 255 247 240 247
250 239 247 253 240 249 255 244 253 255 247 255 255 246 255
255 241 255 255 236 252 255 231 250 251 223 245 240 211 233
226 194 218 210 176 201 192 158 185 176 140 168 168 129 158
155 116 147 154 113 147 151 110 144 148 104 139 144 100 135
142 96 132 140 93 129 139 92 128 131 81 118 131 79 117 132 77 116
132 77 116 133 77 116 134 78 117 136 78 118 135 80 119 146 96 133
142 96 132 142 96 132 143 99 134 149 105 140 156 115 147 165 124 156
170 131 162 200 163 194 206 172 199 217 183 210 227 194 221
235 205 231 246 216 240 255 228 251 255 236 255 255 234 255
255 233 252 255 233 251 255 234 249 255 237 251 255 240 253
255 242 252 254 244 253 255 250 255 255 252 255 254 254 255
251 253 252 247 251 250 245 251 247 246 252 248 247 253 249
251 255 251 252 255 251 252 255 253 252 255 253 252 255 253
254 255 253 254 255 255 255 255 255 255 255 255 255 254 255
255 254 255 255 253 255 255 253 255 255 253 255 255 253 255
255 253 255 255 254 255 255 254 255 255 254 255 255 254 255
255 254 255 255 254 255 255 255 255 255 255 255 255 255 255
255 255 255 254 255 255 254 255 255 254 255 255 254 255 255
254 255 255 254 255 255 255 255 255 255 255 255 255 255 255
255 255 255 255 255 255 255 255 255 255 255 255 255 255 255
255 255 255 255 255 255 255 255 255 255 255 255 255 255 255
255 255 255 255 255 255 255 255 255 255 255 255 255 255 255
255 255 255 255 255 255 255 255 255 255 255 255 255 255 255
255 255 255 255 255 255 255 255 255 255 255 255 255 255 255
255 255 255 255 255 255 255 255 255 255 255 255 255 255 255
255 255 255 255 255 255 255 255 255 255 255 255 255 255 255
255 255 255 255 255 255 255 255 255 255 255 255 255 255 255
255 255 255 255 255 255 255 255 255 255 255 255 255 255 255
255 255 255 255 255 255 255 255 255 255 255 255 255 255 255
255 255 255 255 255 255 255 255 255 255 255 255 255 255 255
255 255 255 255 255 255 255 255 255 255 255 255 255 255 255
255 255 255 255 255 255 255 255 255 255 255 255 255 255 255
255 255 255 255 255 255 255 255 255 255 255 255 255 255 255
255 255 255 255 255 255 255 255 255 255 255 255 255 255 255
255 255 255 255 255 255 255 255 255 255 255 255 255 255 255
255 255 255 255 255 255 255 255 255 255 255 255 255 255 255
255 255 255 255 255 255 255 255 255 255 255 255 255 255 255
255 255 255 255 255 255 255 255 255 255 255 255 255 255 255
255 255 255 255 255 255 255 255 255 255 255 255 255 255 255
255 255 255 255 255 255 255 255 255 255 255 255 255 255 255
255 255 255 255 255 255 255 255 255 255 255 255 255 255 255
255 255 255 255 255 255 255 255 255 255 255 255 255 255 255
255 255 255 255 255 255 255 255 255 255 255 255 255 255 255
255 255 255 255 255 255 255 255 255 255 255 255 255 255 255
255 255 255 255 255 255 255 255 255 255 255 255 255 255 255
255 255 255 255 255 255 255 255 255 255 255 255 255 255 255
255 255 255 255 255 255 255 255 255 255 255 255 255 255 255
255 255 255 255 255 255 255 255 255 255 255 255 255 255 255
255 255 255 255 255 255 255 255 255 255 255 255 255 255 255
255 255 255 255 255 255 255 255 255 255 255 255 255 255 255
255 255 255 255 255 255 255 255 255 255 255 255 255 255 255
255 255 255 255 255 255 255 255 255 255 255 255 255 255 255
255 255 255 255 255 255 255 255 255 255 255 255 255 255 255
255 255 255 255 255 255 255 255 255 255 255 255 255 255 255
255 255 255 255 255 255 255 255 255 255 255 255 255 255 255
255 255 255 255 255 255 255 255 255 255 255 255 255 255 255
255 255 255 255 255 255 255 255 255 255 255 255 255 255 255
255 255 255 255 255 255 255 255 255 255 255 255 255 255 255
255 255 255 255 255 255 255 255 255 255 255 255 255 255 255
255 255 255 255 255 255 255 255 255 255 255 255 255 255 255
255 255 255 255 255 255 255 255 255 255 255 255 255 255 255
255 255 255 255 255 255 255 255 255 255 255 255 255 255 255
255 255 255 255 255 255 255 255 255 255 255 255 255 255 255
255 255 255 255 255 255 255 255 255 255 255 255 255 255 255
255 255 255 255 255 255 255 255 255 255 255 255 255 255 255
255 255 255 255 255 255 255 255 255 255 255 255 255 255 255
255 255 255 255 255 255 255 255 255 255 255 255 255 255 255
255 255 255 255 255 255 255 255 255 255 255 255 255 255 255
255 255 255 255 255 255 255 255 255 255 255 255 255 255 255
255 255 255 255 255 255 255 254 255 255 252 255 255 251 255
255 252 255 255 252 255 255 252 253 255 254 251 255 254 251
255 255 250 255 255 250 255 255 250 255 255 250 255 255 251
255 255 251 255 255 253 255 255 255 255 255 255 255 253 254
255 253 254 255 253 254 255 254 255 255 255 255 255 255 255
254 255 255 254 255 255 252 255 255 252 255 255 250 254 255
246 251 254 244 249 252 244 249 252 245 250 254 246 251 254
255 255 255 255 254 255 250 248 249 248 244 245 245 240 244
247 241 245 250 244 248 255 245 253 251 240 248 253 240 249
255 242 252 255 245 255 255 249 255 255 248 255 255 248 255
255 248 255 255 243 255 255 242 255 255 239 255 255 237 253
255 234 253 253 232 249 253 230 250 253 228 247 255 227 249
254 227 246 253 224 246 252 223 243 255 223 246 255 224 245
255 225 249 255 229 249 251 226 247 251 230 247 252 231 250
253 234 253 255 236 255 255 239 255 255 240 255 255 242 255
246 234 248 248 237 251 252 241 255 254 243 255 253 245 255
254 246 255 255 250 255 255 251 255 255 250 255 255 248 255
255 248 255 255 247 255 255 248 255 254 249 255 254 249 255
252 250 255 252 252 254 251 252 254 251 253 252 247 251 250
245 251 249 246 252 248 247 255 253 251 255 253 252 255 253
254 255 251 254 255 253 254 255 253 254 255 253 255 255 253
255 255 255 255 255 255 255 254 255 255 254 255 255 254 255
255 254 255 255 253 255 255 253 255 255 253 255 255 254 255
255 254 255 255 255 255 255 254 255 255 255 255 255 254 255
255 255 255 255 255 255 255 255 255 255 255 255 255 255 255
255 255 255 254 255 255 255 255 255 254 255 255 255 255 255
255 255 255 255 255 255 255 255 255 255 255 255 255 255 255
255 255 255 255 255 255 255 255 255 255 255 255 255 255 255
255 255 255 255 255 255 255 255 255 255 255 255 255 255 255
255 255 255 255 255 255 255 255 255 255 255 255 255 255 255
255 255 255 255 255 255 255 255 255 255 255 255 255 255 255
255 255 255 255 255 255 255 255 255 255 255 255 255 255 255
255 255 255 255 255 255 255 255 255 255 255 255 255 255 255
255 255 255 255 255 255 255 255 255 255 255 255 255 255 255
255 255 255 255 255 255 255 255 255 255 255 255 255 255 255
255 255 255 255 255 255 255 255 255 255 255 255 255 255 255
255 255 255 255 255 255 255 255 255 255 255 255 255 255 255
255 255 255 255 255 255 255 255 255 255 255 255 255 255 255
255 255 255 255 255 255 255 255 255 255 255 255 255 255 255
255 255 255 255 255 255 255 255 255 255 255 255 255 255 255
255 255 255 255 255 255 255 255 255 255 255 255 255 255 255
255 255 255 255 255 255 255 255 255 255 255 255 255 255 255
255 255 255 255 255 255 255 255 255 255 255 255 255 255 255
255 255 255 255 255 255 255 255 255 255 255 255 255 255 255
255 255 255 255 255 255 255 255 255 255 255 255 255 255 255
255 255 255 255 255 255 255 255 255 255 255 255 255 255 255
255 255 255 255 255 255 255 255 255 255 255 255 255 255 255
255 255 255 255 255 255 255 255 255 255 255 255 255 255 255
255 255 255 255 255 255 255 255 255 255 255 255 255 255 255
255 255 255 255 255 255 255 255 255 255 255 255 255 255 255
255 255 255 255 255 255 255 255 255 255 255 255 255 255 255
255 255 255 255 255 255 255 255 255 255 255 255 255 255 255
255 255 255 255 255 255 255 255 255 255 255 255 255 255 255
255 255 255 255 255 255 255 255 255 255 255 255 255 255 255
255 255 255 255 255 255 255 255 255 255 255 255 255 255 255
255 255 255 255 255 255 255 255 255 255 255 255 255 255 255
255 255 255 255 255 255 255 255 255 255 255 255 255 255 255
255 255 255 255 255 255 255 255 255 255 255 255 255 255 255
255 255 255 255 255 255 255 255 255 255 255 255 255 255 255
255 255 255 255 255 255 255 255 255 255 255 255 255 255 255
255 255 255 255 255 255 255 255 255 255 255 255 255 255 255
255 255 255 255 255 255 255 255 255 255 255 255 255 255 255
255 255 255 255 255 255 255 255 255 255 255 255 255 255 255
255 255 255 255 255 255 255 255 255 255 255 255 255 255 255
255 255 255 255 255 255 255 255 255 255 255 255 255 255 255
255 255 255 255 255 255 255 255 255 255 255 255 255 255 255
255 255 255 255 255 255 255 255 255 255 255 255 255 255 255
255 255 255 255 255 255 255 255 255 255 255 255 255 255 255
255 255 255 255 255 255 255 255 255 255 255 255 255 255 255
255 255 255 255 255 255 255 255 255 255 255 255 255 255 255
255 255 255 255 255 255 255 255 255 255 255 255 255 255 255
255 255 255 255 255 255 255 255 255 255 255 255 255 255 255
255 255 255 255 255 255 255 255 255 255 255 255 255 255 255
255 255 255 255 255 255 255 255 255 255 255 255 255 255 255
255 255 255 255 255 255 255 255 255 255 255 255 255 255 255
255 255 255 255 255 255 255 255 255 255 255 255 255 255 255
255 255 255 255 255 255 255 255 255 255 255 255 255 255 255
255 255 255 255 254 255 255 253 255 255 253 255 255 254 255
255 254 255 255 254 253 255 254 251 255 254 251 255 254 251
255 254 251 255 255 251 255 255 251 255 255 253 255 255 255
255 255 255 255 255 255 255 255 255 254 254 254 254 254 254
254 254 254 255 255 255 255 255 255 255 255 255 254 255 255
254 255 255 253 255 254 252 255 255 252 255 255 252 255 255
250 254 255 247 251 252 246 250 251 247 251 252 249 250 252
253 253 255 255 255 255 255 255 255 254 254 254 252 252 252
252 252 252 254 252 255 250 248 251 251 246 250 250 245 249
250 245 249 251 246 250 253 247 251 253 247 251 251 246 252
255 254 255 255 254 255 255 252 255 254 252 255 255 251 255
255 251 255 255 251 255 255 251 255 254 244 253 253 243 251
252 240 250 252 241 249 252 240 250 253 242 250 255 244 254
255 246 254 255 252 255 255 253 255 255 253 255 255 252 255
254 251 255 252 251 255 250 249 255 249 250 255 254 255 255
252 255 255 251 254 255 248 253 255 246 251 255 244 249 253
244 249 255 245 248 253 238 239 243 244 243 248 250 249 254
251 251 253 249 248 253 245 245 247 244 244 246 244 244 246
250 251 253 250 251 253 249 250 252 248 249 251 245 249 250
247 251 250 253 254 255 254 255 255 255 255 253 255 255 253
255 255 253 255 255 253 255 255 253 255 255 253 255 255 255
255 255 255 255 255 255 255 255 255 255 255 255 255 255 255
255 254 255 255 254 255 255 254 255 255 255 255 255 255 255
254 255 255 255 255 255 254 255 255 255 255 255 255 255 255
255 255 255 255 255 255 255 255 255 255 255 255 255 255 255
255 255 255 255 254 255 255 255 255 255 254 255 255 255 255
255 255 255 255 255 255 255 255 255 255 255 255 255 255 255
255 255 255 255 255 255 255 255 255 255 255 255 255 255 255
255 255 255 255 255 255 255 255 255 255 255 255 255 255 255
255 255 255 255 255 255 255 255 255 255 255 255 255 255 255
255 255 255 255 255 255 255 255 255 255 255 255 255 255 255
255 255 255 255 255 255 255 255 255 255 255 255 255 255 255
255 255 255 255 255 255 255 255 255 255 255 255 255 255 255
255 255 255 255 255 255 255 255 255 255 255 255 255 255 255
255 255 255 255 255 255 255 255 255 255 255 255 255 255 255
255 255 255 255 255 255 255 255 255 255 255 255 255 255 255
255 255 255 255 255 255 255 255 255 255 255 255 255 255 255
255 255 255 255 255 255 255 255 255 255 255 255 255 255 255
255 255 255 255 255 255 255 255 255 255 255 255 255 255 255
255 255 255 255 255 255 255 255 255 255 255 255 255 255 255
255 255 255 255 255 255 255 255 255 255 255 255 255 255 255
255 255 255 255 255 255 255 255 255 255 255 255 255 255 255
255 255 255 255 255 255 255 255 255 255 255 255 255 255 255
255 255 255 255 255 255 255 255 255 255 255 255 255 255 255
255 255 255 255 255 255 255 255 255 255 255 255 255 255 255
255 255 255 255 255 255 255 255 255 255 255 255 255 255 255
255 255 255 255 255 255 255 255 255 255 255 255 255 255 255
255 255 255 255 255 255 255 255 255 255 255 255 255 255 255
255 255 255 255 255 255 255 255 255 255 255 255 255 255 255
255 255 255 255 255 255 255 255 255 255 255 255 255 255 255
255 255 255 255 255 255 255 255 255 255 255 255 255 255 255
255 255 255 255 255 255 255 255 255 255 255 255 255 255 255
255 255 255 255 255 255 255 255 255 255 255 255 255 255 255
255 255 255 255 255 255 255 255 255 255 255 255 255 255 255
255 255 255 255 255 255 255 255 255 255 255 255 255 255 255
255 255 255 255 255 255 255 255 255 255 255 255 255 255 255
255 255 255 255 255 255 255 255 255 255 255 255 255 255 255
255 255 255 255 255 255 255 255 255 255 255 255 255 255 255
255 255 255 255 255 255 255 255 255 255 255 255 255 255 255
255 255 255 255 255 255 255 255 255 255 255 255 255 255 255
255 255 255 255 255 255 255 255 255 255 255 255 255 255 255
255 255 255 255 255 255 255 255 255 255 255 255 255 255 255
255 255 255 255 255 255 255 255 255 255 255 255 255 255 255
255 255 255 255 255 255 255 255 255 255 255 255 255 255 255
255 255 255 255 255 255 255 255 255 255 255 255 255 255 255
255 255 255 255 255 255 255 255 255 255 255 255 255 255 255
255 255 255 255 255 255 255 255 255 255 255 255 255 255 255
255 255 255 255 255 255 255 255 255 255 255 255 255 255 255
255 255 255 255 255 255 255 255 255 255 255 255 255 255 255
255 255 255 255 255 255 255 255 255 255 255 255 255 255 255
255 255 255 255 255 255 255 255 255 255 255 255 255 255 255
255 255 255 255 255 255 255 255 255 255 255 255 255 255 255
255 255 255 255 255 255 255 255 255 255 255 255 255 255 255
255 255 255 255 255 255 255 255 255 255 255 255 255 255 255
255 255 255 255 255 255 255 255 255 255 255 255 255 255 255
255 255 255 255 255 255 255 255 255 255 255 255 255 255 255
255 255 255 255 255 255 255 255 255 255 255 255 255 255 255
255 255 255 255 255 255 255 255 255 255 255 255 255 255 255
255 255 253 255 255 253 255 255 251 255 255 251 255 255 251
255 255 253 255 255 253 255 255 255 255 255 255 255 254 255
255 254 255 255 254 255 254 254 254 253 255 254 254 254 254
255 255 255 255 255 255 255 255 255 254 255 255 254 255 253
252 254 253 249 251 248 248 250 247 247 249 246 245 247 244
242 244 241 242 244 241 246 248 247 249 249 251 252 252 254
254 253 255 253 254 255 252 252 254 249 250 252 249 250 252
250 252 251 254 254 254 252 252 252 251 251 251 250 252 251
253 253 253 254 255 255 254 255 255 254 255 255 248 252 253
247 253 253 247 251 252 247 251 252 247 251 252 250 251 253
250 251 253 251 252 254 254 254 255 254 254 255 254 252 255
253 251 254 254 252 255 255 253 255 255 253 255 255 254 255
255 255 255 253 254 255 249 250 252 247 248 250 244 248 251
246 250 253 247 252 255 250 255 255 246 254 255 246 254 255
245 253 255 242 252 254 242 252 254 242 252 254 243 253 255
245 253 255 251 255 255 251 255 255 250 255 255 245 249 250
240 244 245 240 244 245 249 250 252 254 255 255 252 252 254
253 253 255 252 252 254 250 250 252 249 248 253 250 248 251
253 251 255 255 253 255 255 254 253 255 255 253 255 255 253
255 255 253 255 255 253 255 255 253 255 255 253 255 255 253
255 255 255 255 255 255 254 255 255 254 255 255 254 255 255
252 255 255 252 255 255 252 255 255 254 255 255 254 255 255
254 255 255 254 255 255 254 255 255 254 255 255 255 255 255
255 255 255 255 255 255 255 255 255 255 254 255 255 254 255
255 254 255 255 254 255 255 254 255 255 254 255 255 255 255
255 255 255 255 255 255 255 255 255 255 255 255 255 255 255
255 255 255 255 255 255 255 255 255 255 255 255 255 255 255
255 255 255 255 255 255 255 255 255 255 255 255 255 255 255
255 255 255 255 255 255 255 255 255 255 255 255 255 255 255
255 255 255 255 255 255 255 255 255 255 255 255 255 255 255
255 255 255 255 255 255 255 255 255 255 255 255 255 255 255
255 255 255 255 255 255 255 255 255 255 255 255 255 255 255
255 255 255 255 255 255 255 255 255 255 255 255 255 255 255
255 255 255 255 255 255 255 255 255 255 255 255 255 255 255
255 255 255 255 255 255 255 255 255 255 255 255 255 255 255
255 255 255 255 255 255 255 255 255 255 255 255 255 255 255
255 255 255 255 255 255 255 255 255 255 255 255 255 255 255
255 255 255 255 255 255 255 255 255 255 255 255 255 255 255
255 255 255 255 255 255 255 255 255 255 255 255 255 255 255
255 255 255 255 255 255 255 255 255 255 255 255 255 255 255
255 255 255 255 255 255 255 255 255 255 255 255 255 255 255
255 255 255 255 255 255 255 255 255 255 255 255 255 255 255
255 255 255 255 255 255 255 255 255 255 255 255 255 255 255
255 255 255 255 255 255 255 255 255 255 255 255 255 255 255
255 255 255 255 255 255 255 255 255 255 255 255 255 255 255
255 255 255 255 255 255 255 255 255 255 255 255 255 255 255
255 255 255 255 255 255 255 255 255 255 255 255 255 255 255
255 255 255 255 255 255 255 255 255 255 255 255 255 255 255
255 255 255 255 255 255 255 255 255 255 255 255 255 255 255
255 255 255 255 255 255 255 255 255 255 255 255 255 255 255
255 255 255 255 255 255 255 255 255 255 255 255 255 255 255
255 255 255 255 255 255 255 255 255 255 255 255 255 255 255
255 255 255 255 255 255 255 255 255 255 255 255 255 255 255
255 255 255 255 255 255 255 255 255 255 255 255 255 255 255
255 255 255 255 255 255 255 255 255 255 255 255 255 255 255
255 255 255 255 255 255 255 255 255 255 255 255 255 255 255
255 255 255 255 255 255 255 255 255 255 255 255 255 255 255
255 255 255 255 255 255 255 255 255 255 255 255 255 255 255
255 255 255 255 255 255 255 255 255 255 255 255 255 255 255
255 255 255 255 255 255 255 255 255 255 255 255 255 255 255
255 255 255 255 255 255 255 255 255 255 255 255 255 255 255
255 255 255 255 255 255 255 255 255 255 255 255 255 255 255
255 255 255 255 255 255 255 255 255 255 255 255 255 255 255
255 255 255 255 255 255 255 255 255 255 255 255 255 255 255
255 255 255 255 255 255 255 255 255 255 255 255 255 255 255
255 255 255 255 255 255 255 255 255 255 255 255 255 255 255
255 255 255 255 255 255 255 255 255 255 255 255 255 255 255
255 255 255 255 255 255 255 255 255 255 255 255 255 255 255
255 255 255 255 255 255 255 255 255 255 255 255 255 255 255
255 255 255 255 255 255 255 255 255 255 255 255 255 255 255
255 255 255 255 255 255 255 255 255 255 255 255 255 255 255
255 255 255 255 255 255 255 255 255 255 255 255 255 255 255
255 255 255 255 255 255 255 255 255 255 255 255 255 255 255
255 255 255 255 255 255 255 255 255 255 255 255 255 255 255
255 255 255 255 255 255 255 255 255 255 255 255 255 255 255
255 255 255 255 255 255 255 255 255 255 255 255 254 255 255
254 255 255 252 255 255 252 255 255 252 255 253 254 255 253
254 255 253 255 255 251 255 255 251 255 255 253 255 255 253
255 255 255 255 255 255 255 255 255 254 255 255 254 255 255
254 255 255 253 255 254 251 255 252 253 255 252 254 255 253
254 255 253 254 255 253 255 255 253 255 255 251 255 255 253
255 255 251 254 253 249 254 253 249 255 251 248 251 247 244
250 246 243 253 249 248 255 254 255 255 254 255 253 250 255
249 248 253 248 246 251 249 248 253 253 252 255 255 255 255
252 253 255 251 252 254 249 250 252 248 252 253 251 253 252
248 252 251 247 251 250 245 249 248 249 253 252 248 252 251
250 252 251 250 252 251 250 252 251 252 252 252 252 252 252
253 253 253 252 252 252 252 252 252 253 251 252 254 252 253
254 252 253 254 252 253 255 253 254 255 253 254 255 253 254
252 252 252 249 249 249 247 247 247 247 247 249 249 249 251
251 252 255 253 254 255 254 255 255 252 255 255 251 254 255
251 254 255 252 255 255 252 255 255 251 254 255 250 255 255
234 243 242 238 247 244 244 253 250 251 255 255 251 255 255
252 255 255 254 255 255 255 255 255 255 253 255 255 252 255
255 252 255 255 249 255 255 248 255 255 246 254 255 248 255
255 251 255 255 253 253 255 254 251 255 254 251 255 254 251
255 255 251 255 255 251 255 255 251 255 255 251 254 255 253
254 255 253 252 255 253 251 255 253 251 255 253 251 255 253
251 255 253 251 255 253 252 255 255 252 255 255 252 255 255
252 255 255 254 255 255 254 255 255 255 255 255 255 255 255
255 255 255 255 255 255 255 254 255 255 254 255 255 254 255
255 254 255 255 254 255 255 254 255 255 255 255 255 255 255
255 255 255 255 255 255 255 255 255 255 255 255 255 255 255
255 255 255 255 255 255 255 255 255 255 255 255 255 255 255
255 255 255 255 255 255 255 255 255 255 255 255 255 255 255
255 255 255 255 255 255 255 255 255 255 255 255 255 255 255
255 255 255 255 255 255 255 255 255 255 255 255 255 255 255
255 255 255 255 255 255 255 255 255 255 255 255 255 255 255
255 255 255 255 255 255 255 255 255 255 255 255 255 255 255
255 255 255 255 255 255 255 255 255 255 255 255 255 255 255
255 255 255 255 255 255 255 255 255 255 255 255 255 255 255
255 255 255 255 255 255 255 255 255 255 255 255 255 255 255
255 255 255 255 255 255 255 255 255 255 255 255 255 255 255
255 255 255 255 255 255 255 255 255 255 255 255 255 255 255
255 255 255 255 255 255 255 255 255 255 255 255 255 255 255
255 255 255 255 255 255 255 255 255 255 255 255 255 255 255
255 255 255 255 255 255 255 255 255 255 255 255 255 255 255
255 255 255 255 255 255 255 255 255 255 255 255 255 255 255
255 255 255 255 255 255 255 255 255 255 255 255 255 255 255
255 255 255 255 255 255 255 255 255 255 255 255 255 255 255
255 255 255 255 255 255 255 255 255 255 255 255 255 255 255
255 255 255 255 255 255 255 255 255 255 255 255 255 255 255
255 255 255 255 255 255 255 255 255 255 255 255 255 255 255
255 255 255 255 255 255 255 255 255 255 255 255 255 255 255
255 255 255 255 255 255 255 255 255 255 255 255 255 255 255
255 255 255 255 255 255 255 255 255 255 255 255 255 255 255
255 255 255 255 255 255 255 255 255 255 255 255 255 255 255
255 255 255 255 255 255 255 255 255 255 255 255 255 255 255
255 255 255 255 255 255 255 255 255 255 255 255 255 255 255
255 255 255 255 255 255 255 255 255 255 255 255 255 255 255
255 255 255 255 255 255 255 255 255 255 255 255 255 255 255
255 255 255 255 255 255 255 255 255 255 255 255 255 255 255
255 255 255 255 255 255 255 255 255 255 255 255 255 255 255
255 255 255 255 255 255 255 255 255 255 255 255 255 255 255
255 255 255 255 255 255 255 255 255 255 255 255 255 255 255
255 255 255 255 255 255 255 255 255 255 255 255 255 255 255
255 255 255 255 255 255 255 255 255 255 255 255 255 255 255
255 255 255 255 255 255 255 255 255 255 255 255 255 255 255
255 255 255 255 255 255 255 255 255 255 255 255 255 255 255
255 255 255 255 255 255 255 255 255 255 255 255 255 255 255
255 255 255 255 255 255 255 255 255 255 255 255 255 255 255
255 255 255 255 255 255 255 255 255 255 255 255 255 255 255
255 255 255 255 255 255 255 255 255 255 255 255 255 255 255
255 255 255 255 255 255 255 255 255 255 255 255 255 255 255
255 255 255 255 255 255 255 255 255 255 255 255 255 255 255
255 255 255 255 255 255 255 255 255 255 255 255 255 255 255
255 255 255 255 255 255 255 255 255 255 255 255 255 255 255
255 255 255 255 255 255 255 255 255 255 255 255 255 255 255
255 255 255 255 255 255 255 255 255 255 255 255 255 255 255
255 255 255 255 255 255 255 255 255 255 255 255 255 255 255
255 255 255 255 255 255 255 255 255 255 255 255 255 255 255
255 255 255 255 255 255 255 255 255 255 255 255 255 255 255
255 255 255 255 255 255 255 255 255 254 255 255 252 255 255
252 255 255 252 255 253 252 255 253 252 255 253 254 255 253
254 255 253 254 255 253 255 255 253 255 255 255 255 255 255
255 255 255 254 255 255 254 255 255 254 255 255 254 255 255
253 255 254 251 255 252 251 255 254 252 255 253 254 255 255
254 255 253 255 255 253 255 255 253 255 255 253 254 253 251
255 251 248 255 254 251 255 254 251 255 252 249 254 249 246
254 250 249 255 254 255 255 254 255 255 254 255 254 253 255
253 252 255 252 251 255 251 252 255 251 252 254 253 254 255
253 254 255 252 255 255 252 255 255 252 255 255 252 255 255
249 253 252 246 250 249 250 254 253 252 254 253 252 254 253
252 254 253 253 255 254 254 255 255 255 255 255 254 255 255
254 254 254 254 254 254 255 255 255 255 255 255 255 255 255
255 255 255 255 255 255 255 255 255 254 254 254 255 255 255
255 254 255 255 255 255 255 254 255 253 253 255 250 250 252
249 249 251 251 250 255 251 250 255 251 252 255 252 253 255
253 254 255 252 253 255 250 251 255 246 250 253 251 255 255
247 255 253 247 253 251 249 255 253 252 255 255 252 255 255
254 255 255 251 251 253 254 252 255 255 252 255 255 251 255
255 251 255 255 249 255 255 249 255 255 251 255 255 252 255
255 253 253 255 254 251 255 254 253 255 255 251 255 255 253
255 255 251 255 255 253 255 255 251 254 255 253 254 255 251
252 255 253 252 255 251 251 255 253 251 255 251 251 255 253
251 255 253 252 255 255 252 255 255 254 255 255 254 255 255
254 255 255 254 255 255 255 255 255 255 255 255 255 255 255
255 255 255 255 254 255 255 254 255 255 254 255 255 254 255
255 254 255 255 254 255 255 255 255 255 255 255 255 255 255
255 255 255 255 255 255 255 255 255 255 255 255 255 255 255
255 255 255 255 255 255 255 255 255 255 255 255 255 255 255
255 255 255 255 255 255 255 255 255 255 255 255 255 255 255
255 255 255 255 255 255 255 255 255 255 255 255 255 255 255
255 255 255 255 255 255 255 255 255 255 255 255 255 255 255
255 255 255 255 255 255 255 255 255 255 255 255 255 255 255
255 255 255 255 255 255 255 255 255 255 255 255 255 255 255
255 255 255 255 255 255 255 255 255 255 255 255 255 255 255
255 255 255 255 255 255 255 255 255 255 255 255 255 255 255
255 255 255 255 255 255 255 255 255 255 255 255 255 255 255
255 255 255 255 255 255 255 255 255 255 255 255 255 255 255
255 255 255 255 255 255 255 255 255 255 255 255 255 255 255
255 255 255 255 255 255 255 255 255 255 255 255 255 255 255
255 255 255 255 255 255 255 255 255 255 255 255 255 255 255
255 255 255 255 255 255 255 255 255 255 255 255 255 255 255
255 255 255 255 255 255 255 255 255 255 255 255 255 255 255
255 255 255 255 255 255 255 255 255 255 255 255 255 255 255
255 255 255 255 255 255 255 255 255 255 255 255 255 255 255
255 255 255 255 255 255 255 255 255 255 255 255 255 255 255
255 255 255 255 255 255 255 255 255 255 255 255 255 255 255
255 255 255 255 255 255 255 255 255 255 255 255 255 255 255
255 255 255 255 255 255 255 255 255 255 255 255 255 255 255
255 255 255 255 255 255 255 255 255 255 255 255 255 255 255
255 255 255 255 255 255 255 255 255 255 255 255 255 255 255
255 255 255 255 255 255 255 255 255 255 255 255 255 255 255
255 255 255 255 255 255 255 255 255 255 255 255 255 255 255
255 255 255 255 255 255 255 255 255 255 255 255 255 255 255
255 255 255 255 255 255 255 255 255 255 255 255 255 255 255
255 255 255 255 255 255 255 255 255 255 255 255 255 255 255
255 255 255 255 255 255 255 255 255 255 255 255 255 255 255
255 255 255 255 255 255 255 255 255 255 255 255 255 255 255
255 255 255 255 255 255 255 255 255 255 255 255 255 255 255
255 255 255 255 255 255 255 255 255 255 255 255 255 255 255
255 255 255 255 255 255 255 255 255 255 255 255 255 255 255
255 255 255 255 255 255 255 255 255 255 255 255 255 255 255
255 255 255 255 255 255 255 255 255 255 255 255 255 255 255
255 255 255 255 255 255 255 255 255 255 255 255 255 255 255
255 255 255 255 255 255 255 255 255 255 255 255 255 255 255
255 255 255 255 255 255 255 255 255 255 255 255 255 255 255
255 255 255 255 255 255 255 255 255 255 255 255 255 255 255
255 255 255 255 255 255 255 255 255 255 255 255 255 255 255
255 255 255 255 255 255 255 255 255 255 255 255 255 255 255
255 255 255 255 255 255 255 255 255 255 255 255 255 255 255
255 255 255 255 255 255 255 255 255 255 255 255 255 255 255
255 255 255 255 255 255 255 255 255 255 255 255 255 255 255
255 255 255 255 255 255 255 255 255 255 255 255 255 255 255
255 255 255 255 255 255 255 255 255 255 255 255 255 255 255
255 255 255 255 255 255 255 255 255 255 255 255 255 255 255
255 255 255 255 255 255 255 255 255 255 255 255 255 255 255
255 255 255 255 255 255 255 255 255 255 255 255 255 255 255
255 255 255 255 255 255 255 255 255 254 255 255 254 255 255
254 255 255 254 255 255 254 255 255 255 255 255 255 255 255
255 255 255 255 255 255 255 255 255 255 255 255 255 255 255
255 255 255 254 254 255 254 254 255 253 254 255 253 254 255
253 255 254 253 254 255 253 255 254 253 254 255 253 255 254
254 254 254 254 254 254 255 255 255 255 255 255 255 254 255
255 254 255 255 254 255 255 254 255 255 254 255 255 255 255
252 253 255 250 254 255 250 254 255 250 254 255 250 254 255
250 254 255 250 254 255 250 254 253 251 255 254 251 255 254
253 255 254 253 255 254 253 255 254 253 255 254 253 255 254
251 255 254 251 255 254 251 255 254 251 255 254 251 255 254
251 255 254 251 255 254 253 255 254 251 255 254 254 255 255
254 255 255 254 255 255 254 255 255 254 255 255 254 255 255
254 255 255 254 255 255 252 254 253 252 254 253 253 253 253
252 254 253 253 253 253 252 254 253 252 254 253 252 254 253
252 253 255 252 253 255 252 253 255 252 253 255 252 253 255
252 253 255 252 253 255 252 253 255 252 254 253 252 254 253
252 254 253 252 254 253 252 254 253 252 254 253 253 253 253
253 253 253 253 253 253 254 252 255 254 252 255 254 252 255
254 252 255 254 252 255 254 252 255 254 252 253 255 254 255
255 255 253 255 254 255 255 255 253 255 255 255 255 255 253
255 255 255 255 255 253 255 255 255 255 255 253 254 255 255
254 255 253 254 255 255 254 255 253 254 255 255 254 255 255
254 255 255 254 255 255 255 255 255 255 255 255 255 255 255
255 255 255 255 255 255 255 255 255 255 255 255 255 255 255
255 255 255 255 255 255 255 255 255 255 255 255 255 254 255
255 255 255 255 255 255 255 255 255 255 255 255 255 255 255
255 255 255 255 255 255 255 255 255 255 255 255 255 255 255
255 255 255 255 255 255 255 255 255 255 255 255 255 255 255
255 255 255 255 255 255 255 255 255 255 255 255 255 255 255
255 255 255 255 255 255 255 255 255 255 255 255 255 255 255
255 255 255 255 255 255 255 255 255 255 255 255 255 255 255
255 255 255 255 255 255 255 255 255 255 255 255 255 255 255
255 255 255 255 255 255 255 255 255 255 255 255 255 255 255
255 255 255 255 255 255 255 255 255 255 255 255 255 255 255
255 255 255 255 255 255 255 255 255 255 255 255 255 255 255
255 255 255 255 255 255 255 255 255 255 255 255 255 255 255
255 255 255 255 255 255 255 255 255 255 255 255 255 255 255
255 255 255 255 255 255 255 255 255 255 255 255 255 255 255
255 255 255 255 255 255 255 255 255 255 255 255 255 255 255
255 255 255 255 255 255 255 255 255 255 255 255 255 255 255
255 255 255 255 255 255 255 255 255 255 255 255 255 255 255
255 255 255 255 255 255 255 255 255 255 255 255 255 255 255
255 255 255 255 255 255 255 255 255 255 255 255 255 255 255
255 255 255 255 255 255 255 255 255 255 255 255 255 255 255
255 255 255 255 255 255 255 255 255 255 255 255 255 255 255
255 255 255 255 255 255 255 255 255 255 255 255 255 255 255
255 255 255 255 255 255 255 255 255 255 255 255 255 255 255
255 255 255 255 255 255 255 255 255 255 255 255 255 255 255
255 255 255 255 255 255 255 255 255 255 255 255 255 255 255
255 255 255 255 255 255 255 255 255 255 255 255 255 255 255
255 255 255 255 255 255 255 255 255 255 255 255 255 255 255
255 255 255 255 255 255 255 255 255 255 255 255 255 255 255
255 255 255 255 255 255 255 255 255 255 255 255 255 255 255
255 255 255 255 255 255 255 255 255 255 255 255 255 255 255
255 255 255 255 255 255 255 255 255 255 255 255 255 255 255
255 255 255 255 255 255 255 255 255 255 255 255 255 255 255
255 255 255 255 255 255 255 255 255 255 255 255 255 255 255
255 255 255 255 255 255 255 255 255 255 255 255 255 255 255
255 255 255 255 255 255 255 255 255 255 255 255 255 255 255
255 255 255 255 255 255 255 255 255 255 255 255 255 255 255
255 255 255 255 255 255 255 255 255 255 255 255 255 255 255
255 255 255 255 255 255 255 255 255 255 255 255 255 255 255
255 255 255 255 255 255 255 255 255 255 255 255 255 255 255
255 255 255 255 255 255 255 255 255 255 255 255 255 255 255
255 255 255 255 255 255 255 255 255 255 255 255 255 255 255
255 255 255 255 255 255 255 255 255 255 255 255 255 255 255
255 255 255 255 255 255 255 255 255 255 255 255 255 255 255
255 255 255 255 255 255 255 255 255 255 255 255 255 255 255
255 255 255 255 255 255 255 255 255 255 255 255 255 255 255
255 255 255 255 255 255 255 255 255 255 255 255 255 255 255
255 255 255 255 255 255 255 255 255 255 255 255 255 255 255
255 255 255 255 255 255 255 255 255 255 255 255 255 255 255
255 255 255 255 255 255 255 255 255 255 255 255 255 255 255
255 255 255 255 255 255 255 255 255 255 255 255 255 255 255
255 255 255 255 255 255 255 255 255 255 255 255 255 255 255
255 255 255 255 255 255 255 255 255 255 255 255 255 255 255
255 255 255 255 255 255 255 255 255 255 255 255 255 255 255
255 255 255 255 255 255 255 255 255 255 255 255 255 255 255
255 255 255 255 255 255 255 255 255 255 255 255 255 255 255
254 254 254 254 254 254 254 254 254 253 254 255 253 254 255
253 254 255 253 254 255 253 254 255 253 254 255 254 254 255
254 254 255 255 255 255 255 255 255 255 254 255 255 254 255
255 254 255 255 254 255 255 254 255 255 255 255 249 255 253
247 255 253 249 255 253 249 255 253 249 255 253 249 255 253
249 255 253 249 255 253 251 255 254 251 255 254 253 255 254
253 255 254 253 255 254 253 255 254 253 255 254 253 255 254
251 255 254 251 255 254 251 255 254 251 255 254 251 255 254
251 255 254 251 255 254 251 255 254 251 255 254 251 255 254
251 255 254 251 255 254 251 255 254 251 255 254 251 255 254
251 255 254 252 254 253 252 254 253 252 254 253 252 254 253
252 254 253 252 254 253 252 254 253 252 254 253 252 254 253
252 254 253 252 254 253 252 254 253 252 254 253 252 254 253
252 254 253 252 254 253 253 253 253 253 253 253 253 253 253
253 253 253 253 253 253 253 253 253 253 253 253 253 253 253
253 253 253 253 253 253 253 253 253 253 253 253 253 253 253
253 253 253 253 253 253 253 253 253 255 255 255 255 255 255
255 255 255 255 255 255 255 255 255 255 255 255 255 255 255
255 255 255 255 255 255 255 255 255 255 255 255 255 255 255
255 255 255 255 255 255 255 255 255 255 255 255 255 255 255
255 255 255 255 255 255 255 255 255 255 255 255 255 255 255
255 255 255 255 255 255 255 255 255 255 255 255 255 255 255
255 255 255 255 255 255 255 255 255 255 255 255 255 255 255
255 255 255 255 255 255 255 255 255 255 255 255 255 255 255
255 255 255 255 255 255 255 255 255 255 255 255 255 255 255
255 255 255 255 255 255 255 255 255 255 255 255 255 255 255
255 255 255 255 255 255 255 255 255 255 255 255 255 255 255
255 255 255 255 255 255 255 255 255 255 255 255 255 255 255
255 255 255 255 255 255 255 255 255 255 255 255 255 255 255
255 255 255 255 255 255 255 255 255 255 255 255 255 255 255
255 255 255 255 255 255 255 255 255 255 255 255 255 255 255
255 255 255 255 255 255 255 255 255 255 255 255 255 255 255
255 255 255 255 255 255 255 255 255 255 255 255 255 255 255
255 255 255 255 255 255 255 255 255 255 255 255 255 255 255
255 255 255 255 255 255 255 255 255 255 255 255 255 255 255
255 255 255 255 255 255 255 255 255 255 255 255 255 255 255
255 255 255 255 255 255 255 255 255 255 255 255 255 255 255
255 255 255 255 255 255 255 255 255 255 255 255 255 255 255
255 255 255 255 255 255 255 255 255 255 255 255 255 255 255
255 255 255 255 255 255 255 255 255 255 255 255 255 255 255
255 255 255 255 255 255 255 255 255 255 255 255 255 255 255
255 255 255 255 255 255 255 255 255 255 255 255 255 255 255
255 255 255 255 255 255 255 255 255 255 255 255 255 255 255
255 255 255 255 255 255 255 255 255 255 255 255 255 255 255
255 255 255 255 255 255 255 255 255 255 255 255 255 255 255
255 255 255 255 255 255 255 255 255 255 255 255 255 255 255
255 255 255 255 255 255 255 255 255 255 255 255 255 255 255
255 255 255 255 255 255 255 255 255 255 255 255 255 255 255
255 255 255 255 255 255 255 255 255 255 255 255 255 255 255
255 255 255 255 255 255 255 255 255 255 255 255 255 255 255
255 255 255 255 255 255 255 255 255 255 255 255 255 255 255
255 255 255 255 255 255 255 255 255 255 255 255 255 255 255
255 255 255 255 255 255 255 255 255 255 255 255 255 255 255
255 255 255 255 255 255 255 255 255 255 255 255 255 255 255
255 255 255 255 255 255 255 255 255 255 255 255 255 255 255
255 255 255 255 255 255 255 255 255 255 255 255 255 255 255
255 255 255 255 255 255 255 255 255 255 255 255 255 255 255
255 255 255 255 255 255 255 255 255 255 255 255 255 255 255
255 255 255 255 255 255 255 255 255 255 255 255 255 255 255
255 255 255 255 255 255 255 255 255 255 255 255 255 255 255
255 255 255 255 255 255 255 255 255 255 255 255 255 255 255
255 255 255 255 255 255 255 255 255 255 255 255 255 255 255
255 255 255 255 255 255 255 255 255 255 255 255 255 255 255
255 255 255 255 255 255 255 255 255 255 255 255 255 255 255
255 255 255 255 255 255 255 255 255 255 255 255 255 255 255
255 255 255 255 255 255 255 255 255 255 255 255 255 255 255
255 255 255 255 255 255 255 255 255 255 255 255 255 255 255
255 255 255 255 255 255 255 255 255 255 255 255 255 255 255
255 255 255 255 255 255 255 255 255 255 255 255 255 255 255
255 255 255 255 255 255 255 255 255 255 255 255 255 255 255
255 255 255 255 255 255 255 255 255 255 255 255 255 255 255
255 255 255 255 255 255 255 255 255 255 255 255 255 255 255
255 255 255 255 255 255 255 255 255 255 255 255 255 255 255
255 255 255 255 255 255 255 255 255 255 255 255 255 255 255
255 255 255 255 255 255 255 255 255 255 255 255 255 255 255
255 255 255 255 255 255 255 255 255 255 255 255 255 255 255
255 255 255 255 255 255 255 255 255 255 255 255 254 254 254
254 254 254 254 254 254 253 254 255 253 254 255 253 254 255
253 254 255 253 254 255 253 254 255 254 254 255 254 254 255
255 255 255 255 255 255 255 254 255 255 254 255 255 254 255
255 254 255 255 254 255 255 255 255 251 255 254 250 255 254
250 255 254 250 255 254 250 255 254 250 255 254 251 255 254
251 255 254 251 255 254 251 255 254 253 255 254 253 255 254
253 255 254 253 255 254 253 255 254 253 255 254 251 255 254
251 255 254 251 255 254 251 255 254 251 255 254 251 255 254
251 255 254 251 255 254 251 255 254 251 255 254 251 255 254
251 255 254 251 255 254 251 255 254 251 255 254 251 255 254
253 255 254 253 255 254 253 255 254 253 255 254 253 255 254
253 255 254 253 255 254 253 255 254 253 255 254 253 255 254
253 255 254 253 255 254 253 255 254 253 255 254 253 255 254
253 255 254 254 254 254 254 254 254 254 254 254 254 254 254
254 254 254 254 254 254 254 254 254 254 254 254 254 254 254
254 254 254 254 254 254 254 254 254 254 254 254 254 254 254
254 254 254 254 254 254 255 255 255 255 255 255 255 255 255
255 255 255 255 255 255 255 255 255 255 255 255 255 255 255
255 255 255 255 255 255 255 255 255 255 255 255 255 255 255
255 255 255 255 255 255 255 255 255 255 255 255 255 255 255
255 255 255 255 255 255 255 255 255 255 255 255 255 255 255
255 255 255 255 255 255 255 255 255 255 255 255 255 255 255
255 255 255 255 255 255 255 255 255 255 255 255 255 255 255
255 255 255 255 255 255 255 255 255 255 255 255 255 255 255
255 255 255 255 255 255 255 255 255 255 255 255 255 255 255
255 255 255 255 255 255 255 255 255 255 255 255 255 255 255
255 255 255 255 255 255 255 255 255 255 255 255 255 255 255
255 255 255 255 255 255 255 255 255 255 255 255 255 255 255
255 255 255 255 255 255 255 255 255 255 255 255 255 255 255
255 255 255 255 255 255 255 255 255 255 255 255 255 255 255
255 255 255 255 255 255 255 255 255 255 255 255 255 255 255
255 255 255 255 255 255 255 255 255 255 255 255 255 255 255
255 255 255 255 255 255 255 255 255 255 255 255 255 255 255
255 255 255 255 255 255 255 255 255 255 255 255 255 255 255
255 255 255 255 255 255 255 255 255 255 255 255 255 255 255
255 255 255 255 255 255 255 255 255 255 255 255 255 255 255
255 255 255 255 255 255 255 255 255 255 255 255 255 255 255
255 255 255 255 255 255 255 255 255 255 255 255 255 255 255
255 255 255 255 255 255 255 255 255 255 255 255 255 255 255
255 255 255 255 255 255 255 255 255 255 255 255 255 255 255
255 255 255 255 255 255 255 255 255 255 255 255 255 255 255
255 255 255 255 255 255 255 255 255 255 255 255 255 255 255
255 255 255 255 255 255 255 255 255 255 255 255 255 255 255
255 255 255 255 255 255 255 255 255 255 255 255 255 255 255
255 255 255 255 255 255 255 255 255 255 255 255 255 255 255
255 255 255 255 255 255 255 255 255 255 255 255 255 255 255
255 255 255 255 255 255 255 255 255 255 255 255 255 255 255
255 255 255 255 255 255 255 255 255 255 255 255 255 255 255
255 255 255 255 255 255 255 255 255 255 255 255 255 255 255
255 255 255 255 255 255 255 255 255 255 255 255 255 255 255
255 255 255 255 255 255 255 255 255 255 255 255 255 255 255
255 255 255 255 255 255 255 255 255 255 255 255 255 255 255
255 255 255 255 255 255 255 255 255 255 255 255 255 255 255
255 255 255 255 255 255 255 255 255 255 255 255 255 255 255
255 255 255 255 255 255 255 255 255 255 255 255 255 255 255
255 255 255 255 255 255 255 255 255 255 255 255 255 255 255
255 255 255 255 255 255 255 255 255 255 255 255 255 255 255
255 255 255 255 255 255 255 255 255 255 255 255 255 255 255
255 255 255 255 255 255 255 255 255 255 255 255 255 255 255
255 255 255 255 255 255 255 255 255 255 255 255 255 255 255
255 255 255 255 255 255 255 255 255 255 255 255 255 255 255
255 255 255 255 255 255 255 255 255 255 255 255 255 255 255
255 255 255 255 255 255 255 255 255 255 255 255 255 255 255
255 255 255 255 255 255 255 255 255 255 255 255 255 255 255
255 255 255 255 255 255 255 255 255 255 255 255 255 255 255
255 255 255 255 255 255 255 255 255 255 255 255 255 255 255
255 255 255 255 255 255 255 255 255 255 255 255 255 255 255
255 255 255 255 255 255 255 255 255 255 255 255 255 255 255
255 255 255 255 255 255 255 255 255 255 255 255 255 255 255
255 255 255 255 255 255 255 255 255 255 255 255 255 255 255
255 255 255 255 255 255 255 255 255 255 255 255 255 255 255
255 255 255 255 255 255 255 255 255 255 255 255 255 255 255
255 255 255 255 255 255 255 255 255 255 255 255 255 255 255
255 255 255 255 255 255 255 255 255 255 255 255 255 255 255
255 255 255 255 255 255 255 255 255 255 255 255 255 255 255
255 255 255 255 255 255 255 255 255 255 255 255 255 255 255
255 255 255 255 255 255 255 255 255 254 254 254 254 254 254
254 254 254 253 254 255 253 254 255 253 254 255 253 254 255
253 254 255 253 254 255 254 254 255 254 254 255 254 254 255
254 254 255 255 253 255 255 253 255 255 253 255 255 253 255
255 253 255 254 254 255 251 255 254 250 255 254 250 255 254
250 255 254 250 255 254 250 255 254 251 255 254 251 255 254
251 255 254 251 255 254 253 255 254 253 255 254 253 255 254
253 255 254 253 255 254 253 255 254 251 255 254 251 255 254
251 255 254 251 255 254 251 255 254 251 255 254 251 255 254
251 255 254 250 254 253 250 254 253 250 254 253 250 254 253
250 254 253 250 254 253 250 254 253 250 254 253 253 255 254
253 255 254 253 255 254 253 255 254 253 255 254 253 255 254
253 255 254 253 255 254 253 255 254 253 255 254 253 255 254
253 255 254 253 255 254 253 255 254 253 255 254 253 255 254
254 254 254 254 254 254 254 254 254 254 254 254 254 254 254
254 254 254 254 254 254 254 254 254 254 254 254 254 254 254
254 254 254 254 254 254 254 254 254 254 254 254 254 254 254
254 254 254 255 255 255 255 255 255 255 255 255 255 255 255
255 255 255 255 255 255 255 255 255 255 255 255 255 255 255
255 255 255 255 255 255 255 255 255 255 255 255 255 255 255
255 255 255 255 255 255 255 255 255 255 255 255 255 255 255
255 255 255 255 255 255 255 255 255 255 255 255 255 255 255
255 255 255 255 255 255 255 255 255 255 255 255 255 255 255
255 255 255 255 255 255 255 255 255 255 255 255 255 255 255
255 255 255 255 255 255 255 255 255 255 255 255 255 255 255
255 255 255 255 255 255 255 255 255 255 255 255 255 255 255
255 255 255 255 255 255 255 255 255 255 255 255 255 255 255
255 255 255 255 255 255 255 255 255 255 255 255 255 255 255
255 255 255 255 255 255 255 255 255 255 255 255 255 255 255
255 255 255 255 255 255 255 255 255 255 255 255 255 255 255
255 255 255 255 255 255 255 255 255 255 255 255 255 255 255
255 255 255 255 255 255 255 255 255 255 255 255 255 255 255
255 255 255 255 255 255 255 255 255 255 255 255 255 255 255
255 255 255 255 255 255 255 255 255 255 255 255 255 255 255
255 255 255 255 255 255 255 255 255 255 255 255 255 255 255
255 255 255 255 255 255 255 255 255 255 255 255 255 255 255
255 255 255 255 255 255 255 255 255 255 255 255 255 255 255
255 255 255 255 255 255 255 255 255 255 255 255 255 255 255
255 255 255 255 255 255 255 255 255 255 255 255 255 255 255
255 255 255 255 255 255 255 255 255 255 255 255 255 255 255
255 255 255 255 255 255 255 255 255 255 255 255 255 255 255
255 255 255 255 255 255 255 255 255 255 255 255 255 255 255
255 255 255 255 255 255 255 255 255 255 255 255 255 255 255
255 255 255 255 255 255 255 255 255 255 255 255 255 255 255
255 255 255 255 255 255 255 255 255 255 255 255 255 255 255
255 255 255 255 255 255 255 255 255 255 255 255 255 255 255
255 255 255 255 255 255 255 255 255 255 255 255 255 255 255
255 255 255 255 255 255 255 255 255 255 255 255 255 255 255
255 255 255 255 255 255 255 255 255 255 255 255 255 255 255
255 255 255 255 255 255 255 255 255 255 255 255 255 255 255
255 255 255 255 255 255 255 255 255 255 255 255 255 255 255
255 255 255 255 255 255 255 255 255 255 255 255 255 255 255
255 255 255 255 255 255 255 255 255 255 255 255 255 255 255
255 255 255 255 255 255 255 255 255 255 255 255 255 255 255
255 255 255 255 255 255 255 255 255 255 255 255 255 255 255
255 255 255 255 255 255 255 255 255 255 255 255 255 255 255
255 255 255 255 255 255 255 255 255 255 255 255 255 255 255
255 255 255 255 255 255 255 255 255 255 255 255 255 255 255
255 255 255 255 255 255 255 255 255 255 255 255 255 255 255
255 255 255 255 255 255 255 255 255 255 255 255 255 255 255
255 255 255 255 255 255 255 255 255 255 255 255 255 255 255
255 255 255 255 255 255 255 255 255 255 255 255 255 255 255
255 255 255 255 255 255 255 255 255 255 255 255 255 255 255
255 255 255 255 255 255 255 255 255 255 255 255 255 255 255
255 255 255 255 255 255 255 255 255 255 255 255 255 255 255
255 255 255 255 255 255 255 255 255 255 255 255 255 255 255
255 255 255 255 255 255 255 255 255 255 255 255 255 255 255
255 255 255 255 255 255 255 255 255 255 255 255 255 255 255
255 255 255 255 255 255 255 255 255 255 255 255 255 255 255
255 255 255 255 255 255 255 255 255 255 255 255 255 255 255
255 255 255 255 255 255 255 255 255 255 255 255 255 255 255
255 255 255 255 255 255 255 255 255 255 255 255 255 255 255
255 255 255 255 255 255 255 255 255 255 255 255 255 255 255
255 255 255 255 255 255 255 255 255 255 255 255 255 255 255
255 255 255 255 255 255 255 255 255 255 255 255 255 255 255
255 255 255 255 255 255 255 255 255 255 255 255 255 255 255
255 255 255 255 255 255 255 255 255 255 255 255 255 255 255
255 255 255 255 255 255 254 254 254 254 254 254 254 254 254
253 254 255 253 254 255 253 254 255 253 254 255 253 254 255
253 254 255 254 254 255 254 254 255 254 254 255 254 254 255
255 253 255 255 253 255 255 253 255 255 253 255 255 253 255
254 254 255 251 255 254 250 255 254 250 255 254 250 255 254
251 255 254 251 255 254 251 255 254 251 255 254 253 255 254
253 255 254 253 255 254 253 255 254 254 254 254 254 254 254
254 254 254 253 255 254 251 255 254 251 255 254 251 255 254
251 255 254 251 255 254 251 255 254 251 255 254 251 255 254
250 254 253 250 254 253 250 254 253 250 254 253 250 254 253
250 254 253 250 254 253 250 254 253 253 255 254 253 255 254
253 255 254 253 255 254 253 255 254 253 255 254 253 255 254
253 255 254 253 255 254 253 255 254 253 255 254 253 255 254
253 255 254 253 255 254 253 255 254 253 255 254 254 254 254
254 254 254 254 254 254 254 254 254 254 254 254 254 254 254
254 254 254 254 254 254 254 254 254 254 254 254 254 254 254
254 254 254 254 254 254 254 254 254 254 254 254 254 254 254
255 255 255 255 255 255 255 255 255 255 255 255 255 255 255
255 255 255 255 255 255 255 255 255 255 255 255 255 255 255
255 255 255 255 255 255 255 255 255 255 255 255 255 255 255
255 255 255 255 255 255 255 255 255 255 255 255 255 255 255
255 255 255 255 255 255 255 255 255 255 255 255 255 255 255
255 255 255 255 255 255 255 255 255 255 255 255 255 255 255
255 255 255 255 255 255 255 255 255 255 255 255 255 255 255
255 255 255 255 255 255 255 255 255 255 255 255 255 255 255
255 255 255 255 255 255 255 255 255 255 255 255 255 255 255
255 255 255 255 255 255 255 255 255 255 255 255 255 255 255
255 255 255 255 255 255 255 255 255 255 255 255 255 255 255
255 255 255 255 255 255 255 255 255 255 255 255 255 255 255
255 255 255 255 255 255 255 255 255 255 255 255 255 255 255
255 255 255 255 255 255 255 255 255 255 255 255 255 255 255
255 255 255 255 255 255 255 255 255 255 255 255 255 255 255
255 255 255 255 255 255 255 255 255 255 255 255 255 255 255
255 255 255 255 255 255 255 255 255 255 255 255 255 255 255
255 255 255 255 255 255 255 255 255 255 255 255 255 255 255
255 255 255 255 255 255 255 255 255 255 255 255 255 255 255
255 255 255 255 255 255 255 255 255 255 255 255 255 255 255
255 255 255 255 255 255 255 255 255 255 255 255 255 255 255
255 255 255 255 255 255 255 255 255 255 255 255 255 255 255
255 255 255 255 255 255 255 255 255 255 255 255 255 255 255
255 255 255 255 255 255 255 255 255 255 255 255 255 255 255
255 255 255 255 255 255 255 255 255 255 255 255 255 255 255
255 255 255 255 255 255 255 255 255 255 255 255 255 255 255
255 255 255 255 255 255 255 255 255 255 255 255 255 255 255
255 255 255 255 255 255 255 255 255 255 255 255 255 255 255
255 255 255 255 255 255 255 255 255 255 255 255 255 255 255
255 255 255 255 255 255 255 255 255 255 255 255 255 255 255
255 255 255 255 255 255 255 255 255 255 255 255 255 255 255
255 255 255 255 255 255 255 255 255 255 255 255 255 255 255
255 255 255 255 255 255 255 255 255 255 255 255 255 255 255
255 255 255 255 255 255 255 255 255 255 255 255 255 255 255
255 255 255 255 255 255 255 255 255 255 255 255 255 255 255
255 255 255 255 255 255 255 255 255 255 255 255 255 255 255
255 255 255 255 255 255 255 255 255 255 255 255 255 255 255
255 255 255 255 255 255 255 255 255 255 255 255 255 255 255
255 255 255 255 255 255 255 255 255 255 255 255 255 255 255
255 255 255 255 255 255 255 255 255 255 255 255 255 255 255
255 255 255 255 255 255 255 255 255 255 255 255 255 255 255
255 255 255 255 255 255 255 255 255 255 255 255 255 255 255
255 255 255 255 255 255 255 255 255 255 255 255 255 255 255
255 255 255 255 255 255 255 255 255 255 255 255 255 255 255
255 255 255 255 255 255 255 255 255 255 255 255 255 255 255
255 255 255 255 255 255 255 255 255 255 255 255 255 255 255
255 255 255 255 255 255 255 255 255 255 255 255 255 255 255
255 255 255 255 255 255 255 255 255 255 255 255 255 255 255
255 255 255 255 255 255 255 255 255 255 255 255 255 255 255
255 255 255 255 255 255 255 255 255 255 255 255 255 255 255
255 255 255 255 255 255 255 255 255 255 255 255 255 255 255
255 255 255 255 255 255 255 255 255 255 255 255 255 255 255
255 255 255 255 255 255 255 255 255 255 255 255 255 255 255
255 255 255 255 255 255 255 255 255 255 255 255 255 255 255
255 255 255 255 255 255 255 255 255 255 255 255 255 255 255
255 255 255 255 255 255 255 255 255 255 255 255 255 255 255
255 255 255 255 255 255 255 255 255 255 255 255 255 255 255
255 255 255 255 255 255 255 255 255 255 255 255 255 255 255
255 255 255 255 255 255 255 255 255 255 255 255 255 255 255
255 255 255 255 255 255 255 255 255 255 255 255 255 255 255
255 255 255 254 254 254 254 254 254 254 254 254 253 254 255
253 254 255 253 254 255 253 254 255 253 254 255 253 254 255
254 254 255 254 254 255 254 254 255 254 254 255 255 253 255
255 253 255 255 253 255 255 253 255 255 253 255 254 254 255
252 255 255 251 255 255 251 255 255 251 255 255 252 255 255
252 255 255 252 255 255 252 255 255 253 255 254 253 255 254
253 255 254 253 255 254 254 254 254 254 254 254 254 254 254
254 254 254 253 255 254 251 255 254 251 255 254 251 255 254
251 255 254 251 255 254 251 255 254 251 255 254 251 255 254
251 255 254 251 255 254 251 255 254 251 255 254 251 255 254
251 255 254 251 255 254 254 255 255 254 255 255 254 255 255
254 255 255 254 255 255 254 255 255 254 255 255 254 255 255
254 255 255 254 255 255 254 255 255 254 255 255 254 255 255
254 255 255 254 255 255 254 255 255 255 255 255 255 255 255
255 255 255 255 255 255 255 255 255 255 255 255 255 255 255
255 255 255 255 255 255 255 255 255 255 255 255 255 255 255
255 255 255 255 255 255 255 255 255 255 255 255 255 255 255
255 255 255 255 255 255 255 255 255 255 255 255 255 255 255
255 255 255 255 255 255 255 255 255 255 255 255 255 255 255
255 255 255 255 255 255 255 255 255 255 255 255 255 255 255
255 255 255 255 255 255 255 255 255 255 255 255 255 255 255
255 255 255 255 255 255 255 255 255 255 255 255 255 255 255
255 255 255 255 255 255 255 255 255 255 255 255 255 255 255
255 255 255 255 255 255 255 255 255 255 255 255 255 255 255
255 255 255 255 255 255 255 255 255 255 255 255 255 255 255
255 255 255 255 255 255 255 255 255 255 255 255 255 255 255
255 255 255 255 255 255 255 255 255 255 255 255 255 255 255
255 255 255 255 255 255 255 255 255 255 255 255 255 255 255
255 255 255 255 255 255 255 255 255 255 255 255 255 255 255
255 255 255 255 255 255 255 255 255 255 255 255 255 255 255
255 255 255 255 255 255 255 255 255 255 255 255 255 255 255
255 255 255 255 255 255 255 255 255 255 255 255 255 255 255
255 255 255 255 255 255 255 255 255 255 255 255 255 255 255
255 255 255 255 255 255 255 255 255 255 255 255 255 255 255
255 255 255 255 255 255 255 255 255 255 255 255 255 255 255
255 255 255 255 255 255 255 255 255 255 255 255 255 255 255
255 255 255 255 255 255 255 255 255 255 255 255 255 255 255
255 255 255 255 255 255 255 255 255 255 255 255 255 255 255
255 255 255 255 255 255 255 255 255 255 255 255 255 255 255
255 255 255 255 255 255 255 255 255 255 255 255 255 255 255
255 255 255 255 255 255 255 255 255 255 255 255 255 255 255
255 255 255 255 255 255 255 255 255 255 255 255 255 255 255
255 255 255 255 255 255 255 255 255 255 255 255 255 255 255
255 255 255 255 255 255 255 255 255 255 255 255 255 255 255
255 255 255 255 255 255 255 255 255 255 255 255 255 255 255
255 255 255 255 255 255 255 255 255 255 255 255 255 255 255
255 255 255 255 255 255 255 255 255 255 255 255 255 255 255
255 255 255 255 255 255 255 255 255 255 255 255 255 255 255
255 255 255 255 255 255 255 255 255 255 255 255 255 255 255
255 255 255 255 255 255 255 255 255 255 255 255 255 255 255
255 255 255 255 255 255 255 255 255 255 255 255 255 255 255
255 255 255 255 255 255 255 255 255 255 255 255 255 255 255
255 255 255 255 255 255 255 255 255 255 255 255 255 255 255
255 255 255 255 255 255 255 255 255 255 255 255 255 255 255
255 255 255 255 255 255 255 255 255 255 255 255 255 255 255
255 255 255 255 255 255 255 255 255 255 255 255 255 255 255
255 255 255 255 255 255 255 255 255 255 255 255 255 255 255
255 255 255 255 255 255 255 255 255 255 255 255 255 255 255
255 255 255 255 255 255 255 255 255 255 255 255 255 255 255
255 255 255 255 255 255 255 255 255 255 255 255 255 255 255
255 255 255 255 255 255 255 255 255 255 255 255 255 255 255
255 255 255 255 255 255 255 255 255 255 255 255 255 255 255
255 255 255 255 255 255 255 255 255 255 255 255 255 255 255
255 255 255 255 255 255 255 255 255 255 255 255 255 255 255
255 255 255 255 255 255 255 255 255 255 255 255 255 255 255
255 255 255 255 255 255 255 255 255 255 255 255 255 255 255
255 255 255 255 255 255 255 255 255 255 255 255 255 255 255
255 255 255 255 255 255 255 255 255 255 255 255 255 255 255
255 255 255 255 255 255 255 255 255 255 255 255 255 255 255
255 255 255 255 255 255 255 255 255 255 255 255 255 255 255
255 255 255 255 255 255 255 255 255 255 255 255 255 255 255
255 255 255 255 255 255 255 255 255 255 255 255 255 255 255
255 255 255 255 255 255 255 255 255 255 255 255 255 255 255
255 255 255 255 255 255 255 255 255 255 255 255 255 255 255
255 255 255 255 255 255 255 255 255 255 255 255 255 255 255
255 255 255 255 255 255 255 255 255 255 255 255 255 255 255
255 255 255 255 255 255 255 255 255 255 255 255 255 255 255
254 254 254 254 254 254 254 254 254 253 254 255 253 254 255
253 254 255 253 254 255 253 254 255 253 254 255 254 254 255
254 254 255 253 253 255 253 253 255 254 252 255 254 252 255
254 252 255 254 252 255 254 252 255 253 253 255 252 255 255
251 255 255 252 255 255 252 255 255 252 255 255 252 255 255
254 255 255 254 255 255 253 255 254 253 255 254 254 254 254
254 254 254 254 254 254 254 254 254 254 254 254 254 254 254
253 255 254 253 255 254 253 255 254 253 255 254 253 255 254
253 255 254 253 255 254 253 255 254 253 255 254 253 255 254
253 255 254 253 255 254 253 255 254 253 255 254 253 255 254
253 255 254 254 255 255 254 255 255 254 255 255 254 255 255
254 255 255 254 255 255 254 255 255 254 255 255 254 255 255
254 255 255 254 255 255 254 255 255 254 255 255 254 255 255
254 255 255 254 255 255 255 255 255 255 255 255 255 255 255
255 255 255 255 255 255 255 255 255 255 255 255 255 255 255
255 255 255 255 255 255 255 255 255 255 255 255 255 255 255
255 255 255 255 255 255 255 255 255 255 255 255 255 255 255
255 255 255 255 255 255 255 255 255 255 255 255 255 255 255
255 255 255 255 255 255 255 255 255 255 255 255 255 255 255
255 255 255 255 255 255 255 255 255 255 255 255 255 255 255
255 255 255 255 255 255 255 255 255 255 255 255 255 255 255
255 255 255 255 255 255 255 255 255 255 255 255 255 255 255
255 255 255 255 255 255 255 255 255 255 255 255 255 255 255
255 255 255 255 255 255 255 255 255 255 255 255 255 255 255
255 255 255 255 255 255 255 255 255 255 255 255 255 255 255
255 255 255 255 255 255 255 255 255 255 255 255 255 255 255
255 255 255 255 255 255 255 255 255 255 255 255 255 255 255
255 255 255 255 255 255 255 255 255 255 255 255 255 255 255
255 255 255 255 255 255 255 255 255 255 255 255 255 255 255
255 255 255 255 255 255 255 255 255 255 255 255 255 255 255
255 255 255 255 255 255 255 255 255 255 255 255 255 255 255
255 255 255 255 255 255 255 255 255 255 255 255 255 255 255
255 255 255 255 255 255 255 255 255 255 255 255 255 255 255
255 255 255 255 255 255 255 255 255 255 255 255 255 255 255
255 255 255 255 255 255 255 255 255 255 255 255 255 255 255
255 255 255 255 255 255 255 255 255 255 255 255 255 255 255
255 255 255 255 255 255 255 255 255 255 255 255 255 255 255
255 255 255 255 255 255 255 255 255 255 255 255 255 255 255
255 255 255 255 255 255 255 255 255 255 255 255 255 255 255
255 255 255 255 255 255 255 255 255 255 255 255 255 255 255
255 255 255 255 255 255 255 255 255 255 255 255 255 255 255
255 255 255 255 255 255 255 255 255 255 255 255 255 255 255
255 255 255 255 255 255 255 255 255 255 255 255 255 255 255
255 255 255 255 255 255 255 255 255 255 255 255 255 255 255
255 255 255 255 255 255 255 255 255 255 255 255 255 255 255
255 255 255 255 255 255 255 255 255 255 255 255 255 255 255
255 255 255 255 255 255 255 255 255 255 255 255 255 255 255
255 255 255 255 255 255 255 255 255 255 255 255 255 255 255
255 255 255 255 255 255 255 255 255 255 255 255 255 255 255
255 255 255 255 255 255 255 255 255 255 255 255 255 255 255
255 255 255 255 255 255 255 255 255 255 255 255 255 255 255
255 255 255 255 255 255 255 255 255 255 255 255 255 255 255
255 255 255 255 255 255 255 255 255 255 255 255 255 255 255
255 255 255 255 255 255 255 255 255 255 255 255 255 255 255
255 255 255 255 255 255 255 255 255 255 255 255 255 255 255
255 255 255 255 255 255 255 255 255 255 255 255 255 255 255
255 255 255 255 255 255 255 255 255 255 255 255 255 255 255
255 255 255 255 255 255 255 255 255 255 255 255 255 255 255
255 255 255 255 255 255 255 255 255 255 255 255 255 255 255
255 255 255 255 255 255 255 255 255 255 255 255 255 255 255
255 255 255 255 255 255 255 255 255 255 255 255 255 255 255
255 255 255 255 255 255 255 255 255 255 255 255 255 255 255
255 255 255 255 255 255 255 255 255 255 255 255 255 255 255
255 255 255 255 255 255 255 255 255 255 255 255 255 255 255
255 255 255 255 255 255 255 255 255 255 255 255 255 255 255
255 255 255 255 255 255 255 255 255 255 255 255 255 255 255
255 255 255 255 255 255 255 255 255 255 255 255 255 255 255
255 255 255 255 255 255 255 255 255 255 255 255 255 255 255
255 255 255 255 255 255 255 255 255 255 255 255 255 255 255
255 255 255 255 255 255 255 255 255 255 255 255 255 255 255
255 255 255 255 255 255 255 255 255 255 255 255 255 255 255
255 255 255 255 255 255 255 255 255 255 255 255 255 255 255
255 255 255 255 255 255 255 255 255 255 255 255 255 255 255
255 255 255 255 255 255 255 255 255 255 255 255 255 255 255
255 255 255 255 255 255 255 255 255 255 255 255 255 255 255
255 255 255 255 255 255 255 255 255 255 255 255 255 255 255
255 255 255 255 255 255 255 255 255 255 255 255 254 254 254
254 254 254 254 254 254 253 254 255 253 254 255 253 254 255
253 254 255 253 254 255 253 254 255 254 254 255 254 254 255
253 253 255 253 253 255 254 252 255 254 252 255 254 252 255
254 252 255 254 252 255 253 253 255 252 255 255 251 255 255
252 255 255 252 255 255 252 255 255 252 255 255 254 255 255
254 255 255 253 255 254 253 255 254 254 254 254 254 254 254
254 254 254 254 254 254 254 254 254 254 254 254 253 255 254
253 255 254 253 255 254 253 255 254 253 255 254 253 255 254
253 255 254 253 255 254 254 255 255 254 255 255 254 255 255
254 255 255 254 255 255 254 255 255 254 255 255 254 255 255
254 255 255 254 255 255 254 255 255 254 255 255 254 255 255
254 255 255 254 255 255 254 255 255 254 255 255 254 255 255
254 255 255 254 255 255 254 255 255 254 255 255 254 255 255
254 255 255 255 255 255 255 255 255 255 255 255 255 255 255
255 255 255 255 255 255 255 255 255 255 255 255 255 255 255
255 255 255 255 255 255 255 255 255 255 255 255 255 255 255
255 255 255 255 255 255 255 255 255 255 255 255 255 255 255
255 255 255 255 255 255 255 255 255 255 255 255 255 255 255
255 255 255 255 255 255 255 255 255 255 255 255 255 255 255
255 255 255 255 255 255 255 255 255 255 255 255 255 255 255
255 255 255 255 255 255 255 255 255 255 255 255 255 255 255
255 255 255 255 255 255 255 255 255 255 255 255 255 255 255
255 255 255 255 255 255 255 255 255 255 255 255 255 255 255
255 255 255 255 255 255 255 255 255 255 255 255 255 255 255
255 255 255 255 255 255 255 255 255 255 255 255 255 255 255
255 255 255 255 255 255 255 255 255 255 255 255 255 255 255
255 255 255 255 255 255 255 255 255 255 255 255 255 255 255
255 255 255 255 255 255 255 255 255 255 255 255 255 255 255
255 255 255 255 255 255 255 255 255 255 255 255 255 255 255
255 255 255 255 255 255 255 255 255 255 255 255 255 255 255
255 255 255 255 255 255 255 255 255 255 255 255 255 255 255
255 255 255 255 255 255 255 255 255 255 255 255 255 255 255
255 255 255 255 255 255 255 255 255 255 255 255 255 255 255
255 255 255 255 255 255 255 255 255 255 255 255 255 255 255
255 255 255 255 255 255 255 255 255 255 255 255 255 255 255
255 255 255 255 255 255 255 255 255 255 255 255 255 255 255
255 255 255 255 255 255 255 255 255 255 255 255 255 255 255
255 255 255 255 255 255 255 255 255 255 255 255 255 255 255
255 255 255 255 255 255 255 255 255 255 255 255 255 255 255
255 255 255 255 255 255 255 255 255 255 255 255 255 255 255
255 255 255 255 255 255 255 255 255 255 255 255 255 255 255
255 255 255 255 255 255 255 255 255 255 255 255 255 255 255
255 255 255 255 255 255 255 255 255 255 255 255 255 255 255
255 255 255 255 255 255 255 255 255 255 255 255 255 255 255
255 255 255 255 255 255 255 255 255 255 255 255 255 255 255
255 255 255 255 255 255 255 255 255 255 255 255 255 255 255
255 255 255 255 255 255 255 255 255 255 255 255 255 255 255
255 255 255 255 255 255 255 255 255 255 255 255 255 255 255
255 255 255 255 255 255 255 255 255 255 255 255 255 255 255
255 255 255 255 255 255 255 255 255 255 255 255 255 255 255
255 255 255 255 255 255 255 255 255 255 255 255 255 255 255
255 255 255 255 255 255 255 255 255 255 255 255 255 255 255
255 255 255 255 255 255 255 255 255 255 255 255 255 255 255
255 255 255 255 255 255 255 255 255 255 255 255 255 255 255
255 255 255 255 255 255 255 255 255 255 255 255
