P3
189 267
255
245 245 245 245 245 245 255 255 255 233 233 233 210 210 210
214 214 214 219 219 219 250 250 250 250 250 250 247 247 247
237 237 237 223 223 223 214 214 214 219 219 219 236 236 236
251 251 251 252 252 252 237 237 237 221 221 221 216 216 216
224 224 224 238 238 238 247 247 247 251 251 251 245 245 245
230 230 230 217 217 217 222 222 222 241 241 241 255 255 255
255 255 255 249 249 249 216 216 216 224 224 224 217 217 217
245 245 245 255 255 255 255 255 255 251 251 251 222 222 222
223 223 223 202 202 202 225 225 225 255 255 255 232 232 232
251 251 251 221 221 221 239 239 239 238 238 238 236 236 236
255 255 255 251 251 251 255 255 255 212 212 212 235 235 235
204 204 204 238 238 238 255 255 255 255 255 255 157 157 157 54 54 54
0 0 0 11 11 11 13 15 12 51 57 47 136 144 131 184 192 179 226 234 221
229 235 225 237 243 233 203 206 199 246 249 242 255 255 251
255 255 251 227 228 223 224 225 220 222 223 218 221 222 217
251 252 247 251 252 247 250 250 250 245 245 245 209 209 209
229 229 229 211 211 211 249 249 249 239 239 239 253 253 253
240 240 240 215 215 215 223 223 223 205 205 205 253 253 253
244 244 244 255 255 255 249 249 249 209 209 209 223 223 223
222 222 222 249 249 249 255 255 255 251 251 251 251 251 251
228 228 228 218 218 218 220 220 220 252 252 252 254 254 254
254 254 254 252 252 252 220 220 220 218 218 218 221 221 221
235 235 235 251 251 251 254 254 254 243 243 243 228 228 228
217 217 217 213 213 213 245 245 245 255 255 255 255 255 255
248 248 248 228 228 228 216 216 216 221 221 221 231 231 231
253 253 253 250 250 250 242 242 242 228 228 228 217 217 217
219 219 219 232 232 232 244 244 244 255 255 255 254 254 254
220 220 220 218 218 218 218 218 218 220 220 220 254 254 254
255 255 255 251 251 251 219 219 219 227 227 227 220 220 220
220 220 220 247 247 247 250 250 250 252 252 252 233 233 233
217 217 217 223 223 223 221 221 221 255 255 255 253 253 253
255 255 255 243 243 243 215 215 215 219 219 219 231 231 231
246 246 246 255 255 255 254 254 254 239 239 239 225 225 225
218 218 218 220 220 220 252 252 252 254 254 254 254 254 254
252 252 252 220 220 220 218 218 218 221 221 221 250 250 250
255 255 255 255 255 255 245 245 245 216 216 216 222 222 222
214 214 214 246 246 246 251 251 251 253 253 253 247 247 247
237 237 237 244 244 244 247 247 247 255 255 255 237 237 237
213 213 213 217 217 217 229 229 229 255 255 255 250 250 250
252 252 252 248 248 248 234 234 234 221 221 221 221 221 221
235 235 235 250 250 250 252 252 252 237 237 237 222 222 222
222 222 222 235 235 235 248 248 248 252 252 252 250 250 250
254 254 254 234 234 234 216 216 216 219 219 219 238 238 238
253 253 253 252 252 252 244 244 244 225 225 225 227 227 227
218 218 218 243 243 243 255 255 255 255 255 255 247 247 247
217 217 217 196 196 196 248 248 248 231 231 231 254 254 254
255 255 255 253 253 253 227 227 227 218 218 218 192 192 192
246 246 246 251 251 251 235 235 235 254 254 254 240 240 240
211 211 211 240 240 240 225 225 225 254 254 254 154 154 154 4 4 4
3 3 3 16 16 16 15 15 15 17 19 16 0 2 0 3 10 2 2 9 1 22 29 21
165 170 164 226 231 225 240 242 237 234 236 233 248 250 247
254 255 253 222 222 220 221 223 220 218 218 216 213 215 212
254 254 252 255 255 253 250 250 250 242 242 242 215 215 215
231 231 231 227 227 227 255 255 255 247 247 247 251 251 251
246 246 246 222 222 222 220 220 220 211 211 211 249 249 249
248 248 248 255 255 255 242 242 242 217 217 217 224 224 224
219 219 219 242 242 242 255 255 255 253 253 253 252 252 252
230 230 230 227 227 227 221 221 221 251 251 251 245 245 245
245 245 245 251 251 251 221 221 221 227 227 227 227 227 227
242 242 242 255 255 255 253 253 253 238 238 238 224 224 224
219 219 219 220 220 220 238 238 238 251 251 251 255 255 255
249 249 249 227 227 227 217 217 217 225 225 225 238 238 238
251 251 251 255 255 255 252 252 252 239 239 239 224 224 224
221 221 221 232 232 232 244 244 244 255 255 255 255 255 255
217 217 217 217 217 217 217 217 217 217 217 217 255 255 255
255 255 255 250 250 250 221 221 221 227 227 227 226 226 226
232 232 232 255 255 255 254 254 254 251 251 251 241 241 241
220 220 220 226 226 226 217 217 217 255 255 255 250 250 250
255 255 255 235 235 235 221 221 221 220 220 220 225 225 225
240 240 240 255 255 255 255 255 255 244 244 244 230 230 230
225 225 225 220 220 220 252 252 252 247 247 247 247 247 247
252 252 252 220 220 220 225 225 225 224 224 224 251 251 251
255 255 255 255 255 255 239 239 239 213 213 213 223 223 223
222 222 222 247 247 247 254 254 254 255 255 255 248 248 248
232 232 232 255 255 255 255 255 255 255 255 255 244 244 244
218 218 218 215 215 215 222 222 222 247 247 247 255 255 255
255 255 255 244 244 244 225 225 225 213 213 213 220 220 220
243 243 243 255 255 255 255 255 255 245 245 245 221 221 221
214 214 214 226 226 226 245 245 245 255 255 255 255 255 255
238 238 238 223 223 223 211 211 211 218 218 218 240 240 240
255 255 255 255 255 255 255 255 255 217 217 217 218 218 218
213 213 213 235 235 235 255 255 255 255 255 255 255 255 255
240 240 240 231 231 231 219 219 219 243 243 243 255 255 255
237 237 237 253 253 253 224 224 224 207 207 207 219 219 219
238 238 238 255 255 255 255 255 255 248 248 248 229 229 229
223 223 223 215 215 215 226 226 226 254 254 254 146 146 146 0 0 0
3 3 3 9 9 9 0 0 0 0 1 0 7 11 12 0 1 2 7 11 12 0 1 2 10 14 15 90 94 95
213 214 216 254 255 255 252 253 255 252 255 255 233 234 238
229 233 236 224 225 229 216 220 223 248 249 253 250 251 253
255 255 255 246 246 246 220 220 220 215 215 215 225 225 225
246 246 246 255 255 255 255 255 255 230 230 230 217 217 217
211 211 211 219 219 219 244 244 244 255 255 255 255 255 255
255 255 255 212 212 212 223 223 223 230 230 230 255 255 255
255 255 255 255 255 255 241 241 241 214 214 214 219 219 219
220 220 220 253 253 253 254 254 254 254 254 254 253 253 253
220 220 220 219 219 219 218 218 218 238 238 238 255 255 255
255 255 255 254 254 254 234 234 234 219 219 219 213 213 213
252 252 252 255 255 255 255 255 255 249 249 249 227 227 227
213 213 213 216 216 216 224 224 224 255 255 255 255 255 255
248 248 248 229 229 229 216 216 216 221 221 221 241 241 241
255 255 255 255 255 255 254 254 254 220 220 220 218 218 218
218 218 218 220 220 220 254 254 254 255 255 255 255 255 255
234 234 234 225 225 225 217 217 217 225 225 225 251 251 251
255 255 255 255 255 255 227 227 227 211 211 211 221 221 221
218 218 218 255 255 255 255 255 255 255 255 255 249 249 249
211 211 211 217 217 217 232 232 232 253 253 253 255 255 255
255 255 255 238 238 238 217 217 217 214 214 214 218 218 218
255 255 255 255 255 255 255 255 255 255 255 255 218 218 218
214 214 214 210 210 210 240 240 240 255 255 255 255 255 255
253 253 253 226 226 226 222 222 222 215 215 215 244 244 244
250 250 250 253 253 253 245 245 245 230 230 230 233 233 233
236 236 236 244 244 244 241 241 241 238 238 238 239 239 239
242 242 242 249 249 249 239 239 239 239 239 239 240 240 240
241 241 241 241 241 241 241 241 241 239 239 239 237 237 237
239 239 239 240 240 240 242 242 242 243 243 243 242 242 242
240 240 240 239 239 239 239 239 239 244 244 244 242 242 242
239 239 239 236 236 236 236 236 236 236 236 236 236 236 236
236 236 236 245 245 245 243 243 243 235 235 235 233 233 233
233 233 233 234 234 234 239 239 239 239 239 239 237 237 237
228 228 228 243 243 243 236 236 236 255 255 255 246 246 246
241 241 241 136 136 136 77 77 77 59 59 59 171 171 171 251 251 251
230 230 230 252 252 252 231 231 231 244 244 244 235 235 235
248 248 248 187 187 187 47 47 47 7 7 7 47 47 47 84 84 84 57 57 59
3 4 9 1 1 9 2 2 10 8 9 14 13 14 19 6 7 12 70 71 76 253 254 255
241 244 249 236 240 243 235 238 243 232 236 239 233 236 241
237 241 244 234 237 242 235 239 242 240 240 242 237 237 237
246 246 246 237 237 237 247 247 247 236 236 236 242 242 242
238 238 238 243 243 243 243 243 243 232 232 232 239 239 239
229 229 229 240 240 240 235 235 235 240 240 240 241 241 241
242 242 242 238 238 238 238 238 238 236 236 236 234 234 234
237 237 237 237 237 237 243 243 243 241 241 241 233 233 233
231 231 231 231 231 231 233 233 233 241 241 241 243 243 243
244 244 244 242 242 242 240 240 240 239 239 239 239 239 239
240 240 240 241 241 241 241 241 241 236 236 236 237 237 237
238 238 238 238 238 238 238 238 238 238 238 238 239 239 239
240 240 240 238 238 238 239 239 239 242 242 242 245 245 245
245 245 245 242 242 242 238 238 238 234 234 234 226 226 226
231 231 231 243 243 243 248 248 248 248 248 248 243 243 243
231 231 231 226 226 226 236 236 236 235 235 235 244 244 244
246 246 246 243 243 243 243 243 243 239 239 239 237 237 237
241 241 241 240 240 240 238 238 238 239 239 239 237 237 237
238 238 238 236 236 236 235 235 235 237 237 237 237 237 237
236 236 236 236 236 236 236 236 236 237 237 237 240 240 240
242 242 242 237 237 237 239 239 239 235 235 235 237 237 237
237 237 237 235 235 235 239 239 239 237 237 237 234 234 234
237 237 237 234 234 234 236 236 236 237 237 237 237 237 237
243 243 243 243 243 243 235 235 235 235 235 235 234 234 234
235 235 235 235 235 235 211 211 211 214 214 214 219 219 219
238 238 238 255 255 255 255 255 255 252 252 252 238 238 238
217 217 217 218 218 218 227 227 227 246 246 246 255 255 255
255 255 255 236 236 236 214 214 214 216 216 216 237 237 237
255 255 255 255 255 255 246 246 246 227 227 227 218 218 218
217 217 217 240 240 240 254 254 254 255 255 255 255 255 255
233 233 233 217 217 217 216 216 216 222 222 222 255 255 255
255 255 255 255 255 255 233 233 233 211 211 211 210 210 210
225 225 225 246 246 246 246 246 246 255 255 255 218 218 218
225 225 225 212 212 212 177 177 177 40 40 40 8 8 8 0 0 0 2 2 2
17 17 17 225 225 225 234 234 234 255 255 255 234 234 234 255 255 255
255 255 255 215 215 215 218 218 218 215 215 215 218 218 218
224 224 224 254 254 254 243 243 245 196 193 202 144 141 152 70 68 79
0 0 7 18 17 23 4 5 10 0 0 4 143 144 148 223 227 230 205 209 210
232 236 239 230 234 235 244 248 251 252 255 255 221 225 228
221 225 226 218 218 218 233 233 233 255 255 255 255 255 255
254 254 254 220 220 220 222 222 222 216 216 216 248 248 248
255 255 255 254 254 254 255 255 255 217 217 217 221 221 221
215 215 215 232 232 232 255 255 255 255 255 255 250 250 250
228 228 228 210 210 210 213 213 213 232 232 232 254 254 254
255 255 255 255 255 255 215 215 215 218 218 218 218 218 218
215 215 215 255 255 255 255 255 255 255 255 255 240 240 240
217 217 217 214 214 214 231 231 231 250 250 250 255 255 255
255 255 255 229 229 229 219 219 219 214 214 214 227 227 227
249 249 249 255 255 255 255 255 255 247 247 247 214 214 214
217 217 217 228 228 228 249 249 249 255 255 255 255 255 255
236 236 236 213 213 213 223 223 223 217 217 217 255 255 255
251 251 251 251 251 251 255 255 255 217 217 217 223 223 223
212 212 212 239 239 239 255 255 255 255 255 255 251 251 251
227 227 227 217 217 217 215 215 215 246 246 246 255 255 255
252 252 252 255 255 255 215 215 215 224 224 224 211 211 211
230 230 230 255 255 255 255 255 255 246 246 246 227 227 227
212 212 212 215 215 215 237 237 237 255 255 255 252 252 252
255 255 255 217 217 217 222 222 222 222 222 222 217 217 217
255 255 255 252 252 252 255 255 255 231 231 231 212 212 212
209 209 209 229 229 229 252 252 252 255 255 255 255 255 255
227 227 227 218 218 218 214 214 214 225 225 225 244 244 244
216 216 216 218 218 218 216 216 216 239 239 239 255 255 255
255 255 255 246 246 246 222 222 222 222 222 222 217 217 217
219 219 219 235 235 235 254 254 254 255 255 255 238 238 238
219 219 219 220 220 220 240 240 240 255 255 255 255 255 255
236 236 236 219 219 219 217 217 217 222 222 222 228 228 228
248 248 248 255 255 255 255 255 255 233 233 233 217 217 217
220 220 220 231 231 231 253 253 253 255 255 255 255 255 255
233 233 233 210 210 210 212 212 212 228 228 228 255 255 255
253 253 253 255 255 255 234 234 234 233 233 233 187 187 187 5 5 5
16 16 16 0 0 0 8 8 8 0 0 0 8 8 8 222 222 222 229 229 229 246 246 246
251 251 251 240 240 240 245 245 245 222 222 222 210 210 210
217 217 217 255 255 255 255 255 255 255 255 255 253 251 254
246 240 250 217 209 222 208 202 212 122 117 124 8 6 11 4 4 6 0 0 2
52 54 53 237 241 240 219 224 220 252 255 253 248 253 249 252 255 253
252 255 255 218 220 219 215 217 216 222 222 222 236 236 236
255 255 255 248 248 248 243 243 243 214 214 214 221 221 221
221 221 221 237 237 237 255 255 255 255 255 255 255 255 255
220 220 220 220 220 220 220 220 220 240 240 240 254 254 254
253 253 253 255 255 255 235 235 235 215 215 215 217 217 217
226 226 226 250 250 250 246 246 246 255 255 255 218 218 218
229 229 229 229 229 229 218 218 218 255 255 255 246 246 246
252 252 252 233 233 233 216 216 216 219 219 219 238 238 238
255 255 255 255 255 255 253 253 253 238 238 238 223 223 223
213 213 213 226 226 226 250 250 250 255 255 255 253 253 253
238 238 238 218 218 218 215 215 215 220 220 220 238 238 238
255 255 255 255 255 255 240 240 240 219 219 219 227 227 227
217 217 217 255 255 255 247 247 247 247 247 247 255 255 255
217 217 217 227 227 227 216 216 216 247 247 247 255 255 255
255 255 255 243 243 243 217 217 217 215 215 215 218 218 218
236 236 236 255 255 255 251 251 251 255 255 255 211 211 211
225 225 225 214 214 214 240 240 240 251 251 251 255 255 255
254 254 254 237 237 237 218 218 218 215 215 215 232 232 232
251 251 251 247 247 247 255 255 255 218 218 218 228 228 228
228 228 228 218 218 218 255 255 255 247 247 247 253 253 253
225 225 225 213 213 213 213 213 213 238 238 238 255 255 255
255 255 255 252 252 252 228 228 228 217 217 217 212 212 212
225 225 225 247 247 247 219 219 219 228 228 228 222 222 222
241 241 241 253 253 253 247 247 247 252 252 252 236 236 236
226 226 226 228 228 228 234 234 234 243 243 243 249 249 249
245 245 245 233 233 233 223 223 223 225 225 225 235 235 235
247 247 247 250 250 250 244 244 244 235 235 235 229 229 229
226 226 226 240 240 240 249 249 249 254 254 254 245 245 245
230 230 230 221 221 221 225 225 225 233 233 233 249 249 249
247 247 247 255 255 255 239 239 239 224 224 224 226 226 226
224 224 224 244 244 244 242 242 242 250 250 250 251 251 251
222 222 222 10 10 10 0 0 0 0 0 0 11 11 11 0 0 0 0 0 0 149 149 149
230 230 230 219 219 219 240 240 240 242 242 242 252 252 252
240 240 240 219 219 219 214 214 214 231 231 231 255 255 255
233 233 233 232 232 232 255 254 255 225 215 223 227 215 225
239 229 237 235 229 233 106 102 101 4 3 0 1 2 0 116 119 110
224 230 220 228 234 224 252 255 246 254 255 248 253 255 247
249 252 245 229 230 224 226 227 222 226 226 224 233 233 233
249 249 249 247 247 247 247 247 247 232 232 232 230 230 230
226 226 226 243 243 243 254 254 254 255 255 255 252 252 252
229 229 229 224 224 224 222 222 222 232 232 232 251 251 251
241 241 241 246 246 246 229 229 229 223 223 223 234 234 234
234 234 234 253 253 253 245 245 245 246 246 246 230 230 230
231 231 231 231 231 231 230 230 230 246 246 246 245 245 245
247 247 247 237 237 237 227 227 227 224 224 224 231 231 231
242 242 242 248 248 248 251 251 251 231 231 231 224 224 224
220 220 220 230 230 230 246 246 246 255 255 255 252 252 252
245 245 245 221 221 221 225 225 225 234 234 234 246 246 246
253 253 253 249 249 249 236 236 236 225 225 225 219 219 219
225 225 225 249 249 249 255 255 255 255 255 255 249 249 249
225 225 225 219 219 219 220 220 220 247 247 247 243 243 243
251 251 251 253 253 253 230 230 230 225 225 225 222 222 222
244 244 244 255 255 255 252 252 252 251 251 251 225 225 225
224 224 224 220 220 220 232 232 232 251 251 251 249 249 249
242 242 242 233 233 233 226 226 226 228 228 228 239 239 239
249 249 249 251 251 251 248 248 248 228 228 228 225 225 225
225 225 225 228 228 228 248 248 248 251 251 251 255 255 255
234 234 234 229 229 229 221 221 221 233 233 233 253 253 253
244 244 244 248 248 248 237 237 237 233 233 233 231 231 231
235 235 235 242 242 242 249 249 249 255 255 255 246 246 246
249 249 249 239 239 239 223 223 223 236 236 236 228 228 228
255 255 255 252 252 252 242 242 242 228 228 228 219 219 219
223 223 223 240 240 240 254 254 254 255 255 255 241 241 241
225 225 225 220 220 220 229 229 229 243 243 243 253 253 253
255 255 255 230 230 230 228 228 228 226 226 226 226 226 226
232 232 232 241 241 241 252 252 252 255 255 255 221 221 221
217 217 217 240 240 240 239 239 239 244 244 244 255 255 255
243 243 243 252 252 252 234 234 234 221 221 221 243 243 243
143 143 143 0 0 0 5 5 5 0 0 0 14 14 14 174 174 174 241 241 241
255 255 255 255 255 255 253 253 253 228 228 228 222 222 222
225 225 225 242 242 242 235 235 235 255 255 255 252 252 252
236 236 236 209 209 209 220 220 220 221 216 220 255 251 255
255 244 253 218 207 213 190 181 184 158 153 150 3 2 0 28 29 21
147 150 139 164 170 158 195 201 187 211 214 203 231 234 223
230 231 223 223 223 215 245 244 239 248 247 243 255 255 253
241 241 241 225 225 225 220 220 220 229 229 229 242 242 242
253 253 253 255 255 255 225 225 225 229 229 229 234 234 234
240 240 240 243 243 243 246 246 246 247 247 247 248 248 248
223 223 223 218 218 218 242 242 242 247 247 247 255 255 255
255 255 255 233 233 233 228 228 228 219 219 219 224 224 224
253 253 253 255 255 255 255 255 255 253 253 253 224 224 224
219 219 219 218 218 218 233 233 233 250 250 250 255 255 255
249 249 249 237 237 237 228 228 228 224 224 224 249 249 249
247 247 247 244 244 244 240 240 240 236 236 236 232 232 232
229 229 229 227 227 227 250 250 250 248 248 248 242 242 242
231 231 231 224 224 224 228 228 228 243 243 243 255 255 255
254 254 254 251 251 251 223 223 223 220 220 220 220 220 220
223 223 223 251 251 251 254 254 254 250 250 250 255 255 255
220 220 220 221 221 221 239 239 239 236 236 236 249 249 249
251 251 251 229 229 229 226 226 226 238 238 238 230 230 230
246 246 246 238 238 238 250 250 250 247 247 247 226 226 226
230 230 230 239 239 239 252 252 252 255 255 255 254 254 254
237 237 237 222 222 222 230 230 230 228 228 228 248 248 248
247 247 247 247 247 247 248 248 248 228 228 228 230 230 230
234 234 234 232 232 232 255 255 255 254 254 254 252 252 252
250 250 250 221 221 221 220 220 220 247 247 247 251 251 251
252 252 252 246 246 246 235 235 235 251 251 251 251 251 251
255 255 255 239 239 239 217 217 217 221 221 221 227 227 227
255 255 255 255 255 255 252 252 252 249 249 249 221 221 221
225 225 225 219 219 219 248 248 248 255 255 255 255 255 255
248 248 248 220 220 220 226 226 226 222 222 222 249 249 249
251 251 251 255 255 255 252 252 252 219 219 219 226 226 226
207 207 207 240 240 240 255 255 255 255 255 255 255 255 255
216 216 216 221 221 221 211 211 211 238 238 238 255 255 255
254 254 254 253 253 253 228 228 228 220 220 220 212 212 212
244 244 244 18 18 18 2 2 2 0 0 0 13 13 13 186 186 186 250 250 250
241 241 241 247 247 247 255 255 255 253 253 253 223 223 223
209 209 209 217 217 217 239 239 239 240 240 240 253 253 253
249 249 249 218 218 218 217 217 217 227 227 227 203 198 202
137 125 135 42 29 39 7 0 4 7 1 5 11 7 6 11 10 5 0 3 0 12 18 6 0 4 0
0 3 0 3 6 0 58 59 53 145 144 140 223 219 216 255 253 253 255 254 255
252 250 251 224 224 224 216 216 216 203 203 203 222 222 222
253 253 253 238 238 238 255 255 255 247 247 247 221 221 221
214 214 214 210 210 210 250 250 250 255 255 255 255 255 255
245 245 245 213 213 213 215 215 215 221 221 221 250 250 250
251 251 251 247 247 247 255 255 255 226 226 226 213 213 213
218 218 218 252 252 252 255 255 255 255 255 255 252 252 252
218 218 218 213 213 213 218 218 218 234 234 234 255 255 255
255 255 255 251 251 251 219 219 219 220 220 220 216 216 216
236 236 236 255 255 255 255 255 255 255 255 255 217 217 217
216 216 216 217 217 217 238 238 238 255 255 255 252 252 252
255 255 255 232 232 232 214 214 214 224 224 224 230 230 230
255 255 255 255 255 255 255 255 255 224 224 224 219 219 219
219 219 219 224 224 224 255 255 255 255 255 255 255 255 255
222 222 222 222 222 222 215 215 215 220 220 220 253 253 253
255 255 255 254 254 254 238 238 238 217 217 217 216 216 216
217 217 217 255 255 255 255 255 255 255 255 255 236 236 236
215 215 215 229 229 229 214 214 214 253 253 253 255 255 255
255 255 255 237 237 237 211 211 211 213 213 213 218 218 218
252 252 252 255 255 255 255 255 255 252 252 252 218 218 218
213 213 213 220 220 220 255 255 255 252 252 252 254 254 254
247 247 247 215 215 215 214 214 214 219 219 219 255 255 255
255 255 255 250 250 250 251 251 251 221 221 221 247 247 247
252 252 252 255 255 255 239 239 239 217 217 217 216 216 216
228 228 228 253 253 253 252 252 252 246 246 246 242 242 242
229 229 229 230 230 230 229 229 229 243 243 243 250 250 250
254 254 254 246 246 246 228 228 228 227 227 227 225 225 225
240 240 240 247 247 247 255 255 255 246 246 246 225 225 225
223 223 223 219 219 219 242 242 242 255 255 255 253 253 253
248 248 248 222 222 222 222 222 222 219 219 219 238 238 238
255 255 255 255 255 255 249 249 249 229 229 229 199 199 199
223 223 223 207 207 207 0 0 0 20 20 20 12 12 12 53 53 53 231 231 231
215 215 215 225 225 225 242 242 242 254 254 254 247 247 247
230 230 230 221 221 221 222 222 222 239 239 239 247 247 247
255 255 255 251 251 251 240 240 240 194 194 194 78 78 78 1 0 2 10 0 9
6 0 7 24 17 25 24 22 25 8 8 6 1 6 0 0 3 0 0 4 0 0 5 0 0 4 0 7 12 5
13 15 12 1 0 0 5 0 4 106 99 106 223 216 223 249 247 250 255 255 255
216 216 216 225 225 225 210 210 210 255 255 255 255 255 255
248 248 248 243 243 243 225 225 225 217 217 217 220 220 220
246 246 246 255 255 255 255 255 255 243 243 243 218 218 218
220 220 220 226 226 226 247 247 247 254 254 254 252 252 252
249 249 249 229 229 229 225 225 225 229 229 229 245 245 245
249 249 249 249 249 249 245 245 245 229 229 229 225 225 225
228 228 228 238 238 238 255 255 255 253 253 253 249 249 249
230 230 230 223 223 223 216 216 216 237 237 237 252 252 252
255 255 255 250 250 250 224 224 224 218 218 218 222 222 222
237 237 237 255 255 255 250 250 250 247 247 247 231 231 231
222 222 222 227 227 227 232 232 232 247 247 247 251 251 251
247 247 247 231 231 231 227 227 227 227 227 227 231 231 231
247 247 247 251 251 251 251 251 251 230 230 230 225 225 225
220 220 220 224 224 224 244 244 244 252 252 252 255 255 255
237 237 237 222 222 222 218 218 218 224 224 224 250 250 250
255 255 255 252 252 252 237 237 237 217 217 217 227 227 227
228 228 228 250 250 250 253 253 253 250 250 250 238 238 238
223 223 223 225 225 225 229 229 229 245 245 245 249 249 249
249 249 249 245 245 245 229 229 229 225 225 225 223 223 223
249 249 249 255 255 255 255 255 255 244 244 244 222 222 222
219 219 219 223 223 223 248 248 248 251 251 251 245 245 245
244 244 244 231 231 231 237 237 237 248 248 248 245 245 245
240 240 240 226 226 226 218 218 218 234 234 234 242 242 242
248 248 248 242 242 242 228 228 228 228 228 228 225 225 225
238 238 238 242 242 242 248 248 248 243 243 243 240 240 240
241 241 241 231 231 231 233 233 233 229 229 229 239 239 239
242 242 242 237 237 237 238 238 238 226 226 226 240 240 240
242 242 242 246 246 246 243 243 243 235 235 235 236 236 236
229 229 229 235 235 235 238 238 238 247 247 247 253 253 253
240 240 240 236 236 236 253 253 253 226 226 226 163 163 163 0 0 0
6 6 6 4 4 4 127 127 127 240 240 240 234 234 234 244 244 244
252 252 252 251 251 251 248 248 248 248 248 248 249 249 249
248 248 248 235 235 235 253 253 253 255 255 255 255 255 255
141 141 141 11 11 11 2 2 2 21 21 23 1 0 7 0 0 7 14 15 20 1 7 7 0 3 0
1 14 5 0 15 4 0 13 0 26 42 29 8 21 11 0 4 0 0 2 2 3 4 9 9 6 17 4 0 11
3 0 9 126 124 129 250 250 250 255 255 255 255 255 255 234 234 234
255 255 255 241 241 241 235 235 235 237 237 237 236 236 236
230 230 230 237 237 237 237 237 237 246 246 246 241 241 241
240 240 240 229 229 229 233 233 233 240 240 240 241 241 241
250 250 250 250 250 250 235 235 235 237 237 237 230 230 230
238 238 238 240 240 240 249 249 249 249 249 249 240 240 240
238 238 238 230 230 230 243 243 243 242 242 242 237 237 237
245 245 245 243 243 243 246 246 246 232 232 232 225 225 225
239 239 239 240 240 240 245 245 245 237 237 237 237 237 237
229 229 229 234 234 234 235 235 235 247 247 247 243 243 243
231 231 231 233 233 233 237 237 237 235 235 235 237 237 237
228 228 228 246 246 246 237 237 237 235 235 235 227 227 227
227 227 227 235 235 235 237 237 237 246 246 246 232 232 232
243 243 243 235 235 235 233 233 233 234 234 234 231 231 231
242 242 242 252 252 252 235 235 235 234 234 234 229 229 229
237 237 237 237 237 237 245 245 245 240 240 240 239 239 239
227 227 227 230 230 230 248 248 248 242 242 242 243 243 243
238 238 238 237 237 237 241 241 241 230 230 230 238 238 238
240 240 240 249 249 249 249 249 249 240 240 240 238 238 238
230 230 230 233 233 233 235 235 235 253 253 253 252 252 252
239 239 239 237 237 237 233 233 233 233 233 233 239 239 239
235 235 235 238 238 238 235 235 235 245 245 245 224 224 224
235 235 235 226 226 226 241 241 241 245 245 245 234 234 234
242 242 242 227 227 227 220 220 220 228 228 228 228 228 228
252 252 252 247 247 247 255 255 255 230 230 230 220 220 220
228 228 228 233 233 233 253 253 253 241 241 241 246 246 246
224 224 224 230 230 230 226 226 226 230 230 230 255 255 255
241 241 241 255 255 255 236 236 236 229 229 229 229 229 229
226 226 226 252 252 252 245 245 245 255 255 255 238 238 238
227 227 227 235 235 235 229 229 229 248 248 248 255 255 255
254 254 254 182 182 182 5 5 5 12 12 12 2 2 2 191 191 191 241 241 241
255 255 255 243 243 243 230 230 230 227 227 227 232 232 232
237 237 237 241 241 241 244 244 244 243 243 243 229 229 229
202 202 202 85 85 85 0 0 0 11 11 11 5 5 5 0 1 0 1 7 5 5 16 12
14 27 18 1 19 7 0 8 0 0 10 0 0 26 3 14 42 17 0 11 0 0 19 0 6 24 12
6 19 12 1 6 9 1 1 9 11 7 21 19 16 27 1 0 4 48 48 48 200 200 200
231 231 231 252 252 252 221 221 221 219 219 219 221 221 221
232 232 232 250 250 250 250 250 250 255 255 255 225 225 225
227 227 227 224 224 224 239 239 239 245 245 245 251 251 251
255 255 255 235 235 235 235 235 235 235 235 235 220 220 220
249 249 249 255 255 255 255 255 255 226 226 226 224 224 224
224 224 224 226 226 226 255 255 255 255 255 255 254 254 254
242 242 242 218 218 218 232 232 232 234 234 234 255 255 255
247 247 247 245 245 245 240 240 240 224 224 224 225 225 225
222 222 222 252 252 252 249 249 249 250 250 250 234 234 234
226 226 226 230 230 230 218 218 218 240 240 240 255 255 255
246 246 246 242 242 242 215 215 215 217 217 217 219 219 219
249 249 249 251 251 251 251 251 251 249 249 249 219 219 219
217 217 217 218 218 218 254 254 254 247 247 247 250 250 250
246 246 246 221 221 221 226 226 226 235 235 235 234 234 234
250 250 250 249 249 249 252 252 252 222 222 222 225 225 225
224 224 224 240 240 240 247 247 247 239 239 239 255 255 255
230 230 230 228 228 228 223 223 223 234 234 234 255 255 255
255 255 255 255 255 255 226 226 226 224 224 224 224 224 224
226 226 226 255 255 255 255 255 255 247 247 247 220 220 220
236 236 236 236 236 236 235 235 235 255 255 255 252 252 252
247 247 247 231 231 231 222 222 222 232 232 232 228 228 228
255 255 255 215 215 215 222 222 222 213 213 213 241 241 241
255 255 255 253 253 253 247 247 247 217 217 217 224 224 224
230 230 230 225 225 225 247 247 247 243 243 243 253 253 253
231 231 231 225 225 225 219 219 219 229 229 229 255 255 255
249 249 249 254 254 254 228 228 228 226 226 226 217 217 217
229 229 229 255 255 255 255 255 255 255 255 255 228 228 228
213 213 213 219 219 219 226 226 226 255 255 255 255 255 255
255 255 255 237 237 237 211 211 211 216 216 216 224 224 224
255 255 255 251 251 251 245 245 245 161 161 161 0 0 0 33 33 33 0 0 0
199 199 199 255 255 255 255 255 255 194 194 194 125 125 125 96 96 96
95 95 95 101 101 101 119 119 119 139 139 139 206 206 206 168 168 168
50 50 50 0 0 0 2 2 2 11 11 11 18 18 18 0 3 0 1 20 1 0 23 0 0 13 0
0 21 0 7 45 4 23 64 20 23 66 20 14 56 10 0 20 0 0 21 0 0 18 0 0 10 0
0 7 0 1 7 3 4 5 7 1 1 3 0 0 0 21 21 21 0 0 0 185 185 185 246 246 246
204 204 204 234 234 234 220 220 220 232 232 232 255 255 255
255 255 255 255 255 255 217 217 217 212 212 212 215 215 215
240 240 240 255 255 255 255 255 255 255 255 255 233 233 233
220 220 220 219 219 219 215 215 215 255 255 255 254 254 254
254 254 254 228 228 228 228 228 228 228 228 228 228 228 228
254 254 254 254 254 254 254 254 254 239 239 239 209 209 209
222 222 222 227 227 227 255 255 255 255 255 255 255 255 255
241 241 241 215 215 215 210 210 210 214 214 214 255 255 255
255 255 255 255 255 255 233 233 233 208 208 208 219 219 219
216 216 216 247 247 247 255 255 255 254 254 254 245 245 245
214 214 214 221 221 221 221 221 221 247 247 247 246 246 246
246 246 246 247 247 247 221 221 221 221 221 221 217 217 217
255 255 255 255 255 255 255 255 255 253 253 253 219 219 219
215 215 215 217 217 217 233 233 233 255 255 255 255 255 255
255 255 255 214 214 214 210 210 210 215 215 215 241 241 241
255 255 255 248 248 248 255 255 255 223 223 223 218 218 218
216 216 216 232 232 232 255 255 255 254 254 254 254 254 254
228 228 228 228 228 228 228 228 228 228 228 228 254 254 254
254 254 254 255 255 255 214 214 214 217 217 217 219 219 219
234 234 234 255 255 255 255 255 255 255 255 255 229 229 229
221 221 221 230 230 230 227 227 227 254 254 254 220 220 220
221 221 221 220 220 220 241 241 241 255 255 255 255 255 255
244 244 244 222 222 222 219 219 219 229 229 229 238 238 238
255 255 255 253 253 253 249 249 249 229 229 229 218 218 218
224 224 224 232 232 232 247 247 247 247 247 247 249 249 249
235 235 235 230 230 230 223 223 223 234 234 234 255 255 255
255 255 255 254 254 254 226 226 226 214 214 214 224 224 224
235 235 235 252 252 252 255 255 255 255 255 255 236 236 236
214 214 214 214 214 214 229 229 229 255 255 255 249 249 249
244 244 244 206 206 206 24 24 24 0 0 0 21 21 21 218 218 218
216 216 216 82 82 82 31 31 31 0 0 0 0 0 0 7 7 7 2 2 2 0 0 0 9 9 9
0 0 0 0 0 0 14 14 14 1 1 1 6 6 6 13 13 13 0 0 0 15 26 12 0 18 0
45 88 34 77 125 67 93 143 80 107 162 95 118 175 106 126 183 112
117 172 104 127 179 113 109 157 97 67 107 55 17 49 8 0 19 0 1 16 0
8 17 0 3 9 0 27 29 26 2 2 2 0 0 0 0 0 0 165 165 165 225 225 225
219 219 219 218 218 218 235 235 235 254 254 254 255 255 255
253 253 253 222 222 222 215 215 215 223 223 223 242 242 242
251 251 251 255 255 255 255 255 255 235 235 235 221 221 221
219 219 219 225 225 225 250 250 250 255 255 255 250 250 250
228 228 228 220 220 220 220 220 220 228 228 228 250 250 250
255 255 255 244 244 244 235 235 235 221 221 221 225 225 225
229 229 229 248 248 248 253 253 253 255 255 255 240 240 240
221 221 221 214 214 214 222 222 222 252 252 252 255 255 255
253 253 253 234 234 234 212 212 212 221 221 221 227 227 227
246 246 246 255 255 255 250 250 250 242 242 242 226 226 226
216 216 216 224 224 224 246 246 246 254 254 254 254 254 254
246 246 246 224 224 224 216 216 216 229 229 229 248 248 248
250 250 250 253 253 253 247 247 247 228 228 228 220 220 220
217 217 217 234 234 234 253 253 253 255 255 255 252 252 252
222 222 222 214 214 214 221 221 221 240 240 240 255 255 255
247 247 247 248 248 248 226 226 226 223 223 223 224 224 224
234 234 234 247 247 247 255 255 255 250 250 250 228 228 228
220 220 220 220 220 220 228 228 228 250 250 250 255 255 255
252 252 252 223 223 223 215 215 215 219 219 219 237 237 237
255 255 255 255 255 255 249 249 249 233 233 233 229 229 229
234 234 234 233 233 233 245 245 245 236 236 236 235 235 235
243 243 243 239 239 239 236 236 236 238 238 238 233 233 233
238 238 238 247 247 247 243 243 243 242 242 242 230 230 230
232 232 232 229 229 229 240 240 240 245 245 245 242 242 242
239 239 239 231 231 231 236 236 236 234 234 234 243 243 243
241 241 241 243 243 243 242 242 242 234 234 234 240 240 240
227 227 227 231 231 231 234 234 234 240 240 240 248 248 248
231 231 231 237 237 237 233 233 233 237 237 237 236 236 236
234 234 234 243 243 243 242 242 242 228 228 228 234 234 234
255 255 255 165 165 165 143 143 143 186 186 186 167 167 167 1 1 1
25 25 25 7 7 7 0 0 0 13 13 13 22 22 22 15 15 15 8 8 8 7 7 7 15 15 15
9 9 9 1 1 1 18 18 18 10 10 10 0 0 0 19 19 19 27 40 20 104 146 83
128 186 102 116 178 92 114 179 87 121 191 95 119 191 92 122 194 95
111 181 83 113 178 86 120 178 93 130 181 106 126 168 104 87 120 67
31 57 12 0 17 0 0 8 0 0 2 0 14 14 14 7 7 7 0 0 0 16 16 16 194 194 194
254 254 254 252 252 252 241 241 241 236 236 236 236 236 236
229 229 229 237 237 237 236 236 236 244 244 244 245 245 245
236 236 236 233 233 233 230 230 230 239 239 239 240 240 240
239 239 239 245 245 245 232 232 232 228 228 228 230 230 230
243 243 243 245 245 245 245 245 245 243 243 243 230 230 230
228 228 228 229 229 229 235 235 235 245 245 245 241 241 241
240 240 240 231 231 231 236 236 236 237 237 237 239 239 239
241 241 241 237 237 237 241 241 241 233 233 233 237 237 237
233 233 233 235 235 235 235 235 235 236 236 236 245 245 245
238 238 238 233 233 233 235 235 235 234 234 234 244 244 244
246 246 246 244 244 244 231 231 231 229 229 229 229 229 229
231 231 231 244 244 244 246 246 246 248 248 248 232 232 232
233 233 233 231 231 231 231 231 231 241 241 241 238 238 238
234 234 234 235 235 235 233 233 233 237 237 237 233 233 233
241 241 241 237 237 237 241 241 241 239 239 239 230 230 230
234 234 234 225 225 225 240 240 240 242 242 242 244 244 244
240 240 240 232 232 232 228 228 228 230 230 230 243 243 243
245 245 245 245 245 245 243 243 243 230 230 230 228 228 228
236 236 236 243 243 243 233 233 233 236 236 236 243 243 243
236 236 236 235 235 235 232 232 232 239 239 239 243 243 243
239 239 239 241 241 241 231 231 231 250 250 250 250 250 250
255 255 255 237 237 237 215 215 215 219 219 219 224 224 224
254 254 254 255 255 255 249 249 249 248 248 248 221 221 221
225 225 225 218 218 218 245 245 245 255 255 255 255 255 255
246 246 246 218 218 218 224 224 224 220 220 220 247 247 247
249 249 249 255 255 255 248 248 248 216 216 216 223 223 223
205 205 205 238 238 238 253 253 253 255 255 255 255 255 255
214 214 214 220 220 220 211 211 211 238 238 238 255 255 255
254 254 254 254 254 254 229 229 229 227 227 227 217 217 217
219 219 219 241 241 241 247 247 247 168 168 168 11 11 11 5 5 7 0 0 5
0 0 5 6 6 6 10 11 6 11 12 4 9 11 0 7 8 0 3 6 0 0 1 0 7 11 10 15 19 18
10 16 12 2 10 0 0 5 0 48 60 36 150 178 130 126 184 99 131 204 97
109 185 76 116 194 82 120 199 84 94 175 57 102 181 64 114 191 77
109 183 72 122 189 86 122 183 88 117 171 85 131 177 102 130 171 103
72 108 46 0 28 0 1 14 0 9 16 8 1 6 2 8 12 11 2 3 5 0 0 2 233 233 235
255 255 255 245 245 243 220 221 216 213 214 209 209 211 206
249 251 246 254 255 253 252 255 255 245 247 246 222 222 222
212 212 212 208 208 208 243 243 243 255 255 255 255 255 255
255 255 255 217 217 217 216 216 216 219 219 219 251 251 251
254 254 254 254 254 254 251 251 251 219 219 219 216 216 216
219 219 219 235 235 235 255 255 255 255 255 255 251 251 251
219 219 219 219 219 219 214 214 214 237 237 237 255 255 255
255 255 255 255 255 255 217 217 217 216 216 216 216 216 216
237 237 237 255 255 255 250 250 250 255 255 255 230 230 230
212 212 212 221 221 221 227 227 227 255 255 255 255 255 255
255 255 255 223 223 223 220 220 220 220 220 220 223 223 223
255 255 255 255 255 255 255 255 255 219 219 219 219 219 219
212 212 212 218 218 218 251 251 251 255 255 255 253 253 253
237 237 237 216 216 216 216 216 216 217 217 217 255 255 255
255 255 255 255 255 255 237 237 237 206 206 206 221 221 221
208 208 208 252 252 252 255 255 255 255 255 255 245 245 245
220 220 220 216 216 216 219 219 219 251 251 251 254 254 254
254 254 254 251 251 251 219 219 219 216 216 216 221 221 221
255 255 255 253 253 253 254 254 254 247 247 247 215 215 215
213 213 213 217 217 217 244 244 244 253 253 253 243 243 243
247 247 247 221 221 221 253 253 253 252 252 252 255 255 255
239 239 239 217 217 217 221 221 221 226 226 226 255 255 255
255 255 255 251 251 251 248 248 248 221 221 221 225 225 225
219 219 219 246 246 246 255 255 255 255 255 255 247 247 247
219 219 219 225 225 225 221 221 221 248 248 248 250 250 250
255 255 255 255 255 255 225 225 225 230 230 230 210 210 210
241 241 241 255 255 255 255 255 255 255 255 255 215 215 215
221 221 221 212 212 212 239 239 239 255 255 255 255 255 255
255 255 255 230 230 230 223 223 223 232 232 232 231 231 231
244 244 244 231 231 231 9 9 9 4 4 4 17 16 22 10 7 28 13 10 29
27 27 29 0 2 0 7 11 0 5 10 0 7 13 0 0 5 0 0 9 0 9 20 14 0 10 5 0 12 0
0 11 0 62 94 44 148 185 115 139 192 100 100 177 65 96 184 61
98 186 63 99 185 60 96 182 55 96 181 54 100 182 58 104 184 61
108 186 66 121 195 80 121 193 83 114 183 77 118 186 87 127 194 99
111 178 85 90 144 69 8 41 0 0 8 0 3 19 6 1 12 6 0 1 4 16 19 26
58 59 64 243 243 245 250 249 245 201 203 192 221 223 209 211 218 202
235 243 230 245 255 246 239 250 244 232 241 240 216 218 217
224 224 224 216 216 216 243 243 243 255 255 255 254 254 254
250 250 250 223 223 223 220 220 220 223 223 223 255 255 255
255 255 255 255 255 255 255 255 255 223 223 223 220 220 220
214 214 214 237 237 237 255 255 255 255 255 255 247 247 247
213 213 213 218 218 218 220 220 220 243 243 243 255 255 255
253 253 253 254 254 254 222 222 222 223 223 223 218 218 218
233 233 233 255 255 255 252 252 252 255 255 255 231 231 231
213 213 213 222 222 222 228 228 228 255 255 255 255 255 255
255 255 255 224 224 224 221 221 221 221 221 221 224 224 224
255 255 255 255 255 255 255 255 255 222 222 222 223 223 223
216 216 216 222 222 222 255 255 255 255 255 255 255 255 255
235 235 235 220 220 220 224 224 224 223 223 223 255 255 255
254 254 254 255 255 255 244 244 244 211 211 211 225 225 225
212 212 212 253 253 253 255 255 255 255 255 255 243 243 243
217 217 217 220 220 220 223 223 223 255 255 255 255 255 255
255 255 255 255 255 255 223 223 223 220 220 220 223 223 223
255 255 255 254 254 254 255 255 255 248 248 248 215 215 215
214 214 214 217 217 217 244 244 244 254 254 254 246 246 246
251 251 251 227 227 227 238 238 238 237 237 237 245 245 245
241 241 241 238 238 238 240 240 240 235 235 235 240 240 240
244 244 244 242 242 242 244 244 244 235 235 235 236 236 236
231 231 231 240 240 240 242 242 242 243 243 243 240 240 240
232 232 232 236 236 236 235 235 235 244 244 244 241 241 241
243 243 243 241 241 241 236 236 236 246 246 246 235 235 235
238 238 238 237 237 237 238 238 238 243 243 243 232 232 232
238 238 238 234 234 234 238 238 238 237 237 237 235 235 235
244 244 244 243 243 243 230 230 230 231 231 231 228 228 228
255 255 255 98 98 98 0 0 0 8 8 8 6 7 12 15 16 34 0 0 12 0 3 0 8 18 0
70 86 41 61 78 26 9 27 0 0 17 0 0 23 0 0 14 0 0 29 9 0 22 0 48 88 36
114 162 88 129 183 85 100 167 52 109 193 71 102 194 67 104 193 67
108 194 69 113 198 71 117 199 73 118 196 74 115 193 71 111 186 67
103 178 60 104 181 65 114 191 77 108 186 74 93 173 62 94 176 66
117 186 93 89 133 74 9 36 1 0 10 0 2 18 7 4 14 15 12 15 22 0 0 9
161 159 164 241 240 236 232 232 222 238 240 226 231 238 220
248 255 241 245 255 245 238 251 244 248 255 255 229 233 232
239 239 239 236 236 236 241 241 241 240 240 240 235 235 235
241 241 241 238 238 238 230 230 230 232 232 232 246 246 246
247 247 247 247 247 247 246 246 246 232 232 232 230 230 230
231 231 231 234 234 234 244 244 244 240 240 240 241 241 241
233 233 233 236 236 236 235 235 235 242 242 242 242 242 242
235 235 235 240 240 240 236 236 236 241 241 241 234 234 234
234 234 234 243 243 243 236 236 236 239 239 239 235 235 235
237 237 237 242 242 242 236 236 236 238 238 238 247 247 247
245 245 245 232 232 232 230 230 230 230 230 230 232 232 232
245 245 245 247 247 247 243 243 243 235 235 235 242 242 242
237 237 237 230 230 230 237 237 237 240 240 240 243 243 243
236 236 236 236 236 236 242 242 242 237 237 237 241 241 241
236 236 236 242 242 242 242 242 242 234 234 234 238 238 238
228 228 228 241 241 241 242 242 242 243 243 243 238 238 238
229 229 229 230 230 230 232 232 232 246 246 246 247 247 247
247 247 247 246 246 246 232 232 232 230 230 230 238 238 238
245 245 245 235 235 235 237 237 237 243 243 243 236 236 236
235 235 235 232 232 232 247 247 247 250 250 250 245 245 245
245 245 245 233 233 233 222 222 222 223 223 223 222 222 222
242 242 242 255 255 255 255 255 255 245 245 245 223 223 223
225 225 225 232 232 232 236 236 236 250 250 250 248 248 248
247 247 247 231 231 231 224 224 224 225 225 225 232 232 232
248 248 248 248 248 248 250 250 250 236 236 236 231 231 231
224 224 224 223 223 223 249 249 249 255 255 255 255 255 255
234 234 234 218 218 218 221 221 221 228 228 228 252 252 252
255 255 255 255 255 255 237 237 237 215 215 215 215 215 215
230 230 230 255 255 255 246 246 246 250 250 250 229 229 229
226 226 226 0 0 0 0 0 0 6 6 6 1 5 4 6 18 16 3 21 9 102 126 94
143 171 122 140 172 107 134 170 98 133 170 100 142 181 116 80 120 67
13 55 9 0 29 0 12 61 6 114 167 97 136 192 105 111 173 66 117 186 69
113 192 75 108 191 73 109 188 71 108 185 69 110 184 71 113 185 73
116 189 74 121 191 77 119 191 79 116 188 76 118 192 79 119 196 82
110 189 74 97 177 62 99 182 66 119 191 89 129 179 108 88 124 76
0 17 0 0 14 0 3 14 10 3 6 13 0 0 9 49 43 53 249 245 246 255 255 250
255 255 246 254 255 244 213 219 207 207 217 208 226 239 232
230 241 237 244 248 247 253 253 253 255 255 255 239 239 239
218 218 218 217 217 217 230 230 230 255 255 255 255 255 255
250 250 250 228 228 228 220 220 220 220 220 220 228 228 228
250 250 250 255 255 255 250 250 250 234 234 234 213 213 213
221 221 221 233 233 233 255 255 255 255 255 255 253 253 253
239 239 239 223 223 223 218 218 218 224 224 224 252 252 252
255 255 255 253 253 253 237 237 237 222 222 222 220 220 220
218 218 218 241 241 241 255 255 255 255 255 255 244 244 244
217 217 217 217 217 217 225 225 225 247 247 247 255 255 255
255 255 255 247 247 247 225 225 225 217 217 217 219 219 219
249 249 249 255 255 255 255 255 255 240 240 240 217 217 217
218 218 218 226 226 226 238 238 238 254 254 254 255 255 255
253 253 253 224 224 224 218 218 218 223 223 223 239 239 239
255 255 255 250 250 250 250 250 250 228 228 228 223 223 223
223 223 223 233 233 233 245 245 245 255 255 255 250 250 250
228 228 228 220 220 220 220 220 220 228 228 228 250 250 250
255 255 255 254 254 254 225 225 225 216 216 216 220 220 220
237 237 237 255 255 255 255 255 255 249 249 249 238 238 238
234 234 234 237 237 237 234 234 234 244 244 244 217 217 217
223 223 223 215 215 215 243 243 243 255 255 255 254 254 254
248 248 248 219 219 219 218 218 218 227 227 227 228 228 228
254 254 254 249 249 249 255 255 255 229 229 229 218 218 218
219 219 219 229 229 229 255 255 255 250 250 250 254 254 254
228 228 228 226 226 226 217 217 217 217 217 217 255 255 255
252 252 252 255 255 255 231 231 231 214 214 214 219 219 219
223 223 223 255 255 255 255 255 255 255 255 255 237 237 237
211 211 211 216 216 216 224 224 224 255 255 255 255 255 255
255 255 255 237 237 237 168 168 168 0 0 0 9 9 9 0 0 0 3 10 3 0 21 0
83 117 80 154 193 140 152 194 128 137 186 104 116 169 79 112 167 76
133 191 104 135 193 116 121 181 107 63 123 51 91 152 75 132 194 108
135 199 102 113 179 69 112 180 67 112 181 75 119 187 84 125 191 91
122 188 88 116 180 83 115 177 78 120 182 83 126 188 87 119 184 82
121 188 83 120 192 84 119 193 82 117 196 79 116 197 77 108 192 70
104 181 69 112 170 85 140 182 119 43 79 33 0 14 0 0 5 0 4 9 13
17 14 25 4 0 9 183 176 184 255 253 255 255 254 251 255 255 250
215 218 211 206 216 207 219 230 224 206 217 213 249 253 252
252 252 252 255 255 255 239 239 239 215 215 215 220 220 220
227 227 227 255 255 255 251 251 251 251 251 251 225 225 225
225 225 225 225 225 225 225 225 225 251 251 251 251 251 251
255 255 255 238 238 238 205 205 205 219 219 219 229 229 229
255 255 255 255 255 255 255 255 255 237 237 237 217 217 217
217 217 217 218 218 218 255 255 255 255 255 255 255 255 255
239 239 239 214 214 214 219 219 219 212 212 212 244 244 244
255 255 255 255 255 255 246 246 246 209 209 209 221 221 221
221 221 221 247 247 247 247 247 247 247 247 247 247 247 247
221 221 221 221 221 221 209 209 209 255 255 255 255 255 255
255 255 255 247 247 247 211 211 211 212 212 212 220 220 220
240 240 240 255 255 255 255 255 255 255 255 255 218 218 218
217 217 217 216 216 216 236 236 236 255 255 255 249 249 249
255 255 255 223 223 223 218 218 218 216 216 216 232 232 232
255 255 255 251 251 251 251 251 251 225 225 225 225 225 225
225 225 225 225 225 225 251 251 251 251 251 251 255 255 255
215 215 215 218 218 218 220 220 220 234 234 234 255 255 255
255 255 255 254 254 254 222 222 222 214 214 214 226 226 226
224 224 224 254 254 254 225 225 225 236 236 236 226 226 226
242 242 242 246 246 246 235 235 235 243 243 243 228 228 228
226 226 226 231 231 231 225 225 225 246 246 246 241 241 241
252 252 252 232 232 232 227 227 227 228 228 228 233 233 233
253 253 253 241 241 241 245 245 245 224 224 224 230 230 230
226 226 226 227 227 227 249 249 249 233 233 233 252 252 252
230 230 230 226 226 226 231 231 231 231 231 231 252 252 252
244 244 244 255 255 255 237 237 237 227 227 227 234 234 234
229 229 229 247 247 247 251 251 251 250 250 250 244 244 244
146 146 146 23 23 23 14 14 14 1 1 1 0 9 0 0 27 0 113 161 101
116 168 96 108 166 82 126 190 94 116 185 79 113 186 78 109 185 76
98 175 71 118 194 94 101 175 78 115 187 88 104 174 75 103 171 68
112 180 71 124 190 84 118 174 83 119 173 89 120 172 90 121 173 91
125 176 97 131 182 103 138 189 110 142 196 112 114 170 83 111 172 79
112 178 78 115 187 79 114 191 75 110 192 68 109 194 67 115 195 74
110 175 75 122 175 95 108 150 87 7 38 0 0 8 0 11 17 17 14 11 22
8 0 16 119 106 123 255 250 255 252 242 250 240 236 237 238 238 236
224 231 224 216 225 220 224 233 228 243 245 244 239 239 239
254 254 254 239 239 239 231 231 231 238 238 238 232 232 232
249 249 249 255 255 255 253 253 253 223 223 223 221 221 221
221 221 221 223 223 223 253 253 253 255 255 255 250 250 250
243 243 243 222 222 222 234 234 234 231 231 231 253 253 253
246 246 246 249 249 249 236 236 236 226 226 226 232 232 232
226 226 226 250 250 250 244 244 244 250 250 250 240 240 240
222 222 222 232 232 232 223 223 223 243 243 243 252 252 252
240 240 240 240 240 240 218 218 218 217 217 217 219 219 219
249 249 249 251 251 251 251 251 251 249 249 249 219 219 219
217 217 217 218 218 218 249 249 249 238 238 238 243 243 243
246 246 246 223 223 223 225 225 225 228 228 228 240 240 240
251 251 251 244 244 244 250 250 250 226 226 226 232 232 232
225 225 225 235 235 235 246 246 246 238 238 238 255 255 255
230 230 230 228 228 228 224 224 224 235 235 235 255 255 255
255 255 255 253 253 253 223 223 223 221 221 221 221 221 221
223 223 223 253 253 253 255 255 255 248 248 248 220 220 220
236 236 236 236 236 236 234 234 234 255 255 255 251 251 251
246 246 246 224 224 224 216 216 216 227 227 227 225 225 225
253 253 253 238 238 238 248 248 248 246 246 246 240 240 240
227 227 227 219 219 219 234 234 234 243 243 243 242 242 242
239 239 239 229 229 229 233 233 233 230 230 230 240 240 240
239 239 239 241 241 241 242 242 242 239 239 239 240 240 240
231 231 231 233 233 233 229 229 229 238 238 238 241 241 241
242 242 242 238 238 238 220 220 220 229 229 229 232 232 232
242 242 242 246 246 246 244 244 244 235 235 235 229 229 229
235 235 235 238 238 238 246 246 246 252 252 252 239 239 239
235 235 235 230 230 230 215 215 215 245 245 245 170 170 170 8 8 8
3 3 3 5 5 5 0 6 0 4 41 0 129 181 109 113 170 91 114 179 89 108 180 80
90 168 59 116 199 83 114 199 82 110 195 78 84 167 53 115 195 84
119 194 89 128 196 95 116 181 81 114 176 79 124 178 90 66 109 37
49 88 25 30 66 5 26 61 3 41 76 18 64 102 43 83 123 63 92 134 70
109 156 86 128 181 103 135 193 106 118 184 84 102 176 65 104 184 63
116 198 70 124 204 79 118 188 76 115 177 80 125 176 99 44 83 28
0 18 0 4 14 6 20 19 27 11 2 19 54 41 59 211 197 214 247 235 247
254 247 254 252 250 253 226 230 229 231 240 235 249 255 253
230 232 231 226 226 226 235 235 235 240 240 240 249 249 249
254 254 254 240 240 240 234 234 234 228 228 228 237 237 237
238 238 238 247 247 247 247 247 247 238 238 238 237 237 237
228 228 228 237 237 237 244 244 244 244 244 244 250 250 250
239 239 239 238 238 238 231 231 231 232 232 232 238 238 238
241 241 241 248 248 248 239 239 239 237 237 237 228 228 228
235 235 235 238 238 238 238 238 238 246 246 246 241 241 241
239 239 239 230 230 230 223 223 223 233 233 233 236 236 236
245 245 245 237 237 237 235 235 235 226 226 226 226 226 226
235 235 235 237 237 237 245 245 245 238 238 238 238 238 238
221 221 221 225 225 225 239 239 239 240 240 240 243 243 243
242 242 242 239 239 239 235 235 235 227 227 227 236 236 236
239 239 239 247 247 247 240 240 240 236 236 236 224 224 224
227 227 227 246 246 246 241 241 241 243 243 243 239 239 239
239 239 239 243 243 243 228 228 228 237 237 237 238 238 238
247 247 247 247 247 247 238 238 238 237 237 237 228 228 228
233 233 233 235 235 235 253 253 253 251 251 251 238 238 238
236 236 236 231 231 231 232 232 232 243 243 243 238 238 238
240 240 240 235 235 235 243 243 243 247 247 247 253 253 253
255 255 255 240 240 240 217 217 217 216 216 216 229 229 229
253 253 253 255 255 255 247 247 247 240 240 240 224 224 224
226 226 226 227 227 227 244 244 244 253 253 253 253 253 253
245 245 245 227 227 227 226 226 226 224 224 224 239 239 239
246 246 246 254 254 254 254 254 254 230 230 230 222 222 222
215 215 215 237 237 237 252 252 252 254 254 254 252 252 252
222 222 222 221 221 221 218 218 218 237 237 237 255 255 255
255 255 255 248 248 248 229 229 229 215 215 215 215 215 215
240 240 240 184 184 184 0 0 0 0 0 0 1 1 1 0 8 0 0 34 0 144 194 123
114 168 92 109 171 86 125 194 103 99 176 74 99 181 71 124 208 94
104 187 73 102 182 69 134 210 101 117 185 84 110 171 78 89 143 59
44 92 16 0 41 0 0 22 0 1 24 0 3 25 0 0 21 0 0 15 0 0 14 0 0 23 0
1 32 0 61 98 47 96 140 79 123 175 100 118 178 90 108 176 73
111 185 72 115 195 72 113 193 68 118 194 72 117 186 77 110 169 79
88 133 66 0 20 0 0 6 0 25 26 28 7 0 14 7 0 14 75 60 81 156 143 160
229 221 232 255 254 255 248 249 251 251 255 255 248 254 250
220 222 221 222 222 222 220 220 220 241 241 241 255 255 255
255 255 255 245 245 245 224 224 224 225 225 225 229 229 229
245 245 245 249 249 249 249 249 249 245 245 245 229 229 229
225 225 225 227 227 227 239 239 239 255 255 255 254 254 254
248 248 248 229 229 229 223 223 223 217 217 217 240 240 240
252 252 252 254 254 254 250 250 250 226 226 226 222 222 222
224 224 224 236 236 236 252 252 252 252 252 252 254 254 254
234 234 234 217 217 217 219 219 219 229 229 229 251 251 251
250 250 250 246 246 246 230 230 230 226 226 226 226 226 226
230 230 230 246 246 246 250 250 250 255 255 255 228 228 228
219 219 219 217 217 217 229 229 229 251 251 251 255 255 255
252 252 252 236 236 236 223 223 223 221 221 221 226 226 226
249 249 249 253 253 253 251 251 251 238 238 238 212 212 212
223 223 223 225 225 225 248 248 248 253 253 253 251 251 251
240 240 240 226 226 226 225 225 225 229 229 229 245 245 245
249 249 249 249 249 249 245 245 245 229 229 229 225 225 225
223 223 223 249 249 249 255 255 255 255 255 255 243 243 243
220 220 220 218 218 218 221 221 221 255 255 255 255 255 255
249 249 249 247 247 247 231 231 231 251 251 251 251 251 251
255 255 255 239 239 239 217 217 217 221 221 221 226 226 226
255 255 255 255 255 255 251 251 251 248 248 248 221 221 221
225 225 225 219 219 219 246 246 246 255 255 255 255 255 255
247 247 247 219 219 219 225 225 225 221 221 221 248 248 248
250 250 250 255 255 255 255 255 255 225 225 225 230 230 230
210 210 210 241 241 241 254 254 254 254 254 254 255 255 255
215 215 215 220 220 220 210 210 210 237 237 237 255 255 255
253 253 253 252 252 252 227 227 227 212 212 212 242 242 242
235 235 235 172 172 172 7 7 7 9 9 9 0 0 0 10 21 5 2 29 0 120 160 98
120 166 102 124 177 107 117 178 101 120 188 103 119 192 100
109 183 84 95 170 67 115 186 84 113 179 82 127 183 96 68 114 41
10 49 0 0 22 0 0 19 0 0 14 0 60 69 48 122 131 112 132 143 126
89 100 84 33 46 29 0 12 0 0 10 0 0 12 0 4 40 0 56 100 39 113 165 90
131 191 101 114 181 78 103 175 63 108 186 66 123 202 77 92 165 47
101 166 66 120 171 94 0 16 0 0 10 0 2 9 1 23 20 27 36 28 43 6 0 12
17 6 22 112 104 115 237 234 241 254 255 255 251 255 255 231 237 233
216 218 217 223 223 223 214 214 214 241 241 241 255 255 255
251 251 251 247 247 247 220 220 220 215 215 215 220 220 220
254 254 254 255 255 255 255 255 255 254 254 254 220 220 220
215 215 215 223 223 223 233 233 233 255 255 255 252 252 252
254 254 254 226 226 226 222 222 222 210 210 210 242 242 242
255 255 255 253 253 253 254 254 254 222 222 222 223 223 223
219 219 219 234 234 234 255 255 255 251 251 251 255 255 255
231 231 231 213 213 213 222 222 222 228 228 228 255 255 255
255 255 255 255 255 255 223 223 223 218 218 218 218 218 218
223 223 223 255 255 255 255 255 255 255 255 255 223 223 223
223 223 223 216 216 216 222 222 222 255 255 255 255 255 255
255 255 255 234 234 234 219 219 219 222 222 222 221 221 221
253 253 253 252 252 252 255 255 255 240 240 240 210 210 210
224 224 224 210 210 210 252 252 252 255 255 255 255 255 255
240 240 240 214 214 214 215 215 215 220 220 220 254 254 254
255 255 255 255 255 255 254 254 254 220 220 220 215 215 215
219 219 219 255 255 255 252 252 252 253 253 253 246 246 246
213 213 213 213 213 213 217 217 217 253 253 253 255 255 255
251 251 251 253 253 253 225 225 225 250 250 250 254 254 254
235 235 235 239 239 239 237 237 237 228 228 228 243 243 243
235 235 235 255 255 255 247 247 247 233 233 233 223 223 223
223 223 223 232 232 232 244 244 244 253 253 253 255 255 255
242 242 242 228 228 228 225 225 225 234 234 234 246 246 246
253 253 253 255 255 255 236 236 236 234 234 234 231 231 231
230 230 230 234 234 234 243 243 243 253 253 253 255 255 255
232 232 232 229 229 229 232 232 232 255 255 255 253 253 253
248 248 248 251 251 251 223 223 223 216 216 216 217 217 217
238 238 238 234 234 234 0 0 0 0 0 0 22 22 22 3 9 0 1 17 0 64 89 49
87 118 76 46 84 37 31 75 24 78 128 69 120 175 108 124 182 108
120 177 100 140 193 115 142 188 116 40 79 16 0 17 0 0 20 0 0 6 0
140 146 134 233 234 226 255 255 250 255 255 251 239 239 237
255 255 255 252 255 255 201 207 205 105 116 108 0 13 0 0 18 0 4 37 0
16 57 0 82 132 59 124 182 97 125 189 93 116 185 78 95 171 49
105 181 59 110 177 71 114 170 83 0 37 0 0 13 0 6 21 0 10 15 9 2 1 6
25 19 29 5 0 9 1 0 5 68 67 72 210 211 213 243 249 247 243 247 246
227 229 228 242 242 242 231 231 231 249 249 249 255 255 255
245 245 245 252 252 252 213 213 213 218 218 218 231 231 231
247 247 247 255 255 255 255 255 255 247 247 247 231 231 231
218 218 218 223 223 223 236 236 236 251 251 251 255 255 255
248 248 248 238 238 238 231 231 231 229 229 229 245 245 245
249 249 249 250 250 250 243 243 243 233 233 233 226 226 226
227 227 227 231 231 231 246 246 246 246 246 246 242 242 242
232 232 232 225 225 225 228 228 228 241 241 241 252 252 252
255 255 255 248 248 248 232 232 232 219 219 219 219 219 219
232 232 232 248 248 248 255 255 255 251 251 251 249 249 249
223 223 223 229 229 229 236 236 236 236 236 236 253 253 253
244 244 244 232 232 232 223 223 223 230 230 230 226 226 226
250 250 250 246 246 246 253 253 253 244 244 244 227 227 227
228 228 228 234 234 234 245 245 245 254 254 254 253 253 253
241 241 241 230 230 230 218 218 218 231 231 231 247 247 247
255 255 255 255 255 255 247 247 247 231 231 231 218 218 218
236 236 236 236 236 236 255 255 255 249 249 249 240 240 240
239 239 239 222 222 222 232 232 232 247 247 247 251 251 251
252 252 252 246 246 246 234 234 234 229 229 229 233 233 233
223 223 223 243 243 243 255 255 255 250 250 250 248 248 248
226 226 226 229 229 229 228 228 228 233 233 233 243 243 243
253 253 253 251 251 251 238 238 238 225 225 225 232 232 232
238 238 238 244 244 244 243 243 243 237 237 237 232 232 232
232 232 232 234 234 234 235 235 235 244 244 244 251 251 251
245 245 245 233 233 233 226 226 226 232 232 232 241 241 241
248 248 248 254 254 254 252 252 252 240 240 240 222 222 222
222 222 222 237 237 237 235 235 235 254 254 254 255 255 255
255 255 255 139 139 139 1 1 1 14 14 14 0 0 0 31 33 28 1 8 0 0 7 0
0 12 0 0 22 0 0 20 0 0 17 0 0 28 0 7 47 0 91 130 77 153 187 136
65 93 45 0 10 0 2 14 0 14 17 6 244 240 241 252 245 252 255 251 255
255 253 255 255 253 255 250 245 252 255 249 255 255 253 255
255 254 255 234 238 241 203 212 207 96 113 97 0 12 0 0 25 0 0 37 0
103 150 82 139 191 116 116 176 86 121 194 79 103 179 57 107 176 67
144 203 111 91 139 65 16 54 0 0 19 0 0 13 0 4 14 3 7 12 8 27 29 28
0 0 2 0 0 2 15 19 20 173 177 178 235 239 238 254 255 255 242 242 242
250 250 250 243 243 243 210 210 210 234 234 234 223 223 223
250 250 250 248 248 248 251 251 251 227 227 227 230 230 230
230 230 230 227 227 227 251 251 251 248 248 248 241 241 241
235 235 235 230 230 230 232 232 232 239 239 239 245 245 245
246 246 246 245 245 245 243 243 243 232 232 232 224 224 224
231 231 231 245 245 245 252 252 252 244 244 244 233 233 233
229 229 229 229 229 229 233 233 233 240 240 240 247 247 247
248 248 248 240 240 240 233 233 233 230 230 230 227 227 227
250 250 250 247 247 247 247 247 247 250 250 250 227 227 227
230 230 230 232 232 232 248 248 248 244 244 244 251 251 251
244 244 244 228 228 228 235 235 235 227 227 227 232 232 232
246 246 246 247 247 247 250 250 250 226 226 226 229 229 229
230 230 230 244 244 244 244 244 244 244 244 244 242 242 242
235 235 235 230 230 230 231 231 231 239 239 239 247 247 247
248 248 248 251 251 251 227 227 227 230 230 230 230 230 230
227 227 227 251 251 251 248 248 248 244 244 244 229 229 229
234 234 234 227 227 227 234 234 234 250 250 250 242 242 242
250 250 250 239 239 239 235 235 235 233 233 233 236 236 236
243 243 243 212 212 212 214 214 214 214 214 214 244 244 244
255 255 255 255 255 255 250 250 250 218 218 218 225 225 225
222 222 222 225 225 225 240 240 240 255 255 255 255 255 255
239 239 239 221 221 221 211 211 211 235 235 235 255 255 255
255 255 255 241 241 241 220 220 220 212 212 212 213 213 213
233 233 233 253 253 253 255 255 255 255 255 255 231 231 231
212 212 212 213 213 213 223 223 223 253 253 253 255 255 255
255 255 255 229 229 229 211 211 211 219 219 219 232 232 232
248 248 248 253 253 253 255 255 255 148 148 148 8 8 8 14 14 14
27 27 27 9 9 9 10 10 8 9 8 4 5 4 0 0 2 0 0 3 0 0 11 0 0 17 1 0 10 0
0 9 0 0 11 0 29 45 19 0 6 0 10 16 2 53 52 48 247 237 245 255 243 255
254 241 255 252 241 255 253 245 255 255 247 255 252 244 255
245 237 252 244 238 252 253 249 255 255 254 255 240 244 247
241 251 243 161 175 158 2 25 0 0 23 0 0 23 0 120 159 106 115 165 92
124 191 88 114 188 73 104 173 66 117 179 82 137 191 107 119 165 93
76 114 55 5 34 0 0 22 0 0 15 0 0 5 0 24 34 25 0 2 0 0 1 0 12 16 17
140 144 145 253 255 254 252 252 252 255 255 255 208 208 208
217 217 217 221 221 221 245 245 245 254 254 254 252 252 252
255 255 255 221 221 221 225 225 225 225 225 225 221 221 221
255 255 255 252 252 252 255 255 255 234 234 234 211 211 211
210 210 210 229 229 229 251 251 251 255 255 255 255 255 255
239 239 239 217 217 217 203 203 203 221 221 221 255 255 255
255 255 255 255 255 255 237 237 237 213 213 213 214 214 214
224 224 224 247 247 247 255 255 255 255 255 255 239 239 239
214 214 214 223 223 223 218 218 218 254 254 254 250 250 250
250 250 250 254 254 254 218 218 218 223 223 223 214 214 214
244 244 244 255 255 255 255 255 255 249 249 249 221 221 221
218 218 218 211 211 211 234 234 234 255 255 255 255 255 255
255 255 255 207 207 207 215 215 215 209 209 209 242 242 242
255 255 255 255 255 255 248 248 248 226 226 226 208 208 208
211 211 211 237 237 237 255 255 255 252 252 252 255 255 255
221 221 221 225 225 225 225 225 225 221 221 221 255 255 255
252 252 252 251 251 251 224 224 224 212 212 212 209 209 209
231 231 231 255 255 255 255 255 255 255 255 255 231 231 231
220 220 220 215 215 215 228 228 228 251 251 251 219 219 219
218 218 218 220 220 220 240 240 240 255 255 255 255 255 255
243 243 243 222 222 222 216 216 216 222 222 222 234 234 234
249 249 249 255 255 255 249 249 249 230 230 230 213 213 213
215 215 215 235 235 235 254 254 254 255 255 255 239 239 239
222 222 222 215 215 215 216 216 216 234 234 234 249 249 249
255 255 255 252 252 252 231 231 231 215 215 215 215 215 215
222 222 222 255 255 255 252 252 252 248 248 248 233 233 233
232 232 232 235 235 235 231 231 231 245 245 245 255 255 255
176 176 176 2 2 2 0 0 0 3 3 3 4 4 4 0 0 0 20 18 19 63 57 61
191 185 189 255 254 255 248 248 248 242 244 241 249 254 248
164 171 163 34 41 33 0 4 0 1 6 0 5 5 3 16 14 15 235 228 236
255 245 255 255 248 255 255 242 255 255 250 255 250 244 254
250 244 255 255 249 255 255 248 255 246 238 251 242 234 247
246 240 250 255 254 255 254 255 255 251 255 250 169 182 165 0 8 0
4 27 0 0 11 0 141 180 127 127 187 99 114 183 77 105 172 69 117 182 82
116 175 81 127 183 96 137 185 109 102 144 78 27 64 10 0 21 0 9 32 3
4 21 2 15 27 17 7 13 9 0 3 4 4 5 7 124 124 124 245 245 245
242 242 242 226 226 226 210 210 210 238 238 238 225 225 225
255 255 255 255 255 255 253 253 253 224 224 224 218 218 218
218 218 218 224 224 224 253 253 253 255 255 255 255 255 255
235 235 235 215 215 215 214 214 214 230 230 230 248 248 248
255 255 255 254 254 254 235 235 235 220 220 220 212 212 212
225 225 225 251 251 251 255 255 255 255 255 255 241 241 241
215 215 215 216 216 216 225 225 225 244 244 244 255 255 255
255 255 255 236 236 236 214 214 214 215 215 215 220 220 220
249 249 249 255 255 255 255 255 255 249 249 249 220 220 220
215 215 215 215 215 215 239 239 239 255 255 255 255 255 255
246 246 246 224 224 224 218 218 218 215 215 215 238 238 238
255 255 255 253 253 253 255 255 255 213 213 213 223 223 223
214 214 214 238 238 238 255 255 255 255 255 255 246 246 246
227 227 227 211 211 211 215 215 215 237 237 237 255 255 255
255 255 255 253 253 253 224 224 224 218 218 218 218 218 218
224 224 224 253 253 253 255 255 255 247 247 247 229 229 229
217 217 217 218 218 218 235 235 235 253 253 253 254 254 254
252 252 252 232 232 232 223 223 223 218 218 218 229 229 229
249 249 249 243 243 243 239 239 239 238 238 238 232 232 232
230 230 230 232 232 232 231 231 231 235 235 235 233 233 233
239 239 239 243 243 243 240 240 240 232 232 232 227 227 227
228 228 228 232 232 232 238 238 238 237 237 237 237 237 237
236 236 236 235 235 235 235 235 235 236 236 236 237 237 237
238 238 238 236 236 236 234 234 234 233 233 233 233 233 233
235 235 235 236 236 236 236 236 236 253 253 253 240 240 240
235 235 235 241 241 241 248 248 248 244 244 244 240 240 240
243 243 243 216 216 216 8 8 8 0 0 0 20 20 20 2 2 2 0 0 0 12 12 12
160 158 161 255 250 255 255 253 255 255 253 255 242 241 239
233 234 229 241 242 237 253 254 249 255 255 253 125 125 125 4 4 6
13 10 17 183 180 189 255 249 255 255 251 255 255 248 255 254 247 255
255 254 255 252 251 255 244 242 247 245 240 246 255 248 255
255 252 255 255 252 255 255 252 255 255 252 255 254 252 253
233 233 231 244 249 242 195 203 192 0 5 0 0 11 0 46 73 38 125 177 105
129 192 101 107 173 75 127 193 93 95 162 59 110 175 73 126 188 91
142 198 109 116 167 92 53 97 34 0 18 0 7 32 0 2 19 1 0 7 0 4 8 9
8 9 11 15 15 15 88 88 88 232 232 232 246 246 246 228 228 228
204 204 204 244 244 244 238 238 238 238 238 238 232 232 232
244 244 244 237 237 237 237 237 237 244 244 244 232 232 232
238 238 238 238 238 238 238 238 238 238 238 238 239 239 239
239 239 239 238 238 238 236 236 236 235 235 235 234 234 234
239 239 239 243 243 243 241 241 241 235 235 235 233 233 233
237 237 237 242 242 242 234 234 234 234 234 234 235 235 235
236 236 236 236 236 236 235 235 235 233 233 233 231 231 231
235 235 235 241 241 241 229 229 229 236 236 236 236 236 236
229 229 229 241 241 241 235 235 235 233 233 233 233 233 233
238 238 238 236 236 236 236 236 236 237 237 237 233 233 233
235 235 235 241 241 241 237 237 237 232 232 232 236 236 236
240 240 240 244 244 244 239 239 239 235 235 235 239 239 239
238 238 238 238 238 238 236 236 236 236 236 236 237 237 237
239 239 239 240 240 240 238 238 238 232 232 232 244 244 244
237 237 237 237 237 237 244 244 244 232 232 232 238 238 238
236 236 236 240 240 240 241 241 241 245 245 245 244 244 244
237 237 237 233 233 233 226 226 226 239 239 239 238 238 238
238 238 238 238 238 238 239 239 239 255 255 255 255 255 255
255 255 255 230 230 230 211 211 211 214 214 214 225 225 225
249 249 249 255 255 255 255 255 255 243 243 243 221 221 221
206 206 206 211 211 211 236 236 236 255 255 255 255 255 255
240 240 240 222 222 222 218 218 218 230 230 230 246 246 246
254 254 254 255 255 255 243 243 243 227 227 227 214 214 214
219 219 219 237 237 237 253 253 253 255 255 255 250 250 250
227 227 227 219 219 219 215 215 215 240 240 240 248 248 248
251 251 251 255 255 255 242 242 242 65 65 65 0 0 0 1 1 1 11 11 11
4 4 4 16 16 16 195 195 195 239 239 241 241 240 245 251 249 252
255 254 252 253 252 247 255 255 247 255 255 248 255 255 250
254 253 251 229 227 232 11 8 17 37 35 46 236 234 245 255 254 255
255 255 255 243 243 241 247 249 244 249 251 248 252 254 253
248 248 248 239 238 236 243 239 238 255 251 251 255 252 253
255 252 253 255 252 253 251 245 245 245 241 240 254 253 251
229 229 227 114 116 115 39 43 42 0 8 0 64 108 49 138 197 115
114 177 86 116 182 82 106 175 66 134 207 92 108 181 66 105 174 67
120 184 88 124 178 100 84 128 67 0 22 0 0 19 0 0 5 0 16 20 21
14 15 19 0 0 2 10 10 10 90 90 90 241 241 241 246 246 246 254 254 254
250 250 250 225 225 225 213 213 213 215 215 215 255 255 255
255 255 255 255 255 255 255 255 255 215 215 215 213 213 213
224 224 224 241 241 241 255 255 255 255 255 255 247 247 247
230 230 230 221 221 221 219 219 219 235 235 235 253 253 253
255 255 255 251 251 251 225 225 225 211 211 211 223 223 223
241 241 241 252 252 252 252 252 252 245 245 245 230 230 230
217 217 217 217 217 217 232 232 232 247 247 247 255 255 255
255 255 255 215 215 215 213 213 213 213 213 213 215 215 215
255 255 255 255 255 255 250 250 250 230 230 230 222 222 222
216 216 216 229 229 229 249 249 249 248 248 248 254 254 254
242 242 242 217 217 217 218 218 218 216 216 216 255 255 255
255 255 255 255 255 255 234 234 234 224 224 224 224 224 224
231 231 231 244 244 244 255 255 255 255 255 255 240 240 240
224 224 224 213 213 213 215 215 215 255 255 255 255 255 255
255 255 255 255 255 255 215 215 215 213 213 213 226 226 226
248 248 248 255 255 255 255 255 255 249 249 249 224 224 224
219 219 219 209 209 209 245 245 245 251 251 251 254 254 254
246 246 246 231 231 231 255 255 255 253 253 253 255 255 255
236 236 236 214 214 214 219 219 219 226 226 226 255 255 255
250 250 250 250 250 250 245 245 245 233 233 233 223 223 223
225 225 225 238 238 238 250 250 250 255 255 255 240 240 240
220 220 220 216 216 216 229 229 229 246 246 246 255 255 255
255 255 255 248 248 248 229 229 229 213 213 213 219 219 219
241 241 241 255 255 255 255 255 255 253 253 253 213 213 213
216 216 216 206 206 206 240 240 240 248 248 248 255 255 255
255 255 255 175 175 175 0 0 0 18 18 18 23 23 23 0 0 0 9 9 9
183 183 183 235 235 235 242 244 243 252 255 255 252 255 253
249 255 245 249 253 239 248 252 237 246 248 234 241 243 232
236 237 232 190 189 194 0 0 7 174 174 184 251 254 255 251 255 255
249 255 250 239 250 233 246 255 240 248 255 247 251 255 250
252 255 250 255 255 248 253 253 245 255 252 246 255 251 245
254 246 243 255 249 247 253 243 242 255 248 249 255 253 255
255 253 255 255 253 255 64 61 70 0 6 0 2 40 0 104 157 85 120 180 94
124 190 90 118 191 76 115 193 71 97 178 50 111 189 67 102 174 64
117 181 87 135 187 115 122 160 111 13 38 9 10 24 11 0 2 2 22 23 27
10 10 12 19 19 19 1 1 1 87 87 87 253 253 253 255 255 255 250 250 250
231 231 231 228 228 228 225 225 225 249 249 249 246 246 246
246 246 246 249 249 249 225 225 225 228 228 228 223 223 223
241 241 241 255 255 255 255 255 255 247 247 247 229 229 229
218 218 218 216 216 216 239 239 239 253 253 253 255 255 255
250 250 250 226 226 226 214 214 214 223 223 223 237 237 237
255 255 255 255 255 255 249 249 249 232 232 232 217 217 217
217 217 217 234 234 234 251 251 251 249 249 249 252 252 252
228 228 228 231 231 231 231 231 231 228 228 228 252 252 252
249 249 249 255 255 255 230 230 230 224 224 224 216 216 216
230 230 230 255 255 255 252 252 252 255 255 255 238 238 238
216 216 216 222 222 222 216 216 216 255 255 255 254 254 254
255 255 255 238 238 238 222 222 222 223 223 223 230 230 230
245 245 245 255 255 255 255 255 255 239 239 239 222 222 222
228 228 228 225 225 225 249 249 249 246 246 246 246 246 246
249 249 249 225 225 225 228 228 228 224 224 224 249 249 249
254 254 254 255 255 255 247 247 247 222 222 222 224 224 224
214 214 214 245 245 245 252 252 252 255 255 255 246 246 246
230 230 230 244 244 244 244 244 244 255 255 255 242 242 242
226 226 226 232 232 232 231 231 231 255 255 255 255 255 255
248 248 248 235 235 235 225 225 225 225 225 225 234 234 234
247 247 247 255 255 255 252 252 252 238 238 238 224 224 224
221 221 221 229 229 229 241 241 241 248 248 248 250 250 250
251 251 251 235 235 235 221 221 221 225 225 225 243 243 243
255 255 255 255 255 255 249 249 249 233 233 231 238 240 237
215 215 213 247 247 245 252 252 250 255 255 253 238 238 236 72 72 72
0 0 0 26 26 26 0 0 0 5 5 5 127 127 127 245 247 246 252 252 252
254 255 255 235 239 238 242 248 244 252 255 248 252 255 244
254 255 243 254 255 243 252 254 243 252 253 248 91 91 93 5 6 11
251 254 255 238 243 247 241 247 245 243 253 244 238 251 233
244 255 237 249 255 248 250 255 249 248 254 244 251 254 245
255 255 247 255 254 247 255 250 244 253 248 244 255 249 246
255 252 250 255 252 253 252 246 250 255 252 255 254 249 255
201 195 205 1 8 1 0 28 0 82 128 64 117 172 91 109 175 75 110 184 69
107 189 61 110 195 65 99 184 57 121 200 83 105 176 72 113 172 88
134 180 115 122 158 110 22 47 15 0 12 0 1 13 1 0 2 0 0 1 0 10 12 11
16 16 18 94 93 98 237 236 241 255 255 255 233 233 235 226 226 226
232 232 230 242 242 240 247 247 245 247 247 245 242 242 242
232 232 232 226 226 226 228 228 228 241 241 241 254 254 254
255 255 255 245 245 245 231 231 231 222 222 222 220 220 220
242 242 242 247 247 247 249 249 249 243 243 243 233 233 233
227 227 227 229 229 229 234 234 234 255 255 255 255 255 255
248 248 248 236 236 236 226 226 226 226 226 226 236 236 236
247 247 247 253 253 253 247 247 247 237 237 237 232 232 232
232 232 232 237 237 237 247 247 247 253 253 253 252 252 252
231 231 231 234 234 234 224 224 224 234 234 234 255 255 255
248 248 248 255 255 255 235 235 235 224 224 224 232 232 232
225 225 225 251 251 251 244 244 244 252 252 252 241 241 241
227 227 227 227 227 227 232 232 232 243 243 243 252 252 252
250 250 250 238 238 238 227 227 227 226 226 226 232 232 232
242 242 242 247 247 247 247 247 247 242 242 242 232 232 232
226 226 226 226 226 226 245 245 245 242 242 242 252 252 252
243 243 243 225 225 225 235 235 235 227 227 227 242 242 242
247 247 247 249 249 249 243 243 243 233 233 233 223 223 223
227 227 227 216 216 216 240 240 240 255 255 255 251 251 251
249 249 249 223 223 223 220 220 220 224 224 224 233 233 233
246 246 246 255 255 255 250 250 250 233 233 233 218 218 218
219 219 219 234 234 234 250 250 250 255 255 255 246 246 246
233 233 233 223 223 223 219 219 219 231 231 231 245 245 245
255 255 255 251 251 251 233 233 233 222 222 222 225 225 225
233 233 231 254 255 250 248 254 244 241 244 235 237 240 233
227 230 223 231 233 228 186 188 183 0 1 0 0 1 0 0 1 0 5 6 8 0 0 2
229 230 232 249 253 254 254 255 255 231 232 234 252 254 253
243 245 244 254 255 253 241 243 238 255 255 251 255 255 251
255 255 251 235 235 233 17 17 17 113 113 115 246 247 249 249 250 252
254 255 255 254 255 253 239 244 238 243 248 241 242 244 241
254 255 253 241 243 240 245 245 243 247 247 245 255 255 253
255 255 253 248 247 245 239 238 236 255 255 253 234 232 233
250 248 249 247 245 248 255 254 255 252 250 253 80 87 79 0 9 0
16 53 1 119 167 91 127 189 90 102 176 61 108 193 66 99 188 60
105 193 70 113 196 80 111 187 78 103 170 67 102 161 67 120 173 91
114 161 89 45 89 30 0 14 0 0 15 0 18 23 19 0 2 3 10 11 16 18 18 28
113 113 123 246 245 253 235 234 239 255 255 255 253 254 249
238 239 231 236 237 229 205 208 201 223 225 222 249 250 252
254 255 255 246 246 246 235 235 235 224 224 224 224 224 224
235 235 235 247 247 247 253 253 253 254 254 254 240 240 240
229 229 229 222 222 222 230 230 230 248 248 248 255 255 255
249 249 249 238 238 238 218 218 218 220 220 220 229 229 229
243 243 243 253 253 253 252 252 252 239 239 239 226 226 226
220 220 220 229 229 229 243 243 243 251 251 251 251 251 251
243 243 243 229 229 229 220 220 220 223 223 223 245 245 245
245 245 245 255 255 255 245 245 245 222 222 222 227 227 227
215 215 215 236 236 236 253 253 253 250 250 250 255 255 255
223 223 223 228 228 228 225 225 225 242 242 242 255 255 255
254 254 254 243 243 243 228 228 228 218 218 218 221 221 221
237 237 237 251 251 251 254 254 254 255 255 255 227 227 227
228 228 228 228 228 228 227 227 227 255 255 255 254 254 254
249 249 249 223 223 223 222 222 222 217 217 217 237 237 237
255 255 255 252 252 252 255 255 255 229 229 229 225 225 225
223 223 223 231 231 231 243 243 243 219 219 219 221 221 221
212 212 212 239 239 239 255 255 255 255 255 255 253 253 253
225 225 225 225 225 225 223 223 223 227 227 227 240 240 240
253 253 253 253 253 253 238 238 238 223 223 223 224 224 224
239 239 239 253 253 253 253 253 253 240 240 240 226 226 226
222 222 222 224 224 224 232 232 232 249 249 249 255 255 255
255 255 255 234 234 234 218 218 218 219 219 219 227 227 225
254 255 248 251 255 245 251 255 245 234 240 230 219 222 215
223 226 219 133 135 130 1 3 0 4 6 5 8 10 9 14 15 17 144 145 147
250 254 255 252 255 255 252 255 255 254 255 255 252 252 254
244 244 244 247 247 247 251 251 251 246 246 246 240 240 240
243 243 243 221 221 221 1 1 1 144 144 144 255 255 255 255 255 255
255 255 255 255 255 255 251 251 251 255 255 255 255 255 255
251 251 251 255 255 255 246 246 246 238 238 238 253 253 253
255 255 255 255 255 255 245 245 245 255 255 255 252 252 252
255 255 255 250 250 250 253 253 253 255 255 255 160 165 158 0 7 0
0 26 0 97 140 69 127 186 92 107 181 66 109 195 70 104 194 70
115 204 84 105 190 73 112 190 78 110 182 70 109 177 68 125 187 86
130 189 97 91 148 67 45 90 31 0 14 0 16 26 15 6 15 12 0 1 5 0 0 12
12 12 24 128 126 139 252 251 255 225 225 225 248 249 244 229 229 221
218 220 209 236 237 231 221 223 218 251 252 254 245 246 248
253 253 255 237 237 237 220 220 220 219 219 219 234 234 234
251 251 251 255 255 255 255 255 255 237 237 237 224 224 224
216 216 216 228 228 228 250 250 250 255 255 255 254 254 254
241 241 241 214 214 214 217 217 217 227 227 227 246 246 246
255 255 255 255 255 255 239 239 239 221 221 221 228 228 228
225 225 225 248 248 248 244 244 244 244 244 244 248 248 248
225 225 225 228 228 228 219 219 219 245 245 245 253 253 253
255 255 255 248 248 248 222 222 222 222 222 222 212 212 212
239 239 239 255 255 255 253 253 253 255 255 255 218 218 218
225 225 225 218 218 218 239 239 239 255 255 255 255 255 255
252 252 252 237 237 237 223 223 223 221 221 221 235 235 235
249 249 249 249 249 249 255 255 255 224 224 224 229 229 229
229 229 229 224 224 224 255 255 255 249 249 249 255 255 255
228 228 228 219 219 219 214 214 214 235 235 235 255 255 255
255 255 255 255 255 255 237 237 237 228 228 228 223 223 223
230 230 230 244 244 244 222 222 222 222 222 222 217 217 217
238 238 238 255 255 255 255 255 255 251 251 251 230 230 230
214 214 214 220 220 220 234 234 234 253 253 253 255 255 255
255 255 255 234 234 234 213 213 213 213 213 213 234 234 234
255 255 255 255 255 255 253 253 253 233 233 233 219 219 219
213 213 213 234 234 234 248 248 248 255 255 255 253 253 253
235 235 235 221 221 221 221 221 221 228 228 226 251 254 247
251 254 245 254 255 248 235 238 231 219 222 215 217 219 214 65 65 63
5 5 3 14 14 14 1 1 1 12 13 15 249 250 252 254 255 255 254 255 255
246 247 252 253 254 255 243 243 245 255 255 255 247 247 247
248 248 248 242 242 242 252 252 252 252 252 252 188 188 188 4 4 4
191 191 191 255 255 255 245 245 245 252 252 252 255 255 255
252 252 252 255 255 255 255 255 255 255 255 255 255 255 255
252 252 252 237 237 237 255 255 255 247 247 247 254 254 254
254 254 254 255 255 255 255 255 255 255 255 255 253 253 253
249 249 249 255 255 255 234 239 233 10 25 6 0 12 0 64 106 40
126 182 93 113 185 75 109 193 72 102 190 70 116 203 86 101 185 71
114 194 81 117 191 76 113 183 71 122 188 82 138 200 103 131 191 105
114 165 98 40 71 30 0 8 0 0 10 0 8 20 16 0 1 5 0 0 9 9 9 19
162 161 169 255 254 255 245 244 242 229 226 221 220 219 214
234 235 229 222 224 221 247 248 250 254 255 255 253 253 255
238 238 238 223 223 223 222 222 222 236 236 236 251 251 251
255 255 255 255 255 255 236 236 236 225 225 225 220 220 220
230 230 230 248 248 248 255 255 255 253 253 253 242 242 242
218 218 218 220 220 220 229 229 229 246 246 246 255 255 255
255 255 255 239 239 239 223 223 223 218 218 218 217 217 217
255 255 255 255 255 255 255 255 255 255 255 255 217 217 217
218 218 218 221 221 221 243 243 243 253 253 253 255 255 255
247 247 247 225 225 225 224 224 224 216 216 216 241 241 241
255 255 255 251 251 251 255 255 255 221 221 221 227 227 227
220 220 220 237 237 237 255 255 255 255 255 255 245 245 245
225 225 225 212 212 212 219 219 219 242 242 242 255 255 255
255 255 255 255 255 255 218 218 218 213 213 213 213 213 213
218 218 218 255 255 255 255 255 255 255 255 255 235 235 235
224 224 224 219 219 219 236 236 236 255 255 255 253 253 253
255 255 255 224 224 224 218 218 218 217 217 217 229 229 229
247 247 247 237 237 237 238 238 238 235 235 235 238 238 238
239 239 239 237 237 237 239 239 239 237 237 237 239 239 239
239 239 239 238 238 238 236 236 236 235 235 235 236 236 236
237 237 237 239 239 239 240 240 240 238 238 238 236 236 236
235 235 235 236 236 236 237 237 237 238 238 238 238 238 238
238 238 238 238 238 238 238 238 238 237 237 237 237 237 237
237 237 237 238 238 238 240 240 238 232 233 228 241 242 236
242 243 237 237 239 234 235 237 232 219 221 216 18 18 16 3 3 1
12 12 12 0 0 0 54 55 57 254 255 255 247 248 252 240 239 244
254 253 255 240 239 244 245 245 247 255 255 255 255 255 255
255 255 255 254 254 254 239 239 239 245 245 245 166 166 166 9 9 9
222 222 222 249 249 249 243 243 243 254 254 254 250 250 250
240 240 240 245 245 245 253 253 253 253 253 253 255 255 255
238 238 238 254 254 254 244 244 244 250 250 250 248 248 248
255 255 255 247 247 247 240 240 240 244 244 244 253 253 253
255 255 255 254 254 254 252 255 251 76 88 74 0 16 0 33 73 13
122 177 93 117 186 80 109 189 74 98 183 66 103 190 75 105 189 77
115 195 82 116 190 75 107 180 63 110 180 68 124 191 86 126 191 99
122 178 103 115 155 102 4 34 0 0 18 0 0 17 0 24 35 31 7 12 16 0 0 7
29 26 33 207 202 208 243 237 239 236 230 230 251 247 244 244 243 239
241 241 239 233 234 236 235 239 240 235 235 235 237 237 237
239 239 239 240 240 240 240 240 240 239 239 239 239 239 239
238 238 238 240 240 240 239 239 239 239 239 239 239 239 239
239 239 239 239 239 239 239 239 239 238 238 238 235 235 235
236 236 236 238 238 238 239 239 239 238 238 238 238 238 238
238 238 238 238 238 238 241 241 241 233 233 233 242 242 242
234 234 234 234 234 234 242 242 242 233 233 233 241 241 241
237 237 237 239 239 239 237 237 237 239 239 239 239 239 239
237 237 237 237 237 237 234 234 234 238 238 238 238 238 238
240 240 240 238 238 238 240 240 240 238 238 238 240 240 240
240 240 240 236 236 236 237 237 237 238 238 238 239 239 239
239 239 239 238 238 238 237 237 237 235 235 235 231 231 231
231 231 231 237 237 237 237 237 237 237 237 237 237 237 237
231 231 231 231 231 231 242 242 242 239 239 239 242 242 242
240 240 240 239 239 239 239 239 239 233 233 233 233 233 233
241 241 241 241 241 241 241 241 241 239 239 239 238 238 238
255 255 255 255 255 255 255 255 255 238 238 238 217 217 217
214 214 214 225 225 225 244 244 244 255 255 255 255 255 255
247 247 247 228 228 228 212 212 212 215 215 215 237 237 237
255 255 255 255 255 255 237 237 237 215 215 215 212 212 212
228 228 228 247 247 247 255 255 255 255 255 255 241 241 241
225 225 225 212 212 212 218 218 218 239 239 239 255 255 255
255 255 255 254 254 254 214 213 211 230 229 225 218 217 213
241 241 239 255 255 253 224 224 222 3 3 1 0 0 0 6 6 6 7 7 7
136 136 138 255 254 255 249 248 254 237 234 241 255 253 255
255 253 255 255 255 255 255 255 255 255 255 255 245 245 245
255 255 255 255 255 255 255 255 255 128 128 128 0 0 0 227 227 227
254 254 254 255 255 255 255 255 255 244 244 244 242 242 242
245 245 245 255 255 255 247 247 247 230 230 230 245 245 245
255 255 255 238 238 238 245 245 245 255 255 255 255 255 255
247 247 247 240 240 240 237 237 237 253 253 253 255 255 255
248 248 248 249 254 250 138 150 140 0 23 0 3 40 0 116 169 91
119 185 87 115 193 83 102 186 74 98 185 72 108 192 80 111 191 78
108 186 67 104 179 60 108 181 64 114 186 76 109 181 79 102 168 80
131 184 116 113 158 103 9 46 3 0 16 0 0 11 0 6 15 10 7 8 12 3 0 5
54 47 54 215 205 213 247 238 243 243 237 239 250 248 249 245 245 245
221 222 224 222 226 227 214 214 214 235 235 235 255 255 255
255 255 255 244 244 244 225 225 225 216 216 216 215 215 215
245 245 245 255 255 255 255 255 255 249 249 249 229 229 229
217 217 217 222 222 222 233 233 233 254 254 254 255 255 255
248 248 248 231 231 231 214 214 214 216 216 216 236 236 236
255 255 255 255 255 255 251 251 251 225 225 225 222 222 222
222 222 222 225 225 225 251 251 251 255 255 255 255 255 255
234 234 234 217 217 217 214 214 214 230 230 230 250 250 250
254 254 254 255 255 255 235 235 235 215 215 215 227 227 227
216 216 216 255 255 255 251 251 251 255 255 255 243 243 243
213 213 213 214 214 214 224 224 224 243 243 243 255 255 255
255 255 255 235 235 235 214 214 214 211 211 211 211 211 211
255 255 255 255 255 255 255 255 255 255 255 255 211 211 211
211 211 211 217 217 217 241 241 241 255 255 255 255 255 255
243 243 243 220 220 220 213 213 213 211 211 211 249 249 249
255 255 255 255 255 255 250 250 250 229 229 229 255 255 255
255 255 255 255 255 255 237 237 237 211 211 211 210 210 210
222 222 222 250 250 250 251 251 251 255 255 255 254 254 254
237 237 237 218 218 218 216 216 216 234 234 234 253 253 253
254 254 254 234 234 234 216 216 216 218 218 218 237 237 237
253 253 253 255 255 255 250 250 250 244 244 244 223 223 223
206 206 206 214 214 214 241 241 241 255 255 255 255 255 255
255 254 255 216 212 213 226 222 223 214 210 211 243 241 242
255 255 253 217 217 215 2 2 0 0 0 0 6 6 6 6 6 6 164 164 166
255 254 255 255 253 255 255 253 255 254 248 255 255 250 255
255 254 255 254 254 254 255 255 255 246 246 246 247 247 247
248 248 248 249 249 249 148 148 148 6 6 6 221 221 221 255 255 255
255 255 255 252 252 252 237 237 237 255 255 255 255 255 255
229 229 229 154 154 154 169 169 169 221 221 221 255 255 255
253 253 253 255 255 255 223 223 223 255 255 255 255 255 255
255 255 255 250 250 250 253 253 253 255 255 255 252 252 252
253 255 254 161 170 165 0 18 0 0 17 0 116 166 93 118 183 89
121 196 91 114 196 88 106 190 79 106 188 78 106 186 73 106 184 64
109 187 65 116 194 72 117 195 76 107 185 75 97 171 72 119 184 100
140 197 126 91 141 82 0 29 0 0 11 0 0 8 0 7 12 8 5 0 4 6 0 4
118 106 116 255 251 255 249 243 247 252 247 251 242 242 244
205 206 208 229 233 234 212 212 212 237 237 237 255 255 255
255 255 255 245 245 245 222 222 222 212 212 212 211 211 211
244 244 244 255 255 255 255 255 255 252 252 252 226 226 226
211 211 211 219 219 219 234 234 234 255 255 255 255 255 255
252 252 252 231 231 231 211 211 211 212 212 212 235 235 235
255 255 255 247 247 247 255 255 255 224 224 224 232 232 232
232 232 232 224 224 224 255 255 255 247 247 247 255 255 255
231 231 231 216 216 216 210 210 210 229 229 229 255 255 255
255 255 255 255 255 255 236 236 236 211 211 211 223 223 223
212 212 212 255 255 255 255 255 255 255 255 255 242 242 242
219 219 219 214 214 214 217 217 217 234 234 234 254 254 254
255 255 255 240 240 240 222 222 222 221 221 221 214 214 214
255 255 255 250 250 250 250 250 250 255 255 255 214 214 214
221 221 221 209 209 209 243 243 243 255 255 255 255 255 255
244 244 244 214 214 214 213 213 213 210 210 210 241 241 241
253 253 253 255 255 255 250 250 250 230 230 230 245 245 245
243 243 243 254 254 254 236 236 236 224 224 224 230 230 230
232 232 232 254 254 254 250 250 250 248 248 248 242 242 242
233 233 233 227 227 227 230 230 230 242 242 242 252 252 252
253 253 253 243 243 243 231 231 231 227 227 227 233 233 233
242 242 242 248 248 248 250 250 250 245 245 245 234 234 234
225 225 225 229 229 229 242 242 242 250 250 250 246 246 246
240 238 239 241 234 241 233 226 233 234 229 233 241 239 242
239 237 238 198 198 198 0 0 0 0 1 0 11 13 10 0 0 0 154 154 156
245 243 248 255 253 255 255 253 255 248 240 251 245 238 246
252 250 253 241 241 241 254 254 254 255 255 255 144 144 144
103 103 103 125 125 125 149 149 149 14 14 14 202 202 202 253 253 253
240 240 240 243 243 243 242 242 242 255 255 255 203 203 203 2 2 2
0 0 0 16 16 16 12 12 12 192 192 192 254 254 254 247 247 247
247 247 247 255 255 255 254 254 254 255 255 255 255 255 255
251 251 251 245 245 245 255 255 255 254 255 255 154 163 160 0 11 0
0 15 0 127 174 106 112 175 86 112 187 84 114 195 90 105 188 80
102 184 74 104 184 71 108 188 67 114 195 67 116 197 69 112 194 70
105 188 72 103 182 73 112 188 88 113 181 94 120 180 106 66 114 54
4 39 0 14 34 7 0 6 0 6 5 3 8 0 6 15 3 13 198 186 196 255 251 255
255 253 255 247 247 249 210 211 213 219 223 222 234 234 234
242 242 242 249 249 249 249 249 249 242 242 242 234 234 234
230 230 230 230 230 230 236 236 236 245 245 245 251 251 251
245 245 245 233 233 233 227 227 227 233 233 233 242 242 242
246 246 246 248 248 248 247 247 247 240 240 240 233 233 233
232 232 232 237 237 237 242 242 242 248 248 248 251 251 251
228 228 228 232 232 232 232 232 232 228 228 228 251 251 251
248 248 248 245 245 245 231 231 231 237 237 237 231 231 231
238 238 238 252 252 252 242 242 242 249 249 249 243 243 243
230 230 230 231 231 231 228 228 228 250 250 250 247 247 247
248 248 248 235 235 235 224 224 224 227 227 227 234 234 234
245 245 245 252 252 252 250 250 250 240 240 240 230 230 230
229 229 229 229 229 229 246 246 246 245 245 245 245 245 245
246 246 246 229 229 229 229 229 229 225 225 225 247 247 247
247 247 247 254 254 254 241 241 241 224 224 224 236 236 236
234 234 234 248 248 248 251 251 251 251 251 251 245 245 245
236 236 236 230 230 230 223 223 223 240 240 240 235 235 235
240 240 240 253 253 253 244 244 244 255 255 255 225 225 225
229 229 229 239 239 239 253 253 253 255 255 255 255 255 255
240 240 240 226 226 226 227 227 227 241 241 241 255 255 255
255 255 255 253 253 253 238 238 238 228 228 228 224 224 224
246 246 246 247 247 247 247 247 247 246 246 246 242 242 242
235 235 235 227 227 227 223 221 224 255 252 255 241 234 242
255 250 255 240 235 241 217 215 218 181 181 181 0 1 0 0 4 0 14 16 13
8 10 7 165 165 165 241 239 242 248 243 249 255 252 255 255 251 255
255 252 255 244 242 245 255 255 255 246 246 246 183 183 183 0 0 0
6 6 6 4 4 4 11 11 11 2 2 2 176 176 176 249 249 249 242 242 242
255 255 255 255 255 255 240 240 240 100 100 100 2 2 2 8 8 8 13 13 13
4 4 4 20 20 20 255 255 255 248 248 248 252 252 252 255 255 255
242 242 242 237 237 237 255 255 255 248 248 248 237 237 237
255 255 255 253 255 254 143 152 149 0 11 0 0 24 0 138 185 117
105 168 79 100 172 72 105 184 79 96 179 71 100 182 74 105 185 72
112 192 69 114 195 66 107 190 60 97 182 53 96 181 60 101 185 71
113 197 86 107 185 84 102 171 82 119 175 102 66 107 51 0 24 0 15 28 8
8 11 4 17 13 14 6 0 4 58 48 57 223 213 222 244 239 245 236 235 240
254 255 255 229 231 230 255 255 255 246 246 246 233 233 233
231 231 231 238 238 238 247 247 247 251 251 251 252 252 252
227 227 227 229 229 229 233 233 233 237 237 237 241 241 241
245 245 245 249 249 249 251 251 251 231 231 231 233 233 233
240 240 240 251 251 251 255 255 255 253 253 253 238 238 238
225 225 225 224 224 224 234 234 234 246 246 246 255 255 255
255 255 255 246 246 246 234 234 234 224 224 224 228 228 228
232 232 232 255 255 255 255 255 255 248 248 248 246 246 246
226 226 226 234 234 234 250 250 250 252 252 252 240 240 240
247 247 247 231 231 231 238 238 238 226 226 226 228 228 228
255 255 255 252 252 252 243 243 243 231 231 231 224 224 224
231 231 231 248 248 248 255 255 255 255 255 255 255 255 255
223 223 223 215 215 215 215 215 215 223 223 223 255 255 255
255 255 255 245 245 245 250 250 250 230 230 230 236 236 236
238 238 238 237 237 237 255 255 255 255 255 255 231 231 231
227 227 227 227 227 227 235 235 235 247 247 247 214 214 214
227 227 227 222 222 222 246 246 246 255 255 255 245 245 245
246 246 246 224 224 224 209 209 209 222 222 222 228 228 228
255 255 255 254 254 254 255 255 255 225 225 225 211 211 211
218 218 218 229 229 229 255 255 255 250 250 250 254 254 254
227 227 227 224 224 224 214 214 214 222 222 222 255 255 255
251 251 251 255 255 255 224 224 224 210 210 210 220 220 220
234 232 235 255 251 255 255 251 255 255 250 255 228 226 231
227 227 229 204 206 203 0 2 0 18 25 17 24 29 23 6 11 5 131 133 130
255 255 255 245 243 248 241 236 243 253 243 254 255 248 255
242 240 243 248 248 248 235 235 235 152 152 152 0 0 0 22 22 22 0 0 0
6 6 6 0 0 0 111 111 111 253 253 253 255 255 255 252 252 252
254 254 254 255 255 255 51 51 51 8 8 8 17 17 17 7 7 7 0 0 0 7 7 7
239 239 239 255 255 255 255 255 255 255 255 255 246 246 246
252 252 252 255 255 255 230 230 230 254 254 254 255 255 255
242 246 245 95 106 102 0 8 0 10 46 0 124 174 105 132 195 106
126 198 98 99 178 73 100 182 74 108 187 80 108 188 75 109 189 66
109 190 61 108 191 59 106 191 61 103 191 68 102 191 71 95 184 66
118 202 91 102 176 77 126 190 104 135 185 116 15 49 0 0 9 0 12 21 4
3 4 0 3 0 2 34 27 34 100 93 101 239 234 241 222 220 225 240 240 242
255 255 255 255 255 255 241 241 241 212 212 212 224 224 224
228 228 228 255 255 255 254 254 254 255 255 255 239 239 239
217 217 217 217 217 217 217 217 217 255 255 255 255 255 255
255 255 255 235 235 235 212 212 212 221 221 221 216 216 216
245 245 245 255 255 255 251 251 251 243 243 243 212 212 212
213 213 213 218 218 218 250 250 250 254 254 254 254 254 254
250 250 250 218 218 218 213 213 213 214 214 214 255 255 255
253 253 253 255 255 255 250 250 250 214 214 214 209 209 209
210 210 210 240 240 240 255 255 255 255 255 255 255 255 255
215 215 215 216 216 216 219 219 219 242 242 242 255 255 255
248 248 248 255 255 255 221 221 221 217 217 217 216 216 216
234 234 234 255 255 255 255 255 255 255 255 255 224 224 224
220 220 220 220 220 220 224 224 224 255 255 255 255 255 255
252 252 252 221 221 221 233 233 233 228 228 228 226 226 226
252 252 252 254 254 254 254 254 254 226 226 226 218 218 218
228 228 228 225 225 225 253 253 253 219 219 219 225 225 225
227 227 227 245 245 245 255 255 255 251 251 251 244 244 244
227 227 227 218 218 218 227 227 227 236 236 236 252 252 252
251 251 251 248 248 248 229 229 229 219 219 219 223 223 223
231 231 231 248 248 248 250 250 250 251 251 251 236 236 236
228 228 228 220 220 220 236 236 236 255 255 255 252 252 252
252 252 252 234 234 234 227 227 227 222 222 222 214 212 215
255 247 255 255 249 255 251 245 255 222 220 225 222 224 223
198 203 199 8 15 7 0 4 0 0 9 0 0 5 0 24 29 23 249 251 248 244 242 245
255 253 255 255 249 255 249 242 250 255 254 255 255 255 255
248 248 248 182 182 182 16 16 16 0 0 0 12 12 12 104 104 104 93 93 93
12 12 12 250 250 250 244 244 244 251 251 251 255 255 255 255 255 255
124 124 124 2 2 2 20 20 20 0 0 0 8 8 8 61 61 61 255 255 255
246 246 246 249 249 249 245 245 245 255 255 255 250 250 250
255 255 255 255 255 255 255 255 255 252 252 252 234 239 235 54 67 58
0 10 0 55 93 42 128 180 106 114 179 85 116 191 88 101 180 75
108 190 82 108 187 78 109 187 75 109 189 66 109 190 61 108 191 59
105 192 61 103 191 68 102 192 69 108 200 76 94 181 64 108 187 78
110 180 82 116 171 90 103 145 81 2 31 0 0 10 0 21 29 14 3 4 0 1 0 2
40 35 42 185 182 189 231 228 235 255 254 255 252 252 254 245 245 245
237 237 237 222 222 222 226 226 226 229 229 229 247 247 247
252 252 252 255 255 255 238 238 238 223 223 223 219 219 219
224 224 224 250 250 250 255 255 255 251 251 251 236 236 236
214 214 214 222 222 222 228 228 228 246 246 246 255 255 255
248 248 248 241 241 241 225 225 225 220 220 220 226 226 226
245 245 245 251 251 251 251 251 251 245 245 245 226 226 226
220 220 220 227 227 227 247 247 247 250 250 250 253 253 253
248 248 248 226 226 226 216 216 216 212 212 212 241 241 241
254 254 254 255 255 255 248 248 248 222 222 222 218 218 218
224 224 224 241 241 241 254 254 254 244 244 244 244 244 244
223 223 223 222 222 222 226 226 226 239 239 239 254 254 254
254 254 254 248 248 248 229 229 229 223 223 223 223 223 223
229 229 229 248 248 248 254 254 254 246 246 246 227 227 227
226 226 226 224 224 224 231 231 231 248 248 248 252 252 252
252 252 252 226 226 226 224 224 224 230 230 230 231 231 231
244 244 244 230 230 230 229 229 229 240 240 240 243 243 243
248 248 248 250 250 250 238 238 238 236 236 236 235 235 235
237 237 237 245 245 245 240 240 240 242 242 242 233 233 233
236 236 236 234 234 234 234 234 234 237 237 237 235 235 235
245 245 245 243 243 243 246 246 246 236 236 236 233 233 233
238 238 238 234 234 234 241 241 241 224 224 224 226 226 226
234 234 234 237 237 237 231 229 232 232 224 235 248 240 253
253 247 255 237 236 241 214 218 217 57 64 57 0 5 0 6 18 4 5 17 3
0 5 0 0 5 0 198 203 196 246 246 244 255 254 255 255 252 255
255 248 255 252 250 253 242 242 242 252 252 252 255 255 255
162 162 162 96 96 96 127 127 127 233 233 233 190 190 190 0 0 0
163 163 163 254 254 254 255 255 255 255 255 255 238 238 238
226 226 226 23 23 23 0 0 0 4 4 4 6 6 6 199 199 199 243 243 243
255 255 255 255 255 255 255 255 255 255 255 255 246 246 246
250 250 250 249 249 249 255 255 255 255 255 255 202 209 202 12 29 11
0 15 0 94 138 77 128 186 102 109 177 78 108 184 76 100 179 70
115 197 87 108 187 78 109 187 75 110 188 66 110 189 61 108 191 59
106 191 61 103 191 68 102 192 69 102 192 69 100 188 66 104 184 71
107 180 75 112 176 82 144 195 116 73 111 50 0 14 0 2 20 0 1 12 0
12 17 13 0 0 4 53 50 57 242 239 246 242 240 245 250 248 251
230 230 230 233 233 233 240 240 240 233 233 233 235 235 235
231 231 231 243 243 243 248 248 248 236 236 236 235 235 235
229 229 229 237 237 237 237 237 237 245 245 245 239 239 239
238 238 238 224 224 224 229 229 229 245 245 245 243 243 243
240 240 240 241 241 241 236 236 236 243 243 243 235 235 235
240 240 240 237 237 237 243 243 243 243 243 243 237 237 237
240 240 240 235 235 235 244 244 244 233 233 233 241 241 241
242 242 242 241 241 241 244 244 244 233 233 233 223 223 223
242 242 242 242 242 242 245 245 245 235 235 235 235 235 235
229 229 229 237 237 237 239 239 239 239 239 239 238 238 238
221 221 221 231 231 231 233 233 233 240 240 240 243 243 243
240 240 240 240 240 240 234 234 234 237 237 237 232 232 232
232 232 232 237 237 237 234 234 234 240 240 240 234 234 234
238 238 238 225 225 225 228 228 228 237 237 237 237 237 237
242 242 242 244 244 244 231 231 231 236 236 236 235 235 235
239 239 239 231 231 231 245 245 245 241 241 241 255 255 255
240 240 240 230 230 230 236 236 236 230 230 230 249 249 249
254 254 254 247 247 247 249 249 249 224 224 224 229 229 229
220 220 220 244 244 244 252 252 252 249 249 249 244 244 244
224 224 224 235 235 235 230 230 230 251 251 251 245 245 245
249 249 249 253 253 253 218 218 218 233 233 233 217 217 217
240 240 240 255 255 255 255 255 255 252 250 253 229 221 234
220 212 225 245 242 251 148 149 151 0 4 0 2 14 2 14 28 11 0 7 0
5 22 3 3 18 0 9 20 6 88 96 85 254 255 251 255 255 253 248 242 246
255 253 255 255 254 255 255 255 255 249 249 249 254 254 254
254 254 254 239 239 239 246 246 246 243 243 243 247 247 247 42 42 42
0 0 0 249 249 249 237 237 237 253 253 253 248 248 248 255 255 255
246 246 246 209 209 209 188 188 188 255 255 255 240 240 240
255 255 255 246 246 246 252 252 252 248 248 248 246 246 246
255 255 255 248 248 248 234 234 234 254 254 254 255 255 255 94 101 93
0 11 0 9 45 0 109 159 88 124 184 94 120 191 85 103 182 67 100 180 69
117 197 86 109 187 78 110 187 75 112 187 68 112 188 62 109 190 61
106 191 62 105 190 69 103 191 71 89 177 55 113 198 77 111 192 74
111 185 74 121 188 85 123 182 90 131 179 105 30 68 11 3 31 0 0 12 0
3 15 5 0 2 3 0 0 5 170 167 176 222 217 224 226 221 227 221 219 222
233 233 233 255 255 255 247 247 247 245 245 245 220 220 220
228 228 228 228 228 228 234 234 234 251 251 251 249 249 249
252 252 252 222 222 222 225 225 225 223 223 223 240 240 240
245 245 245 243 243 243 255 255 255 236 236 236 221 221 221
229 229 229 231 231 231 255 255 255 252 252 252 253 253 253
229 229 229 230 230 230 230 230 230 229 229 229 253 253 253
252 252 252 255 255 255 221 221 221 228 228 228 227 227 227
231 231 231 255 255 255 252 252 252 244 244 244 244 244 244
226 226 226 225 225 225 220 220 220 250 250 250 248 248 248
252 252 252 237 237 237 222 222 222 230 230 230 208 208 208
243 243 243 247 247 247 253 253 253 244 244 244 224 224 224
223 223 223 222 222 222 246 246 246 245 245 245 245 245 245
246 246 246 222 222 222 223 223 223 219 219 219 250 250 250
239 239 239 242 242 242 243 243 243 221 221 221 226 226 226
231 231 231 241 241 241 250 250 250 242 242 242 246 246 246
221 221 221 255 255 255 253 253 253 255 255 255 238 238 238
215 215 215 220 220 220 225 225 225 255 255 255 255 255 255
251 251 251 245 245 245 216 216 216 221 221 221 217 217 217
248 248 248 255 255 255 255 255 255 248 248 248 221 221 221
227 227 227 222 222 222 248 248 248 249 249 249 255 255 255
255 255 255 204 204 204 219 219 219 219 219 219 249 249 249
255 255 255 255 255 255 243 241 244 246 240 252 215 209 221 92 91 97
0 1 2 0 4 0 0 13 0 13 30 11 7 26 4 1 21 0 0 12 0 0 10 0 8 19 3
160 166 156 251 252 247 239 235 236 254 250 251 250 248 249
255 255 255 240 240 240 241 241 241 255 255 255 254 254 254
255 255 255 253 253 253 251 251 251 109 109 109 0 0 0 144 144 144
247 247 247 235 235 235 255 255 255 255 255 255 241 241 241
245 245 245 255 255 255 255 255 255 255 255 255 240 240 240
255 255 255 255 255 255 249 249 249 255 255 255 255 255 255
229 229 229 255 255 255 236 236 236 220 220 220 0 6 0 0 12 0
61 105 46 125 178 98 112 177 77 121 195 80 102 181 62 107 187 72
112 192 79 110 186 77 112 186 75 112 187 68 112 188 64 110 189 64
108 190 66 106 189 71 105 190 73 100 183 65 104 185 65 125 204 85
113 187 72 114 186 74 115 182 79 123 179 92 102 149 79 0 17 0 10 37 4
14 32 16 8 17 12 0 0 5 17 14 23 235 227 238 222 215 223 220 218 221
236 236 236 255 255 255 255 255 255 252 252 252 218 218 218
217 217 217 211 211 211 234 234 234 255 255 255 255 255 255
255 255 255 214 214 214 210 210 210 214 214 214 240 240 240
255 255 255 254 254 254 255 255 255 230 230 230 211 211 211
221 221 221 228 228 228 255 255 255 255 255 255 255 255 255
226 226 226 222 222 222 222 222 222 226 226 226 255 255 255
255 255 255 255 255 255 218 218 218 221 221 221 217 217 217
225 225 225 255 255 255 255 255 255 255 255 255 245 245 245
217 217 217 210 210 210 212 212 212 255 255 255 255 255 255
255 255 255 237 237 237 213 213 213 227 227 227 212 212 212
252 252 252 255 255 255 255 255 255 240 240 240 215 215 215
215 215 215 218 218 218 250 250 250 253 253 253 253 253 253
250 250 250 218 218 218 215 215 215 212 212 212 255 255 255
255 255 255 255 255 255 246 246 246 212 212 212 213 213 213
221 221 221 250 250 250 255 255 255 247 247 247 248 248 248
220 220 220 252 252 252 253 253 253 255 255 255 237 237 237
219 219 219 219 219 219 229 229 229 250 250 250 254 254 254
245 245 245 239 239 239 223 223 223 225 225 225 227 227 227
244 244 244 253 253 253 253 253 253 245 245 245 229 229 229
229 229 229 226 226 226 240 240 240 245 245 245 252 252 252
240 240 240 213 213 213 229 229 229 230 230 230 229 229 229
244 244 244 255 255 255 255 253 255 205 199 211 19 13 25 20 19 25
0 2 0 24 36 26 0 17 0 0 21 0 2 27 0 0 10 0 0 10 0 17 35 11 0 6 0
5 11 0 119 120 114 231 227 226 255 254 255 244 242 243 247 247 247
242 242 242 255 255 255 255 255 255 244 244 244 246 246 246
218 218 218 57 57 57 0 0 0 2 2 2 32 32 32 190 190 190 255 255 255
249 249 249 255 255 255 255 255 255 243 243 243 244 244 244
255 255 255 242 242 242 245 245 245 251 251 251 247 247 247
255 255 255 238 238 238 247 247 247 255 255 255 249 249 249
255 255 255 27 27 27 0 11 0 8 41 0 110 160 91 139 198 108 108 175 69
105 183 63 102 184 58 113 197 76 108 188 73 110 187 75 112 186 75
113 186 69 113 187 66 112 188 66 109 189 68 106 189 73 106 189 75
118 198 83 103 182 65 109 187 68 119 194 75 107 182 64 119 188 79
103 167 70 139 194 113 50 96 34 0 20 0 0 14 0 0 5 0 0 1 4 4 1 10
157 149 160 230 223 231 230 228 231 239 239 239 255 255 255
254 254 254 249 249 249 229 229 229 221 221 221 214 214 214
234 234 234 253 253 253 255 255 255 253 253 253 221 221 221
214 214 214 221 221 221 240 240 240 255 255 255 252 252 252
248 248 248 230 230 230 220 220 220 225 225 225 231 231 231
245 245 245 253 253 253 249 249 249 231 231 231 227 227 227
227 227 227 231 231 231 249 249 249 253 253 253 247 247 247
228 228 228 226 226 226 223 223 223 228 228 228 247 247 247
255 255 255 255 255 255 244 244 244 224 224 224 214 214 214
220 220 220 251 251 251 255 255 255 255 255 255 237 237 237
222 222 222 231 231 231 229 229 229 248 248 248 250 250 250
248 248 248 236 236 236 223 223 223 222 222 222 227 227 227
244 244 244 249 249 249 249 249 249 244 244 244 227 227 227
222 222 222 221 221 221 248 248 248 255 255 255 255 255 255
243 243 243 220 220 220 218 218 218 222 222 222 249 249 249
251 251 251 245 245 245 243 243 243 229 229 229 237 237 237
238 238 238 231 231 231 238 238 238 241 241 241 238 238 238
239 239 239 231 231 231 230 230 230 234 234 234 233 233 233
243 243 243 242 242 242 245 245 245 235 235 235 231 231 231
235 235 235 237 237 237 245 245 245 241 241 241 242 242 242
233 233 233 235 235 235 233 233 233 233 233 233 247 247 247
255 255 255 255 255 255 227 227 227 237 237 237 235 235 235
189 187 190 8 2 14 1 0 9 0 0 4 4 10 8 13 25 15 1 20 1 0 13 0 0 26 0
52 77 47 146 171 141 105 125 98 5 20 0 10 18 3 0 2 0 36 35 31
176 172 171 235 233 234 255 255 255 255 255 255 255 255 255
232 232 232 209 209 209 125 125 125 3 3 3 25 25 25 0 0 0 4 4 4 9 9 9
18 18 18 188 188 188 238 238 238 252 252 252 255 255 255 255 255 255
255 255 255 255 255 255 255 255 255 230 230 230 223 223 223
255 255 255 241 241 241 222 222 222 255 255 255 243 243 243
255 255 255 69 69 69 1 1 1 0 10 0 79 115 67 124 176 101 130 192 95
114 187 72 99 180 52 107 192 63 109 193 71 107 188 70 110 187 75
113 185 75 115 185 69 115 186 66 112 188 66 110 188 69 108 188 75
108 187 78 124 200 91 112 186 73 95 170 52 118 193 74 110 186 64
108 183 65 112 181 75 128 188 100 121 172 105 0 24 0 0 17 0 16 32 22
0 1 4 7 4 13 19 8 22 255 250 255 245 243 246 240 240 240 232 232 232
238 238 238 238 238 238 246 246 246 239 239 239 237 237 237
236 236 236 234 234 234 238 238 238 234 234 234 240 240 240
236 236 236 240 240 240 238 238 238 236 236 236 237 237 237
231 231 231 239 239 239 244 244 244 240 240 240 239 239 239
228 228 228 233 233 233 232 232 232 243 243 243 242 242 242
242 242 242 243 243 243 232 232 232 233 233 233 230 230 230
245 245 245 242 242 242 243 243 243 240 240 240 229 229 229
231 231 231 234 234 234 243 243 243 243 243 243 237 237 237
239 239 239 232 232 232 237 237 237 235 235 235 239 239 239
244 244 244 240 240 240 249 249 249 234 234 234 233 233 233
230 230 230 234 234 234 243 243 243 243 243 243 243 243 243
233 233 233 234 234 234 234 234 234 233 233 233 243 243 243
243 243 243 243 243 243 231 231 231 239 239 239 239 239 239
238 238 238 244 244 244 239 239 239 234 234 234 238 238 238
234 234 234 237 237 237 234 234 234 244 244 244 223 223 223
223 223 223 210 210 210 238 238 238 255 255 255 255 255 255
249 249 249 215 215 215 211 211 211 224 224 224 230 230 230
255 255 255 255 255 255 255 255 255 227 227 227 213 213 213
221 219 220 232 230 231 255 254 255 252 252 252 255 255 255
228 230 229 225 227 226 216 216 216 218 218 218 250 248 249
252 250 251 255 254 255 231 229 232 223 223 225 147 147 149 13 12 17
3 0 7 1 0 5 4 5 7 2 12 4 0 12 0 0 11 0 0 35 0 83 122 75 154 194 141
123 164 108 138 175 121 136 165 119 27 52 13 13 29 2 0 6 0 0 8 0
18 26 15 16 26 17 36 46 37 44 54 43 0 4 0 0 6 0 7 20 3 3 16 0 2 15 0
88 100 78 103 115 95 8 20 0 0 4 0 0 4 0 158 165 157 232 237 231
254 255 255 245 245 247 249 249 251 255 255 255 252 251 255
255 254 255 246 244 249 254 253 255 246 246 248 251 253 252
250 255 251 219 226 219 40 48 37 0 5 0 0 6 0 60 84 52 146 192 127
107 167 79 102 171 65 125 200 82 107 187 62 115 200 71 100 181 60
107 188 70 110 187 75 112 186 73 113 186 69 113 186 68 112 187 68
110 188 69 108 188 75 109 186 82 128 195 102 109 174 82 113 181 78
109 181 69 112 188 66 103 179 57 118 190 82 109 176 79 124 183 103
66 114 52 0 27 0 0 18 0 4 9 13 14 10 24 6 0 7 190 180 188 255 252 255
240 240 240 211 211 211 223 223 223 228 228 228 255 255 255
255 255 255 255 255 255 237 237 237 216 216 216 216 216 216
217 217 217 255 255 255 255 255 255 255 255 255 237 237 237
213 213 213 222 222 222 218 218 218 247 247 247 255 255 255
254 254 254 246 246 246 215 215 215 215 215 215 220 220 220
252 252 252 255 255 255 255 255 255 252 252 252 220 220 220
215 215 215 217 217 217 255 255 255 255 255 255 255 255 255
252 252 252 216 216 216 210 210 210 211 211 211 241 241 241
255 255 255 255 255 255 255 255 255 215 215 215 216 216 216
218 218 218 240 240 240 255 255 255 248 248 248 255 255 255
221 221 221 217 217 217 216 216 216 234 234 234 255 255 255
255 255 255 255 255 255 224 224 224 220 220 220 220 220 220
224 224 224 255 255 255 255 255 255 255 255 255 218 218 218
220 220 220 221 221 221 233 233 233 255 255 255 255 255 255
245 245 245 227 227 227 219 219 219 229 229 229 227 227 227
255 255 255 215 215 215 221 221 221 211 211 211 238 238 238
255 255 255 254 254 254 254 254 254 229 229 229 216 216 216
226 226 226 228 228 228 255 255 255 251 251 251 255 255 255
229 229 229 219 217 218 223 217 221 236 227 232 255 253 255
251 251 253 254 255 255 225 229 230 222 226 227 214 215 217
213 211 212 255 249 251 255 251 255 255 253 255 235 230 236
182 179 186 0 0 7 3 3 11 15 8 15 8 3 7 8 13 9 0 6 0 0 12 0 33 76 30
107 162 95 130 194 110 115 185 87 112 183 77 116 183 78 125 187 90
122 173 94 87 129 65 24 61 10 0 14 0 0 23 0 0 21 0 0 20 0 0 16 0
0 19 0 0 32 0 18 55 4 34 72 15 103 142 79 145 181 117 151 185 124
90 121 64 11 39 0 0 11 0 3 23 0 34 48 31 159 165 161 215 216 220
255 254 255 251 250 255 245 241 255 254 250 255 255 251 255
250 246 255 247 246 254 214 218 219 121 133 123 9 28 8 0 21 0 0 26 0
56 94 47 129 178 113 117 180 89 112 185 78 110 187 73 110 187 71
109 188 69 108 189 68 109 188 69 109 188 71 108 187 72 111 188 72
114 191 75 115 193 74 113 191 72 107 186 69 101 180 65 101 172 76
81 135 73 69 118 63 134 191 114 115 179 82 120 191 73 107 183 59
125 202 90 112 184 82 112 179 82 112 170 86 0 31 0 0 23 0 4 13 18
0 0 14 6 0 2 44 36 34 255 254 253 225 225 225 217 217 217 221 221 221
241 241 241 255 255 255 251 251 251 253 253 253 234 234 234
219 219 219 223 223 223 222 222 222 254 254 254 253 253 253
255 255 255 242 242 242 212 212 212 221 221 221 217 217 217
246 246 246 255 255 255 253 253 253 245 245 245 214 214 214
214 214 214 219 219 219 251 251 251 255 255 255 255 255 255
251 251 251 219 219 219 214 214 214 217 217 217 255 255 255
255 255 255 255 255 255 252 252 252 216 216 216 211 211 211
211 211 211 240 240 240 255 255 255 255 255 255 254 254 254
214 214 214 215 215 215 217 217 217 239 239 239 255 255 255
248 248 248 255 255 255 224 224 224 213 213 213 209 209 209
232 232 232 255 255 255 255 255 255 255 255 255 223 223 223
219 219 219 219 219 219 223 223 223 255 255 255 255 255 255
255 255 255 218 218 218 225 225 225 223 223 223 229 229 229
255 255 255 255 255 255 249 249 249 228 228 228 220 220 220
229 229 229 227 227 227 254 254 254 232 232 232 238 238 238
234 234 234 237 237 237 236 236 236 233 233 233 242 242 242
241 241 241 233 233 233 235 235 235 232 232 232 241 241 241
240 240 240 244 244 244 236 236 236 234 232 233 241 230 236
243 232 238 248 243 247 240 240 242 238 242 245 228 233 236
231 235 236 231 232 234 236 232 233 233 227 229 255 252 255
255 246 251 177 172 178 17 16 22 6 9 16 0 1 6 0 0 0 5 8 1 0 11 0
8 33 4 58 97 52 112 167 102 127 195 108 113 192 85 111 196 75
99 188 60 96 181 54 107 185 66 125 193 90 130 190 102 120 172 98
107 153 89 78 121 65 60 103 50 39 83 30 36 80 27 52 100 42 82 132 69
110 163 91 127 182 101 128 182 96 115 168 78 123 173 86 139 186 106
112 153 83 44 82 23 0 30 0 0 16 0 0 12 0 32 42 34 81 87 83
128 132 133 166 167 172 180 178 189 160 158 169 132 132 140 76 80 83
6 16 8 0 10 0 0 20 0 0 37 0 56 101 44 118 171 103 99 161 78
112 185 80 109 188 71 109 188 71 109 188 71 109 188 71 109 188 71
109 188 71 109 188 71 108 187 70 110 189 72 112 191 74 113 192 75
111 190 73 107 186 69 103 182 65 105 172 79 0 21 0 0 28 0 68 116 56
106 164 79 111 179 66 103 179 55 119 196 84 113 188 83 110 181 75
121 185 89 54 102 26 0 14 0 0 11 13 4 3 19 6 0 0 24 17 11 183 182 180
247 247 247 227 227 227 236 236 236 239 239 239 247 247 247
235 235 235 234 234 234 235 235 235 235 235 235 241 241 241
236 236 236 240 240 240 235 235 235 241 241 241 241 241 241
229 229 229 237 237 237 236 236 236 242 242 242 240 240 240
233 233 233 237 237 237 232 232 232 232 232 232 232 232 232
242 242 242 241 241 241 241 241 241 242 242 242 232 232 232
232 232 232 235 235 235 243 243 243 235 235 235 239 239 239
245 245 245 236 236 236 233 233 233 229 229 229 242 242 242
242 242 242 236 236 236 238 238 238 231 231 231 236 236 236
234 234 234 238 238 238 239 239 239 235 235 235 244 244 244
232 232 232 233 233 233 233 233 233 238 238 238 246 246 246
242 242 242 243 243 243 232 232 232 233 233 233 233 233 233
232 232 232 243 243 243 242 242 242 237 237 237 232 232 232
243 243 243 241 241 241 234 234 234 238 238 238 237 237 237
237 237 237 224 224 224 222 222 222 229 229 229 231 231 231
246 246 246 252 252 252 255 255 255 255 255 255 237 237 237
214 214 214 214 214 214 228 228 228 254 254 254 252 252 252
245 245 245 240 240 240 226 226 226 228 228 228 228 228 228
244 244 244 252 250 251 255 248 254 252 241 247 232 227 231
228 228 230 223 227 228 236 242 242 241 245 246 250 251 253
249 244 248 224 218 222 239 230 235 218 212 216 24 22 25 0 1 5 0 1 5
3 12 11 2 14 4 0 9 0 20 47 14 77 115 66 121 172 105 139 203 117
126 201 100 96 179 65 109 197 75 101 191 67 96 184 61 100 183 65
111 187 79 120 188 89 121 185 91 120 178 91 130 185 101 124 179 96
117 174 95 118 175 98 122 180 104 123 184 106 118 182 98 113 178 88
108 172 76 122 184 87 127 187 91 128 185 91 133 185 102 124 172 96
76 121 54 25 64 9 0 13 0 0 16 0 8 26 0 12 27 6 1 14 0 0 4 0 0 3 0
6 16 5 0 11 0 0 17 0 15 41 6 61 97 49 99 143 82 130 182 110
122 181 101 104 171 78 112 185 77 109 188 71 109 188 71 109 188 71
109 188 71 109 188 71 109 188 71 109 188 71 109 188 71 110 189 72
111 190 73 112 191 74 111 190 73 108 187 70 104 183 66 108 175 80
0 19 0 0 26 0 46 90 37 132 186 110 117 184 78 104 177 59 106 183 71
107 183 75 115 188 83 125 189 92 121 173 91 0 25 0 0 13 3 3 6 15
11 7 8 5 0 0 72 71 69 249 249 249 236 236 236 252 252 252 241 241 241
230 230 230 227 227 227 222 222 222 237 237 237 254 254 254
255 255 255 252 252 252 224 224 224 217 217 217 222 222 222
239 239 239 250 250 250 253 253 253 255 255 255 236 236 236
214 214 214 214 214 214 228 228 228 254 254 254 253 253 253
248 248 248 231 231 231 226 226 226 226 226 226 231 231 231
248 248 248 253 253 253 255 255 255 225 225 225 215 215 215
217 217 217 235 235 235 255 255 255 255 255 255 250 250 250
243 243 243 223 223 223 213 213 213 219 219 219 250 250 250
255 255 255 254 254 254 236 236 236 219 219 219 222 222 222
216 216 216 242 242 242 255 255 255 255 255 255 244 244 244
224 224 224 222 222 222 226 226 226 244 244 244 248 248 248
248 248 248 244 244 244 226 226 226 222 222 222 217 217 217
248 248 248 255 255 255 255 255 255 241 241 241 216 216 216
217 217 217 225 225 225 247 247 247 249 249 249 244 244 244
243 243 243 229 229 229 255 255 255 255 255 255 255 255 255
237 237 237 211 211 211 215 215 215 223 223 223 255 255 255
255 255 255 250 250 250 248 248 248 222 222 222 226 226 226
220 220 220 247 247 247 255 254 255 255 252 255 254 243 249
223 218 222 227 227 229 219 223 224 244 250 250 246 250 251
254 255 255 252 247 251 208 202 206 229 220 225 83 77 81 1 0 0
22 26 25 10 19 16 2 18 8 0 14 0 10 44 7 76 119 66 127 178 109
123 185 99 111 183 81 108 188 73 98 183 62 101 191 68 104 193 73
109 196 79 112 196 82 113 193 80 111 187 78 108 182 71 108 177 68
118 186 75 124 190 82 126 193 88 121 189 88 112 182 86 108 177 84
109 180 84 111 185 86 114 186 84 112 185 78 111 180 73 110 177 72
116 181 81 125 186 91 125 183 96 123 176 96 107 153 81 68 107 42
21 57 0 0 29 0 0 23 0 0 21 0 0 18 0 0 15 0 44 69 29 85 114 68
101 136 80 130 172 106 129 182 102 127 186 96 96 162 64 104 175 69
110 187 75 109 188 71 109 188 71 109 188 71 109 188 71 109 188 71
109 188 71 109 188 71 110 189 72 110 189 72 110 189 72 110 189 72
109 188 71 108 187 70 107 186 69 112 179 82 5 45 0 0 28 0 10 49 4
125 176 110 111 175 78 108 180 68 106 183 71 115 191 83 121 194 89
113 179 81 139 193 105 42 82 19 0 15 0 0 3 2 6 6 6 1 0 0 14 14 14
219 219 219 249 249 249 255 255 255 246 246 246 214 214 214
220 220 220 210 210 210 240 240 240 255 255 255 255 255 255
255 255 255 218 218 218 217 217 217 216 216 216 236 236 236
255 255 255 255 255 255 255 255 255 233 233 233 208 208 208
215 215 215 226 226 226 255 255 255 255 255 255 255 255 255
225 225 225 222 222 222 222 222 222 225 225 225 255 255 255
255 255 255 255 255 255 217 217 217 216 216 216 214 214 214
229 229 229 255 255 255 255 255 255 255 255 255 244 244 244
216 216 216 209 209 209 211 211 211 255 255 255 255 255 255
255 255 255 236 236 236 213 213 213 222 222 222 205 205 205
248 248 248 255 255 255 255 255 255 244 244 244 216 216 216
214 214 214 218 218 218 249 249 249 253 253 253 253 253 253
249 249 249 218 218 218 214 214 214 211 211 211 255 255 255
255 255 255 255 255 255 245 245 245 210 210 210 213 213 213
222 222 222 247 247 247 255 255 255 245 245 245 248 248 248
220 220 220 253 253 253 245 245 245 255 255 255 238 238 238
227 227 227 234 234 234 229 229 229 247 247 247 250 250 250
246 246 246 252 252 252 231 231 231 235 235 235 223 223 223
243 243 243 249 247 248 255 246 251 250 241 246 227 223 224
235 235 235 227 231 230 247 253 251 242 246 247 250 250 252
244 239 245 241 234 241 132 126 130 5 1 2 9 9 7 4 11 4 13 25 15
0 17 0 0 26 0 67 121 63 120 178 104 114 179 89 106 179 72 106 185 66
106 188 64 112 198 73 106 194 74 107 194 79 107 194 81 104 191 78
104 189 72 106 190 69 115 197 71 121 202 71 112 190 55 113 190 58
112 189 61 106 184 62 100 179 64 103 183 72 111 193 83 121 203 93
126 209 95 106 189 73 101 180 63 111 189 70 115 189 74 107 179 67
114 183 74 131 199 90 125 187 78 137 194 89 139 194 93 130 179 87
122 166 81 127 168 90 142 178 106 152 188 118 111 148 78 135 176 100
126 171 88 129 183 89 118 179 75 121 189 76 111 182 62 132 208 86
110 188 69 109 188 71 109 188 71 109 188 71 109 188 71 109 188 71
109 188 71 109 188 71 110 189 72 110 189 72 109 188 71 108 187 70
108 187 70 109 188 71 110 189 72 117 183 85 38 78 18 0 20 0 0 14 0
102 146 93 112 170 83 117 186 79 109 186 74 113 189 80 115 188 83
105 173 72 122 179 84 103 147 72 0 20 0 0 8 0 4 10 10 0 0 4 15 15 17
155 155 155 251 251 251 255 255 255 247 247 247 211 211 211
222 222 222 208 208 208 240 240 240 251 251 251 244 244 244
250 250 250 226 226 226 232 232 232 225 225 225 236 236 236
250 250 250 242 242 242 252 252 252 234 234 234 225 225 225
234 234 234 232 232 232 252 252 252 252 252 252 253 253 253
229 229 229 230 230 230 230 230 230 229 229 229 253 253 253
252 252 252 253 253 253 222 222 222 234 234 234 231 231 231
229 229 229 254 254 254 253 253 253 251 251 251 243 243 243
225 225 225 224 224 224 219 219 219 249 249 249 247 247 247
251 251 251 236 236 236 223 223 223 235 235 235 215 215 215
246 246 246 244 244 244 247 247 247 240 240 240 223 223 223
223 223 223 222 222 222 246 246 246 245 245 245 245 245 245
246 246 246 222 222 222 223 223 223 220 220 220 250 250 250
238 238 238 241 241 241 244 244 244 222 222 222 226 226 226
230 230 230 254 254 254 255 255 255 249 249 249 249 249 249
219 219 219 237 237 237 230 230 230 236 236 236 238 238 238
247 247 247 252 252 252 239 239 239 235 235 235 235 235 235
238 238 238 247 247 247 243 243 243 245 245 245 236 236 236
237 237 237 235 233 234 241 232 237 243 234 239 239 235 236
246 246 246 240 244 243 243 249 247 236 237 239 234 234 236
242 237 243 248 241 248 5 0 3 9 7 8 0 1 0 15 25 14 0 7 0 0 16 0
63 118 60 107 175 98 126 196 107 109 181 79 104 181 65 111 191 68
110 190 65 107 188 67 105 188 72 104 186 76 101 183 75 97 181 70
95 180 63 98 184 59 103 190 57 109 196 57 118 201 59 117 198 57
116 198 62 119 202 70 119 203 79 113 198 77 98 186 66 87 175 55
100 188 66 113 201 78 116 202 77 103 188 61 100 180 55 107 186 61
109 187 65 104 180 56 106 180 55 120 190 66 127 194 78 127 189 80
127 183 84 130 181 89 131 176 93 128 171 91 135 179 100 133 181 97
128 181 91 129 186 89 110 176 68 111 181 65 109 183 62 108 186 64
109 188 69 109 188 71 109 188 71 109 188 71 109 188 71 109 188 71
109 188 71 109 188 71 111 190 73 109 188 71 108 187 70 106 185 68
107 186 69 109 188 71 112 191 74 121 187 89 83 122 59 5 31 0 0 18 0
91 132 90 127 182 101 125 192 89 110 184 73 97 174 62 105 181 73
108 176 73 109 172 68 131 181 96 13 47 0 2 21 1 5 15 14 0 0 7 6 7 9
63 63 63 218 218 218 243 243 243 245 245 245 234 234 234 249 249 249
240 240 240 239 239 239 236 236 236 228 228 228 237 237 237
239 239 239 248 248 248 240 240 240 237 237 237 234 234 234
228 228 228 234 234 234 238 238 238 247 247 247 252 252 252
239 239 239 234 234 234 235 235 235 241 241 241 238 238 238
243 243 243 243 243 243 238 238 238 241 241 241 235 235 235
236 236 236 236 236 236 253 253 253 250 250 250 237 237 237
235 235 235 233 233 233 235 235 235 241 241 241 241 241 241
244 244 244 234 234 234 234 234 234 228 228 228 236 236 236
238 238 238 242 242 242 247 247 247 234 234 234 237 237 237
227 227 227 229 229 229 236 236 236 239 239 239 240 240 240
235 235 235 238 238 238 232 232 232 232 232 232 238 238 238
235 235 235 240 240 240 238 238 238 238 238 238 222 222 222
226 226 226 240 240 240 241 241 241 244 244 244 241 241 241
223 223 223 230 230 230 230 230 230 238 238 238 234 234 234
223 223 223 223 223 223 219 219 219 238 238 238 255 255 255
255 255 255 248 248 248 229 229 229 222 222 222 230 230 230
237 237 237 252 252 252 250 250 250 249 249 249 231 231 231
224 222 223 227 221 225 236 230 234 250 248 249 249 251 248
249 254 250 232 238 236 228 229 231 221 221 223 244 239 245
124 117 124 3 0 2 1 0 0 5 13 2 2 17 0 0 15 0 34 73 26 128 192 118
113 192 100 115 191 91 114 192 83 109 186 72 109 184 66 110 185 67
107 181 68 100 173 66 102 175 70 105 180 77 110 188 79 114 194 79
113 197 75 110 197 66 109 195 60 111 193 57 108 188 53 104 185 54
106 189 59 111 196 69 113 199 74 107 195 72 102 190 67 93 184 57
101 190 62 109 196 66 108 193 64 101 183 55 99 180 52 109 188 63
121 200 75 110 190 67 101 179 60 104 176 66 118 184 84 128 188 98
124 179 98 119 169 96 119 166 98 110 155 90 78 125 57 108 160 86
126 183 104 111 173 87 119 189 93 135 207 107 92 168 60 109 188 73
109 188 71 109 188 71 109 188 71 109 188 71 109 188 71 109 188 71
109 188 71 111 190 73 109 188 71 107 186 69 105 184 67 106 185 68
110 189 72 114 193 76 125 190 90 92 129 62 0 15 0 0 20 0 62 99 65
123 177 102 120 186 86 116 190 79 103 180 66 112 188 80 110 181 75
115 181 71 128 183 89 65 105 43 5 30 0 0 11 8 2 9 17 0 0 4 0 0 0
180 180 180 233 233 233 233 233 233 255 255 255 255 255 255
255 255 255 237 237 237 224 224 224 222 222 222 226 226 226
250 250 250 254 254 254 252 252 252 239 239 239 220 220 220
222 222 222 222 222 222 243 243 243 255 255 255 255 255 255
243 243 243 220 220 220 221 221 221 227 227 227 246 246 246
252 252 252 252 252 252 246 246 246 227 227 227 221 221 221
222 222 222 249 249 249 255 255 255 255 255 255 246 246 246
222 222 222 218 218 218 220 220 220 240 240 240 253 253 253
255 255 255 247 247 247 221 221 221 217 217 217 223 223 223
240 240 240 255 255 255 250 250 250 249 249 249 226 226 226
221 221 221 222 222 222 235 235 235 251 251 251 255 255 255
249 249 249 230 230 230 224 224 224 224 224 224 230 230 230
249 249 249 255 255 255 252 252 252 227 227 227 221 221 221
222 222 222 234 234 234 254 254 254 254 254 254 248 248 248
230 230 230 227 227 227 232 232 232 232 232 232 245 245 245
217 217 217 222 222 222 212 212 212 238 238 238 255 255 255
253 253 253 253 253 253 227 227 227 216 216 216 226 226 226
228 228 228 255 255 255 251 251 251 255 255 255 229 229 229
219 217 218 223 217 221 234 228 230 255 255 253 250 252 249
252 255 253 225 230 226 224 225 227 215 214 219 225 220 227 4 0 5
28 23 27 33 34 29 0 5 0 0 8 0 10 38 0 131 176 117 106 176 88
119 202 98 108 187 80 96 172 64 115 186 80 118 187 81 113 180 75
132 197 95 120 185 85 117 182 82 113 181 80 112 183 77 112 189 77
109 190 72 101 185 63 97 179 55 100 175 56 107 180 62 111 186 67
108 186 66 105 185 64 106 188 64 111 195 71 118 204 77 105 192 62
103 190 60 103 188 59 104 189 60 110 191 63 111 191 66 113 192 67
113 191 71 123 204 86 98 178 65 94 169 66 111 181 85 101 163 80
51 107 34 4 55 0 0 34 0 0 32 0 0 33 0 0 30 0 0 55 0 100 160 86
122 187 107 116 186 98 116 190 93 109 187 77 109 188 71 109 188 71
109 188 71 109 188 71 109 188 71 109 188 71 109 188 71 112 191 74
109 188 71 106 185 68 104 183 66 106 185 68 110 189 72 115 194 77
126 191 91 111 146 78 0 20 0 7 32 13 43 78 48 114 165 96 110 174 77
120 194 83 114 191 75 127 203 94 107 180 72 124 193 77 119 177 75
115 158 89 0 29 0 0 6 0 14 23 30 0 1 4 0 0 0 167 167 167 234 234 234
216 216 216 255 255 255 250 250 250 249 249 249 235 235 235
220 220 220 223 223 223 222 222 222 254 254 254 253 253 253
255 255 255 241 241 241 213 213 213 222 222 222 217 217 217
246 246 246 255 255 255 252 252 252 244 244 244 213 213 213
214 214 214 219 219 219 251 251 251 255 255 255 255 255 255
251 251 251 219 219 219 214 214 214 215 215 215 255 255 255
255 255 255 255 255 255 252 252 252 217 217 217 212 212 212
213 213 213 239 239 239 255 255 255 255 255 255 254 254 254
214 214 214 215 215 215 218 218 218 241 241 241 255 255 255
247 247 247 255 255 255 219 219 219 222 222 222 224 224 224
237 237 237 255 255 255 255 255 255 255 255 255 225 225 225
221 221 221 221 221 221 225 225 225 255 255 255 255 255 255
255 255 255 221 221 221 227 227 227 225 225 225 231 231 231
255 255 255 255 255 255 250 250 250 235 235 235 226 226 226
233 233 233 228 228 228 252 252 252 233 233 233 227 227 227
245 245 245 239 239 239 241 241 241 251 251 251 238 238 238
247 247 247 228 228 228 234 234 234 243 243 243 250 250 250
250 250 250 244 244 244 235 235 235 230 228 229 222 217 221
238 234 235 241 240 238 254 255 251 232 237 231 232 237 233
221 222 224 233 231 236 150 144 154 3 0 5 3 1 4 26 29 22 8 21 1
0 11 0 90 124 74 120 170 99 108 183 82 112 194 83 111 188 82
118 188 89 92 157 65 11 71 0 1 57 0 84 138 50 119 172 82 130 185 91
119 179 79 122 187 83 119 188 81 105 178 70 112 190 80 115 190 85
121 186 94 83 143 53 137 203 106 118 186 83 108 182 71 109 187 68
109 189 66 110 192 66 108 190 62 108 190 62 109 189 64 109 189 66
112 187 68 112 187 69 113 186 71 112 186 73 96 176 63 97 179 69
106 182 82 129 198 107 73 134 56 0 33 0 0 31 0 26 73 19 27 71 22
0 27 0 0 24 0 0 34 0 0 37 0 92 154 81 133 200 121 93 163 74
110 186 78 109 188 71 109 188 71 109 188 71 109 188 71 109 188 71
109 188 71 109 188 71 110 189 72 110 189 72 110 189 72 110 189 72
110 189 72 110 189 72 110 189 72 118 183 83 140 172 105 0 18 0 0 22 4
33 68 38 115 167 95 122 187 87 115 189 76 108 187 70 100 178 68
112 186 75 138 207 90 108 166 63 115 161 89 20 52 11 0 7 0 6 17 21
5 9 10 8 8 8 73 73 73 235 235 235 228 228 228 255 255 255 234 234 234
239 239 239 229 229 229 231 231 231 234 234 234 237 237 237
239 239 239 242 242 242 245 245 245 247 247 247 229 229 229
231 231 231 238 238 238 248 248 248 255 255 255 251 251 251
236 236 236 223 223 223 229 229 229 236 236 236 244 244 244
251 251 251 251 251 251 244 244 244 236 236 236 229 229 229
230 230 230 224 224 224 255 255 255 255 255 255 240 240 240
242 242 242 230 230 230 227 227 227 241 241 241 248 248 248
240 240 240 244 244 244 223 223 223 230 230 230 226 226 226
237 237 237 250 250 250 247 247 247 238 238 238 226 226 226
219 219 219 225 225 225 243 243 243 255 255 255 247 247 247
240 240 240 232 232 232 225 225 225 225 225 225 232 232 232
240 240 240 247 247 247 231 231 231 249 249 249 226 226 226
231 231 231 243 243 243 235 235 235 247 247 247 253 253 253
238 238 238 233 233 233 230 230 230 235 235 235 244 244 244
245 245 245 244 244 244 255 255 255 239 239 239 226 226 226
230 230 230 228 228 228 248 248 248 253 253 253 250 250 250
242 242 242 229 229 229 219 219 219 223 223 223 239 239 239
255 253 254 247 242 246 246 242 243 227 226 224 231 233 228
222 227 221 243 248 244 243 244 246 248 245 252 74 68 80 3 0 7 4 2 5
16 21 14 0 14 0 17 46 2 118 158 98 119 174 93 111 184 77 92 172 57
121 196 93 112 179 86 31 90 8 0 48 0 5 56 0 0 41 0 102 150 64
127 178 83 128 184 83 124 185 81 113 178 74 111 182 80 116 190 91
94 163 74 23 81 7 18 71 1 67 124 47 130 193 104 118 184 84 110 182 72
106 181 62 107 186 61 110 189 64 110 189 64 110 188 68 112 187 69
113 185 73 113 185 75 115 184 77 113 185 77 119 199 86 103 185 74
102 179 75 115 185 89 118 180 97 96 152 79 94 144 81 129 177 119
93 137 84 0 43 0 67 115 57 71 123 59 0 40 0 58 120 43 124 189 107
102 173 79 110 186 77 109 188 71 109 188 71 109 188 71 109 188 71
109 188 71 109 188 71 109 188 71 110 189 72 110 189 72 110 189 72
110 189 72 110 189 72 110 189 72 110 189 72 118 183 83 136 168 103
0 16 0 2 26 4 40 75 42 121 173 99 115 180 78 111 185 70 108 187 68
104 182 70 102 179 67 122 193 75 117 178 75 135 180 111 75 107 66
0 19 3 2 14 12 0 4 5 9 9 9 47 47 47 228 228 228 245 245 245
244 244 244 221 221 221 223 223 223 238 238 238 246 246 246
252 252 252 245 245 245 231 231 231 224 224 224 230 230 230
238 238 238 245 245 245 246 246 246 245 245 245 239 239 239
232 232 232 230 230 230 235 235 235 241 241 241 252 252 252
253 253 253 227 227 227 228 228 228 228 228 228 227 227 227
253 253 253 252 252 252 247 247 247 225 225 225 237 237 237
234 234 234 232 232 232 249 249 249 245 245 245 243 243 243
242 242 242 226 226 226 224 224 224 221 221 221 246 246 246
246 246 246 249 249 249 236 236 236 221 221 221 224 224 224
231 231 231 241 241 241 249 249 249 247 247 247 236 236 236
227 227 227 224 224 224 223 223 223 249 249 249 248 248 248
248 248 248 249 249 249 223 223 223 224 224 224 220 220 220
250 250 250 246 246 246 249 249 249 244 244 244 221 221 221
224 224 224 229 229 229 252 252 252 254 254 254 253 253 253
245 245 245 233 233 233 255 255 255 255 255 255 255 255 255
240 240 240 214 214 214 212 212 212 222 222 222 248 248 248
252 252 252 253 253 253 247 247 247 231 231 231 216 216 216
217 217 217 235 235 235 255 253 254 255 253 255 252 250 253
217 217 215 206 208 203 214 219 212 252 255 251 254 255 255
253 250 255 8 2 14 1 0 9 2 1 6 15 23 12 0 13 0 67 99 49 132 175 106
121 177 88 108 182 71 106 185 70 133 205 105 120 184 97 38 96 20
0 32 0 0 32 0 0 43 0 124 169 84 134 184 89 127 182 80 117 179 72
110 175 73 124 192 93 110 181 89 35 102 22 0 47 0 0 33 0 0 38 0
116 173 94 115 179 85 119 186 81 111 184 69 109 185 63 112 188 66
112 187 68 112 186 71 112 186 73 113 185 77 113 184 78 115 183 80
113 185 77 123 203 82 105 187 63 109 186 70 106 178 70 125 189 93
136 191 107 118 169 92 137 184 112 83 128 59 0 32 0 82 133 58
107 162 81 82 142 54 117 183 86 114 182 81 118 191 83 110 187 73
109 188 71 109 188 71 109 188 71 109 188 71 109 188 71 109 188 71
109 188 71 110 189 72 110 189 72 110 189 72 110 189 72 110 189 72
110 189 72 110 189 72 118 182 85 132 166 106 0 13 0 1 27 0 45 82 41
129 182 102 107 174 68 107 184 68 106 187 67 112 192 77 102 179 65
112 182 66 121 181 83 125 170 105 86 118 79 0 16 0 1 14 5 0 1 0
10 10 10 14 14 14 202 202 202 255 255 255 226 226 226 211 211 211
212 212 212 245 245 245 255 255 255 255 255 255 252 252 252
224 224 224 209 209 209 217 217 217 231 231 231 255 255 255
255 255 255 251 251 251 229 229 229 210 210 210 211 211 211
234 234 234 255 255 255 250 250 250 255 255 255 222 222 222
229 229 229 229 229 229 222 222 222 255 255 255 250 250 250
255 255 255 227 227 227 216 216 216 212 212 212 225 225 225
253 253 253 255 255 255 255 255 255 241 241 241 207 207 207
211 211 211 202 202 202 255 255 255 255 255 255 255 255 255
237 237 237 218 218 218 214 214 214 216 216 216 234 234 234
254 254 254 255 255 255 240 240 240 221 221 221 226 226 226
220 220 220 253 253 253 247 247 247 247 247 247 253 253 253
220 220 220 226 226 226 213 213 213 250 250 250 255 255 255
255 255 255 244 244 244 211 211 211 206 206 206 210 210 210
240 240 240 251 251 251 255 255 255 248 248 248 229 229 229
248 248 248 253 253 253 255 255 255 240 240 240 221 221 221
217 217 217 228 228 228 245 245 245 255 255 255 250 250 250
237 237 237 221 221 221 214 214 214 221 221 221 241 241 241
255 255 255 254 252 255 251 249 252 226 226 224 209 212 205
220 225 218 252 255 251 254 254 255 230 229 235 3 0 11 1 0 9 0 0 4
18 29 15 0 19 0 103 141 84 118 167 88 124 183 89 108 182 71
128 205 93 120 192 92 108 174 84 83 141 64 6 60 0 0 33 0 45 97 15
136 186 97 131 185 87 124 182 79 119 182 75 107 174 69 122 192 93
108 182 87 26 93 13 0 51 0 0 35 0 0 24 0 102 159 82 111 175 81
122 191 85 116 189 74 114 189 71 110 188 69 110 187 71 110 187 75
110 186 77 112 185 78 112 185 78 113 184 78 112 186 75 98 178 57
98 178 55 120 194 79 118 187 80 115 177 80 129 185 98 129 180 101
131 179 105 25 71 0 0 42 0 101 154 72 115 174 84 128 192 95
130 199 93 95 167 57 116 190 75 110 187 71 109 188 71 109 188 71
109 188 71 109 188 71 109 188 71 109 188 71 109 188 71 110 189 72
110 189 72 110 189 72 110 189 72 110 189 72 110 189 72 110 189 72
118 182 86 131 166 110 0 11 0 0 19 0 46 86 34 131 187 98 109 177 66
109 187 68 105 186 66 118 199 81 112 189 73 116 186 72 122 179 85
81 124 68 24 55 21 0 9 0 5 19 4 0 2 0 9 9 9 0 0 0 151 151 151
255 255 255 231 231 231 216 216 216 220 220 220 244 244 244
255 255 255 255 255 255 248 248 248 228 228 228 216 216 216
221 221 221 232 232 232 254 254 254 255 255 255 248 248 248
230 230 230 214 214 214 215 215 215 235 235 235 255 255 255
255 255 255 252 252 252 225 225 225 221 221 221 221 221 221
225 225 225 252 252 252 255 255 255 255 255 255 233 233 233
217 217 217 215 215 215 228 228 228 248 248 248 254 254 254
253 253 253 239 239 239 213 213 213 220 220 220 209 209 209
255 255 255 251 251 251 255 255 255 240 240 240 215 215 215
216 216 216 225 225 225 245 245 245 255 255 255 255 255 255
237 237 237 216 216 216 219 219 219 223 223 223 250 250 250
255 255 255 255 255 255 250 250 250 223 223 223 219 219 219
221 221 221 244 244 244 255 255 255 255 255 255 240 240 240
220 220 220 216 216 216 219 219 219 244 244 244 253 253 253
255 255 255 248 248 248 229 229 229 230 230 230 234 234 234
234 234 234 240 240 240 242 242 242 241 241 241 242 242 242
238 238 238 238 238 238 232 232 232 229 229 229 232 232 232
240 240 240 244 244 244 241 241 241 237 237 237 226 224 229
243 241 244 247 248 243 233 236 229 236 241 234 243 248 242
229 229 231 194 193 199 15 9 23 1 0 11 2 3 7 12 23 9 0 23 0
129 169 106 112 164 79 130 195 95 106 179 72 107 185 76 103 178 75
106 176 78 118 185 92 115 178 89 109 169 79 117 176 84 114 176 79
112 177 75 121 188 82 124 196 88 98 174 65 103 180 74 118 199 94
81 156 63 0 31 0 0 46 0 29 85 10 110 172 86 115 181 83 114 186 78
103 180 66 105 184 67 108 188 73 106 189 75 106 188 77 106 188 77
108 188 77 109 187 75 109 188 73 109 188 71 99 177 65 109 187 77
118 190 88 115 182 87 104 163 79 132 186 110 148 198 127 98 144 79
0 41 0 20 70 0 131 185 107 123 183 97 95 160 66 100 171 69 113 186 78
110 187 73 109 188 71 109 188 71 109 188 71 109 188 71 109 188 71
109 188 71 109 188 71 109 188 71 110 189 72 110 189 72 110 189 72
110 189 72 110 189 72 110 189 72 110 189 72 117 182 88 116 153 102
0 13 0 0 14 0 49 95 30 127 187 89 117 188 70 113 191 72 104 185 65
112 193 73 115 192 76 122 190 81 128 183 99 57 96 49 0 12 0 9 29 2
10 23 3 0 2 0 7 7 7 0 0 0 88 88 88 240 240 240 250 250 250
234 234 234 243 243 243 237 237 237 237 237 237 237 237 237
237 237 237 239 239 239 239 239 239 239 239 239 239 239 239
235 235 235 236 236 236 238 238 238 239 239 239 239 239 239
238 238 238 238 238 238 238 238 238 240 240 240 233 233 233
242 242 242 235 235 235 235 235 235 242 242 242 233 233 233
240 240 240 238 238 238 241 241 241 237 237 237 239 239 239
241 241 241 237 237 237 236 236 236 234 234 234 237 237 237
240 240 240 242 242 242 236 236 236 232 232 232 230 230 230
237 237 237 243 243 243 239 239 239 239 239 239 240 240 240
241 241 241 242 242 242 241 241 241 239 239 239 237 237 237
234 234 234 242 242 242 232 232 232 240 240 240 240 240 240
232 232 232 242 242 242 234 234 234 240 240 240 235 235 235
236 236 236 235 235 235 236 236 236 242 242 242 245 245 245
247 247 247 234 234 234 235 235 235 237 237 237 237 237 237
238 238 238 218 218 218 220 220 220 218 218 218 241 241 241
255 255 255 255 255 255 251 251 251 228 228 228 211 211 211
216 216 216 231 231 231 254 254 254 255 255 255 255 255 255
234 234 234 209 209 209 211 209 214 234 234 236 254 255 251
252 255 248 250 255 246 233 236 229 211 211 211 179 176 185 14 7 23
1 0 11 9 10 14 0 10 0 0 19 0 130 172 106 125 180 89 134 201 96
117 192 87 101 180 73 109 186 80 106 182 74 96 169 62 123 194 88
135 206 100 98 169 63 118 189 83 108 181 74 107 183 75 120 200 89
102 184 73 95 179 65 114 203 87 106 188 80 128 194 107 120 179 99
124 187 98 117 185 86 106 179 71 110 187 73 105 186 68 113 198 81
103 190 75 102 190 77 103 189 78 103 190 77 103 190 75 105 190 69
105 191 66 106 190 68 112 192 79 125 200 97 113 185 86 108 174 84
112 171 89 136 190 115 113 163 94 4 53 0 0 32 0 73 125 53 130 187 108
109 172 83 113 181 82 116 192 84 115 194 79 114 195 77 109 188 71
109 188 71 109 188 71 109 188 71 109 188 71 109 188 71 109 188 71
109 188 71 110 189 72 110 189 72 110 189 72 110 189 72 110 189 72
110 189 72 110 189 72 117 182 88 78 116 69 0 16 0 0 22 0 69 120 45
121 184 77 123 197 74 113 193 72 103 184 64 104 185 64 109 186 70
119 186 81 134 187 109 50 86 48 0 21 0 65 84 54 9 22 0 4 7 0 5 5 5
4 4 4 37 37 37 216 216 216 255 255 255 251 251 251 255 255 255
231 231 231 221 221 221 217 217 217 228 228 228 248 248 248
255 255 255 255 255 255 245 245 245 219 219 219 221 221 221
230 230 230 247 247 247 255 255 255 255 255 255 241 241 241
224 224 224 216 216 216 216 216 216 255 255 255 255 255 255
255 255 255 255 255 255 216 216 216 216 216 216 221 221 221
249 249 249 254 254 254 255 255 255 251 251 251 227 227 227
220 220 220 219 219 219 239 239 239 255 255 255 255 255 255
255 255 255 212 212 212 215 215 215 216 216 216 242 242 242
255 255 255 255 255 255 246 246 246 226 226 226 213 213 213
219 219 219 243 243 243 255 255 255 255 255 255 255 255 255
216 216 216 216 216 216 216 216 216 216 216 216 255 255 255
255 255 255 255 255 255 225 225 225 219 219 219 218 218 218
231 231 231 255 255 255 255 255 255 255 255 255 219 219 219
214 214 214 215 215 215 228 228 228 247 247 247 219 219 219
222 222 222 215 215 215 242 242 242 255 255 255 255 255 255
249 249 249 220 220 220 221 221 221 224 224 224 232 232 232
246 246 246 255 255 255 251 251 251 234 234 234 219 219 219
222 220 225 231 231 233 254 255 251 248 253 246 252 255 248
229 232 225 215 215 215 192 189 198 6 0 15 1 0 12 14 18 21 0 10 0
0 16 0 93 136 65 131 188 93 125 194 88 109 187 85 110 193 89
117 199 88 112 195 77 106 188 64 114 196 70 120 202 78 110 191 71
124 204 89 108 190 79 92 175 67 105 193 81 107 198 81 95 189 65
102 199 68 96 186 62 121 194 87 113 181 80 115 186 80 112 189 75
115 196 76 120 204 82 98 186 64 93 182 64 99 192 78 98 192 80
99 191 80 99 192 77 99 193 71 101 194 64 101 195 57 103 193 61
109 190 72 119 194 89 112 184 84 115 182 87 131 193 107 120 177 98
55 107 33 0 31 0 28 79 4 131 186 105 136 196 108 109 177 78
129 202 94 121 200 81 84 169 42 111 196 69 108 189 69 109 188 71
109 188 71 109 188 71 109 188 71 109 188 71 109 188 71 109 188 71
110 189 72 110 189 72 110 189 72 110 189 72 110 189 72 110 189 72
110 189 72 117 182 90 24 61 18 0 18 0 4 43 0 103 155 72 116 181 65
127 202 75 109 189 68 101 185 64 109 191 67 108 185 69 112 178 78
120 172 100 17 52 22 42 67 48 116 136 101 5 19 0 6 9 0 2 2 2 5 5 5
10 10 10 200 200 200 254 254 254 255 255 255 255 255 255 231 231 231
219 219 219 213 213 213 226 226 226 250 250 250 255 255 255
255 255 255 245 245 245 216 216 216 218 218 218 229 229 229
247 247 247 255 255 255 255 255 255 241 241 241 223 223 223
224 224 224 223 223 223 249 249 249 249 249 249 249 249 249
249 249 249 223 223 223 224 224 224 218 218 218 253 253 253
254 254 254 255 255 255 254 254 254 224 224 224 218 218 218
216 216 216 244 244 244 255 255 255 255 255 255 255 255 255
212 212 212 219 219 219 214 214 214 237 237 237 253 253 253
255 255 255 250 250 250 236 236 236 221 221 221 220 220 220
233 233 233 248 248 248 250 250 250 251 251 251 225 225 225
226 226 226 226 226 226 225 225 225 251 251 251 250 250 250
255 255 255 220 220 220 218 218 218 217 217 217 230 230 230
255 255 255 255 255 255 251 251 251 235 235 235 227 227 227
222 222 222 230 230 230 244 244 244 226 226 226 231 231 231
220 220 220 244 244 244 255 255 255 249 249 249 243 243 243
214 214 214 215 215 215 227 227 227 244 244 244 255 255 255
255 255 255 243 243 243 226 226 226 213 213 215 241 239 244
233 231 234 245 245 245 239 241 236 254 255 250 230 232 227
226 226 228 213 210 217 4 1 12 0 0 9 17 21 22 7 21 6 0 15 0 50 88 31
127 175 99 117 177 87 96 170 73 112 193 90 106 188 77 96 180 59
112 197 70 119 204 75 102 188 61 92 181 55 92 181 61 97 188 71
86 179 64 99 192 77 106 200 78 96 191 63 107 200 67 110 200 68
103 181 61 107 180 65 99 174 55 106 186 63 99 181 57 107 191 67
98 183 62 105 194 76 101 191 78 101 190 80 101 190 80 101 191 77
101 192 71 102 193 64 102 194 59 105 191 64 116 191 86 117 184 89
114 179 89 111 173 87 115 174 90 60 117 36 0 40 0 0 48 0 104 159 75
118 177 87 114 178 81 113 184 78 102 179 63 126 208 84 108 193 64
104 189 60 108 190 66 109 188 69 109 188 71 108 188 73 108 189 71
106 190 69 106 190 69 106 190 69 109 189 74 109 189 74 110 189 74
111 188 74 113 187 72 114 186 74 116 185 76 121 179 95 0 20 0 0 20 0
22 63 7 130 184 98 112 179 63 126 201 72 105 184 59 104 185 64
120 199 80 116 189 81 108 171 80 97 148 81 0 14 0 67 93 68
137 160 118 2 18 0 6 12 0 0 0 0 2 2 2 1 1 1 194 194 194 240 240 240
255 255 255 251 251 251 234 234 234 223 223 223 218 218 218
228 228 228 248 248 248 255 255 255 253 253 253 242 242 242
220 220 220 222 222 222 231 231 231 245 245 245 255 255 255
254 254 254 241 241 241 228 228 228 215 215 215 226 226 226
245 245 245 255 255 255 255 255 255 245 245 245 226 226 226
215 215 215 223 223 223 254 254 254 246 246 246 253 253 253
253 253 253 225 225 225 222 222 222 220 220 220 249 249 249
255 255 255 245 245 245 249 249 249 222 222 222 229 229 229
222 222 222 233 233 233 255 255 255 250 252 249 240 240 240
224 226 225 215 215 215 217 219 218 234 234 234 247 249 248
255 255 255 246 248 247 229 229 229 217 219 218 218 218 218
228 230 227 247 247 247 255 255 255 252 252 252 218 218 218
226 226 226 224 224 224 229 229 229 253 253 253 243 243 243
233 233 233 229 229 229 225 225 225 224 224 224 231 231 231
243 243 243 251 251 251 248 248 248 255 255 255 228 228 228
205 205 205 212 212 212 221 221 221 254 254 254 249 249 249
242 242 242 245 245 245 222 222 222 226 226 226 216 216 216
239 239 239 247 245 248 250 245 252 244 237 245 220 215 221
229 224 228 222 220 223 246 244 245 242 242 244 248 248 250 57 58 60
0 1 2 21 30 25 0 5 0 0 12 0 0 23 0 122 147 115 148 188 135 110 174 87
117 192 87 113 189 81 109 186 74 115 194 79 109 190 72 103 188 69
116 208 84 97 193 70 95 193 70 96 195 69 99 195 70 104 194 70
107 193 66 112 193 65 115 192 64 115 191 65 115 191 65 114 190 64
112 191 66 111 189 67 111 189 69 109 188 71 109 188 73 107 187 76
109 188 79 112 191 82 117 197 86 121 201 86 121 200 83 113 192 73
107 180 73 130 187 108 111 162 95 113 162 96 108 160 88 45 97 23
0 30 0 6 61 0 91 147 58 121 180 86 118 183 81 116 185 79 114 186 76
111 188 72 110 190 69 109 190 69 109 191 67 105 186 58 107 187 64
109 189 74 107 190 76 102 190 68 99 190 63 98 189 60 98 189 62
103 190 75 105 187 77 103 179 70 110 179 70 116 180 70 119 178 72
131 182 89 53 98 29 0 16 0 0 26 0 61 106 51 109 164 80 118 182 70
116 186 61 104 179 52 119 195 73 131 203 95 104 171 76 122 180 104
47 97 36 0 26 0 119 155 109 137 167 113 1 24 0 20 28 13 6 8 7
16 18 17 4 6 5 149 151 150 224 226 225 210 210 210 229 229 229
230 230 230 253 253 253 255 254 255 255 254 255 220 218 219
221 219 220 224 222 223 247 245 246 253 253 253 250 250 250
242 242 242 228 228 228 217 217 217 219 219 219 232 232 232
244 244 244 252 252 252 253 253 253 224 224 224 224 224 224
224 224 224 224 224 224 253 253 253 252 252 252 241 241 241
220 220 220 222 222 222 213 213 213 225 225 225 250 250 250
247 247 247 255 255 255 244 244 244 220 220 220 217 217 217
215 215 215 255 255 255 255 255 255 255 255 255 238 238 238
214 216 213 221 226 220 223 225 222 248 253 249 246 248 245
251 255 252 228 230 227 216 221 217 223 225 222 217 222 218
244 246 243 239 244 240 241 243 240 242 247 241 219 221 218
223 225 222 217 217 217 246 246 246 252 252 252 255 255 255
241 241 241 212 212 212 218 218 218 210 210 210 245 245 245
250 250 250 252 252 252 245 245 245 235 235 235 246 246 246
249 249 249 255 255 255 235 235 235 210 210 210 216 216 216
229 229 229 255 255 255 255 255 255 254 254 254 248 248 248
226 226 226 218 218 218 216 216 216 240 240 240 255 254 255
255 252 255 247 237 248 221 214 222 222 215 223 229 224 230
249 247 252 253 253 255 254 255 255 178 182 181 0 2 0 3 13 5 4 15 7
7 19 9 0 5 0 51 65 52 108 138 104 129 186 109 135 203 104 121 189 90
106 174 73 117 185 84 121 194 89 108 187 78 98 185 72 94 187 70
94 189 69 94 190 67 98 190 66 103 188 67 108 188 67 115 186 68
116 186 64 108 180 54 106 181 54 107 181 56 107 181 58 108 181 64
109 182 67 109 181 71 109 180 74 119 190 86 118 189 85 111 182 78
102 173 69 99 170 66 105 176 70 113 184 78 119 184 90 127 178 112
134 179 124 81 126 67 0 41 0 0 24 0 36 90 12 104 162 75 128 189 94
118 183 81 116 185 78 114 186 76 111 188 72 111 189 70 110 189 70
109 190 70 109 190 69 111 192 64 104 184 59 95 178 62 97 181 67
103 193 69 111 204 72 114 208 72 114 207 75 112 199 84 119 201 93
101 173 71 110 176 76 138 194 95 121 170 79 102 142 71 0 26 0 0 26 0
2 44 6 96 146 83 149 204 120 116 178 71 110 178 59 132 200 79
128 197 81 97 161 64 119 181 98 99 154 87 0 39 0 62 107 50
127 171 110 138 179 113 20 50 0 0 6 0 0 1 0 2 4 3 0 1 0 125 127 126
226 228 227 210 210 210 224 224 224 238 238 238 255 255 255
255 254 255 254 252 253 224 222 223 216 214 215 223 219 220
239 237 238 252 250 251 255 255 255 252 252 252 239 239 239
224 224 224 221 221 221 232 232 232 244 244 244 254 254 254
255 255 255 220 220 220 222 222 222 222 222 222 220 220 220
255 255 255 254 254 254 244 244 244 223 223 223 224 224 224
220 220 220 236 236 236 255 255 255 250 250 250 255 255 255
248 248 248 222 222 222 223 223 223 214 214 214 255 255 255
250 250 250 255 255 255 234 234 234 222 224 221 220 225 219
220 225 219 239 244 238 247 252 248 252 255 253 235 240 236
222 227 223 218 223 219 215 220 216 249 254 250 246 251 247
246 251 245 249 254 248 215 220 214 220 222 219 218 218 218
246 246 246 253 253 253 255 255 255 237 237 237 213 213 213
224 224 224 224 224 224 247 247 247 255 255 255 255 255 255
248 248 248 232 232 232 255 255 255 255 255 255 255 255 255
246 246 246 220 220 220 215 215 215 220 220 220 244 244 244
255 255 255 255 255 255 243 243 243 230 230 230 212 212 212
223 223 223 242 242 242 255 254 255 255 253 255 247 240 248
228 221 229 216 209 217 232 227 233 244 242 247 255 255 255
254 255 255 236 240 239 16 22 18 0 4 0 0 5 0 5 17 7 11 24 14 3 16 6
28 55 24 81 132 63 116 178 92 136 194 109 125 183 96 124 183 93
127 188 95 114 179 85 97 169 70 104 182 80 102 185 79 100 186 77
104 188 77 109 187 78 114 186 78 119 185 79 121 185 75 115 183 64
114 184 62 114 183 66 115 184 68 116 184 75 116 183 78 117 183 83
117 183 86 124 189 95 108 173 81 104 169 77 119 184 92 127 192 100
120 185 93 112 177 85 113 175 90 78 130 64 26 76 17 0 32 0 0 46 0
46 102 27 99 158 76 124 187 96 130 196 98 116 184 81 113 187 76
111 188 74 109 190 72 109 190 70 107 191 70 106 191 70 107 191 69
109 191 65 109 191 67 107 190 76 104 188 74 100 191 64 99 191 58
101 194 54 102 194 61 115 200 83 127 206 101 109 179 83 125 188 99
123 175 93 143 185 119 8 44 0 0 22 0 0 29 0 71 122 63 123 177 102
128 184 97 121 179 77 113 172 64 119 178 72 125 183 83 130 186 99
108 162 86 2 54 0 10 62 0 114 164 101 119 170 103 129 181 107
38 79 21 0 14 0 13 17 16 13 15 14 5 7 6 98 100 99 231 233 232
213 213 213 216 216 216 250 250 250 255 255 255 255 254 255
246 244 245 232 230 231 216 214 215 224 220 221 227 225 226
255 254 255 255 255 255 248 248 248 229 229 229 216 216 216
221 221 221 241 241 241 255 255 255 254 254 254 253 253 253
222 222 222 221 221 221 221 221 221 222 222 222 253 253 253
254 254 254 255 255 255 238 238 238 224 224 224 214 214 214
226 226 226 250 250 250 254 254 254 255 255 255 228 228 228
214 214 214 222 222 222 217 217 217 254 254 254 251 251 251
255 255 255 253 253 253 214 216 213 217 219 216 236 238 235
250 252 249 254 255 253 254 255 253 237 239 238 214 216 215
218 220 219 220 222 221 253 255 252 254 255 253 254 255 253
253 255 252 220 222 219 218 220 217 225 225 225 253 253 253
255 255 255 255 255 255 250 250 250 218 218 218 210 210 210
201 201 201 247 247 247 253 253 253 255 255 255 247 247 247
232 232 232 228 228 228 234 234 234 246 246 246 246 246 246
242 242 242 240 240 240 238 238 238 242 242 242 232 232 232
240 240 240 237 237 237 253 253 253 241 241 241 249 249 249
233 233 233 234 232 235 237 232 238 238 231 239 253 246 254
244 239 245 254 252 255 237 235 238 240 240 242 230 232 231
232 234 233 144 149 145 0 6 2 0 9 1 18 28 20 0 5 0 8 20 10 0 12 0
0 19 0 26 78 6 85 132 62 111 157 85 128 171 99 140 183 111
137 185 109 126 181 100 118 180 95 116 182 94 113 184 92 113 184 90
117 182 90 120 181 88 123 179 88 124 180 83 129 188 80 127 190 76
127 189 80 126 187 83 126 186 86 126 185 91 126 184 97 126 184 100
123 180 101 111 168 91 109 165 90 122 178 105 128 184 111 96 152 79
33 89 16 0 38 0 0 43 0 0 46 0 27 84 13 88 146 70 123 185 102
119 184 94 108 175 78 107 178 74 113 187 76 111 188 74 109 190 70
107 191 69 106 192 69 104 193 67 104 192 69 104 193 67 121 206 77
117 199 75 107 190 76 100 184 70 98 186 63 103 192 62 111 201 67
118 204 77 97 176 67 104 178 83 117 181 95 123 177 102 131 175 112
29 65 19 0 11 0 0 33 6 10 61 2 111 172 94 131 190 106 117 176 84
126 181 87 120 174 80 124 175 83 124 174 89 129 177 101 27 77 6
0 28 0 99 152 84 116 173 102 111 172 95 121 185 101 55 106 40 0 8 0
13 17 16 6 8 7 3 5 4 69 71 70 249 251 250 245 245 245 247 247 247
235 235 235 226 226 226 235 233 234 228 226 227 250 248 249
243 241 242 253 249 250 242 240 241 239 237 238 239 239 239
242 242 242 245 245 245 245 245 245 242 242 242 238 238 238
234 234 234 225 225 225 231 231 231 244 244 244 249 249 249
249 249 249 244 244 244 231 231 231 225 225 225 239 239 239
240 240 240 245 245 245 244 244 244 242 242 242 240 240 240
233 233 233 232 232 232 238 238 238 242 242 242 242 242 242
239 239 239 231 231 231 232 232 232 236 236 236 244 244 244
241 241 241 235 237 236 245 245 245 231 233 230 245 245 243
233 235 232 245 245 245 241 243 242 247 247 247 243 245 244
235 235 233 232 234 231 233 233 231 234 236 235 244 244 244
247 247 247 239 239 239 240 240 240 238 238 238 239 239 239
239 239 239 238 238 238 243 243 243 243 243 243 240 240 240
240 240 240 239 239 239 239 239 239 239 239 239 206 206 206
211 211 211 220 220 220 242 242 242 255 255 255 255 255 255
248 248 248 231 231 231 221 221 221 224 224 224 218 218 218
246 246 246 249 249 249 255 255 255 234 234 234 222 220 223
225 220 226 239 232 239 255 253 255 252 247 253 247 245 250
219 217 220 223 223 225 219 221 220 227 229 228 249 254 250 97 103 99
0 8 0 0 9 1 9 20 12 21 32 24 2 21 2 0 29 0 0 30 0 0 32 0 14 44 0
40 67 16 79 103 53 109 138 84 122 155 98 138 180 117 134 180 115
129 180 111 126 179 107 125 177 105 124 174 101 125 171 99 124 171 90
131 183 85 131 184 80 130 182 82 129 180 85 129 179 90 128 177 96
128 176 102 128 175 107 97 143 81 101 146 89 74 118 65 20 64 15
0 30 0 0 31 0 0 38 0 0 38 0 37 92 24 80 141 63 120 184 100
124 188 101 113 180 87 111 181 82 114 187 80 111 188 74 110 189 70
109 191 67 107 192 65 106 193 63 104 193 63 103 195 62 103 194 63
104 194 62 115 201 68 109 191 65 102 182 69 101 183 72 106 189 73
107 191 70 104 185 64 98 177 62 98 169 75 134 197 118 130 183 115
114 159 102 24 60 14 0 25 0 5 24 20 0 21 1 107 163 90 109 175 77
116 180 84 122 181 89 105 157 72 132 179 98 168 212 137 120 161 91
28 71 2 0 28 0 76 128 56 131 187 112 123 186 105 118 188 100
121 194 102 68 126 52 0 10 0 7 11 10 0 1 0 0 1 0 30 32 31 242 244 243
255 255 255 255 255 255 242 242 242 220 220 220 219 217 218
219 217 218 255 254 255 255 254 255 255 254 255 235 233 234
215 213 214 217 217 217 228 228 228 249 249 249 255 255 255
255 255 255 236 236 236 213 213 213 223 223 223 217 217 217
255 255 255 250 250 250 250 250 250 255 255 255 217 217 217
223 223 223 216 216 216 241 241 241 255 255 255 255 255 255
248 248 248 223 223 223 213 213 213 208 208 208 241 241 241
255 255 255 255 255 255 255 255 255 209 209 209 219 219 219
213 213 213 241 241 241 255 255 255 253 253 255 254 252 255
223 223 223 221 219 220 212 212 212 245 243 244 255 255 255
250 248 249 255 255 255 224 222 223 232 232 232 233 231 232
223 223 225 255 254 255 249 249 251 253 253 253 229 229 229
211 211 211 210 210 210 232 232 232 255 255 255 255 255 255
255 255 255 232 232 232 223 223 223 218 218 218 229 229 229
248 248 248 213 213 213 217 217 217 216 216 216 240 240 240
255 255 255 255 255 255 243 243 243 217 217 217 222 222 222
218 218 218 216 216 216 236 236 236 249 249 249 255 255 255
236 236 236 221 219 220 224 219 223 241 234 241 255 253 255
252 247 251 237 235 238 216 214 217 218 218 218 222 222 222
225 227 226 252 255 255 234 239 235 111 117 113 0 2 0 0 4 0 1 11 3
0 13 0 13 37 11 0 23 0 0 17 0 3 18 0 3 12 0 9 16 0 14 24 0 10 24 0
27 48 7 27 56 10 31 68 17 42 81 28 54 93 40 67 104 50 77 112 58
82 118 57 78 118 47 72 113 37 61 101 30 47 86 19 32 71 8 18 56 0
7 44 0 1 37 0 0 25 0 0 24 0 0 23 0 0 26 0 0 35 0 30 65 23 82 117 75
123 166 112 139 195 122 119 183 97 108 173 83 109 176 81 114 182 81
113 184 78 114 188 75 117 195 76 110 190 67 109 191 63 107 192 62
107 192 62 106 193 60 104 194 60 104 194 60 106 193 60 97 178 47
105 184 59 112 188 80 112 187 86 107 182 79 108 180 78 114 185 81
122 187 93 127 185 109 127 177 114 108 151 97 0 17 0 0 25 0 0 8 0
9 21 21 6 29 11 149 204 123 125 192 86 104 166 67 108 164 75
130 181 102 150 196 124 109 151 85 17 59 0 0 32 0 61 108 36
122 177 96 111 173 87 135 204 111 112 188 90 114 195 93 73 135 58
0 23 0 17 21 20 6 8 7 0 1 0 11 13 12 228 230 229 255 255 255
252 252 252 245 245 245 224 224 224 216 214 215 223 221 222
255 253 254 255 254 255 255 251 252 232 230 231 219 217 218
215 215 215 220 220 220 238 238 238 255 255 255 255 255 255
240 240 240 219 219 219 229 229 229 218 218 218 255 255 255
244 244 244 244 244 244 255 255 255 218 218 218 229 229 229
219 219 219 244 244 244 255 255 255 255 255 255 239 239 239
214 214 214 216 216 216 214 214 214 232 232 232 255 255 255
250 250 250 255 255 255 208 208 208 224 224 224 218 218 218
249 249 251 250 248 253 253 251 255 255 253 255 234 232 235
221 219 222 215 213 214 237 235 236 254 252 253 245 243 244
255 254 255 222 220 221 235 233 234 235 233 236 222 220 225
255 254 255 245 243 248 255 255 255 228 228 228 215 215 215
214 214 214 238 238 238 255 255 255 253 253 253 250 250 250
231 231 231 220 220 220 215 215 215 227 227 227 250 250 250
220 220 220 228 228 228 220 220 220 238 238 238 248 248 248
244 244 244 250 250 250 235 235 235 219 219 219 223 223 223
239 239 239 246 246 246 255 255 255 245 245 245 231 231 231
216 214 215 219 214 218 235 230 234 248 243 247 255 253 255
247 245 248 239 237 238 222 222 222 218 218 218 238 240 239
248 252 251 252 255 255 250 255 251 119 124 120 0 2 0 7 13 9 0 4 0
0 9 0 0 8 0 8 14 4 14 11 2 10 1 0 17 7 0 19 9 0 4 1 0 5 8 0 0 11 0
0 15 0 0 19 0 0 21 0 0 23 0 0 23 0 0 24 0 0 15 0 0 16 0 0 15 0 0 13 0
0 12 0 0 12 0 0 11 0 0 11 0 12 39 6 0 25 0 22 50 9 93 122 76
150 180 128 155 186 129 136 167 108 121 160 93 124 177 95 118 181 90
113 177 83 107 173 75 111 178 73 118 187 78 117 187 73 107 180 62
113 189 65 111 190 63 110 191 62 110 191 62 109 192 62 107 192 62
107 192 62 109 192 62 113 188 61 116 185 69 115 180 86 114 178 94
116 177 97 122 181 101 132 186 110 139 189 120 101 141 88 30 66 20
0 13 0 3 25 0 0 16 0 40 50 25 53 58 52 0 13 0 116 165 83 127 190 83
117 177 81 120 175 91 152 202 131 101 147 82 0 43 0 0 22 0 62 113 38
125 180 96 109 170 75 111 177 77 128 201 96 102 181 74 108 191 85
85 150 70 0 20 0 6 10 9 9 11 10 4 6 5 9 11 10 221 223 222 255 255 255
249 249 249 226 226 226 223 223 223 219 217 218 234 232 233
244 242 243 255 254 255 255 252 253 251 249 250 222 220 221
225 225 225 234 234 234 246 246 246 253 253 253 249 249 249
236 236 236 225 225 225 223 223 223 226 226 226 247 247 247
250 250 250 250 250 250 247 247 247 226 226 226 223 223 223
220 220 220 239 239 239 242 242 242 254 254 254 248 248 248
229 229 229 231 231 231 220 220 220 244 244 244 252 252 252
246 246 246 246 246 246 224 224 224 228 228 228 227 227 227
238 238 240 245 242 249 245 242 249 236 234 239 232 230 233
222 220 223 231 229 230 239 237 238 251 250 248 253 252 250
249 247 248 226 224 225 222 220 223 222 220 225 226 224 229
249 246 253 253 250 255 248 248 250 226 226 226 223 223 223
217 217 217 232 232 232 254 254 254 247 247 247 252 252 252
238 238 238 234 234 234 232 232 232 235 235 235 241 241 241
253 253 253 255 255 255 242 242 242 242 242 242 232 232 232
219 219 219 235 235 235 231 231 231 255 255 255 249 249 249
245 245 245 217 217 217 221 221 221 215 215 215 244 244 244
255 255 255 255 254 255 248 244 245 219 214 218 224 220 221
217 215 216 246 244 245 248 248 248 255 255 255 253 255 254
224 226 225 206 208 207 197 201 200 254 255 255 224 229 225 80 84 83
0 3 2 10 14 17 3 2 7 7 0 5 12 0 4 32 11 20 72 46 55 74 51 57 35 16 18
9 0 0 5 2 0 0 6 0 0 10 0 0 12 0 0 14 0 0 15 0 1 15 0 0 8 3 0 9 8
0 10 10 0 14 13 1 16 13 3 20 14 6 22 12 6 24 10 0 8 0 0 16 0 0 11 0
0 11 0 22 44 0 83 107 57 136 159 105 151 182 122 106 154 80
132 187 104 142 200 115 123 182 92 111 172 77 120 182 83 121 184 80
106 172 64 117 185 74 116 186 72 116 186 70 114 187 70 114 187 70
113 187 72 113 187 72 114 187 72 133 197 87 118 175 78 111 165 89
129 179 116 146 191 132 117 161 102 47 86 29 0 19 0 0 18 0 0 20 0
10 26 0 0 11 0 93 102 59 212 216 183 108 106 91 0 7 0 143 186 106
102 160 58 126 182 93 137 191 113 76 129 61 0 34 0 0 33 0 91 147 72
124 184 96 91 156 56 132 201 92 128 201 86 109 186 70 110 188 76
114 196 88 108 171 92 0 22 0 1 5 4 11 13 12 3 5 4 0 1 0 191 193 192
224 224 224 208 208 208 251 251 251 255 255 255 250 248 249
252 250 251 226 224 225 228 226 227 220 216 217 226 224 225
251 249 250 248 248 248 242 242 242 231 231 231 224 224 224
228 228 228 243 243 243 255 255 255 255 255 255 252 252 252
220 220 220 214 214 214 214 214 214 220 220 220 252 252 252
255 255 255 248 248 248 245 245 245 218 218 218 224 224 224
234 234 234 237 237 237 255 255 255 251 251 251 230 230 230
221 221 221 227 227 227 223 223 223 247 247 247 246 246 246
255 255 255 251 251 253 217 214 221 226 223 230 227 224 231
254 252 255 250 248 251 255 254 255 233 232 230 224 223 219
219 218 216 222 221 219 250 248 249 253 251 254 253 251 255
250 248 253 222 219 228 219 216 223 239 239 241 236 236 236
255 255 255 252 252 252 246 246 246 240 240 240 209 209 209
206 206 206 245 245 245 250 250 250 251 251 251 244 244 244
232 232 232 247 247 247 250 250 250 255 255 255 245 245 245
223 223 223 225 225 225 226 226 226 253 253 253 255 255 255
252 252 252 247 247 247 219 219 219 223 223 223 218 218 218
247 247 247 255 255 255 255 254 255 248 247 245 223 221 222
230 228 229 226 224 225 251 249 250 250 250 250 255 255 255
255 255 255 220 220 220 207 207 207 206 208 207 252 252 252
252 254 253 239 240 242 206 205 210 85 79 91 19 8 24 28 9 28 15 0 9
83 51 72 205 170 190 190 157 174 197 169 183 186 166 175 153 142 146
112 110 111 17 19 16 0 3 0 7 14 7 8 15 8 0 8 0 12 22 14 0 4 0 0 3 0
0 5 1 17 26 25 0 6 5 0 9 8 0 9 5 1 10 5 3 14 6 4 14 3 2 15 0 3 15 0
3 17 0 0 10 0 0 11 0 55 92 40 78 122 59 110 156 91 128 175 107
128 175 103 121 172 95 123 175 93 127 181 97 143 197 111 133 189 100
124 180 91 122 181 91 128 187 97 130 190 102 127 187 99 124 179 95
121 173 91 106 151 82 97 135 86 62 96 59 11 41 3 4 30 0 0 16 0
13 30 0 4 16 0 0 7 0 38 46 0 173 177 126 251 254 199 244 243 197
92 87 58 18 24 0 124 160 86 140 190 101 105 158 78 17 70 0 0 31 0
22 82 12 93 158 78 127 196 105 112 185 78 110 188 69 111 190 63
111 190 62 111 190 65 111 188 72 112 188 80 122 179 102 0 10 0
8 12 11 6 8 7 16 18 17 4 6 5 146 148 147 217 217 217 224 224 224
239 239 239 255 255 255 252 250 251 255 253 254 223 221 222
226 224 225 224 220 221 238 236 237 254 252 253 243 243 243
255 255 255 227 227 227 225 225 225 222 222 222 236 236 236
255 255 255 255 255 255 255 255 255 225 225 225 222 222 222
222 222 222 225 225 225 255 255 255 255 255 255 255 255 255
223 223 223 224 224 224 217 217 217 221 221 221 250 250 250
250 250 250 246 246 246 243 243 243 226 226 226 215 215 215
240 240 240 253 253 253 255 255 255 245 245 245 237 237 239
230 227 234 231 228 235 213 210 217 242 240 243 255 254 255
247 246 244 244 243 239 238 237 232 240 239 235 224 223 219
252 251 249 255 254 255 250 248 251 243 241 246 222 219 228
207 204 211 210 210 212 244 244 244 250 250 250 250 250 250
248 248 248 206 206 206 227 227 227 235 235 235 243 243 243
255 255 255 253 253 253 254 254 254 220 220 220 250 250 250
250 250 250 255 255 255 241 241 241 226 226 226 226 226 226
229 229 229 244 244 244 255 255 255 250 250 250 236 236 236
215 215 215 216 216 216 223 223 223 248 248 248 255 255 255
255 255 253 249 248 246 226 225 223 221 220 218 219 217 218
238 236 237 250 250 250 255 255 255 241 241 241 223 223 223
215 215 215 222 222 222 254 254 255 255 255 255 255 255 255
251 246 253 234 221 239 211 191 216 199 173 200 151 118 145
178 139 168 195 155 182 198 160 185 191 158 179 136 112 128 53 37 48
4 0 5 0 0 4 7 8 10 0 0 2 0 0 2 1 3 2 6 11 7 4 9 5 2 7 3 0 1 0 0 1 4
2 6 9 13 16 21 11 14 19 0 0 5 7 11 14 6 10 11 0 1 0 0 3 0 13 18 11
14 19 12 0 12 0 0 23 0 0 19 0 0 14 0 0 23 0 9 42 0 36 73 22 61 98 44
75 114 57 54 94 34 55 95 35 57 98 38 62 103 43 61 105 46 49 93 34
29 72 16 15 55 2 4 41 0 0 18 0 0 11 0 0 18 1 0 8 0 0 7 0 4 15 0
5 13 0 67 71 21 166 166 114 236 236 174 251 250 185 234 233 166
236 231 175 99 91 55 6 11 0 137 168 101 53 100 22 0 38 0 0 52 0
49 110 40 92 159 80 106 179 89 107 186 81 106 190 69 106 192 59
107 193 56 109 193 56 111 190 62 113 188 69 115 186 80 125 177 102
0 12 0 4 8 7 1 3 2 11 13 12 1 3 2 140 142 141 223 223 223 231 231 231
249 249 249 255 255 255 255 254 255 250 248 249 227 225 226
221 219 220 221 217 218 227 225 226 255 254 255 249 249 249
245 245 245 221 221 221 218 218 218 224 224 224 240 240 240
255 255 255 255 255 255 251 251 251 226 226 226 216 216 216
216 216 216 226 226 226 251 251 251 255 255 255 255 255 255
235 235 235 224 224 224 213 213 213 216 216 216 238 238 238
251 251 251 255 255 255 242 242 242 214 214 214 210 210 210
219 219 219 246 246 246 250 250 250 255 255 255 249 249 251
228 227 233 216 215 221 222 220 225 242 242 244 242 241 239
231 232 227 215 214 209 172 173 165 123 123 115 123 124 118
171 170 166 211 211 209 237 235 238 249 248 253 236 233 240
233 232 238 219 219 221 254 254 254 248 248 248 255 255 255
254 254 254 219 219 219 235 235 235 214 214 214 251 251 251
255 255 255 251 251 251 247 247 247 230 230 230 244 244 244
246 246 246 237 237 237 238 238 238 236 236 236 231 231 231
236 236 236 231 231 231 233 233 233 235 235 235 233 233 233
241 241 241 239 239 239 243 243 243 235 235 235 232 232 232
236 236 234 237 238 233 244 245 240 238 239 234 241 240 238
233 232 230 237 235 236 236 234 235 253 251 252 252 250 251
243 241 244 245 243 246 239 237 242 245 243 248 244 242 247
250 242 253 253 235 255 253 227 255 255 233 255 193 156 189
193 152 184 172 131 161 189 150 179 222 190 214 199 176 196
137 123 138 85 77 88 66 63 70 76 75 81 56 55 60 69 67 72 71 69 72
60 59 64 73 74 78 67 68 72 66 67 72 82 82 90 112 112 122 87 87 97
44 44 54 4 4 12 3 3 11 0 1 5 2 3 5 9 11 8 15 17 12 11 14 7 0 6 0
6 19 10 0 10 0 0 6 0 0 8 0 0 11 0 0 17 0 0 13 0 0 10 0 0 23 0 0 19 0
0 13 0 0 12 0 0 16 0 0 17 0 0 15 0 0 11 0 4 25 8 4 21 11 2 13 17
6 14 17 0 3 0 22 25 0 149 151 102 199 199 137 241 238 171 247 243 169
238 236 153 239 237 152 246 243 164 251 246 182 100 91 52 13 15 0
0 31 0 0 46 0 32 84 12 82 140 66 116 180 102 119 192 103 111 192 89
109 196 79 103 193 61 103 194 54 106 195 51 109 193 53 111 190 62
114 187 69 118 185 80 126 177 102 5 23 0 0 4 3 0 1 0 6 8 7 0 2 1
131 133 132 236 236 236 244 244 244 235 235 235 233 233 233
239 237 238 235 233 234 242 240 241 238 236 237 245 241 242
241 239 240 238 236 237 240 240 240 230 230 230 242 242 242
241 241 241 241 241 241 234 234 234 224 224 224 233 233 233
231 231 231 240 240 240 238 238 238 238 238 238 240 240 240
231 231 231 233 233 233 227 227 227 241 241 241 238 238 238
240 240 240 240 240 240 232 232 232 237 237 237 242 242 242
240 240 240 246 246 246 242 242 242 242 242 242 249 249 249
242 242 242 239 239 239 253 253 255 236 235 241 232 233 238
242 241 246 221 223 222 154 155 150 62 65 58 2 4 0 0 3 0 0 2 0 6 9 0
8 9 3 0 1 0 45 45 45 141 142 146 210 209 215 255 254 255 245 245 247
234 234 234 235 235 235 233 233 233 241 241 241 255 255 255
243 243 243 239 239 239 232 232 232 227 227 227 231 231 231
233 233 233 249 249 249 228 228 228 234 234 234 222 222 222
240 240 240 250 250 250 241 241 241 243 243 243 223 223 223
223 223 223 229 229 229 225 225 225 247 247 247 242 242 242
252 252 252 230 230 230 224 224 222 231 232 227 234 235 230
252 253 248 238 239 234 244 243 241 224 223 221 232 230 231
230 228 229 238 236 237 255 253 254 253 251 254 255 254 255
223 221 226 224 222 227 221 216 222 238 228 239 255 243 255
255 233 255 254 219 251 191 151 185 180 139 171 174 135 164
205 171 198 255 241 255 255 241 255 255 250 255 253 250 255
229 228 234 229 228 234 222 221 226 255 253 255 250 245 249
237 235 236 253 253 253 235 235 235 227 227 229 226 225 231
255 254 255 255 253 255 239 237 248 176 174 187 85 83 94 2 1 9 0 0 5
9 8 14 11 10 15 0 0 2 0 0 4 0 0 9 0 2 11 0 3 11 0 9 11 3 11 13
3 13 12 1 12 8 0 10 4 0 8 2 0 9 3 2 13 9 5 16 12 6 18 18 4 16 16
0 9 11 0 5 7 6 17 21 9 18 27 2 5 24 5 5 17 3 0 0 47 43 14 236 231 175
255 255 187 249 243 159 252 247 155 241 237 137 234 230 131
238 234 143 242 238 165 91 84 40 18 25 0 26 62 0 70 124 49 117 173 98
121 184 103 107 177 89 105 181 83 105 189 77 103 191 68 102 194 59
103 195 52 106 195 53 109 193 55 113 189 63 116 186 70 118 185 79
126 177 100 26 44 18 1 5 4 0 1 0 7 9 8 3 5 4 121 123 122 251 251 251
255 255 255 245 245 245 226 226 226 227 225 226 223 221 222
254 252 253 249 247 248 251 247 248 231 229 230 227 225 226
234 234 234 210 210 210 244 244 244 246 246 246 251 251 251
240 240 240 220 220 220 226 226 226 223 223 223 245 245 245
242 242 242 242 242 242 245 245 245 223 223 223 226 226 226
221 221 221 255 255 255 247 247 247 247 247 247 243 243 243
219 219 219 227 227 227 237 237 237 231 231 231 250 250 250
255 255 255 230 230 230 213 213 213 217 217 217 239 239 239
229 229 231 254 255 255 187 190 195 96 97 99 4 9 5 0 2 0 7 13 1 0 3 0
13 20 4 14 18 3 0 3 0 5 8 0 17 22 15 10 12 9 0 1 2 55 56 61
190 191 196 255 255 255 247 247 247 228 228 228 201 201 201
216 216 216 255 255 255 238 238 238 250 250 250 239 239 239
224 224 224 228 228 228 226 226 226 255 255 255 213 213 213
224 224 224 219 219 219 244 244 244 255 255 255 248 248 248
247 247 247 224 224 224 214 214 214 225 225 225 228 228 228
255 255 255 250 250 250 255 255 255 226 226 226 215 215 213
222 223 218 230 231 225 255 255 250 246 247 241 251 252 247
226 227 222 228 227 225 221 219 220 234 230 231 255 251 255
255 253 255 255 253 255 225 220 227 218 213 220 209 202 210
224 212 224 255 244 255 255 241 255 199 162 193 185 146 175
171 132 161 182 148 173 229 201 223 255 242 255 255 248 255
255 253 255 238 239 244 216 220 223 221 222 224 216 216 218
255 253 255 255 254 251 250 250 238 251 254 237 226 228 215
222 224 213 218 219 214 255 255 255 255 254 255 252 250 255
240 238 251 207 205 219 169 166 183 128 125 142 66 63 80 8 5 22
0 0 14 17 14 31 18 17 33 12 14 29 9 8 22 3 5 17 4 4 14 3 6 11 4 7 12
4 8 11 1 5 8 3 6 11 6 6 14 6 6 14 6 6 18 6 6 18 8 7 21 8 10 23 0 2 14
0 3 17 0 0 19 4 0 15 14 7 0 59 53 19 255 251 188 235 229 143
241 235 139 254 250 143 252 250 137 239 239 127 248 248 148
250 251 171 76 75 27 0 10 0 144 189 120 123 187 103 109 175 87
101 170 77 104 179 78 111 189 80 111 192 74 104 189 62 106 192 59
106 192 57 109 192 58 110 191 62 113 189 67 114 187 72 117 186 77
125 178 98 49 69 42 4 8 7 4 6 5 10 12 11 6 8 7 107 109 108
255 255 255 255 255 255 243 243 243 217 217 217 214 212 213
216 214 215 255 254 255 255 254 255 255 254 255 232 230 231
212 210 211 225 225 225 210 210 210 251 251 251 255 255 255
255 255 255 242 242 242 217 217 217 217 217 217 219 219 219
248 248 248 250 250 250 250 250 250 248 248 248 219 219 219
217 217 217 219 219 219 255 255 255 254 254 254 255 255 255
251 251 251 219 219 219 218 218 218 221 221 221 250 250 250
232 232 232 237 237 237 255 255 255 209 209 209 239 239 239
235 235 235 193 194 196 86 90 93 10 15 18 0 1 0 2 9 2 11 17 7 12 20 5
0 4 0 0 5 0 1 8 0 10 19 0 17 23 9 5 13 2 15 20 14 11 17 15 0 1 4
4 8 11 162 163 165 239 239 239 226 226 226 205 205 205 219 219 219
238 238 238 255 255 255 249 249 249 239 239 239 224 224 224
228 228 228 226 226 226 255 255 255 215 215 215 226 226 226
231 231 231 245 245 245 250 250 250 244 244 244 244 244 244
235 235 235 214 214 214 226 226 226 239 239 239 255 255 255
255 255 255 249 249 249 226 226 226 213 213 211 217 218 213
229 230 224 250 251 245 254 255 249 255 255 251 238 239 234
229 228 226 218 217 215 242 237 241 253 248 252 255 252 255
255 253 255 241 234 242 233 226 234 224 217 225 230 216 229
255 230 253 240 204 232 177 138 167 190 151 178 191 155 181
245 216 238 255 235 253 255 248 255 254 248 255 243 244 249
231 236 239 214 220 220 222 226 225 220 220 218 252 246 246
255 250 246 255 255 244 250 252 238 222 224 211 218 219 211
224 225 220 247 247 247 253 252 255 255 254 255 242 240 253
231 229 243 227 225 239 240 238 252 253 251 255 234 232 246
174 172 185 119 117 130 13 9 23 5 1 15 1 0 11 4 1 12 13 10 17
16 14 19 10 8 13 2 0 3 1 0 4 1 0 4 3 0 5 3 0 7 3 0 9 3 0 11 5 0 14
6 4 18 10 12 24 0 1 12 11 8 27 8 2 14 7 0 0 41 33 0 255 255 189
237 230 140 255 253 152 252 249 136 249 249 127 240 244 124
245 251 143 232 238 152 59 64 8 10 33 0 122 179 100 109 184 89
113 189 89 121 198 92 122 198 89 114 191 75 109 187 65 110 189 64
110 189 62 110 189 62 111 190 65 111 189 67 111 189 70 111 188 74
112 189 77 122 180 96 66 89 60 5 9 8 7 9 8 12 14 13 5 7 6 86 88 87
254 254 254 246 246 246 230 230 230 216 216 216 214 212 213
223 221 222 252 250 251 255 254 255 255 254 255 244 242 243
208 206 207 222 222 222 229 229 229 255 255 255 255 255 255
254 254 254 236 236 236 217 217 217 216 216 216 224 224 224
247 247 247 255 255 255 255 255 255 247 247 247 224 224 224
216 216 216 221 221 221 244 244 244 252 252 252 255 255 255
255 255 255 232 232 232 220 220 220 213 213 213 240 240 240
248 248 248 249 249 249 247 247 247 225 225 225 199 199 199
104 104 104 0 0 2 2 7 10 6 14 16 21 27 25 9 19 10 0 8 0 3 14 0 8 17 0
12 24 0 0 7 0 12 24 2 23 32 15 0 5 0 0 3 0 7 16 13 7 12 15 18 23 26
11 12 14 153 153 153 243 243 243 230 230 230 238 238 238 240 240 240
255 255 255 247 247 247 231 231 231 226 226 226 230 230 230
232 232 232 248 248 248 236 236 236 239 239 239 249 249 249
240 240 240 229 229 229 230 230 230 234 234 234 249 249 249
251 251 251 244 244 244 238 238 238 224 224 224 226 226 226
226 226 226 241 241 241 249 249 247 248 251 244 241 244 235
228 229 223 229 230 224 227 228 223 240 241 236 244 243 241
250 249 247 236 231 235 229 224 228 232 225 232 235 228 235
255 246 255 255 250 255 255 251 255 255 247 255 237 208 230
198 159 186 185 146 173 185 150 174 196 163 184 255 243 255
248 232 245 227 220 228 209 210 214 215 224 223 246 255 253
239 250 244 249 255 251 238 239 234 226 221 218 211 206 203
210 208 209 228 228 230 252 252 254 250 249 254 243 242 248
223 222 230 220 219 227 217 216 224 227 226 234 253 252 255
255 254 255 241 241 241 221 221 219 225 226 221 238 239 233
244 243 238 255 254 255 238 234 235 198 194 195 156 152 151
119 115 112 89 86 81 68 65 60 56 53 46 31 26 22 29 24 20 27 22 19
27 21 21 39 33 37 68 61 68 105 98 106 130 125 131 63 67 66 1 5 4
10 8 19 16 11 17 23 15 2 47 37 1 255 255 194 233 226 138 244 239 139
243 241 128 242 244 121 227 235 113 249 255 146 247 255 166 55 67 3
0 16 0 113 182 89 107 195 85 117 201 89 120 203 87 114 192 73
103 179 57 103 174 52 108 179 59 116 185 68 115 185 69 116 186 72
113 187 74 111 188 76 110 188 76 108 191 77 118 182 95 74 99 69 0 4 3
5 7 6 9 11 10 0 1 0 62 64 63 239 239 239 224 224 224 240 240 240
247 247 247 246 244 245 245 243 244 229 227 228 228 226 227
228 224 225 233 231 232 247 245 246 240 240 240 246 246 246
229 229 229 228 228 228 228 228 228 235 235 235 246 246 246
250 250 250 246 246 246 230 230 230 227 227 227 227 227 227
230 230 230 246 246 246 250 250 250 252 252 252 232 232 232
229 229 229 224 224 224 226 226 226 241 241 241 245 245 245
246 246 246 241 241 241 201 201 201 237 237 237 230 230 230
225 225 225 70 70 70 15 15 15 0 0 2 14 19 22 8 18 17 0 3 0 12 24 14
30 41 27 4 17 0 0 6 0 2 16 0 0 7 0 0 8 0 12 24 4 0 10 0 0 4 0 0 8 2
0 7 6 5 10 13 0 0 2 62 62 62 238 238 238 248 248 248 248 248 248
222 222 222 223 223 223 225 225 225 249 249 249 253 253 253
249 249 249 246 246 246 228 228 228 255 255 255 253 253 253
255 255 255 233 233 233 211 211 211 218 218 218 227 227 227
255 255 255 255 255 255 250 250 250 245 245 245 216 216 216
221 221 221 216 216 216 245 245 245 255 255 253 253 255 252
244 246 241 220 221 216 227 228 223 222 223 218 248 249 244
249 248 244 255 255 253 255 252 251 230 226 227 222 218 219
214 209 213 249 244 248 253 248 254 255 253 255 253 239 252
231 199 223 204 161 191 195 152 180 197 157 184 210 175 197
255 234 251 255 250 255 203 202 207 226 235 234 204 216 212
232 245 238 236 245 240 254 255 251 255 254 251 239 231 229
235 226 227 218 216 221 234 233 241 255 254 255 251 250 255
255 254 255 232 231 239 227 226 234 209 208 214 237 236 242
251 251 253 255 255 253 246 247 242 227 228 220 220 222 211
224 226 213 231 231 221 255 252 247 255 254 251 255 254 251
248 245 240 232 229 224 230 227 220 244 241 234 255 255 246
255 254 248 255 253 247 251 246 242 239 234 231 230 224 224
232 226 228 246 240 242 255 254 255 123 126 119 12 14 9 1 1 3 3 2 0
14 11 0 32 28 0 255 255 190 244 240 149 237 233 133 243 243 133
255 255 141 245 253 134 246 255 145 226 240 143 40 54 0 1 33 0
134 205 109 96 187 70 86 174 54 103 187 65 112 192 69 106 182 58
113 184 62 130 200 78 116 185 68 116 185 69 116 186 74 113 187 76
111 188 76 109 189 76 108 191 75 117 183 93 76 103 68 0 3 0 0 5 1
3 8 4 0 1 0 45 46 48 227 227 229 207 207 209 229 227 228 255 254 255
255 255 253 255 255 253 214 212 213 211 209 210 217 215 218
245 243 246 255 255 255 249 249 249 255 255 255 227 227 227
221 221 221 214 214 214 226 226 226 248 248 248 255 255 255
255 255 255 225 225 225 222 222 222 222 222 222 225 225 225
255 255 255 255 255 255 254 255 255 214 215 217 218 220 219
214 216 213 223 223 221 255 255 253 255 255 253 255 254 255
243 241 244 245 243 246 232 230 235 171 170 175 2 2 4 0 0 0 13 13 13
18 22 21 0 7 6 0 11 7 0 4 0 1 15 0 0 15 0 18 39 6 89 114 72
120 148 100 145 174 126 141 173 126 134 165 123 61 88 55 0 16 0
0 14 0 0 11 7 0 3 2 9 11 10 3 3 3 179 179 179 248 248 248 255 255 255
192 192 192 219 219 219 229 229 229 241 241 241 255 255 255
251 251 251 252 252 252 218 218 218 253 253 253 252 252 252
255 255 255 239 239 239 217 217 217 221 221 221 226 226 226
255 255 255 255 255 255 250 250 250 249 249 249 222 222 222
226 226 226 219 219 219 246 246 246 255 255 255 254 255 255
244 248 251 219 220 222 227 227 227 222 222 220 249 248 244
253 250 245 255 255 250 255 255 250 209 208 203 227 228 222
210 212 207 238 240 237 252 255 255 251 255 255 248 240 251
247 212 242 196 146 184 218 163 202 193 141 177 254 209 238
255 238 255 242 230 240 227 231 232 209 224 219 208 225 217
228 237 232 250 252 247 253 244 245 255 251 253 232 220 222
230 219 223 233 228 232 240 240 242 255 255 255 254 254 255
254 254 255 223 223 225 217 217 219 205 205 207 238 238 240
255 255 255 255 255 255 255 255 253 228 228 226 226 227 222
218 219 214 229 230 225 249 248 246 255 255 253 255 255 253
233 232 230 223 222 220 222 221 219 219 218 216 255 255 251
251 250 248 248 247 245 245 244 242 214 213 211 226 224 225
232 230 231 252 250 251 244 242 243 129 129 127 0 1 0 10 12 7
18 21 12 0 3 0 47 54 13 230 237 160 223 229 131 246 249 142
244 246 137 246 247 143 249 252 147 234 242 133 240 251 159 17 27 0
13 42 0 118 183 89 108 191 75 109 190 72 109 190 69 110 190 67
111 190 65 110 189 64 112 188 62 112 188 64 112 188 66 111 189 69
111 189 70 110 189 72 110 189 72 110 190 75 118 183 91 95 126 82
0 6 0 1 11 0 0 7 0 6 10 11 9 10 14 221 220 226 225 223 228
246 241 245 255 254 253 255 252 249 255 254 250 223 222 220
223 223 225 218 217 222 233 232 237 252 252 254 251 251 251
255 255 255 239 239 239 217 217 217 221 221 221 226 226 226
255 255 255 255 255 255 255 255 255 224 224 224 221 221 221
221 221 221 224 224 224 255 255 255 254 255 255 251 255 255
214 219 222 219 225 223 223 228 222 217 220 213 255 255 250
245 244 240 255 254 255 223 218 224 228 222 232 157 151 163 14 11 22
0 0 5 27 27 29 0 1 0 10 15 9 9 18 15 0 5 0 6 20 5 0 14 0 59 86 41
139 175 114 128 174 99 124 178 92 105 169 75 114 179 87 107 171 87
120 175 107 99 143 94 0 18 0 9 29 17 2 13 9 5 9 8 0 0 0 58 58 58
252 252 252 250 250 250 223 223 223 232 232 232 221 221 221
248 248 248 255 255 255 248 248 248 252 252 252 226 226 226
238 238 238 237 237 237 245 245 245 241 241 241 238 238 238
240 240 240 235 235 235 240 240 240 248 248 248 244 244 244
243 243 243 231 231 231 233 233 233 230 230 230 241 241 241
245 245 247 245 246 251 239 242 247 229 230 234 232 233 235
231 231 231 243 242 238 244 243 238 248 248 240 234 234 226
230 230 222 242 243 235 234 237 230 229 231 226 232 237 233
246 250 249 246 236 247 228 191 225 190 134 179 212 151 195
200 142 182 249 198 229 255 229 250 242 231 239 239 245 245
218 235 229 218 235 227 232 239 232 245 244 240 250 238 240
255 244 247 242 227 232 239 228 232 240 236 237 239 239 239
246 246 246 241 241 241 242 242 242 232 232 232 233 233 233
231 231 231 240 240 240 241 241 241 237 237 237 243 243 243
239 239 239 243 243 243 235 235 235 234 234 234 236 236 236
239 239 239 244 244 244 237 237 237 239 239 239 239 239 239
231 231 231 241 241 241 246 246 246 239 239 239 242 242 242
223 223 223 229 229 229 237 237 237 242 242 242 245 245 245
114 112 113 0 0 0 18 21 14 0 3 0 0 4 0 55 66 26 255 255 189
244 254 155 236 241 138 251 252 150 255 255 165 236 235 142
233 240 137 250 255 174 8 17 0 13 39 0 121 181 91 111 190 75
110 189 74 110 189 70 110 189 70 110 190 67 109 189 66 109 189 64
109 189 64 109 189 64 110 190 69 110 190 69 110 189 72 110 189 72
111 189 77 119 182 91 94 128 78 0 8 0 3 16 0 0 8 0 3 9 9 7 8 13
225 224 232 235 232 239 246 240 244 246 240 240 238 234 231
241 240 236 237 236 234 241 241 243 233 234 238 233 234 238
237 237 239 237 237 237 245 245 245 241 241 241 238 238 238
240 240 240 236 236 236 241 241 241 241 241 241 243 243 243
234 234 234 235 235 235 235 235 235 234 234 234 243 243 243
240 241 243 249 255 255 234 242 244 236 242 240 229 234 228
227 230 221 217 218 210 243 242 238 255 254 255 255 253 255
125 119 131 7 3 17 0 0 9 0 0 5 4 6 5 6 12 2 4 15 0 0 8 0 10 30 2
51 72 39 15 42 1 0 27 0 12 55 0 101 156 72 135 201 104 104 180 72
120 199 90 107 183 83 105 173 86 126 181 116 62 101 57 0 16 0 3 15 5
5 10 6 0 0 0 27 27 27 234 234 234 244 244 244 226 226 226 228 228 228
237 237 237 247 247 247 244 244 244 235 235 235 240 240 240
238 238 238 222 222 222 223 223 223 222 222 222 242 242 242
255 255 255 255 255 255 245 245 245 223 223 223 219 219 219
229 229 229 239 239 239 255 255 255 253 253 253 249 249 249
229 229 229 218 218 220 218 219 223 229 230 235 249 250 254
253 254 255 254 255 255 238 239 234 229 230 224 219 218 213
231 230 225 255 255 250 248 244 241 255 251 250 233 229 230
225 220 224 232 227 233 210 192 208 205 163 199 184 129 171
202 139 182 207 147 185 234 180 212 248 213 235 241 228 238
252 255 255 245 255 255 239 254 247 230 237 230 222 221 217
230 220 221 233 218 221 255 244 249 255 251 255 249 245 246
239 239 239 226 226 226 227 227 227 228 228 228 244 244 244
251 251 251 255 255 255 241 241 241 224 224 224 217 217 217
222 222 222 251 251 251 255 255 255 255 255 255 240 240 240
223 223 223 219 219 219 222 222 222 244 244 244 255 255 255
255 255 255 247 247 247 221 221 221 218 218 218 219 219 219
247 247 247 255 255 255 255 255 255 255 255 255 221 221 221
224 224 224 100 98 101 0 0 2 15 17 14 1 6 0 12 18 4 77 84 50
246 255 187 232 241 150 234 238 143 240 239 146 247 243 156
211 209 122 226 232 136 249 255 177 12 20 0 47 72 30 121 181 95
112 188 79 111 187 78 111 188 74 111 188 74 111 189 70 110 188 69
110 188 68 110 188 68 110 188 68 111 188 72 111 188 72 111 188 76
111 188 76 112 188 80 119 182 93 93 126 79 0 9 0 7 20 3 0 9 1 0 4 4
4 5 10 230 229 237 248 245 252 243 237 241 227 221 221 221 217 214
225 224 220 253 252 250 255 255 255 252 253 255 236 237 241
221 221 223 222 222 222 221 221 221 242 242 242 255 255 255
255 255 255 246 246 246 224 224 224 208 208 208 221 221 221
250 250 250 255 255 255 255 255 255 250 250 250 221 221 221
207 208 210 205 210 213 242 251 250 251 255 253 250 255 249
242 245 238 216 217 211 223 222 220 247 245 248 146 143 150 17 14 23
0 0 7 1 4 9 2 7 3 7 15 4 17 29 9 0 11 0 55 85 25 112 145 76
150 181 121 135 170 114 74 113 60 0 35 0 11 66 0 96 158 81
117 190 101 107 182 87 127 201 106 105 169 83 139 190 121 102 139 87
0 21 0 1 13 0 7 9 4 2 2 2 7 7 7 219 219 219 236 236 236 246 246 246
240 240 240 252 252 252 228 228 228 216 216 216 215 215 215
224 224 224 254 254 254 217 217 217 223 223 223 215 215 215
243 243 243 255 255 255 254 254 254 248 248 248 219 219 219
224 224 224 230 230 230 225 225 225 248 248 248 243 243 243
253 253 253 231 231 231 225 225 227 226 225 230 231 232 236
252 253 255 242 244 243 247 249 246 224 226 223 228 230 225
223 224 218 241 240 236 255 254 251 253 247 247 255 251 255
238 225 234 231 215 226 209 191 205 175 147 169 190 144 180
190 133 176 203 138 180 214 149 189 217 162 194 228 190 213
236 220 231 254 255 255 240 252 248 242 255 250 239 245 241
231 230 226 242 232 233 224 212 214 255 246 250 254 245 248
252 250 251 242 242 242 217 217 217 225 225 225 223 223 223
252 252 252 255 255 255 255 255 255 242 242 242 218 218 218
215 215 215 213 213 213 253 253 253 255 255 255 255 255 255
245 245 245 220 220 220 215 215 215 215 215 215 247 247 247
255 255 255 252 252 252 254 254 254 214 214 214 219 219 219
216 216 216 241 241 241 255 255 255 255 255 255 255 255 255
215 215 215 229 229 231 91 89 94 10 9 14 5 5 7 7 9 6 7 13 3
112 119 88 240 249 186 234 239 157 240 240 154 234 232 147
247 242 161 240 239 157 250 255 166 233 244 168 12 23 0 56 83 40
122 180 96 112 187 82 111 187 79 111 187 78 111 188 76 111 188 74
110 187 71 110 188 69 110 187 71 110 187 71 111 188 74 111 188 76
111 187 78 111 187 79 112 187 82 121 180 96 95 127 80 0 11 0 10 23 6
0 9 1 0 2 2 1 2 7 233 232 240 255 253 255 241 235 239 221 215 215
220 216 213 219 218 214 255 255 253 255 255 255 254 255 255
238 239 243 216 216 218 222 222 222 214 214 214 242 242 242
255 255 255 255 255 255 249 249 249 219 219 219 217 217 217
219 219 219 249 249 249 251 251 251 251 251 251 249 249 249
219 219 219 216 218 217 201 207 207 247 253 251 252 255 253
247 249 244 231 232 227 216 217 212 231 231 231 185 185 187 21 20 26
11 12 17 0 5 8 8 17 12 5 17 3 0 17 0 0 20 0 100 129 73 134 174 85
144 190 91 120 164 79 146 189 118 149 194 135 100 149 94 0 41 0
23 84 15 124 193 110 103 173 84 112 179 86 120 180 94 128 173 104
93 125 75 0 15 0 0 6 0 5 7 2 11 11 11 18 18 18 222 222 222
231 231 231 255 255 255 255 255 255 252 252 252 235 235 235
220 220 220 225 225 225 223 223 223 255 255 255 225 225 225
236 236 236 226 226 226 242 242 242 246 246 246 235 235 235
243 243 243 228 228 228 220 220 220 228 228 228 227 227 227
252 252 252 247 247 247 255 255 255 230 230 230 220 220 222
221 220 225 230 229 234 254 255 255 246 248 247 249 254 250
224 229 225 224 229 223 218 220 215 235 235 233 255 251 252
255 250 255 255 246 255 243 219 235 243 214 234 197 163 187
182 141 171 189 139 176 210 152 192 215 148 189 216 150 188
203 146 178 209 167 189 234 214 226 250 248 251 245 255 252
245 255 251 238 243 239 226 225 223 236 227 228 220 210 211
255 249 252 255 251 252 249 247 248 243 243 243 223 223 223
235 235 235 230 230 230 252 252 252 246 246 246 250 250 250
240 240 240 227 227 227 230 230 230 221 221 221 245 245 245
242 242 242 253 253 253 245 245 245 228 228 228 228 228 228
227 227 227 246 246 246 239 239 239 233 233 233 249 249 249
223 223 223 221 221 221 220 220 220 238 238 238 255 255 255
253 253 253 252 252 252 216 216 216 228 228 230 52 50 55 10 9 15
7 6 12 1 2 4 2 5 0 129 133 108 243 248 192 250 253 182 246 244 169
254 248 174 255 254 181 234 232 157 184 189 107 139 149 78 2 14 0
83 110 69 122 179 98 114 186 84 113 186 81 113 186 79 113 186 78
113 187 76 112 186 73 112 186 71 112 186 73 112 186 73 113 187 76
113 186 78 113 186 79 113 186 81 114 186 84 121 180 96 96 128 81
0 12 0 10 23 6 0 9 1 0 2 2 0 1 6 231 230 238 254 251 255 240 234 238
230 224 224 235 231 228 227 226 222 251 250 248 244 244 246
249 250 254 239 240 244 224 224 226 235 235 235 226 226 226
241 241 241 246 246 246 236 236 236 243 243 243 229 229 229
221 221 221 221 221 221 247 247 247 247 247 247 247 247 247
247 247 247 221 221 221 220 222 221 221 226 222 237 242 238
248 253 247 253 255 250 243 243 241 224 224 224 208 207 212 39 40 44
0 0 5 0 6 8 0 6 0 0 13 0 6 29 1 1 29 0 89 121 71 139 181 107
108 162 51 120 179 59 110 166 65 119 173 89 104 157 89 123 177 115
39 98 32 0 52 0 103 169 81 111 178 83 107 168 73 125 177 94
144 180 118 40 65 25 0 9 0 0 2 0 4 4 2 0 0 0 50 50 50 239 239 239
232 232 232 255 255 255 251 251 251 239 239 239 221 221 221
219 219 219 233 233 233 228 228 228 250 250 250 238 238 238
248 248 248 246 246 246 240 240 240 227 227 227 219 219 219
234 234 234 243 243 243 248 248 248 241 241 241 227 227 227
227 227 227 225 225 225 238 238 238 241 241 241 247 247 247
249 247 250 243 241 244 238 238 238 222 226 225 223 229 225
222 228 224 237 244 237 244 249 245 237 237 237 223 217 221
244 228 238 245 221 237 255 225 249 255 227 254 201 154 186
198 148 183 192 140 176 233 175 213 233 167 205 212 146 182
197 138 168 196 152 175 238 216 229 236 231 237 221 227 227
229 240 236 242 246 245 249 248 246 255 249 249 240 231 232
239 235 236 227 225 226 239 239 239 241 241 241 238 238 238
246 246 246 242 242 242 244 244 244 232 232 232 228 228 228
238 238 238 241 241 241 247 247 247 237 237 237 234 234 234
227 227 227 236 236 236 241 241 241 238 238 238 245 245 245
245 245 245 242 242 242 223 223 223 217 217 217 236 236 236
240 240 240 255 255 255 247 247 247 224 224 224 223 223 223
217 217 217 226 226 226 240 240 240 255 255 255 38 36 41 1 0 5
15 14 22 2 3 7 0 2 0 67 71 46 162 166 115 198 198 134 196 191 125
170 163 95 115 110 42 58 58 0 27 34 0 40 51 0 0 9 0 98 127 83
121 180 96 112 187 84 113 186 81 111 187 79 113 186 78 111 188 76
112 186 73 110 187 71 112 186 71 110 187 73 113 187 76 111 187 78
113 186 79 111 186 81 114 186 84 121 180 96 98 130 83 0 12 0 8 21 4
0 8 0 0 2 2 0 1 6 225 224 232 242 239 246 242 236 240 245 239 239
251 247 244 240 239 235 238 237 235 228 228 230 234 235 239
237 238 242 237 237 239 248 248 248 245 245 245 240 240 240
227 227 227 219 219 219 235 235 235 243 243 243 254 254 254
240 240 240 231 231 231 217 217 217 217 217 217 231 231 231
240 240 240 254 254 252 254 255 251 236 238 233 216 218 213
220 220 218 219 219 219 242 242 244 107 108 113 0 0 5 0 2 4 0 4 0
0 9 0 9 35 8 0 31 0 88 127 72 155 197 131 101 154 64 122 186 64
119 189 57 112 179 64 117 181 84 117 178 98 121 181 107 98 160 85
0 37 0 43 108 18 123 184 91 126 180 92 152 194 120 96 124 75 0 10 0
5 10 6 5 4 10 3 3 5 0 0 0 104 104 104 253 253 253 236 236 236
226 226 226 227 227 227 224 224 224 243 243 243 248 248 248
255 255 255 243 243 243 235 235 235 247 247 247 253 253 253
255 255 255 240 240 240 217 217 217 216 216 216 229 229 229
253 253 253 251 251 251 245 245 245 241 241 241 228 228 228
229 229 229 228 228 228 242 242 242 249 249 249 251 249 252
244 242 245 229 229 229 226 230 229 223 229 225 235 244 239
238 247 242 248 253 249 251 251 251 210 200 208 230 210 222
231 202 222 255 230 255 255 218 254 204 146 186 206 148 188
196 142 176 249 194 226 249 185 220 205 140 174 196 135 166
191 146 169 250 226 240 227 220 227 221 225 226 220 229 226
235 237 236 246 244 245 248 242 242 252 246 246 230 229 227
226 226 224 227 227 227 235 235 235 250 250 250 250 250 250
250 250 250 233 233 233 225 225 225 216 216 216 236 236 236
250 250 250 254 254 254 251 251 251 228 228 228 222 222 222
223 223 223 234 234 234 245 245 245 254 254 254 255 255 255
236 236 236 219 219 219 216 216 216 225 225 225 254 254 254
253 253 253 255 255 255 230 230 230 222 222 222 224 224 224
217 217 217 248 248 248 237 237 237 9 7 10 1 0 4 26 25 33 21 20 25
0 2 0 11 14 0 16 18 0 13 11 0 43 37 0 29 21 0 31 26 0 56 56 0
114 122 47 130 142 76 14 31 0 76 110 60 119 181 95 111 189 80
111 187 78 110 188 76 111 188 74 110 189 72 110 188 69 109 188 69
110 188 69 109 188 69 111 188 72 110 189 74 111 188 76 110 188 78
112 188 80 119 181 95 99 132 85 0 10 0 5 18 1 0 8 0 0 5 5 1 2 7
217 216 224 226 223 230 244 238 242 255 250 250 255 253 250
251 250 246 227 226 224 222 222 224 223 224 228 235 236 240
246 246 248 252 252 252 255 255 255 239 239 239 218 218 218
217 217 217 229 229 229 254 254 254 255 255 255 249 249 249
228 228 228 221 221 221 221 221 221 228 228 228 249 249 249
255 255 253 242 243 237 228 229 223 214 215 210 226 226 226
218 218 220 178 179 184 0 3 8 3 11 14 8 20 18 0 13 1 0 15 0 6 41 1
87 128 72 124 171 101 123 176 94 122 184 83 115 187 62 120 197 65
117 190 72 113 185 77 116 186 88 95 161 71 113 177 90 46 109 20
0 54 0 136 190 104 117 161 86 126 159 102 0 18 0 0 7 0 6 5 13
14 10 24 4 2 7 28 28 28 186 186 186 252 252 252 241 241 241
217 217 217 219 219 219 217 217 217 245 245 245 254 254 254
254 254 254 250 250 250 228 228 228 251 251 251 251 251 251
255 255 255 239 239 239 217 217 217 221 221 221 226 226 226
255 255 255 255 255 255 251 251 251 248 248 248 220 220 220
224 224 224 218 218 218 247 247 247 255 255 255 255 253 255
249 247 250 219 219 219 221 225 224 215 221 217 241 250 245
245 254 249 251 255 253 255 254 255 219 209 217 244 221 237
237 203 227 255 222 253 240 184 221 195 132 175 215 153 194
194 143 174 255 205 234 255 195 226 198 135 166 198 138 166
194 146 168 255 235 250 226 215 223 213 214 218 212 218 218
232 233 235 253 251 252 250 246 245 255 254 253 219 221 218
217 219 216 218 218 218 229 229 229 255 255 255 250 250 250
254 254 254 226 226 226 223 223 223 213 213 213 235 235 235
253 253 253 254 254 254 255 255 255 226 226 226 224 224 224
216 216 216 229 229 229 246 246 246 255 255 255 255 255 255
232 232 232 222 222 222 222 222 222 218 218 218 255 255 255
244 244 244 255 255 255 237 237 237 225 225 225 234 234 234
214 214 214 252 252 252 220 220 220 1 0 0 15 13 14 9 8 14 4 4 4
15 18 1 167 168 134 194 194 140 179 175 112 176 168 106 192 182 120
238 231 163 243 243 171 245 253 178 171 187 122 2 24 0 99 136 82
118 183 91 110 190 79 110 188 76 109 189 74 110 189 72 109 190 70
109 189 68 108 190 66 109 189 66 108 189 68 110 189 70 109 190 72
110 189 74 109 189 76 111 189 79 118 183 93 101 135 85 0 9 0 3 16 0
0 8 0 2 8 8 2 3 8 211 210 218 214 211 218 246 240 244 255 253 253
255 252 249 255 254 250 223 222 220 223 223 225 218 219 223
233 234 238 250 250 252 250 250 250 255 255 255 239 239 239
217 217 217 222 222 222 227 227 227 255 255 255 255 255 255
255 255 255 223 223 223 218 218 218 218 218 218 223 223 223
255 255 255 255 255 253 255 255 250 234 233 228 235 234 230
239 237 238 216 215 220 26 26 34 0 0 7 4 14 15 6 21 14 3 26 8 0 13 0
68 108 56 147 196 130 134 189 106 120 181 86 108 177 70 110 189 64
114 195 67 122 202 79 113 190 74 108 181 73 111 182 80 102 167 73
57 117 31 0 45 0 128 170 104 112 145 92 0 22 0 0 5 0 3 5 4 19 13 25
3 0 11 4 2 7 73 73 73 255 255 255 245 245 245 245 245 245 230 230 230
231 231 231 217 217 217 255 255 255 255 255 255 254 254 254
254 254 254 224 224 224 246 246 246 253 253 253 238 238 238
245 245 245 243 243 243 231 231 231 242 242 242 231 231 231
242 242 242 241 241 241 241 241 241 240 240 240 240 240 240
239 239 239 239 239 239 239 239 239 255 250 254 246 244 247
234 234 234 224 228 227 223 229 225 229 238 233 240 249 244
250 255 252 239 237 240 242 232 240 255 246 255 245 211 235
231 186 217 206 150 187 195 132 175 198 138 176 207 161 189
255 223 246 224 168 195 203 143 171 199 141 166 207 159 181
255 237 252 244 231 240 228 227 232 244 248 249 242 242 244
251 249 250 245 241 240 226 225 223 235 240 236 229 234 230
231 233 232 241 241 241 251 251 251 251 251 251 243 243 243
234 234 234 230 230 230 231 231 231 242 242 242 241 241 241
240 240 240 239 239 239 239 239 239 238 238 238 237 237 237
236 236 236 255 255 255 243 243 243 243 243 243 243 243 243
230 230 230 234 234 234 245 245 245 235 235 235 245 245 245
250 250 250 247 247 247 239 239 239 227 227 227 230 230 230
255 255 255 177 177 175 20 19 15 1 0 0 19 19 21 3 4 0 4 6 0
223 224 180 253 253 193 253 248 182 238 229 164 247 238 171
242 235 163 233 234 158 231 242 166 146 166 97 0 17 0 106 147 87
116 183 86 107 190 74 107 188 70 104 188 67 106 187 66 104 188 64
107 189 63 106 191 64 113 195 69 90 175 48 110 192 68 102 186 64
97 178 58 116 199 81 113 193 78 108 173 81 111 145 95 0 8 0 0 10 0
0 8 0 0 2 2 2 3 8 224 223 231 229 226 233 247 241 245 241 235 235
249 245 242 233 232 228 247 246 244 232 232 234 240 241 245
234 235 239 243 243 245 246 246 246 246 246 246 240 240 240
232 232 232 232 232 232 240 240 240 249 249 249 247 247 247
242 242 242 240 240 240 235 235 235 235 235 235 240 240 240
242 242 242 247 247 245 233 233 225 245 242 235 240 239 237
236 234 237 87 86 92 8 8 16 9 14 20 0 3 2 10 28 16 0 11 0 17 54 11
130 176 114 117 171 95 109 172 81 109 177 74 109 183 72 107 186 67
106 187 66 97 178 57 104 184 63 105 182 66 112 183 77 120 183 92
92 146 71 0 20 0 83 115 76 0 14 0 0 5 0 8 12 11 15 15 17 10 5 11
9 4 8 5 3 6 208 208 208 250 250 250 246 246 246 253 253 253
223 223 223 233 233 233 225 225 225 238 238 238 244 244 244
247 247 247 244 244 244 237 237 237 231 231 231 234 234 234
224 224 224 242 242 242 255 255 255 250 250 250 250 250 250
228 228 228 227 227 227 229 229 229 235 235 235 247 247 247
255 255 255 253 253 253 238 238 238 224 224 224 235 233 236
243 241 244 250 250 250 244 248 247 234 240 236 225 234 229
226 235 230 233 238 234 225 225 225 251 241 249 255 242 254
203 174 194 194 151 179 185 133 169 189 131 171 205 151 185
247 208 229 255 241 255 230 181 202 198 142 167 198 142 167
204 159 180 249 221 236 244 231 241 246 244 249 250 251 255
236 234 237 234 232 233 229 225 226 221 221 219 240 246 242
244 250 246 245 247 246 238 238 238 231 231 231 230 230 230
236 236 236 242 242 242 245 245 245 244 244 244 242 242 242
230 230 230 221 221 221 226 226 226 241 241 241 252 252 252
252 252 252 247 247 247 232 232 232 230 230 230 224 224 224
249 249 249 253 253 253 248 248 248 255 255 255 224 224 224
229 229 229 233 233 233 243 243 243 253 253 253 239 239 239
242 242 242 233 233 233 145 145 143 5 2 0 3 0 0 1 0 0 16 16 6 12 13 0
237 240 185 231 231 161 242 238 164 240 231 162 250 242 170
249 243 165 239 242 161 246 255 182 121 142 73 1 28 0 121 163 99
122 189 92 114 194 81 113 193 78 112 193 75 111 192 72 112 193 72
113 195 71 114 196 70 116 198 72 124 206 82 101 182 61 101 182 62
119 200 82 95 175 60 91 171 58 144 209 117 118 152 102 0 8 0 0 6 0
0 8 0 9 15 15 12 13 18 242 241 249 255 253 255 242 236 240
229 223 223 232 228 225 227 226 222 253 252 250 249 249 251
252 253 255 239 240 244 229 229 231 230 230 230 236 236 236
245 245 245 252 252 252 250 250 250 241 241 241 233 233 233
231 231 231 228 228 228 251 251 251 247 247 247 247 247 247
251 251 251 228 228 228 231 231 229 218 215 210 247 244 239
255 255 253 209 207 212 13 12 20 8 8 16 1 6 10 1 13 9 0 8 0 0 21 0
136 174 123 126 176 107 127 185 101 130 196 99 119 190 84 106 182 73
94 171 65 117 196 87 110 190 75 118 197 78 117 192 74 108 177 68
110 169 79 79 126 58 4 39 0 8 31 11 0 10 8 15 19 28 5 5 15 17 14 23
13 8 12 3 0 0 167 165 166 241 241 241 237 237 237 219 219 219
237 237 237 249 249 249 255 255 255 255 255 255 230 230 230
227 227 227 226 226 226 232 232 232 241 241 241 219 219 219
217 217 217 212 212 212 239 239 239 255 255 255 255 255 255
253 253 253 225 225 225 216 216 216 219 219 219 231 231 231
251 251 251 255 255 255 255 255 255 236 236 236 212 212 212
218 216 219 239 237 240 255 255 255 252 255 255 244 250 246
225 231 227 216 223 216 216 221 217 220 220 220 255 253 255
255 243 253 173 149 165 166 132 156 179 139 166 200 153 185
226 183 211 255 234 249 255 245 255 226 183 200 188 139 160
198 146 169 206 163 183 234 207 222 255 247 255 255 253 255
253 254 255 229 227 230 220 216 217 215 211 212 219 219 217
245 252 245 249 255 253 254 255 255 234 234 234 213 213 213
212 212 212 231 231 231 251 251 251 255 255 255 254 254 254
241 241 241 222 222 222 207 207 207 216 216 216 243 243 243
255 255 255 255 255 255 253 253 253 212 212 212 218 218 218
209 209 209 251 251 251 255 255 255 255 255 255 255 255 255
215 215 215 215 215 215 215 215 215 241 241 241 255 255 255
250 250 250 252 252 252 215 215 215 95 95 93 3 0 0 3 0 0 1 0 0
10 11 0 67 70 25 240 243 176 230 229 149 237 232 150 246 237 160
255 246 167 254 250 163 239 243 158 250 255 187 69 92 24 5 34 0
127 172 107 120 185 93 110 188 79 105 183 73 102 180 68 101 180 65
104 183 66 109 188 69 112 191 72 110 189 70 121 200 81 111 190 73
117 196 81 110 188 76 105 183 73 121 199 90 110 172 86 95 128 81
3 21 0 0 12 0 2 12 4 10 16 16 4 5 10 241 240 248 253 250 255
238 232 236 220 214 214 217 213 210 223 222 218 255 255 253
255 255 255 254 255 255 243 244 248 217 217 219 216 216 216
225 225 225 247 247 247 255 255 255 255 255 255 242 242 242
218 218 218 217 217 217 216 216 216 255 255 255 255 255 255
255 255 255 255 255 255 216 216 216 217 217 215 210 207 202
255 254 251 255 254 255 101 99 104 0 0 7 0 0 7 0 2 4 5 18 9 0 16 0
68 100 61 140 181 123 115 167 93 120 180 92 125 193 94 109 182 75
119 194 91 98 170 84 132 206 119 114 190 90 113 189 80 108 181 64
108 174 64 135 190 97 105 148 79 10 38 0 0 6 0 0 0 11 17 15 36 3 0 19
1 0 12 21 19 24 125 123 124 255 255 255 235 235 235 220 220 220
208 208 208 227 227 227 255 255 255 255 255 255 255 255 255
225 225 225 214 214 214 209 209 209 222 222 222 245 245 245
223 223 223 220 220 220 219 219 219 237 237 237 255 255 255
255 255 255 245 245 245 226 226 226 222 222 222 226 226 226
234 234 234 247 247 247 254 254 254 249 249 249 233 233 233
219 219 221 219 218 223 233 232 237 249 250 252 254 255 255
245 250 246 231 236 232 221 226 220 219 221 216 233 233 231
255 254 255 255 248 254 187 170 180 182 158 174 206 177 197
233 199 223 248 219 239 255 244 252 255 248 254 231 198 209
194 151 168 201 156 176 203 164 183 216 192 206 255 250 255
255 253 255 247 246 252 230 228 233 222 217 221 220 216 217
226 226 224 243 250 243 249 255 251 249 251 250 233 233 233
217 217 217 219 219 219 235 235 235 250 250 250 253 253 253
249 249 249 240 240 240 227 227 227 217 217 217 224 224 224
244 244 244 255 255 255 254 254 254 245 245 245 219 219 219
221 221 221 217 217 217 243 243 243 255 255 255 255 255 255
249 249 249 221 221 221 221 221 221 213 213 213 245 245 245
255 255 255 249 249 249 248 248 248 223 223 223 47 47 45 11 8 3 8 5 0
12 10 11 5 3 0 133 136 83 241 245 168 240 240 150 244 241 148
251 243 158 255 247 162 250 247 154 229 234 144 238 252 175 14 39 0
12 42 0 131 175 114 99 161 76 101 171 75 109 179 81 115 185 86
115 186 84 108 179 73 100 171 65 93 165 57 114 186 78 107 179 71
106 177 73 113 184 82 113 183 84 128 198 100 108 178 82 30 87 8
18 49 5 0 9 0 6 19 2 0 7 0 1 7 7 3 4 9 250 249 255 250 247 254
241 235 239 229 223 223 223 219 216 229 228 224 251 250 248
255 255 255 252 253 255 240 241 245 223 223 225 220 220 220
225 225 225 241 241 241 255 255 255 255 255 255 240 240 240
221 221 221 218 218 218 222 222 222 249 249 249 253 253 253
253 253 253 249 249 249 222 222 222 218 218 216 227 226 222
255 254 253 201 199 202 1 0 6 3 2 10 0 1 6 4 13 10 0 9 0 30 53 25
146 179 134 111 153 90 68 119 42 0 60 0 0 53 0 0 51 0 0 64 0
37 105 32 79 145 74 92 160 75 120 190 91 117 184 78 117 180 75
137 187 98 75 111 47 0 20 0 0 7 0 15 14 28 1 0 19 10 5 28 0 0 14
118 119 124 249 251 250 250 250 250 216 216 216 221 221 221
225 225 225 233 233 233 249 249 249 241 241 241 240 240 240
232 232 232 222 222 222 217 217 217 227 227 227 244 244 244
241 241 241 239 239 239 240 240 240 237 237 237 234 234 234
234 234 234 231 231 231 233 233 233 241 241 241 243 243 243
243 243 243 236 236 236 228 228 228 226 226 226 233 233 233
240 240 242 238 237 242 231 232 236 227 228 230 230 232 231
238 240 237 242 244 241 240 242 237 237 238 232 246 245 241
233 229 226 247 241 241 219 208 212 219 206 215 240 224 235
255 242 255 255 239 250 233 227 227 242 232 231 228 203 209
196 160 172 187 148 166 176 142 159 178 156 169 229 217 229
238 235 244 234 233 239 237 235 240 238 233 237 240 236 237
240 240 238 231 241 233 233 243 235 230 232 231 235 235 235
239 239 239 244 244 244 245 245 245 241 241 241 236 236 236
232 232 232 238 238 238 241 241 241 243 243 243 244 244 244
241 241 241 236 236 236 231 231 231 229 229 229 245 245 245
238 238 238 243 243 243 231 231 231 230 230 230 237 237 237
227 227 227 239 239 239 241 241 241 227 227 227 251 251 251
235 235 235 238 238 238 234 234 234 234 234 234 15 15 13 14 11 6
17 13 10 5 3 4 10 9 0 168 172 113 245 249 162 239 239 141 252 248 149
252 243 152 252 245 155 244 241 144 224 231 138 217 233 158 0 20 0
37 72 18 138 181 125 125 181 108 122 183 103 123 185 102 123 185 100
123 185 99 122 185 94 121 184 93 120 184 90 112 176 82 114 178 84
110 173 84 115 177 91 133 195 110 85 147 64 0 58 0 0 32 0 19 47 6
0 12 0 8 21 4 0 4 0 0 2 2 0 0 5 239 238 246 232 229 236 247 241 245
248 242 242 244 240 237 243 242 238 237 236 234 237 237 239
233 234 238 234 235 239 241 241 243 238 238 238 235 235 235
232 232 232 233 233 233 235 235 235 237 237 237 238 238 238
233 233 233 241 241 241 231 231 231 239 239 239 239 239 239
231 231 231 241 241 241 233 233 233 251 250 248 255 254 255 89 87 92
0 0 7 0 0 7 15 19 22 16 22 18 0 6 0 94 118 84 41 73 23 0 39 0 0 43 0
17 76 0 31 97 0 28 95 0 7 75 0 0 50 0 0 27 0 0 39 0 56 118 33
99 160 67 122 177 84 121 164 85 25 56 0 0 13 0 2 8 0 10 7 16 7 0 20
10 5 25 138 137 151 222 227 231 233 239 239 222 224 223 234 234 234
238 238 238 246 246 246 246 246 246 237 237 237 236 236 236
235 235 235 246 246 246 245 245 245 243 243 243 241 241 241
240 240 240 255 255 255 254 254 254 255 255 255 237 237 237
218 218 218 218 218 218 223 223 223 244 244 244 255 255 255
255 255 255 247 247 247 229 229 229 213 213 213 215 215 215
237 237 237 255 255 255 254 255 255 235 236 241 216 217 221
214 215 217 230 232 231 248 249 244 255 255 250 255 254 249
249 248 243 206 205 200 230 226 223 233 229 228 244 240 241
255 251 255 255 253 255 245 243 246 205 207 202 216 215 210
224 205 207 211 181 191 200 166 180 192 160 175 193 172 187
220 208 220 223 220 229 223 222 228 242 239 246 251 246 250
255 252 255 252 252 250 224 233 228 215 226 218 218 220 219
237 237 237 255 255 255 255 255 255 250 250 250 233 233 233
223 223 223 220 220 220 236 236 236 251 251 251 255 255 255
255 255 255 236 236 236 219 219 219 216 216 216 221 221 221
255 255 255 253 253 253 255 255 255 225 225 225 212 212 212
223 223 223 215 215 215 255 255 255 255 255 255 243 243 243
252 252 252 217 217 217 228 228 228 226 226 226 207 207 207 0 0 0
7 3 2 8 4 3 4 2 7 7 6 0 202 204 139 230 235 141 237 238 134
248 245 140 248 239 144 250 244 150 242 240 140 232 239 144
196 212 139 5 30 0 61 95 45 124 166 116 129 177 117 126 178 112
124 175 108 122 175 105 122 174 102 122 176 100 125 177 102
126 180 102 127 180 102 116 170 92 118 170 96 69 122 50 9 60 0 0 33 0
11 62 0 103 146 90 94 120 83 10 28 4 6 19 2 0 5 0 0 2 2 0 0 5
220 219 227 214 211 218 250 244 248 255 253 253 255 254 251
254 253 249 226 225 223 220 220 222 218 219 223 231 232 236
255 255 255 254 254 254 246 246 246 230 230 230 216 216 216
218 218 218 235 235 235 251 251 251 250 250 250 255 255 255
221 221 221 227 227 227 227 227 227 221 221 221 255 255 255
250 250 250 254 252 253 222 220 223 12 9 16 2 1 9 5 5 13 12 16 19
9 16 8 2 15 0 23 45 7 6 39 0 50 91 21 86 135 53 135 191 104
129 192 101 118 185 92 105 169 85 120 175 110 101 152 93 43 98 30
0 34 0 0 33 0 73 121 47 105 141 80 7 33 0 5 17 0 14 15 10 3 0 7
7 0 14 90 87 98 246 250 253 222 231 226 206 216 208 212 214 211
253 253 253 247 247 247 255 255 255 255 255 255 226 226 226
224 224 224 214 214 214 253 253 253 255 255 255 255 255 255
251 251 251 234 234 234 255 255 255 254 254 254 255 255 255
238 238 238 216 216 216 220 220 220 227 227 227 255 255 255
255 255 255 255 255 255 245 245 245 230 230 230 220 220 220
225 225 225 243 243 243 255 255 255 254 255 255 241 244 249
224 225 229 218 219 221 229 229 229 245 244 240 255 255 250
255 255 248 253 253 245 208 208 200 220 221 213 224 227 220
247 249 244 252 255 253 252 255 255 243 249 247 215 227 217
222 227 220 235 223 223 246 221 227 245 215 227 249 221 235
255 237 252 245 235 246 220 217 226 218 217 223 245 240 247
253 247 251 255 253 255 255 255 253 221 230 225 212 223 215
219 221 220 238 238 238 255 255 255 255 255 255 246 246 246
231 231 231 223 223 223 222 222 222 236 236 236 251 251 251
255 255 255 254 254 254 231 231 231 216 216 216 218 218 218
228 228 228 254 254 254 255 255 255 255 255 255 232 232 232
219 219 219 222 222 222 221 221 221 255 255 255 255 255 255
250 250 250 245 245 245 213 213 213 228 228 228 231 231 231
138 138 138 0 0 0 3 0 0 5 0 4 11 6 13 27 25 10 230 233 166
229 233 136 239 238 130 245 241 133 248 240 142 252 246 150
245 243 142 240 247 152 162 179 108 4 31 0 43 79 31 58 100 54
46 88 40 57 101 50 74 117 64 85 130 75 86 129 73 73 119 57 56 100 39
43 89 25 24 68 5 0 26 0 0 24 0 0 34 0 0 43 0 62 106 53 126 168 118
137 174 130 109 135 100 0 10 0 0 11 0 0 5 0 2 8 8 13 14 19
234 233 241 226 223 230 246 240 244 255 253 253 255 254 251
255 255 251 223 222 220 220 220 222 218 219 223 235 236 240
255 255 255 255 255 255 251 251 251 236 236 236 221 221 221
220 220 220 235 235 235 251 251 251 255 255 255 255 255 255
226 226 226 225 225 225 225 225 225 226 226 226 255 255 255
255 255 255 253 251 254 147 145 150 0 0 7 5 3 14 18 18 26 0 1 2
3 11 0 11 25 0 4 27 0 107 138 79 124 164 91 117 166 84 116 172 85
128 188 100 129 193 106 106 168 83 125 178 98 123 174 97 127 179 104
85 136 67 25 70 11 0 33 0 0 15 0 0 14 0 13 17 18 13 10 19 14 6 19
18 11 19 224 223 221 242 248 234 200 216 189 223 237 212 213 218 211
250 250 250 246 246 246 255 255 255 255 255 255 218 218 218
217 217 217 210 210 210 248 248 248 255 255 255 255 255 255
248 248 248 231 231 231 250 250 250 247 247 247 255 255 255
238 238 238 223 223 223 231 231 231 234 234 234 255 255 255
254 254 254 249 249 249 240 240 240 234 234 234 234 234 234
240 240 240 248 248 248 254 254 255 254 255 255 249 250 255
238 239 243 231 231 233 231 231 231 240 239 237 250 249 245
255 255 250 255 255 248 223 224 216 223 224 218 215 218 211
244 249 243 251 255 253 249 255 255 249 255 253 230 241 233
227 232 225 230 222 220 246 230 233 249 228 237 255 239 251
255 250 255 227 220 228 225 222 229 217 216 222 243 238 244
247 242 246 255 252 253 255 255 255 225 231 227 219 225 221
227 229 228 238 238 238 249 249 249 249 249 249 241 241 241
232 232 232 229 229 229 230 230 230 235 235 235 247 247 247
254 254 254 246 246 246 228 228 228 220 220 220 227 227 227
239 239 239 239 239 239 255 255 255 255 255 255 240 240 240
235 235 235 228 228 228 232 232 232 255 255 253 251 251 249
250 250 248 239 239 237 217 217 215 233 233 231 239 239 237 78 78 76
0 0 0 0 0 0 19 17 18 5 1 0 73 71 48 233 234 164 255 255 162
234 231 128 252 247 145 251 242 147 255 251 157 245 247 148
239 249 160 129 148 84 0 17 0 5 44 0 0 29 0 0 32 0 0 34 0 0 35 0
0 35 0 0 33 0 0 35 0 0 32 0 0 33 0 3 53 0 60 112 40 77 129 57
98 149 80 122 173 106 121 172 106 125 175 112 127 167 115 97 121 89
0 6 0 14 24 13 3 10 3 0 2 3 20 21 25 234 233 239 213 211 216
239 234 238 255 252 251 253 249 246 255 255 251 224 223 221
228 228 230 225 224 229 242 241 246 253 253 255 254 254 254
252 252 252 243 243 243 233 233 233 230 230 230 236 236 236
244 244 244 255 255 255 250 250 250 236 236 236 228 228 228
228 228 228 236 236 236 250 250 250 255 255 255 255 254 255 74 71 78
0 0 9 24 24 34 0 2 8 0 4 0 4 22 0 0 21 0 117 148 91 137 177 106
119 166 85 119 172 84 112 168 79 106 166 76 127 190 99 123 187 93
117 174 79 125 180 87 142 196 110 123 175 101 106 151 94 61 98 57
0 12 0 0 5 0 2 5 12 9 5 19 10 2 15 108 101 109 255 255 251
250 254 240 216 228 204 224 236 214 236 239 232 248 248 248
248 248 248 255 255 255 244 244 244 215 215 215 232 232 232
245 245 245 239 239 239 244 244 244 247 247 247 241 241 241
230 230 230 218 218 218 225 225 225 218 218 218 245 245 245
255 255 255 254 254 254 247 247 247 218 218 218 219 219 219
227 227 227 227 227 227 253 253 253 248 248 248 255 255 255
229 229 229 219 219 219 220 220 222 230 230 232 255 255 255
249 249 249 253 253 253 227 227 227 227 227 225 218 218 216
226 226 224 247 247 245 255 255 253 253 253 251 228 230 227
213 215 214 220 222 221 234 236 235 246 251 247 254 255 253
255 255 253 247 241 243 229 223 225 225 219 223 238 233 237
252 250 253 255 255 255 249 249 251 237 235 238 227 225 226
227 225 226 236 236 236 248 250 249 254 255 255 255 255 255
242 242 242 226 226 226 221 221 221 230 230 230 243 243 243
253 253 253 255 255 255 249 249 249 223 223 223 217 217 217
214 214 214 252 252 252 255 255 255 255 255 255 237 237 237
215 215 217 218 218 220 222 222 222 251 251 251 253 253 251
247 247 245 255 255 253 226 227 222 228 229 224 207 208 203
254 255 250 250 251 246 255 255 251 255 255 251 12 13 8 5 7 4 6 10 9
24 27 20 5 7 0 135 134 90 235 233 156 250 245 153 250 240 153
240 228 144 245 235 148 246 242 153 240 245 155 251 255 188 74 97 43
0 16 0 124 169 100 140 195 111 107 172 78 101 171 73 97 166 73
94 163 72 96 162 74 97 166 77 103 170 77 104 174 78 113 181 80
117 188 84 122 194 86 119 191 83 111 182 78 108 179 77 112 184 85
126 182 107 77 100 71 7 14 7 0 2 0 13 18 14 5 7 6 63 64 66
245 245 247 246 246 248 246 244 245 223 221 222 221 220 218
220 219 217 255 254 255 255 254 255 255 253 255 232 230 233
215 215 215 219 219 219 230 230 230 245 245 245 255 255 255
253 253 253 237 237 237 223 223 223 215 215 215 227 227 227
247 247 247 255 255 255 255 255 255 247 247 247 227 227 227
216 214 215 204 199 203 16 13 20 2 0 13 0 2 13 8 22 23 0 15 0 0 29 0
114 158 95 136 188 106 130 186 95 124 184 88 122 184 87 122 184 87
123 185 86 121 184 80 116 182 74 109 177 64 129 197 86 127 192 92
120 178 91 123 173 104 97 137 85 0 12 0 10 28 12 5 14 11 8 11 16
2 1 9 193 190 199 226 221 228 244 239 243 255 255 253 242 242 240
240 240 240 224 224 224 231 231 231 227 227 227 239 239 239
255 255 255 250 250 250 255 255 255 228 228 228 224 224 224
222 222 222 230 230 230 242 242 242 217 217 217 220 220 220
213 213 213 241 241 241 255 255 255 255 255 255 252 252 252
223 223 223 225 225 225 225 225 225 225 225 225 242 242 242
250 250 250 255 255 255 237 237 237 224 224 224 225 225 225
238 238 238 255 255 255 250 250 250 242 242 242 224 224 224
224 224 224 224 224 224 231 231 231 250 250 250 255 255 255
255 255 255 231 231 231 213 213 213 216 216 216 227 227 227
253 253 253 255 255 255 255 255 255 241 241 241 219 219 219
213 213 213 229 229 229 248 248 248 251 251 251 245 245 245
236 236 236 229 229 229 229 229 229 236 236 236 245 245 245
251 251 251 250 250 250 235 235 235 221 221 221 221 221 221
235 235 235 248 248 248 252 252 252 250 250 250 244 244 244
222 222 222 211 211 211 215 215 215 246 246 246 255 255 255
255 255 255 247 247 247 214 214 214 216 216 216 222 222 222
253 253 253 255 255 253 254 254 252 253 254 249 219 220 215
216 217 212 211 212 206 248 249 244 255 255 251 254 255 250
199 200 195 4 5 0 6 8 5 3 9 7 11 17 5 1 4 0 187 188 131 252 249 168
255 253 162 255 243 159 244 232 150 244 234 145 251 250 158
238 246 160 230 248 172 34 61 8 17 54 0 130 179 100 123 185 86
116 190 79 109 189 74 107 185 76 104 181 75 104 181 79 107 184 82
110 187 83 113 191 81 108 187 72 112 192 71 114 196 70 110 192 66
105 186 65 104 185 65 110 190 75 126 188 103 49 72 43 4 8 7 3 5 4
12 14 13 4 6 5 84 86 85 255 255 255 252 252 252 238 238 238
220 220 220 216 214 215 224 222 223 254 252 253 255 254 255
255 254 255 239 237 238 222 220 221 219 219 219 224 224 224
239 239 239 254 254 254 255 255 255 242 242 242 228 228 228
216 216 216 220 220 220 254 254 254 255 255 255 255 255 255
254 254 254 220 220 220 217 215 216 181 175 175 5 1 2 12 11 19 1 8 14
0 6 0 0 23 0 81 121 69 129 181 107 120 179 89 122 187 87 124 188 91
124 188 92 124 188 94 125 186 91 119 179 79 109 172 65 107 180 63
110 183 68 118 185 80 112 172 82 106 156 85 74 114 61 0 19 0 0 8 0
0 4 0 3 8 11 39 39 47 212 209 220 234 228 240 240 232 243 255 248 255
251 246 253 248 246 249 225 225 225 224 224 224 218 218 218
234 234 234 255 255 255 251 251 251 255 255 255 236 236 236
227 227 227 222 222 222 229 229 229 243 243 243 224 224 224
223 223 223 216 216 216 236 236 236 255 255 255 255 255 255
252 252 252 232 232 232 215 215 215 218 218 218 236 236 236
250 250 250 255 255 255 255 255 255 235 235 235 212 212 212
213 213 213 236 236 236 255 255 255 255 255 255 250 250 250
236 236 236 218 218 218 214 214 214 237 237 237 249 249 249
255 255 255 252 252 252 235 235 235 222 222 222 219 219 219
223 223 223 250 250 250 255 255 255 253 253 253 237 237 237
219 219 219 214 214 214 227 227 227 243 243 243 255 255 255
247 247 247 228 228 228 215 215 215 215 215 215 228 228 228
247 247 247 255 255 255 255 255 255 238 238 238 215 215 215
207 207 207 220 220 220 239 239 239 253 253 253 255 255 255
237 237 237 228 228 228 215 215 215 226 226 226 237 237 237
255 255 255 254 254 254 252 252 252 221 221 221 222 222 220
228 228 226 251 251 249 255 255 253 252 252 250 246 246 244
218 218 216 215 215 213 218 219 214 246 246 244 254 254 252
252 252 250 108 108 106 0 0 0 4 6 5 0 2 3 0 3 0 24 28 0 238 239 179
246 244 159 247 241 145 251 242 147 255 249 151 246 241 139
248 249 147 236 247 153 203 225 143 0 25 0 68 108 46 129 181 99
117 179 82 121 195 84 116 195 80 114 192 82 112 189 83 112 189 87
114 191 89 116 193 89 118 196 86 109 188 73 110 190 69 110 190 67
107 187 62 104 184 63 106 187 69 114 194 81 130 192 109 15 38 10
0 2 1 7 9 8 8 10 9 2 4 3 108 110 109 255 255 255 252 252 252
231 231 231 226 226 226 219 217 218 234 232 233 244 242 243
255 254 255 253 249 250 246 244 245 212 210 211 217 217 217
232 232 232 252 252 252 255 255 255 255 255 255 237 237 237
216 216 216 220 220 220 218 218 218 255 255 255 255 255 255
255 255 255 255 255 255 218 218 218 221 220 216 135 131 122 4 0 0
4 4 2 11 17 15 2 18 7 0 29 0 120 159 106 119 169 96 97 153 66
109 170 77 114 174 86 100 159 75 90 149 69 101 158 79 122 177 94
131 190 98 105 172 67 122 191 84 122 186 89 114 169 86 124 170 105
53 91 42 0 23 0 3 21 5 0 8 2 10 14 17 85 85 93 215 212 223
225 219 229 225 219 229 253 248 255 255 253 255 249 247 250
229 229 229 224 224 224 219 219 219 231 231 231 249 249 249
245 245 245 249 249 249 223 223 223 217 217 217 216 216 216
228 228 228 246 246 246 242 242 242 240 240 240 233 233 233
233 233 233 234 234 234 235 235 235 241 241 241 242 242 242
240 240 240 235 235 235 243 243 243 230 230 230 242 242 242
230 230 230 241 241 241 238 238 238 238 238 238 242 242 242
231 231 231 242 242 242 229 229 229 243 243 243 234 234 234
240 240 240 244 244 244 238 238 238 233 233 233 234 234 234
239 239 239 242 242 242 238 238 238 233 233 233 236 236 236
236 236 236 235 235 235 233 233 233 233 233 233 234 234 234
236 236 236 238 238 238 234 234 234 235 235 235 237 237 237
238 238 238 238 238 238 237 237 237 235 235 235 234 234 234
232 232 232 233 233 233 235 235 235 236 236 236 235 235 235
234 234 234 234 234 234 233 233 233 230 230 230 241 241 241
237 237 237 248 248 248 230 230 230 239 239 239 234 234 234
244 244 244 240 240 238 240 240 238 240 240 238 241 241 239
237 237 235 234 234 232 236 236 234 232 232 232 239 239 239
234 234 234 244 244 244 237 237 237 232 232 232 29 29 29 2 2 4 0 1 3
5 9 12 0 2 0 100 105 64 246 248 183 233 231 144 238 233 133
246 239 135 255 250 143 251 249 136 235 239 129 236 250 152
169 193 107 0 18 0 95 138 66 126 178 93 121 185 88 112 186 75
109 188 73 108 186 76 107 185 76 107 184 80 108 185 81 109 186 80
109 187 77 110 189 72 108 188 67 105 185 62 103 183 60 104 183 64
108 187 72 116 194 85 131 190 110 0 21 0 0 1 0 7 9 8 6 8 7 0 1 0
121 123 122 244 244 244 239 239 239 232 232 232 242 242 242
238 236 237 248 246 247 230 228 229 240 238 239 237 233 234
245 243 244 238 236 237 237 237 237 237 237 237 236 236 236
236 236 236 237 237 237 239 239 239 241 241 241 251 251 251
237 237 237 238 238 238 224 224 224 224 224 224 238 238 238
237 237 237 252 251 247 97 91 79 6 0 0 7 6 1 2 9 2 0 7 0 18 45 14
134 173 118 119 167 93 90 144 58 29 88 0 0 46 0 0 47 0 0 44 0 0 30 0
0 45 0 26 81 0 85 149 53 121 185 88 133 191 104 120 172 98
122 163 105 5 37 0 0 10 0 16 32 19 0 3 0 7 10 15 134 134 142
242 241 249 246 243 252 231 226 233 237 232 238 248 246 249
236 236 236 236 236 236 240 240 240 238 238 238 236 236 236
235 235 235 229 229 229 230 230 230 240 240 240 240 240 240
240 240 240 238 238 238 237 237 237 255 255 255 255 255 255
255 255 255 233 233 233 212 212 212 212 212 212 227 227 227
249 249 249 255 255 255 253 253 253 253 253 253 221 221 221
218 218 218 209 209 209 240 240 240 255 255 255 255 255 255
241 241 241 209 209 209 218 218 218 221 221 221 252 252 252
252 252 252 255 255 255 248 248 248 226 226 226 208 208 208
216 216 216 242 242 242 255 255 255 255 255 255 247 247 247
222 222 222 215 215 215 215 215 215 231 231 231 252 252 252
255 255 255 249 249 249 234 234 234 217 217 217 228 228 228
244 244 244 255 255 255 255 255 255 244 244 244 228 228 228
217 217 217 213 213 213 235 235 235 255 255 255 255 255 255
245 245 245 226 226 226 217 217 217 216 216 216 227 227 227
254 254 254 255 255 255 255 255 255 227 227 227 221 221 221
214 214 214 230 230 230 255 255 253 255 255 251 252 252 250
230 230 228 214 214 214 214 214 214 229 229 229 252 252 254
255 255 255 255 255 255 235 235 237 224 224 226 171 171 173 0 0 2
4 3 8 0 0 4 16 17 21 0 2 0 191 194 149 241 242 172 242 240 153
251 246 146 244 238 128 240 237 120 245 246 126 228 237 122
242 255 159 117 143 54 0 26 0 107 155 71 128 182 94 122 186 89
107 181 70 104 183 66 105 183 71 106 184 75 105 184 79 104 183 78
103 182 75 103 183 72 110 191 73 106 187 66 104 184 61 103 183 62
107 184 68 111 188 76 114 189 84 126 183 106 0 21 0 0 2 1 5 7 6 6 8 7
0 1 0 131 133 132 219 219 219 223 223 223 237 237 237 255 255 255
255 254 255 255 254 255 219 217 218 217 215 216 220 216 217
240 238 239 255 254 255 255 255 255 247 247 247 228 228 228
212 212 212 215 215 215 237 237 237 255 255 255 255 255 255
251 251 251 225 225 225 221 221 221 221 221 221 225 225 225
251 251 251 255 255 251 62 55 45 8 1 0 7 6 2 2 7 1 0 6 0 81 106 76
127 164 110 45 93 19 0 36 0 4 63 0 41 99 15 74 131 54 89 142 72
68 121 51 25 77 5 0 40 0 0 55 0 34 89 5 90 142 67 115 161 97
118 154 106 8 35 2 0 16 0 0 5 0 1 6 9 8 11 18 156 156 164 254 253 255
255 254 255 239 237 240 225 223 224 223 222 220 221 221 221
243 243 243 255 255 255 255 255 255 244 244 244 222 222 222
215 215 215 212 212 212 248 248 248 255 255 255 255 255 255
249 249 249 228 228 228 255 255 255 255 255 255 255 255 255
235 235 235 209 209 209 209 209 209 223 223 223 252 252 252
251 251 251 254 254 254 255 255 255 234 234 234 221 221 221
214 214 214 235 235 235 252 252 252 253 253 253 236 236 236
214 214 214 221 221 221 234 234 234 255 255 255 254 254 254
251 251 251 248 248 248 225 225 225 205 205 205 214 214 214
243 243 243 255 255 255 255 255 255 252 252 252 223 223 223
213 213 213 212 212 212 231 231 231 255 255 255 255 255 255
253 253 253 233 233 233 226 226 226 233 233 233 243 243 243
250 250 250 250 250 250 243 243 243 233 233 233 226 226 226
221 221 221 241 241 241 255 255 255 255 255 255 238 238 238
222 222 222 220 220 220 225 225 225 228 228 228 254 254 254
255 255 255 255 255 255 232 232 232 216 216 216 213 213 213
226 226 224 255 255 251 255 255 251 255 255 251 226 226 224
212 212 212 215 215 217 225 225 227 255 254 255 255 254 255
255 254 255 230 229 235 215 214 219 87 86 91 4 3 8 5 4 9 0 0 4 0 0 2
10 11 0 230 232 182 248 248 176 253 248 166 250 246 149 241 237 127
245 244 126 233 237 117 236 246 134 235 252 158 58 86 0 18 58 0
121 172 79 130 189 95 113 179 79 109 183 70 108 187 70 110 188 76
112 190 80 111 190 83 109 188 81 107 186 77 105 185 72 110 191 73
107 188 68 105 185 64 108 186 67 111 188 74 114 187 80 111 181 82
116 170 95 2 22 0 4 8 7 3 5 4 2 4 3 1 3 2 156 158 157 213 213 213
218 218 218 240 240 240 255 255 255 255 254 255 255 254 255
222 220 221 212 210 211 220 216 217 237 235 236 253 251 252
255 255 255 255 255 255 238 238 238 218 218 218 215 215 215
232 232 232 251 251 251 250 250 250 255 255 255 222 222 222
227 227 227 227 227 227 222 222 222 255 255 255 251 250 248 27 22 16
8 3 0 4 2 3 7 13 11 9 25 14 66 92 63 37 76 21 0 35 0 54 108 20
108 167 73 136 194 107 116 175 91 110 167 90 133 187 111 132 187 106
105 158 78 52 105 25 0 32 0 0 31 0 72 113 57 134 166 125 15 40 11
0 7 0 6 17 11 14 19 23 12 12 20 152 151 159 245 244 250 247 245 248
244 242 243 230 229 225 222 221 217 219 219 217 247 247 247
255 255 255 255 255 255 247 247 247 220 220 220 218 218 218
214 214 214 240 240 240 252 252 252 255 255 255 249 249 249
229 229 229 243 243 243 242 242 242 255 255 255 238 238 238
226 226 226 231 231 231 231 231 231 252 252 252 250 250 250
250 250 250 240 240 240 236 236 236 224 224 224 233 233 233
240 240 240 253 253 253 253 253 253 241 241 241 233 233 233
224 224 224 236 236 236 239 239 239 249 249 249 249 249 249
246 246 246 237 237 237 230 230 230 232 232 232 241 241 241
247 247 247 245 245 245 240 240 240 241 241 241 232 232 232
226 226 226 233 233 233 245 245 245 251 251 251 244 244 244
235 235 235 230 230 230 236 236 236 245 245 245 251 251 251
251 251 251 245 245 245 236 236 236 230 230 230 225 225 225
236 236 236 247 247 247 251 251 251 245 245 245 236 236 236
230 230 230 228 228 228 232 232 232 239 239 239 251 251 251
243 243 243 239 239 239 228 228 228 234 234 234 237 237 235
243 244 238 245 246 240 249 250 245 232 232 230 235 235 235
238 238 240 226 225 230 249 248 254 242 241 247 243 242 248
247 246 254 193 192 198 24 23 29 12 11 17 15 14 19 0 0 2 1 0 0
19 18 0 147 147 93 230 227 156 244 238 162 246 240 154 241 237 137
252 251 143 234 240 132 241 253 155 199 218 137 20 49 0 59 103 8
131 186 85 123 185 86 106 174 71 109 183 68 110 188 69 112 191 76
115 193 83 114 193 84 109 191 81 106 188 77 103 186 72 111 192 74
108 189 69 108 187 68 113 190 74 119 191 83 115 186 84 106 173 78
104 155 86 0 15 0 10 14 13 4 6 5 0 1 0 6 8 7 196 198 197 233 233 233
228 228 228 236 236 236 241 241 241 251 249 250 241 239 240
237 235 236 227 225 226 238 234 235 241 239 240 254 252 253
251 251 251 244 244 244 234 234 234 226 226 226 229 229 229
239 239 239 249 249 249 255 255 255 254 254 254 224 224 224
222 222 222 222 222 222 224 224 224 254 254 254 255 254 255 22 16 20
23 18 24 12 10 21 0 4 10 0 6 0 0 12 0 0 39 0 71 124 46 134 194 98
114 179 75 109 174 74 120 184 88 124 185 92 114 175 82 117 177 81
133 189 98 140 191 114 108 153 86 38 79 21 0 27 0 38 68 32 22 44 21
11 27 16 0 9 8 0 1 6 4 4 12 143 142 150 249 248 253 245 245 245
250 250 248 235 236 230 220 221 215 235 235 233 248 248 248
241 241 241 247 247 247 241 241 241 228 228 228 240 240 240
235 235 235 247 247 247 250 250 250 250 250 250 244 244 244
235 235 235 225 225 225 221 221 221 242 242 242 240 240 240
245 245 245 255 255 255 242 242 242 250 250 250 223 223 223
233 233 233 233 233 233 255 255 255 255 255 255 255 255 255
236 236 236 227 227 227 228 228 228 237 237 237 255 255 255
255 255 255 255 255 255 233 233 233 232 232 232 223 223 223
244 244 244 250 250 250 255 255 255 251 251 251 240 240 240
229 229 229 226 226 226 226 226 226 255 255 255 253 253 253
243 243 243 234 234 234 230 230 230 231 231 231 234 234 234
236 236 236 255 255 255 249 249 249 236 236 236 226 226 226
226 226 226 236 236 236 249 249 249 255 255 255 254 254 254
239 239 239 223 223 223 219 219 219 228 228 228 242 242 242
252 252 252 255 255 255 236 236 236 224 224 224 229 229 229
221 221 221 245 245 245 243 243 243 255 255 255 251 251 249
225 226 220 228 229 221 241 242 237 241 241 239 255 255 255
255 254 255 229 228 234 235 234 240 215 214 222 215 214 222
255 254 255 167 166 172 0 0 5 8 7 12 28 27 32 1 0 0 14 12 0 15 12 0
14 12 0 184 181 110 234 227 159 255 250 177 245 239 151 239 238 145
245 250 160 238 249 170 161 180 114 5 36 0 93 140 44 133 192 86
107 174 69 105 177 69 104 179 61 105 183 64 108 187 72 110 190 77
110 190 79 105 187 76 101 184 70 98 181 65 111 192 74 109 190 70
111 189 70 118 192 79 125 194 88 119 185 88 104 167 78 97 146 81
0 8 0 14 18 17 6 8 7 0 1 0 11 13 12 229 231 230 255 255 255
241 241 241 231 231 231 223 223 223 232 230 231 227 225 226
251 249 250 246 244 245 255 252 253 246 244 245 229 227 228
232 232 232 241 241 241 253 253 253 255 255 255 255 255 255
237 237 237 222 222 222 219 219 219 232 232 232 246 246 246
255 255 255 255 255 255 246 246 246 232 232 232 220 218 221 34 29 36
11 8 19 4 6 19 0 5 12 0 10 3 0 16 0 62 107 48 143 198 115 131 193 92
118 186 75 113 181 72 116 185 79 120 187 84 119 184 82 122 185 80
129 186 91 113 161 85 141 183 119 134 173 118 53 86 41 6 33 0 0 9 0
9 22 13 7 16 15 2 5 12 5 5 13 126 125 131 231 230 235 220 220 220
244 245 240 251 252 246 247 248 242 252 252 250 247 247 247
219 219 219 224 224 224 233 233 233 238 238 238 255 255 255
255 255 255 230 230 230 226 226 226 226 226 226 234 234 234
246 246 246 215 215 215 221 221 221 211 211 211 237 237 237
255 255 255 252 252 252 252 252 252 226 226 226 215 215 215
217 217 217 235 235 235 254 254 254 249 249 249 255 255 255
220 220 220 217 217 217 220 220 220 230 230 230 255 255 255
247 247 247 251 251 251 226 226 226 225 225 225 217 217 217
214 214 214 251 251 251 248 248 248 255 255 255 227 227 227
213 213 213 219 219 219 226 226 226 255 255 255 248 248 248
255 255 255 228 228 228 213 213 213 226 226 226 236 236 236
255 255 255 255 255 255 255 255 255 239 239 239 220 220 220
225 225 225 211 211 211 254 254 254 255 255 255 251 251 251
242 242 242 218 218 218 227 227 227 224 224 224 252 252 252
253 253 253 255 255 255 243 243 243 219 219 219 214 214 214
212 212 212 252 252 252 255 255 255 255 255 255 241 241 239
229 230 224 230 231 223 225 226 221 244 244 242 252 252 252
255 254 255 255 254 255 203 202 210 222 220 231 226 225 233
255 254 255 39 38 44 8 7 12 0 0 2 13 13 13 14 14 6 63 61 36
188 185 142 72 68 5 21 16 0 160 151 92 243 235 173 255 255 187
247 245 171 233 238 171 242 253 195 92 112 63 0 27 0 121 170 78
114 176 67 107 177 65 134 208 93 110 188 68 110 188 68 109 188 71
108 188 73 108 188 77 106 188 77 105 189 75 105 190 71 109 193 72
112 193 73 97 174 58 118 190 80 116 182 82 116 179 88 134 193 111
80 124 65 7 24 5 0 1 0 0 1 0 0 1 0 39 41 40 244 246 245 255 255 255
255 255 255 239 239 239 217 217 217 218 216 217 218 216 217
255 254 255 255 254 255 255 254 255 236 234 235 214 212 213
222 222 222 217 217 217 246 246 246 255 255 255 252 252 252
244 244 244 213 213 213 216 216 216 219 219 219 249 249 249
252 252 252 252 252 252 249 249 249 219 219 219 216 216 218 41 39 44
0 0 7 7 14 24 0 11 14 0 18 8 61 96 63 125 174 109 118 178 88
105 173 64 107 180 63 114 187 72 126 198 88 132 201 95 134 203 97
102 170 61 130 190 92 109 160 81 114 156 92 132 171 116 139 172 127
84 111 78 1 23 2 0 5 0 25 34 33 5 8 13 0 0 7 97 96 102 226 225 230
204 204 204 225 226 221 255 255 248 254 255 247 255 255 253
225 225 225 230 230 230 226 226 226 230 230 230 255 255 255
253 253 253 246 246 246 240 240 240 224 224 224 227 227 227
225 225 225 255 255 255 222 222 222 225 225 225 223 223 223
236 236 236 246 246 246 247 247 247 248 248 248 239 239 239
213 213 213 223 223 223 242 242 242 255 255 255 255 255 255
254 254 254 224 224 224 214 214 214 216 216 216 228 228 228
251 251 251 255 255 255 255 255 255 238 238 238 226 226 226
213 213 213 231 231 231 246 246 246 243 243 243 249 249 249
232 232 232 224 224 224 226 226 226 228 228 228 253 253 253
246 246 246 245 245 245 231 231 231 223 223 223 230 230 230
236 236 236 251 251 251 255 255 255 251 251 251 232 232 232
215 215 215 217 217 217 220 220 220 250 250 250 255 255 255
255 255 255 246 246 246 223 223 223 218 218 218 217 217 217
237 237 237 250 250 250 255 255 255 233 233 233 224 224 224
224 224 224 226 226 226 244 244 244 248 248 248 251 251 251
245 245 243 216 217 211 215 216 210 216 217 212 236 236 234
253 253 255 255 254 255 255 254 255 227 226 234 222 220 231
229 228 236 181 180 186 3 2 7 8 8 8 5 5 3 0 1 0 1 2 0 122 120 81
255 255 205 215 210 144 78 73 5 23 14 0 72 63 8 191 185 123
238 236 177 238 241 194 221 234 191 33 55 16 18 56 0 127 180 88
125 192 79 114 189 71 120 200 79 110 188 66 110 188 66 109 188 69
108 189 71 106 189 75 105 189 75 105 190 73 105 190 71 104 188 67
109 190 70 101 178 62 120 192 84 119 185 88 114 174 88 130 184 108
46 86 33 2 19 0 0 3 2 0 1 0 2 4 3 71 73 72 250 252 251 247 247 247
250 250 250 232 232 232 224 224 224 226 224 225 229 227 228
247 245 246 250 248 249 253 249 250 243 241 242 221 219 220
228 228 228 232 232 232 248 248 248 255 255 255 247 247 247
238 238 238 221 221 221 214 214 214 223 223 223 248 248 248
255 255 255 255 255 255 248 248 248 223 223 223 214 214 214 36 36 34
0 1 0 2 10 12 1 17 14 0 24 7 62 100 59 122 173 104 116 177 82
116 186 74 118 191 73 116 190 77 93 166 58 118 189 87 122 193 91
122 189 86 116 178 81 129 182 100 131 176 107 130 171 111 143 180 129
145 175 137 66 89 63 0 6 0 9 18 15 14 18 21 0 0 5 16 15 21
211 210 215 204 204 204 245 246 241 251 252 244 249 250 244
250 250 248 232 232 232 230 230 230 227 227 227 230 230 230
246 246 246 249 249 249 250 250 250 217 217 217 214 214 214
221 221 221 228 228 228 249 249 249 236 236 236 235 235 235
242 242 242 235 235 235 231 231 231 237 237 237 240 240 240
252 252 252 242 242 242 244 244 244 240 240 240 235 235 235
237 237 237 229 229 229 242 242 242 241 241 241 241 241 241
240 240 240 233 233 233 238 238 238 236 236 236 243 243 243
239 239 239 240 240 240 251 251 251 234 234 234 234 234 234
226 226 226 239 239 239 243 243 243 239 239 239 236 236 236
243 243 243 241 241 241 230 230 230 234 234 234 239 239 239
237 237 237 239 239 239 231 231 231 233 233 233 231 231 231
234 234 234 239 239 239 237 237 237 246 246 246 232 232 232
233 233 233 237 237 237 238 238 238 244 244 244 238 238 238
239 239 239 230 230 230 234 234 234 233 233 233 224 224 224
236 236 236 241 241 241 245 245 245 233 233 233 235 235 235
237 237 237 246 246 244 242 243 237 235 236 230 234 235 230
233 233 231 241 241 243 237 236 241 222 221 227 228 227 235
230 229 237 243 242 248 62 61 66 0 0 0 15 16 11 3 4 0 0 2 0 5 5 0
210 209 155 233 228 160 249 245 172 236 229 159 131 123 61 25 19 0
13 8 0 17 15 0 9 13 0 64 77 47 0 11 0 79 118 65 112 168 77 109 179 65
111 189 69 112 194 68 110 189 64 110 188 66 109 188 69 108 189 71
106 189 73 105 190 73 105 190 73 105 190 71 100 184 63 105 186 66
107 181 68 122 191 85 124 188 94 113 170 89 124 175 106 5 43 0 0 12 0
10 14 13 0 1 0 4 6 5 120 122 121 249 251 250 227 227 227 231 231 231
227 227 227 237 237 237 241 239 240 244 242 243 232 230 231
235 233 234 240 236 237 248 246 247 235 233 234 237 237 237
250 250 250 246 246 246 239 239 239 237 237 237 230 230 230
236 236 236 241 241 241 243 243 243 234 234 234 236 236 236
236 236 236 234 234 234 243 243 243 241 242 237 45 47 36 0 5 0 0 9 0
2 20 6 0 27 0 55 94 47 127 179 104 113 175 78 111 181 69 112 185 70
132 205 97 114 186 86 105 174 83 106 174 87 120 184 97 88 150 64
78 133 49 72 123 44 79 126 56 85 126 68 103 136 91 75 100 70 6 23 5
0 10 2 5 11 11 3 4 8 0 0 4 208 208 210 241 239 240 249 248 244
239 238 233 246 245 240 232 232 230 243 243 243 235 235 235
233 233 233 234 234 234 229 229 229 240 240 240 249 249 249
232 232 232 239 239 239 239 239 239 242 242 242 230 230 230
252 252 252 248 248 248 255 255 255 236 236 236 220 220 220
227 227 227 229 229 229 255 255 255 250 250 250 253 253 253
244 244 244 231 231 231 235 235 235 216 216 216 250 250 250
248 248 248 246 246 246 242 242 242 225 225 225 238 238 238
233 233 233 252 252 252 244 244 244 247 247 247 255 255 255
222 222 222 224 224 224 208 208 208 246 246 246 255 255 255
253 253 253 247 247 247 229 229 229 231 231 231 216 216 216
236 236 236 252 252 252 246 246 246 246 246 246 222 222 222
225 225 225 221 221 221 231 231 231 244 244 244 239 239 239
255 255 255 224 224 224 227 227 227 235 235 235 238 238 238
254 254 254 239 239 239 242 242 242 220 220 220 227 227 227
224 224 224 224 224 224 249 249 249 255 255 255 255 255 255
224 224 224 222 222 222 221 221 221 240 240 238 255 255 250
249 250 244 250 250 248 232 232 232 228 227 232 220 219 225
210 209 217 254 253 255 253 252 255 204 203 208 0 0 0 15 16 11
14 16 5 7 9 0 0 3 0 85 87 50 242 239 170 244 239 157 254 248 170
255 249 175 245 238 168 224 219 153 171 166 108 103 102 56 67 72 42
31 45 19 2 29 0 134 178 119 115 176 83 112 185 70 101 183 57
100 182 54 110 189 62 110 189 64 109 189 68 106 190 69 105 190 71
103 191 71 103 191 71 103 191 69 101 187 64 104 185 65 109 183 70
118 186 83 126 186 98 120 172 97 124 170 105 0 20 0 0 11 0 12 16 15
2 4 3 0 1 0 169 171 170 236 238 237 214 214 214 217 217 217
230 230 230 252 252 252 255 253 254 255 254 255 220 218 219
221 219 220 225 221 222 245 243 244 252 250 251 247 247 247
255 255 255 238 238 238 222 222 222 227 227 227 228 228 228
253 253 253 249 249 249 252 252 252 230 230 230 233 233 233
233 233 233 230 230 230 252 252 252 249 250 245 81 81 69 0 3 0 4 12 1
0 13 0 0 22 0 34 72 23 139 190 115 112 172 76 119 187 78 107 177 65
103 174 72 128 197 104 122 187 105 75 139 61 0 54 0 0 47 0 0 54 0
0 40 0 0 44 0 0 25 0 0 22 0 0 23 0 0 8 0 12 26 13 7 13 11 9 13 14
12 13 17 146 146 148 255 254 255 234 233 231 225 224 220 231 230 226
218 218 216 253 253 253 244 244 244 245 245 245 242 242 242
217 217 217 225 225 225 235 235 235 240 240 240 254 254 254
250 250 250 251 251 251 218 218 218 255 255 255 255 255 255
255 255 255 238 238 238 218 218 218 222 222 222 222 222 222
248 248 248 255 255 255 255 255 255 241 241 241 223 223 223
227 227 227 213 213 213 254 254 254 255 255 255 255 255 255
246 246 246 222 222 222 230 230 230 225 225 225 249 249 249
248 248 248 255 255 255 253 253 253 217 217 217 221 221 221
207 207 207 247 247 247 255 255 255 255 255 255 254 254 254
221 221 221 225 225 225 213 213 213 237 237 237 255 255 255
251 251 251 251 251 251 227 227 227 216 216 216 218 218 218
234 234 234 253 253 253 248 248 248 255 255 255 221 221 221
219 219 219 227 227 227 235 235 235 255 255 255 248 248 248
250 250 250 224 224 224 224 224 224 215 215 215 232 232 232
255 255 255 255 255 255 255 255 255 222 222 222 218 218 218
213 213 213 232 232 230 255 255 251 255 255 250 255 255 253
235 235 235 221 220 225 212 211 217 213 212 220 255 254 255
251 250 255 94 94 96 0 1 0 20 22 11 7 10 0 8 12 0 2 6 0 192 194 147
247 244 163 243 238 144 253 247 163 251 244 164 249 244 160
253 250 169 243 243 173 235 238 183 252 255 225 40 57 23 31 63 16
143 190 122 127 191 97 121 195 82 94 179 50 110 196 63 110 189 62
110 189 64 109 189 68 106 190 69 105 190 71 103 191 71 103 191 71
103 191 69 108 194 71 105 186 66 109 183 72 114 180 80 122 180 95
130 180 107 115 159 98 0 21 0 0 12 0 7 11 10 3 5 4 0 1 0 203 205 204
220 222 221 216 216 216 215 215 215 238 238 238 255 255 255
255 254 255 255 254 255 218 216 217 216 214 215 218 214 215
237 235 236 255 254 255 251 251 251 255 255 255 230 230 230
213 213 213 224 224 224 232 232 232 255 255 255 255 255 255
255 255 255 227 227 227 225 225 225 225 225 225 227 227 227
255 255 255 255 255 253 135 132 125 1 1 0 14 16 11 0 5 0 0 12 0
8 41 0 144 190 118 116 171 78 110 173 68 107 173 67 137 203 106
114 178 91 21 82 5 0 39 0 0 39 0 61 120 40 87 151 54 94 159 57
102 161 69 93 146 66 92 134 71 51 84 37 0 22 0 13 30 12 19 29 21
0 2 1 0 0 2 30 29 34 245 243 246 244 240 241 226 222 221 214 213 211
216 216 216 255 255 255 251 251 251 255 255 255 249 249 249
217 217 217 216 216 216 220 220 220 248 248 248 255 255 255
255 255 255 253 253 253 217 217 217 253 253 253 250 250 250
253 253 253 240 240 240 229 229 229 229 229 229 227 227 227
237 237 237 255 255 255 252 252 252 234 234 234 219 219 219
221 221 221 222 222 222 251 251 251 255 255 255 255 255 255
248 248 248 227 227 227 222 222 222 220 220 220 237 237 237
248 248 248 255 255 255 240 240 240 226 226 226 229 229 229
224 224 224 243 243 243 251 251 251 250 250 250 248 248 248
226 226 226 228 228 228 225 225 225 237 237 237 247 247 247
246 246 246 247 247 247 237 237 237 215 215 215 224 224 224
241 241 241 255 255 255 255 255 255 253 253 253 225 225 225
216 216 216 220 220 220 231 231 231 252 252 252 255 255 255
255 255 255 238 238 238 227 227 227 215 215 215 241 241 241
250 250 250 250 250 250 248 248 248 230 230 230 226 226 226
223 223 223 229 229 227 253 254 249 253 254 249 253 253 251
238 238 240 227 226 231 222 221 227 226 225 233 254 253 255
178 177 182 9 9 9 7 8 2 7 9 0 12 15 0 0 4 0 72 78 44 244 247 192
247 246 154 236 231 127 248 241 153 252 246 158 238 234 135
233 233 135 240 242 159 242 249 182 168 179 136 0 11 0 70 105 47
127 178 101 115 179 83 109 186 72 94 179 50 120 207 74 109 190 61
110 189 64 109 189 66 106 190 68 105 190 69 103 191 69 102 192 69
103 191 69 114 200 77 107 188 68 109 182 74 112 178 80 117 172 89
134 184 113 89 130 72 0 28 0 2 14 0 3 7 6 2 4 3 12 14 13 222 224 223
220 222 221 230 230 230 225 225 225 244 244 244 251 251 251
251 249 250 248 246 247 228 226 227 225 223 224 226 222 223
231 229 230 253 251 252 246 246 246 244 244 244 230 230 230
223 223 223 231 231 231 239 239 239 254 254 254 255 255 255
251 251 251 228 228 228 220 220 220 220 220 220 228 228 228
251 251 251 255 254 255 187 178 181 6 0 2 19 16 23 0 2 2 0 6 0 0 20 0
122 162 99 122 172 85 128 186 86 121 182 79 103 164 69 7 67 0 0 39 0
38 94 21 110 162 90 135 193 109 117 184 78 125 195 81 125 190 88
122 178 91 126 173 101 122 161 106 73 101 63 0 17 0 6 18 6 0 2 0
0 0 2 1 0 4 183 178 182 255 253 255 240 236 237 226 222 223
227 225 226 245 245 245 249 249 249 253 253 253 249 249 249
230 230 230 223 223 223 220 220 220 250 250 250 254 254 254
250 250 250 246 246 246 228 228 228 234 234 234 235 235 235
230 230 230 240 240 240 246 246 246 243 243 243 242 242 242
231 231 231 226 226 226 229 229 229 240 240 240 250 250 250
248 248 248 251 251 251 230 230 230 226 226 226 228 228 228
235 235 235 248 248 248 247 247 247 249 249 249 236 236 236
232 232 232 226 226 226 230 230 230 245 245 245 244 244 244
250 250 250 234 234 234 227 227 227 230 230 230 232 232 232
242 242 242 241 241 241 247 247 247 239 239 239 232 232 232
234 234 234 234 234 234 245 245 245 250 250 250 247 247 247
236 236 236 226 226 226 228 228 228 224 224 224 246 246 246
249 249 249 247 247 247 241 241 241 228 228 228 229 229 229
228 228 228 242 242 242 246 246 246 252 252 252 243 243 243
232 232 232 230 230 230 227 227 227 242 242 242 243 243 243
243 243 243 235 235 233 223 224 219 222 223 218 222 222 220
236 236 238 247 246 251 253 252 255 250 249 255 224 223 229 67 67 69
0 0 0 5 7 0 1 4 0 18 22 0 10 15 0 180 186 148 240 244 183 246 244 144
237 231 121 239 233 139 255 254 160 254 252 139 237 240 125
241 247 149 242 251 172 70 85 30 21 45 0 133 173 102 119 173 87
111 177 79 109 187 75 106 193 63 102 189 56 109 190 61 110 189 64
109 189 66 106 190 68 105 190 69 103 191 69 102 192 69 103 191 68
114 200 77 107 188 68 110 183 75 114 180 82 109 164 81 135 182 114
47 86 31 0 23 0 0 12 0 5 9 8 0 2 1 60 62 61 229 231 230 239 241 240
245 245 245 241 241 241 242 242 242 232 232 232 232 230 231
231 229 230 245 243 244 244 242 243 245 241 242 233 231 232
233 231 232 234 234 234 229 229 229 239 239 239 246 246 246
244 244 244 244 244 244 233 233 233 226 226 226 230 230 230
246 246 246 249 249 249 249 249 249 246 246 246 230 230 230
229 224 230 217 204 222 17 1 27 18 8 33 6 3 22 0 3 4 0 15 0 79 114 58
129 173 94 114 168 72 136 192 91 30 87 0 0 28 0 78 131 51 121 174 96
124 172 96 110 166 77 109 179 65 111 185 64 115 183 74 123 185 88
117 168 91 148 189 129 128 159 117 0 9 0 0 5 0 0 6 2 13 14 16 8 6 11
93 88 94 255 250 254 254 248 252 247 243 244 242 240 241 229 229 229
236 236 236 238 238 238 240 240 240 249 249 249 243 243 243
237 237 237 229 229 229 224 224 224 229 229 229 231 231 231
249 249 249 216 216 216 222 222 222 212 212 212 239 239 239
255 255 255 255 255 255 255 255 255 230 230 230 217 217 217
219 219 219 237 237 237 255 255 255 251 251 251 255 255 255
222 222 222 219 219 219 223 223 223 232 232 232 255 255 255
249 249 249 253 253 253 228 228 228 227 227 227 219 219 219
226 226 226 255 255 255 255 255 255 255 255 255 227 227 227
209 209 209 213 213 213 218 218 218 255 255 255 252 252 252
255 255 255 240 240 240 221 221 221 224 224 224 223 223 223
247 247 247 255 255 255 255 255 255 239 239 239 220 220 220
225 225 225 211 211 211 254 254 254 255 255 255 251 251 251
242 242 242 218 218 218 227 227 227 224 224 224 252 252 252
253 253 253 255 255 255 242 242 242 218 218 218 213 213 213
212 212 212 252 252 252 255 255 255 255 255 255 242 242 240
231 231 223 223 223 215 214 213 211 240 239 244 255 254 255
255 254 255 240 239 247 164 165 170 0 0 2 5 5 3 11 12 4 1 4 0 13 16 0
64 69 29 245 252 200 230 233 162 243 241 140 255 255 152 248 240 142
240 235 135 250 249 131 241 244 129 233 239 143 216 229 150 2 22 0
42 73 13 142 186 107 111 170 76 122 191 85 114 191 75 120 205 78
102 188 55 110 190 59 110 189 61 109 189 64 106 190 68 103 191 71
102 191 71 101 193 69 102 192 69 111 199 76 104 187 69 112 185 77
118 182 86 106 159 81 132 176 115 15 51 5 0 13 0 0 8 0 11 13 12 0 1 0
100 102 101 231 233 232 254 255 255 255 255 255 251 251 251
238 238 238 216 216 216 217 215 216 218 216 217 255 254 255
255 254 255 255 254 255 237 235 236 215 215 215 224 224 224
219 219 219 248 248 248 255 255 255 255 255 255 246 246 246
215 215 215 218 218 218 221 221 221 251 251 251 254 254 254
254 254 254 251 251 251 221 221 221 221 216 222 228 215 233 32 16 42
15 2 30 17 12 34 0 4 13 4 17 7 45 71 32 135 171 109 144 188 109
90 140 51 0 29 0 58 113 22 136 190 104 124 180 93 135 189 103
130 192 93 126 202 80 117 196 69 101 174 56 127 194 88 123 179 90
126 173 101 138 173 119 44 70 33 0 11 0 2 12 3 9 11 10 2 0 3 9 4 10
217 211 215 255 249 252 254 248 250 254 252 253 216 216 216
224 224 224 224 224 224 232 232 232 255 255 255 255 255 255
255 255 255 241 241 241 225 225 225 229 229 229 226 226 226
255 255 255 212 212 212 220 220 220 213 213 213 241 241 241
255 255 255 255 255 255 252 252 252 226 226 226 216 216 216
226 226 226 228 228 228 255 255 255 251 251 251 255 255 255
229 229 229 218 218 218 219 219 219 230 230 230 255 255 255
251 251 251 255 255 255 228 228 228 225 225 225 215 215 215
231 231 231 251 251 251 255 255 255 255 255 255 228 228 228
223 223 223 210 210 210 218 218 218 255 255 255 250 250 250
255 255 255 233 233 233 216 216 216 223 223 223 227 227 227
255 255 255 255 255 255 255 255 255 239 239 239 221 221 221
226 226 226 211 211 211 252 252 252 253 253 253 250 250 250
246 246 246 223 223 223 227 227 227 215 215 215 240 240 240
247 247 247 255 255 255 240 240 240 218 218 218 215 215 215
213 213 213 251 251 251 254 254 254 255 255 255 245 244 239
225 223 208 230 227 212 210 206 203 249 246 253 251 249 255
246 245 255 247 247 255 6 10 13 0 0 2 4 6 3 18 19 14 17 18 2 4 5 0
199 201 151 240 243 172 245 248 161 237 234 139 255 255 158
237 230 124 255 251 144 242 238 130 223 223 125 255 255 184
127 142 77 0 15 0 112 154 90 121 176 92 104 171 68 118 191 76
108 186 64 114 192 70 104 183 56 112 190 55 112 190 55 109 190 62
106 190 68 102 191 73 99 192 75 98 193 73 99 193 71 95 187 63
117 202 83 104 180 71 105 169 75 115 167 95 122 162 110 0 25 0 0 18 2
6 13 6 4 4 4 4 4 4 153 153 153 218 218 218 255 255 255 255 255 255
246 246 246 233 233 233 218 218 218 223 223 223 222 222 222
254 254 254 253 253 253 255 255 255 243 243 243 221 221 221
218 218 218 222 222 222 239 239 239 255 255 255 255 255 255
241 241 241 223 223 223 216 216 216 219 219 219 251 251 251
254 254 254 254 254 254 251 251 251 219 219 219 217 215 216
230 224 228 131 121 129 13 5 18 16 12 26 0 0 9 0 2 2 0 11 0
137 158 125 131 161 109 0 38 0 10 59 0 123 179 88 110 172 75
121 187 87 136 204 101 108 182 71 109 191 65 107 192 62 109 190 62
113 186 68 117 183 77 122 178 87 128 171 100 132 166 115 0 19 0
0 13 0 0 5 0 10 10 10 8 2 6 80 71 72 255 252 251 247 239 236
255 254 253 231 231 231 231 231 231 222 222 222 238 238 238
255 255 255 251 251 251 246 246 246 226 226 226 218 218 218
227 227 227 224 224 224 250 250 250 230 230 230 237 237 237
235 235 235 240 240 240 239 239 239 234 234 234 241 241 241
238 238 238 238 238 238 237 237 237 230 230 230 236 236 236
234 234 234 242 242 242 238 238 238 239 239 239 240 240 240
239 239 239 242 242 242 234 234 234 236 236 236 230 230 230
236 236 236 237 237 237 243 243 243 241 241 241 234 234 234
238 238 238 233 233 233 238 238 238 233 233 233 233 233 233
243 243 243 236 236 236 239 239 239 235 235 235 237 237 237
242 242 242 237 237 237 240 240 240 235 235 235 240 240 240
241 241 241 239 239 239 241 241 241 229 229 229 239 239 239
234 234 234 236 236 236 241 241 241 240 240 240 244 244 244
234 234 234 236 236 236 232 232 232 236 236 236 239 239 239
234 234 234 235 235 235 230 230 230 240 240 240 238 238 238
242 242 242 241 240 235 255 255 239 235 232 215 231 228 223
233 231 236 227 225 238 249 249 255 115 118 127 0 0 5 0 1 2 12 14 9
20 22 11 1 3 0 94 92 51 229 229 165 244 247 160 244 246 147
233 230 133 231 228 125 241 234 127 248 241 134 254 249 149
232 230 143 216 221 154 11 29 0 30 64 4 122 172 101 119 182 91
103 176 68 111 189 69 105 184 59 119 195 73 112 188 62 113 189 54
112 190 54 109 190 61 106 190 68 102 191 75 99 192 77 98 193 75
98 194 71 99 191 67 111 196 75 106 182 73 110 173 82 122 171 105
94 131 87 0 20 0 0 16 6 0 3 0 8 8 8 9 9 9 193 193 193 239 239 239
243 243 243 241 241 241 236 236 236 234 234 234 234 234 234
241 241 241 236 236 236 240 240 240 235 235 235 242 242 242
242 242 242 234 234 234 236 236 236 239 239 239 239 239 239
237 237 237 236 236 236 236 236 236 237 237 237 232 232 232
231 231 231 242 242 242 242 242 242 242 242 242 242 242 242
231 231 231 233 232 230 245 241 238 200 194 194 3 0 4 7 4 13 27 24 35
9 9 17 0 4 0 88 103 84 78 103 64 0 26 0 93 139 64 127 183 92
124 189 89 107 179 71 110 187 75 94 174 59 104 192 72 104 192 70
106 190 68 109 188 69 113 186 71 119 182 78 123 175 90 128 170 104
42 71 25 0 14 0 13 23 12 9 11 10 3 1 6 19 12 19 181 170 176
254 245 250 224 222 223 241 241 241 236 236 236 230 230 230
248 248 248 231 231 231 242 242 242 247 247 247 233 233 233
235 235 235 243 243 243 236 236 236 238 238 238 250 250 250
254 254 254 255 255 255 239 239 239 217 217 217 215 215 215
227 227 227 251 251 251 255 255 255 249 249 249 236 236 236
217 217 217 219 219 219 225 225 225 247 247 247 255 255 255
255 255 255 248 248 248 225 225 225 219 219 219 217 217 217
236 236 236 248 248 248 255 255 255 255 255 255 230 230 230
214 214 214 212 212 212 240 240 240 254 254 254 255 255 255
250 250 250 227 227 227 222 222 222 216 216 216 236 236 236
255 255 255 255 255 255 247 247 247 223 223 223 215 215 215
223 223 223 241 241 241 255 255 255 254 254 254 252 252 252
224 224 224 216 216 216 220 220 220 235 235 235 255 255 255
255 255 255 253 253 253 230 230 230 218 218 218 208 208 208
237 237 237 251 251 251 254 254 254 251 251 251 228 228 228
222 222 222 222 222 222 234 233 229 255 255 243 254 252 237
248 248 238 231 232 227 224 225 227 147 148 153 0 0 7 9 12 17 8 9 11
7 10 1 15 17 0 8 10 0 216 216 156 235 236 158 254 255 161 241 242 138
247 246 138 239 237 128 255 255 145 246 243 138 241 238 143
249 251 168 154 164 95 13 35 0 92 129 62 135 188 110 120 186 89
108 185 73 106 186 63 98 180 52 119 199 74 116 195 67 112 190 55
112 189 57 109 189 64 106 190 69 102 191 73 99 192 75 99 193 73
99 193 69 107 197 73 104 188 67 112 185 77 118 178 88 129 175 110
48 83 41 0 17 0 0 13 6 0 3 2 10 10 10 44 44 44 240 240 240
255 255 255 217 217 217 221 221 221 217 217 217 237 237 237
253 253 253 255 255 255 252 252 252 224 224 224 218 218 218
223 223 223 239 239 239 247 247 247 255 255 255 255 255 255
240 240 240 218 218 218 213 213 213 231 231 231 251 251 251
255 255 255 252 252 252 227 227 227 217 217 217 217 217 217
227 227 227 252 252 252 255 254 255 255 254 253 250 244 246 27 22 28
18 15 24 13 10 21 17 18 23 0 5 0 32 49 30 6 32 0 7 45 0 138 186 110
121 180 88 132 199 96 109 182 74 112 190 78 102 184 74 103 189 88
102 190 90 102 189 84 106 188 78 110 186 77 115 184 77 119 179 83
123 175 93 100 138 77 0 25 0 17 36 16 6 17 13 1 3 15 0 0 16 56 48 72
214 206 227 220 217 224 246 246 246 245 245 245 250 250 250
252 252 252 205 205 205 221 221 221 234 234 234 242 242 242
255 255 255 255 255 255 251 251 251 223 223 223 255 255 255
255 255 255 255 255 255 240 240 240 214 214 214 216 216 216
222 222 222 253 253 253 255 255 255 251 251 251 246 246 246
218 218 218 222 222 222 218 218 218 248 248 248 255 255 255
255 255 255 249 249 249 219 219 219 222 222 222 217 217 217
246 246 246 251 251 251 255 255 255 255 255 255 227 227 227
215 215 215 207 207 207 246 246 246 255 255 255 255 255 255
255 255 255 222 222 222 222 222 222 209 209 209 237 237 237
255 255 255 255 255 255 251 251 251 218 218 218 214 214 214
217 217 217 235 235 235 254 254 254 250 250 250 255 255 255
220 220 220 216 216 216 217 217 217 230 230 230 255 255 255
254 254 254 255 255 255 225 225 225 220 220 220 208 208 208
237 237 237 255 255 255 255 255 255 255 255 255 226 226 226
223 223 223 215 215 215 228 228 226 254 254 246 254 254 242
250 252 238 246 250 236 205 208 201 4 6 5 0 0 5 21 22 27 10 11 13
4 6 0 3 4 0 142 143 86 254 255 177 245 246 152 246 247 145
245 245 135 255 255 138 251 252 133 242 242 132 248 245 148
235 234 151 233 237 163 23 35 0 17 44 0 129 171 97 133 188 104
113 183 84 113 191 79 103 187 65 95 180 53 114 199 70 113 196 66
112 189 59 112 189 61 109 189 66 106 190 69 103 190 73 101 192 73
101 192 71 102 192 68 113 202 76 99 180 59 117 186 79 123 181 94
123 167 104 8 40 1 0 14 0 0 10 6 9 13 12 1 1 1 112 112 112
255 255 255 255 255 255 208 208 208 215 215 215 207 207 207
239 239 239 255 255 255 255 255 255 255 255 255 218 218 218
217 217 217 217 217 217 237 237 237 251 251 251 255 255 255
255 255 255 242 242 242 217 217 217 212 212 212 232 232 232
255 255 255 252 252 252 253 253 253 229 229 229 230 230 230
230 230 230 229 229 229 253 253 253 253 251 252 255 254 253
245 239 241 142 135 142 3 0 5 1 0 7 9 10 15 0 8 3 0 16 0 0 12 0
79 117 60 125 173 97 111 170 80 123 190 87 114 187 79 119 198 83
107 191 80 102 190 88 100 190 90 101 190 84 103 189 80 108 188 75
112 185 77 115 182 79 121 177 88 124 169 100 44 81 30 0 15 0 9 27 15
10 19 24 0 0 14 0 0 19 113 110 129 226 225 231 252 252 252
253 253 253 255 255 255 245 245 245 211 211 211 208 208 208
219 219 219 248 248 248 255 255 255 255 255 255 254 254 254
220 220 220 250 250 250 244 244 244 255 255 255 241 241 241
230 230 230 235 235 235 227 227 227 244 244 244 246 246 246
244 244 244 254 254 254 235 235 235 239 239 239 225 225 225
241 241 241 244 244 244 245 245 245 242 242 242 226 226 226
240 240 240 235 235 235 253 253 253 243 243 243 245 245 245
246 246 246 232 232 232 233 233 233 223 223 223 247 247 247
244 244 244 255 255 255 248 248 248 230 230 230 235 235 235
221 221 221 236 236 236 246 246 246 239 239 239 246 246 246
228 228 228 232 232 232 224 224 224 228 228 228 238 238 238
233 233 233 255 255 255 227 227 227 234 234 234 228 228 228
230 230 230 246 246 246 234 234 234 242 242 242 225 225 225
235 235 235 232 232 232 238 238 238 247 247 247 242 242 242
253 253 253 234 234 234 239 239 239 225 225 225 228 228 228
242 244 241 250 253 246 238 242 227 246 253 235 83 90 74 0 2 0
16 17 21 8 9 14 11 11 9 1 3 0 63 65 16 247 249 176 249 250 156
236 238 129 252 252 140 238 239 120 235 238 109 242 247 121
233 235 128 253 253 165 244 245 175 148 157 94 0 12 0 97 128 60
133 180 99 118 179 86 106 178 76 116 196 83 107 192 73 97 183 58
108 195 65 107 192 63 110 189 62 112 188 64 110 188 69 108 189 71
105 190 73 102 191 71 102 192 68 103 192 66 120 205 78 98 176 56
117 184 78 124 178 92 101 140 83 0 13 0 0 14 2 0 6 5 7 11 10 0 0 0
182 182 182 244 244 244 241 241 241 226 226 226 236 236 236
225 225 225 240 240 240 250 250 250 244 244 244 250 250 250
226 226 226 232 232 232 226 226 226 236 236 236 243 243 243
248 248 248 249 249 249 243 243 243 233 233 233 231 231 231
237 237 237 245 245 245 250 250 250 252 252 252 230 230 230
232 232 232 232 232 232 230 230 230 252 252 252 251 249 250
255 253 255 235 229 233 236 229 236 3 0 5 9 6 15 4 5 9 2 12 4 0 7 0
7 33 0 136 173 119 123 173 100 106 166 78 114 182 81 106 182 73
100 180 65 97 184 67 100 193 76 100 194 74 101 192 71 102 192 69
106 189 71 109 187 75 112 183 81 116 179 90 119 171 99 111 154 100
0 18 0 0 20 0 14 32 18 0 5 0 1 10 5 19 23 22 168 170 169 255 255 255
251 251 251 255 255 255 234 234 234 235 235 235 228 228 228
228 228 228 248 248 248 251 251 251 239 239 239 246 246 246
228 228 228 234 234 234 229 229 229 237 237 237 241 241 241
250 250 250 253 253 253 238 238 238 232 232 232 226 226 226
234 234 234 251 251 251 252 252 252 254 254 254 239 239 239
233 233 233 225 225 225 226 226 226 234 234 234 240 240 240
254 254 254 252 252 252 250 250 250 233 233 233 225 225 225
235 235 235 241 241 241 252 252 252 245 245 245 242 242 242
230 230 230 234 234 234 234 234 234 244 244 244 249 249 249
240 240 240 236 236 236 227 227 227 223 223 223 237 237 237
243 243 243 251 251 251 239 239 239 227 227 227 222 222 222
220 220 220 239 239 239 240 240 240 252 252 252 245 245 245
235 235 235 228 228 228 218 218 218 227 227 227 233 233 233
249 249 249 255 255 255 240 240 240 234 234 234 225 225 225
237 237 237 244 244 244 254 254 254 242 242 242 232 233 235
219 223 226 240 246 244 247 255 242 135 142 124 0 5 0 23 29 19 1 2 4
6 6 8 9 9 1 19 17 0 193 192 136 255 255 177 244 245 143 228 228 114
255 255 148 228 228 106 234 237 104 239 244 118 252 254 155
245 246 170 199 202 145 10 20 0 30 51 0 124 159 91 125 174 92
110 171 76 105 177 75 115 194 85 112 196 82 99 187 67 98 187 61
103 188 61 110 188 68 112 187 69 110 187 71 108 188 73 106 189 73
105 190 71 105 191 66 106 191 64 123 203 78 104 177 59 117 180 76
118 170 88 63 100 46 0 11 0 0 16 6 0 2 4 0 0 2 9 9 9 220 220 220
224 224 224 231 231 231 249 249 249 255 255 255 252 252 252
238 238 238 235 235 235 228 228 228 237 237 237 239 239 239
248 248 248 241 241 241 238 238 238 232 232 232 231 231 231
233 233 233 242 242 242 251 251 251 251 251 251 242 242 242
232 232 232 222 222 222 235 235 235 243 243 243 255 255 255
255 255 255 243 243 243 235 235 235 223 221 222 228 222 224
245 236 241 255 252 255 115 110 117 1 0 5 1 2 6 3 13 5 0 13 0 4 30 0
100 137 85 136 186 115 108 168 82 121 188 91 106 182 74 92 172 59
105 193 73 103 193 70 102 194 69 102 192 68 103 191 68 106 190 69
109 188 73 111 184 79 115 180 86 118 172 96 130 176 112 60 98 49
0 13 0 0 22 0 0 14 0 12 25 8 0 5 0 61 63 60 237 237 237 238 238 238
233 233 233 229 229 229 253 253 253 255 255 255 252 252 252
239 239 239 233 233 233 224 224 224 234 234 234 240 240 240
221 221 221 221 221 221 220 220 220 241 241 241 255 255 255
255 255 255 247 247 247 226 226 226 216 216 216 228 228 228
239 239 239 255 255 255 255 255 255 251 251 251 229 229 229
217 217 217 218 218 218 230 230 230 251 251 251 255 255 255
255 255 255 239 239 239 227 227 227 215 215 215 230 230 230
248 248 248 255 255 255 255 255 255 234 234 234 224 224 224
218 218 218 224 224 224 253 253 253 253 253 253 255 255 255
235 235 235 218 218 218 221 221 221 232 232 232 254 254 254
255 255 255 251 251 251 234 234 234 219 219 219 221 221 221
222 222 222 250 250 250 255 255 255 255 255 255 242 242 242
217 217 217 216 216 216 222 222 222 245 245 245 253 253 253
255 255 255 242 242 242 224 224 224 217 217 217 223 223 223
251 251 251 255 255 255 255 255 255 239 240 242 209 214 220
212 220 223 177 187 179 0 5 0 17 23 11 0 3 0 2 4 1 8 7 2 3 1 0
130 127 96 250 248 191 252 251 169 229 227 126 253 251 138
253 250 135 237 235 112 241 244 111 233 237 116 255 255 167
247 247 185 140 142 102 4 16 0 113 137 89 130 166 102 122 171 89
116 177 84 112 182 84 113 190 88 115 196 91 104 188 77 94 179 62
103 186 68 110 187 73 112 186 75 110 187 75 109 187 75 108 188 73
106 190 69 106 190 66 108 190 64 124 200 76 112 180 67 115 172 75
112 158 83 25 57 8 0 19 0 7 18 14 0 1 5 0 0 2 76 76 76 228 228 228
222 222 222 232 232 232 252 252 252 255 255 255 255 255 255
236 236 236 224 224 224 222 222 222 226 226 226 250 250 250
254 254 254 252 252 252 240 240 240 225 225 225 221 221 221
225 225 225 241 241 241 255 255 255 255 255 255 242 242 242
224 224 224 226 226 226 229 229 229 244 244 244 248 248 248
248 248 248 244 244 244 229 229 229 227 225 226 213 207 211
249 239 247 255 252 255 237 232 239 18 15 22 0 0 2 2 12 4 3 20 1
0 16 0 20 56 8 124 170 105 117 174 93 123 188 96 111 186 83
105 185 74 117 200 86 106 190 76 106 190 76 106 189 71 108 189 71
109 188 69 112 186 71 114 183 74 116 181 81 114 170 83 121 169 95
140 180 120 6 37 0 0 17 0 9 24 3 3 14 0 9 14 7 0 1 0 129 129 129
223 223 223 214 214 214 230 230 230 255 255 255 255 255 255
255 255 255 227 227 227 218 218 218 220 220 220 225 225 225
249 249 249 214 214 214 221 221 221 213 213 213 241 241 241
255 255 255 254 254 254 252 252 252 224 224 224 216 216 216
226 226 226 228 228 228 255 255 255 251 251 251 255 255 255
229 229 229 218 218 218 219 219 219 230 230 230 255 255 255
251 251 251 255 255 255 228 228 228 225 225 225 215 215 215
230 230 230 251 251 251 255 255 255 255 255 255 229 229 229
224 224 224 211 211 211 220 220 220 255 255 255 252 252 252
255 255 255 235 235 235 218 218 218 226 226 226 230 230 230
255 255 255 255 255 255 255 255 255 241 241 241 223 223 223
228 228 228 213 213 213 254 254 254 255 255 255 255 255 255
246 246 246 214 214 214 222 222 222 224 224 224 254 254 254
251 251 251 255 255 255 244 244 244 221 221 221 218 218 218
215 215 215 253 253 253 255 255 255 255 255 255 244 245 249
217 224 232 206 215 224 0 8 11 0 2 0 12 17 11 0 2 0 12 14 3 1 2 0
6 2 0 228 224 186 255 255 199 233 229 155 240 236 145 255 255 150
247 243 133 247 245 126 250 251 124 244 247 134 241 242 164
210 212 162 3 10 0 0 7 0 123 150 107 138 176 115 122 173 94
126 185 95 121 186 94 113 184 90 117 192 97 108 186 87 94 173 66
108 187 78 112 185 78 113 184 78 112 185 78 110 186 77 109 187 75
109 188 71 109 189 68 110 188 68 125 196 78 119 182 75 114 167 77
109 150 80 3 30 0 11 28 9 10 19 18 0 0 7 0 0 2 143 143 143
225 225 225 231 231 231 237 237 237 241 241 241 252 252 252
242 242 242 234 234 234 219 219 219 223 223 223 222 222 222
254 254 254 253 253 253 255 255 255 242 242 242 222 222 222
219 219 219 223 223 223 239 239 239 255 255 255 255 255 255
240 240 240 222 222 222 223 223 223 222 222 222 248 248 248
247 247 247 247 247 247 248 248 248 222 222 222 224 222 223
224 217 224 239 232 239 255 252 255 255 252 255 105 103 108 0 1 0
0 6 0 0 11 0 1 26 0 0 15 0 96 140 81 129 183 108 114 176 90
111 181 83 115 192 86 109 187 78 111 187 79 111 186 81 110 185 80
112 185 80 113 184 80 115 183 84 116 180 86 119 177 92 101 153 78
130 175 110 158 195 143 63 91 50 10 29 1 2 15 0 7 15 0 7 12 5 0 1 0
15 15 15 214 214 214 211 211 211 231 231 231 255 255 255 235 235 235
245 245 245 219 219 219 211 211 211 223 223 223 222 222 222
252 252 252 234 234 234 227 227 227 242 242 242 235 235 235
238 238 238 249 249 249 238 238 238 249 249 249 229 229 229
234 234 234 241 241 241 246 246 246 246 246 246 242 242 242
235 235 235 231 231 231 230 230 230 236 236 236 244 244 244
249 249 249 249 249 249 243 243 243 234 234 234 227 227 227
241 241 241 243 243 243 244 244 244 245 245 245 243 243 243
238 238 238 231 231 231 227 227 227 245 245 245 253 253 253
238 238 238 245 245 245 243 243 243 232 232 232 243 243 243
232 232 232 252 252 252 232 232 232 235 235 235 225 225 225
234 234 234 252 252 252 242 242 242 250 250 250 238 238 238
236 236 236 234 234 234 233 233 233 235 235 235 241 241 241
247 247 247 251 251 251 223 223 223 241 241 241 231 231 231
229 229 229 249 249 249 232 232 232 255 255 255 248 249 253
226 233 243 32 40 53 0 0 12 1 5 14 0 4 7 13 16 9 1 2 0 6 7 0 19 15 0
71 67 22 237 231 179 254 249 185 231 225 149 233 227 139 247 242 140
240 238 129 234 234 120 252 254 155 244 246 181 73 78 38 0 6 0
18 37 15 0 28 0 17 58 0 89 140 63 113 168 84 127 189 103 124 190 103
115 183 98 114 187 98 118 191 99 118 192 95 110 182 82 109 179 80
105 177 75 104 177 72 103 179 70 108 182 71 112 186 71 118 188 74
130 193 86 129 185 88 142 186 107 52 86 26 7 29 0 2 14 0 0 1 4 0 0 7
0 0 2 231 231 231 228 228 228 233 233 233 233 233 233 237 237 237
247 247 247 238 238 238 235 235 235 236 236 236 237 237 237
238 238 238 238 238 238 239 239 239 240 240 240 241 241 241
235 235 235 234 234 234 237 237 237 244 244 244 252 252 252
250 250 250 240 240 240 229 229 229 231 231 231 237 237 237
242 242 242 247 247 247 247 247 247 242 242 242 237 237 237
232 230 231 238 233 239 249 242 249 255 252 255 227 222 228
213 211 214 11 13 12 0 3 0 14 26 12 0 17 0 0 25 0 8 46 0 137 186 121
117 174 97 121 185 98 109 179 81 107 178 76 124 190 90 123 187 91
133 196 105 82 144 59 40 101 24 30 87 19 0 42 0 0 21 0 0 24 0
11 47 11 45 74 44 80 103 77 1 14 0 8 16 1 4 10 0 1 4 0 0 0 0 2 2 2
74 74 74 254 254 254 230 230 230 221 221 221 252 252 252 246 246 246
243 243 243 237 237 237 233 233 233 236 236 236 244 244 244
247 247 247 244 244 244 255 255 255 236 236 236 222 222 222
228 228 228 229 229 229 250 250 250 245 245 245 247 247 247
244 244 244 235 235 235 225 225 225 225 225 225 236 236 236
247 247 247 247 247 247 237 237 237 227 227 227 228 228 228
237 237 237 245 245 245 246 246 246 244 244 244 243 243 243
233 233 233 224 224 224 229 229 229 242 242 242 251 251 251
248 248 248 241 241 241 228 228 228 231 231 231 221 221 221
240 240 240 254 254 254 249 249 249 248 248 248 227 227 227
231 231 231 223 223 223 238 238 238 238 238 238 246 246 246
252 252 252 232 232 232 230 230 230 223 223 223 235 235 235
247 247 247 248 248 248 240 240 240 231 231 231 229 229 229
230 230 230 228 228 228 248 248 248 244 244 244 244 244 244
242 242 242 228 228 228 212 212 212 218 219 223 87 94 102 3 11 24
12 18 34 4 8 20 7 8 10 2 4 0 12 13 0 161 160 116 157 155 104 16 11 0
102 95 43 226 219 164 255 255 197 234 226 153 243 237 149 255 255 159
237 239 138 255 255 175 149 154 96 12 22 0 91 109 83 127 153 126
45 82 39 0 38 0 0 34 0 4 59 0 46 105 21 93 155 72 116 179 100
114 179 99 106 174 89 108 177 88 123 192 99 118 188 90 112 182 84
107 177 78 104 175 71 106 177 71 112 181 74 117 182 78 115 172 75
137 187 100 126 166 96 8 36 0 0 11 0 0 8 0 4 3 9 7 4 13 66 66 68
250 250 250 249 249 249 252 252 252 244 244 244 225 225 225
223 223 223 215 215 215 240 240 240 249 249 249 253 253 253
246 246 246 230 230 230 223 223 223 227 227 227 236 236 236
248 248 248 248 248 248 245 245 245 237 237 237 230 230 230
230 230 230 237 237 237 244 244 244 244 244 244 249 249 249
229 229 229 234 234 234 234 234 234 229 229 229 249 249 249
245 243 244 255 253 255 237 232 238 217 212 218 219 217 220
221 221 221 134 136 133 0 2 0 5 15 4 0 9 0 0 11 0 0 22 0 58 98 46
147 198 131 111 168 91 115 177 91 137 200 111 117 172 88 123 176 96
13 67 0 0 28 0 0 48 0 3 54 0 50 101 45 59 105 56 76 118 72 31 68 27
0 12 0 0 10 0 0 6 0 0 7 0 17 19 14 13 13 11 0 0 0 6 6 6 24 24 24
177 177 177 255 255 255 215 215 215 218 218 218 231 231 231
247 247 247 249 249 249 250 250 250 244 244 244 235 235 235
255 255 255 255 255 255 255 255 255 236 236 236 210 210 210
210 210 210 222 222 222 250 250 250 255 255 255 255 255 255
244 244 244 224 224 224 208 208 208 213 213 213 237 237 237
255 255 255 255 255 255 239 239 239 215 215 215 209 209 209
224 224 224 245 245 245 255 255 255 255 255 255 246 246 246
225 225 225 207 207 207 215 215 215 241 241 241 255 255 255
255 255 255 253 253 253 215 215 215 214 214 214 209 209 209
236 236 236 255 255 255 255 255 255 251 251 251 223 223 223
213 213 213 217 217 217 241 241 241 251 251 251 255 255 255
251 251 251 223 223 223 212 212 212 213 213 213 235 235 235
255 255 255 255 255 255 244 244 244 225 225 225 215 215 215
213 213 213 236 236 236 250 250 250 253 253 253 255 255 255
205 205 205 230 230 230 229 229 229 88 89 91 5 10 16 0 1 11 2 6 18
19 22 29 0 1 0 23 25 1 119 121 72 255 255 197 234 233 166 115 111 47
34 27 0 124 117 65 247 240 188 255 246 187 237 231 157 229 228 146
240 244 160 201 209 134 18 32 0 35 54 9 124 152 114 143 180 139
116 160 107 100 151 84 65 120 39 15 73 0 0 31 0 0 36 0 15 74 0
56 117 39 87 150 71 104 169 85 124 190 102 121 188 95 118 185 90
115 182 85 113 181 82 114 180 82 116 180 83 120 179 85 131 183 98
139 183 108 77 110 53 0 11 0 5 19 0 0 5 0 18 15 22 11 5 15
164 162 165 255 255 255 255 255 255 255 255 255 254 254 254
224 224 224 213 213 213 208 208 208 244 244 244 255 255 255
255 255 255 251 251 251 225 225 225 210 210 210 218 218 218
232 232 232 255 255 255 255 255 255 252 252 252 232 232 232
213 213 213 212 212 212 234 234 234 255 255 255 255 255 255
255 255 255 219 219 219 221 221 221 221 221 221 219 219 219
255 255 255 255 255 255 255 254 255 229 227 232 201 199 202
225 223 224 221 221 221 235 235 233 25 27 24 0 3 0 0 12 2 0 8 0
0 16 0 0 30 0 128 168 115 107 156 91 122 174 100 122 174 100
91 139 77 0 35 0 0 25 0 50 101 34 102 156 81 120 175 94 125 180 96
134 188 102 143 192 110 141 183 109 121 155 95 104 129 87 75 90 67
1 11 3 0 0 7 14 14 26 16 15 20 7 7 7 0 0 0 44 44 44 252 252 252
217 217 217 205 205 205 227 227 227 248 248 248 255 255 255
255 255 255 251 251 251 228 228 228 251 251 251 254 254 254
255 255 255 237 237 237 218 218 218 216 216 216 228 228 228
248 248 248 254 254 254 249 249 249 238 238 238 224 224 224
216 216 216 222 222 222 240 240 240 255 255 255 255 255 255
242 242 242 223 223 223 216 216 216 223 223 223 238 238 238
250 250 250 255 255 255 246 246 246 229 229 229 215 215 215
219 219 219 238 238 238 254 254 254 255 255 255 249 249 249
223 223 223 220 220 220 220 220 220 238 238 238 255 255 255
255 255 255 247 247 247 228 228 228 218 218 218 225 225 225
241 241 241 250 250 250 252 252 252 245 245 245 227 227 227
218 218 218 225 225 225 237 237 237 251 251 251 254 254 254
244 244 244 231 231 231 222 222 222 218 218 218 228 228 228
255 255 255 238 238 238 240 240 240 245 245 245 236 236 236 81 81 81
26 27 29 10 15 19 0 5 9 9 13 16 0 1 0 15 17 0 105 106 66 251 251 187
245 246 168 249 248 166 248 246 169 120 114 52 32 25 0 64 56 9
196 190 140 249 244 186 248 249 183 224 234 163 69 86 16 0 24 0
126 160 100 134 175 117 118 168 105 121 176 108 124 182 105
112 172 84 117 178 85 98 157 65 48 107 17 0 59 0 0 40 0 0 44 0 0 53 0
13 79 0 32 98 8 62 129 36 90 157 64 107 172 80 110 173 82 106 164 77
102 155 73 96 142 69 101 139 78 36 64 16 0 19 0 17 26 9 0 1 0 11 6 13
9 2 10 222 220 223 241 241 241 253 253 253 249 249 249 249 249 249
239 239 239 235 235 235 231 231 231 240 240 240 252 252 252
255 255 255 248 248 248 228 228 228 218 218 218 224 224 224
236 236 236 249 249 249 253 253 253 250 250 250 236 236 236
219 219 219 218 218 218 233 233 233 250 250 250 253 253 253
250 250 250 226 226 226 223 223 223 223 223 223 226 226 226
250 250 250 253 253 253 247 247 249 229 229 231 219 219 219
235 235 233 225 225 223 255 255 253 139 139 137 0 1 0 7 13 11 0 8 0
0 12 0 0 21 0 71 103 62 141 180 127 134 176 113 69 114 49 0 39 0
0 40 0 101 152 85 138 192 116 113 171 86 125 187 90 117 180 76
125 187 78 125 182 75 126 178 78 132 175 93 142 177 113 153 178 138
74 89 70 0 8 5 10 13 18 2 3 5 3 3 3 6 6 6 0 0 0 158 158 158
248 248 248 215 215 215 216 216 216 242 242 242 252 252 252
255 255 255 247 247 247 229 229 229 233 233 233 235 235 235
233 233 233 237 237 237 240 240 240 240 240 240 243 243 243
241 241 241 235 235 235 231 231 231 230 230 230 235 235 235
243 243 243 245 245 245 240 240 240 234 234 234 240 240 240
244 244 244 245 245 245 240 240 240 232 232 232 229 229 229
233 233 233 239 239 239 242 242 242 242 242 242 241 241 241
238 238 238 236 236 236 234 234 234 234 234 234 235 235 235
245 245 245 243 243 243 245 245 245 242 242 242 240 240 240
240 240 240 237 237 237 239 239 239 241 241 241 242 242 242
239 239 239 239 239 239 237 237 237 235 235 235 240 240 240
241 241 241 248 248 248 241 241 241 234 234 234 234 234 234
240 240 240 245 245 245 243 243 243 240 240 240 250 250 250
231 231 231 232 232 232 239 239 239 255 255 255 67 67 67 2 2 2 2 4 3
3 7 8 29 34 30 0 3 0 4 8 0 63 66 19 232 234 169 253 255 171
236 237 143 238 240 143 255 255 173 252 250 175 137 133 70 35 29 0
24 20 0 64 62 14 170 174 123 111 126 67 0 16 0 88 126 53 129 178 97
130 188 104 122 188 98 114 185 93 102 173 77 126 194 95 127 194 91
127 190 86 123 186 82 122 184 87 106 170 76 67 129 44 26 90 6 0 46 0
0 49 0 0 53 0 0 55 0 0 55 0 0 52 0 0 47 0 0 42 0 0 24 0 0 30 0 0 14 0
0 8 0 7 10 0 10 9 7 8 1 8 102 95 103 246 244 247 225 225 225
235 235 235 226 226 226 229 229 229 252 252 252 255 255 255
255 255 255 233 233 233 233 233 233 234 234 234 237 237 237
239 239 239 242 242 242 243 243 243 243 243 243 230 230 230
234 234 234 240 240 240 244 244 244 244 244 244 240 240 240
236 236 236 233 233 233 238 238 238 232 232 232 244 244 244
238 238 238 238 238 238 244 244 244 232 232 232 238 238 238
232 233 235 230 231 233 236 238 235 246 247 242 241 242 237
239 238 234 225 223 224 39 39 41 2 3 7 6 12 12 0 4 0 0 13 0 6 29 1
104 132 92 56 88 39 0 39 0 26 75 0 136 192 101 132 191 99 121 182 87
130 196 96 115 184 77 118 191 76 101 172 54 114 183 64 116 179 65
130 185 83 136 182 94 140 177 108 94 124 72 1 23 0 21 34 14 9 14 7
16 16 16 3 3 3 0 0 0 12 12 12 225 225 225 251 251 251 247 247 247
232 232 232 233 233 233 235 235 235 237 237 237 238 238 238
221 221 221 222 222 222 217 217 217 239 239 239 255 255 255
255 255 255 253 253 253 232 232 232 219 219 219 220 220 220
229 229 229 247 247 247 255 255 255 255 255 255 238 238 238
217 217 217 224 224 224 242 242 242 255 255 255 255 255 255
243 243 243 227 227 227 222 222 222 224 224 224 236 236 236
250 250 250 255 255 255 254 254 254 234 234 234 220 220 220
219 219 219 226 226 226 255 255 255 255 255 255 255 255 255
242 242 242 223 223 223 223 223 223 229 229 229 250 250 250
255 255 255 255 255 255 234 234 234 226 226 226 221 221 221
225 225 225 250 250 250 255 255 255 255 255 255 241 241 241
222 222 222 220 220 220 235 235 235 252 252 252 255 255 255
255 255 255 255 255 255 215 215 215 238 238 238 195 195 195 33 33 33
12 12 12 2 2 2 9 9 9 4 6 3 0 2 0 11 16 0 55 61 13 223 226 157
236 240 153 242 244 143 237 240 133 245 247 140 231 231 131
231 231 143 226 224 149 214 212 153 101 99 51 33 30 0 0 6 0 0 16 0
55 92 23 125 175 90 89 151 52 104 177 69 113 193 78 122 205 91
123 205 94 136 213 101 115 187 75 99 168 52 102 169 54 111 177 67
116 181 79 122 187 95 129 195 107 141 207 117 125 191 101 100 166 78
77 141 55 65 124 42 62 119 42 69 120 51 77 121 62 75 111 63 10 38 0
11 29 3 9 20 4 18 19 13 16 12 11 20 10 18 225 215 223 255 254 255
225 225 225 225 225 225 220 220 220 213 213 213 252 252 252
255 255 255 255 255 255 230 230 230 221 221 221 216 216 216
228 228 228 248 248 248 255 255 255 255 255 255 246 246 246
216 216 216 220 220 220 231 231 231 248 248 248 255 255 255
255 255 255 239 239 239 221 221 221 223 223 223 219 219 219
255 255 255 252 252 252 252 252 252 255 255 255 219 219 219
222 224 223 219 223 224 233 237 236 254 255 253 254 255 251
245 246 240 217 216 212 231 229 230 141 139 144 0 0 7 10 10 18
13 16 21 0 8 5 0 6 0 18 37 9 0 11 0 43 77 17 94 147 57 126 189 84
117 184 79 109 180 74 115 188 80 102 180 68 107 186 69 127 207 86
109 188 63 102 176 55 112 179 66 119 177 75 133 183 98 121 162 92
21 54 0 0 11 0 0 8 0 8 8 8 11 11 11 25 25 25 0 0 0 127 127 127
255 255 255 250 250 250 226 226 226 220 220 220 218 218 218
229 229 229 245 245 245 223 223 223 224 224 224 215 215 215
241 241 241 255 255 255 255 255 255 251 251 251 223 223 223
215 215 215 222 222 222 236 236 236 253 253 253 255 255 255
255 255 255 232 232 232 213 213 213 222 222 222 237 237 237
253 253 253 255 255 255 247 247 247 233 233 233 225 225 225
222 222 222 230 230 230 247 247 247 255 255 255 255 255 255
234 234 234 219 219 219 221 221 221 229 229 229 254 254 254
253 253 253 255 255 255 237 237 237 216 216 216 220 220 220
227 227 227 255 255 255 255 255 255 255 255 255 230 230 230
222 222 222 214 214 214 216 216 216 248 248 248 255 255 255
251 251 251 238 238 238 224 224 224 222 222 222 233 233 233
246 246 246 254 254 254 255 255 255 233 233 233 234 234 234
168 168 168 2 2 2 0 0 0 6 6 6 43 43 43 14 14 12 4 5 0 9 12 0 50 56 10
213 220 150 250 255 163 250 255 148 229 233 120 242 245 130
222 225 110 237 239 130 231 233 132 230 233 144 241 242 174
239 238 190 167 166 138 22 31 2 24 53 5 139 184 115 105 165 69
104 177 60 111 196 66 103 195 58 103 196 64 93 184 57 104 188 66
111 189 67 123 198 71 133 203 78 124 194 72 107 175 62 102 170 69
110 177 84 100 166 76 105 171 81 113 177 90 120 184 100 128 187 107
132 185 113 133 181 119 134 177 124 112 144 103 0 23 0 0 12 0 0 8 0
6 5 1 4 0 0 87 76 82 255 252 255 255 254 255 231 231 231 222 222 222
235 235 235 213 213 213 245 245 245 247 247 247 255 255 255
234 234 234 221 221 221 214 214 214 227 227 227 249 249 249
255 255 255 255 255 255 242 242 242 217 217 217 218 218 218
227 227 227 244 244 244 255 255 255 255 255 255 241 241 241
224 224 224 218 218 218 221 221 221 253 253 253 255 255 255
255 255 255 253 253 253 221 221 221 217 219 218 223 227 226
239 245 241 252 255 251 254 255 250 242 243 237 217 216 212
223 218 222 223 218 225 64 60 74 1 0 12 23 23 33 15 19 22 6 16 7
3 16 0 32 49 17 149 179 125 151 207 116 92 161 54 124 197 90
103 180 74 82 164 56 115 201 90 107 194 79 113 201 81 115 201 78
120 201 80 128 202 87 115 182 77 124 183 93 118 169 92 76 120 57
0 21 0 8 19 5 9 9 9 6 6 6 8 8 8 2 2 2 24 24 24 205 205 205
255 255 255 228 228 228 221 221 221 218 218 218 228 228 228
245 245 245 230 230 230 233 233 233 220 220 220 242 242 242
255 255 255 249 249 249 246 246 246 218 218 218 219 219 219
229 229 229 244 244 244 254 254 254 254 254 254 243 243 243
228 228 228 217 217 217 227 227 227 233 233 233 241 241 241
247 247 247 247 247 247 241 241 241 232 232 232 227 227 227
226 226 226 241 241 241 254 254 254 250 250 250 234 234 234
224 224 224 229 229 229 238 238 238 243 243 243 240 240 240
253 253 253 232 232 234 216 216 218 225 225 227 229 229 231
255 255 255 248 248 248 253 253 253 228 228 228 223 223 223
214 214 212 211 211 209 243 243 241 250 250 250 237 237 239
234 234 236 232 232 232 231 231 229 233 233 233 238 238 240
243 243 245 246 247 249 250 252 251 144 146 145 19 21 20 0 1 0 7 8 10
78 80 77 26 29 22 13 15 2 3 7 0 38 43 3 206 211 147 255 255 181
238 241 138 244 244 130 255 255 142 235 234 118 255 255 147
253 253 143 243 246 141 255 255 170 245 253 178 215 224 169 5 15 0
0 15 0 101 143 80 125 183 96 108 177 68 115 196 68 112 200 62
102 195 54 109 203 67 99 190 61 87 173 48 107 187 64 119 196 68
113 188 59 108 180 54 108 182 61 109 181 71 104 176 74 116 186 87
114 184 86 114 181 86 114 179 87 116 176 90 119 173 97 122 171 106
127 167 115 46 76 42 0 9 0 16 28 18 25 29 28 8 6 9 4 0 2 200 189 195
255 249 252 255 254 255 233 233 233 220 220 220 254 254 254
221 221 221 242 242 242 236 236 236 255 255 255 240 240 240
228 228 228 221 221 221 229 229 229 247 247 247 255 255 255
248 248 248 236 236 236 224 224 224 223 223 223 228 228 228
239 239 239 249 249 249 251 251 251 242 242 242 232 232 232
219 219 219 229 229 229 245 245 245 255 255 255 255 255 255
245 245 245 229 229 229 218 220 219 246 250 249 243 248 244
234 239 233 241 243 238 245 246 241 241 240 238 233 231 234
236 233 240 194 188 200 1 0 11 1 0 10 7 8 13 0 3 0 5 13 0 59 68 47
128 154 109 114 168 84 111 182 76 91 167 58 113 196 82 118 205 90
93 182 66 101 192 75 95 186 67 95 183 63 109 192 74 116 195 80
95 166 60 116 182 85 109 168 84 117 173 100 0 28 0 0 9 0 16 18 15
0 0 0 11 11 11 18 18 18 0 0 0 127 125 126 255 255 255 232 232 230
227 227 225 224 226 223 230 232 229 240 242 241 245 245 245
245 245 245 255 255 255 229 229 229 205 205 205 212 212 212
224 224 224 255 255 255 254 254 254 246 246 246 247 247 247
222 222 222 224 224 224 212 212 212 233 233 233 240 240 240
251 251 251 241 241 241 214 214 214 220 220 220 215 215 215
242 242 242 243 243 243 252 252 252 247 247 247 229 229 229
215 215 215 221 221 221 242 242 242 255 255 255 255 255 255
247 247 247 210 210 212 215 215 217 226 226 228 243 242 247
255 254 255 254 253 255 241 240 245 227 226 231 227 227 229
221 221 221 224 224 224 242 242 240 255 255 251 251 252 246
228 229 223 208 208 206 210 207 216 237 234 243 255 255 253
255 255 250 245 247 246 235 236 240 227 227 235 212 215 222
109 113 114 0 1 0 2 6 7 31 35 36 89 93 96 25 30 24 2 10 0 5 13 0
61 69 9 211 218 141 250 254 169 221 220 127 254 249 147 255 248 141
233 221 113 255 247 139 255 250 145 238 235 132 212 216 119
246 255 169 213 234 155 44 71 4 0 25 0 108 150 84 120 182 83
114 187 70 111 190 65 110 191 63 109 191 63 107 192 63 107 191 67
107 191 70 108 189 71 109 188 69 110 188 68 110 188 66 110 189 64
110 188 66 110 188 68 110 188 69 112 190 78 110 187 75 123 197 84
127 196 87 117 182 80 118 174 83 127 174 102 111 150 97 0 18 0
14 35 20 0 10 11 0 0 9 0 0 9 53 48 55 245 236 241 215 209 211
227 225 226 237 237 237 249 249 249 250 250 250 239 239 239
226 226 226 218 218 218 216 216 216 230 230 230 253 253 253
255 255 255 255 255 255 219 219 219 220 220 220 223 223 223
246 246 246 255 255 255 255 255 255 248 248 248 232 232 232
220 220 220 220 220 220 231 231 231 243 243 243 253 253 253
254 254 254 225 225 225 225 225 225 225 225 225 225 225 225
254 254 254 253 253 253 236 238 237 220 222 221 229 231 228
226 226 224 238 238 236 255 255 255 247 247 247 255 255 255
240 238 243 81 80 85 0 0 4 20 20 22 2 4 3 5 7 2 3 6 0 125 144 114
142 190 116 130 197 94 109 183 68 111 193 67 105 195 63 103 195 62
114 204 80 96 184 64 117 200 86 115 193 83 97 170 62 104 175 69
115 186 84 121 192 96 101 171 83 31 86 21 0 22 0 2 9 1 3 5 0 4 4 2
18 16 17 13 11 12 4 0 0 202 201 199 255 255 251 247 249 244
245 250 244 243 248 242 222 227 223 255 255 255 254 254 254
255 255 255 235 235 235 210 210 210 213 213 213 223 223 223
255 255 255 255 255 255 253 253 253 247 247 247 225 225 225
217 217 217 216 216 216 240 240 240 255 255 255 255 255 255
241 241 241 215 215 215 215 215 215 223 223 223 246 246 246
253 253 253 255 255 255 255 255 255 232 232 232 207 207 207
214 214 214 244 244 244 255 255 255 254 254 254 236 236 236
221 221 223 221 220 225 227 226 231 243 242 247 255 254 255
255 254 255 240 239 244 223 222 227 212 212 214 218 218 218
231 231 231 248 248 246 255 255 251 251 252 246 236 237 231
224 224 222 218 216 227 214 212 223 241 242 237 253 255 247
246 248 245 245 246 251 174 176 188 49 52 61 0 4 5 12 17 13 43 47 46
99 103 102 21 25 24 0 3 0 11 20 0 67 78 22 220 229 148 237 244 148
245 247 148 245 242 139 246 237 132 242 229 124 247 232 129
255 247 148 252 241 149 236 232 143 238 243 159 213 230 150 60 88 13
0 21 0 85 131 58 129 188 98 114 187 70 110 191 60 110 191 62
110 191 63 110 190 67 110 190 69 110 189 70 110 189 72 109 188 73
109 188 71 109 188 69 109 189 68 109 189 66 109 189 64 109 190 62
109 189 64 103 184 63 112 191 72 111 189 69 117 187 73 119 185 79
124 179 86 130 176 104 55 92 41 0 13 0 0 16 6 0 6 12 10 12 25
16 14 27 164 161 170 241 236 240 207 203 202 220 218 219 237 237 237
255 255 255 255 255 255 245 245 245 228 228 228 218 218 218
215 215 215 238 238 238 255 255 255 255 255 255 253 253 253
223 223 223 215 215 215 220 220 220 238 238 238 253 253 253
255 255 255 252 252 252 239 239 239 223 223 223 219 219 219
229 229 229 242 242 242 255 255 255 255 255 255 221 221 221
223 223 223 223 223 223 221 221 221 255 255 255 255 255 255
246 246 246 225 225 225 223 223 223 218 218 218 234 234 234
255 255 255 251 251 251 255 255 255 252 252 252 183 183 183 0 0 0
6 6 6 12 12 12 11 11 11 0 0 0 44 59 36 130 172 106 117 182 82
108 181 63 118 200 66 110 199 57 112 203 63 106 195 65 98 183 62
111 189 77 114 190 81 110 182 72 119 191 81 112 185 77 107 182 79
109 186 90 82 144 71 0 17 0 73 83 72 0 2 0 7 8 3 5 4 2 14 10 11 3 0 0
125 124 120 255 255 251 248 251 244 251 255 249 251 255 251
223 229 225 255 255 255 255 255 255 255 255 255 242 242 242
224 224 224 222 222 222 223 223 223 239 239 239 255 255 255
255 255 255 240 240 240 228 228 228 212 212 212 225 225 225
245 245 245 255 255 255 255 255 255 241 241 241 224 224 224
214 214 214 231 231 231 243 243 243 255 255 255 255 255 255
234 234 234 224 224 224 215 215 215 221 221 221 238 238 238
254 254 254 255 255 255 255 255 255 216 215 220 215 214 219
221 220 225 237 236 241 255 254 255 255 255 255 255 255 255
246 246 248 220 220 220 232 232 232 248 248 248 255 255 255
255 255 253 250 250 248 230 230 228 213 213 215 209 209 219
251 251 255 254 255 250 246 249 240 247 249 246 136 137 142 20 20 32
0 0 9 1 2 4 84 86 81 114 115 110 0 1 0 0 2 0 0 3 0 93 98 57
224 230 166 233 237 150 236 241 139 248 250 141 250 248 137
244 238 124 253 245 134 255 254 151 255 247 154 228 222 144
253 254 186 224 234 171 60 80 17 0 28 0 88 132 55 122 174 89
109 171 70 113 188 69 110 191 62 110 191 63 110 190 65 110 190 69
110 189 70 110 189 72 110 189 72 109 188 71 109 188 71 109 188 69
109 189 68 109 189 66 109 189 64 109 190 62 109 190 62 99 181 55
106 187 66 107 182 64 113 182 73 117 177 81 141 193 111 100 140 77
0 31 0 3 22 0 0 13 4 6 11 15 0 0 9 71 70 78 249 248 254 242 240 241
223 222 220 214 214 214 235 235 235 255 255 255 255 255 255
253 253 253 235 235 235 223 223 223 218 218 218 250 250 250
255 255 255 255 255 255 245 245 245 231 231 231 215 215 215
221 221 221 226 226 226 255 255 255 255 255 255 243 243 243
225 225 225 212 212 212 218 218 218 239 239 239 255 255 255
255 255 255 254 254 254 223 223 223 222 222 222 222 222 222
223 223 223 254 254 254 255 255 255 255 255 255 233 233 233
223 223 223 215 215 215 227 227 227 248 248 248 250 250 250
255 255 255 236 236 236 232 232 232 71 71 71 0 0 0 9 9 9 7 7 7
19 19 19 0 12 0 109 150 82 120 180 80 108 177 58 112 190 55 98 183 38
104 193 49 87 174 41 97 181 57 109 186 70 101 175 62 98 168 54
113 183 69 114 184 72 108 181 73 113 190 88 110 171 94 0 13 0
75 88 71 48 56 45 22 25 18 10 9 7 20 16 15 3 0 0 10 9 5 216 217 212
246 249 242 244 249 242 251 255 251 224 230 226 230 230 230
227 227 227 232 232 232 239 239 239 249 249 249 253 253 253
245 245 245 240 240 240 229 229 229 238 238 238 235 235 235
253 253 253 241 241 241 250 250 250 235 235 235 235 235 235
228 228 228 231 231 231 251 251 251 246 246 246 255 255 255
238 238 238 237 237 237 225 225 225 234 234 234 244 244 244
250 250 250 243 243 243 229 229 229 224 224 224 234 234 234
246 246 248 247 246 252 244 243 249 240 239 245 237 236 241
235 235 237 237 237 237 242 242 242 245 245 243 249 249 247
246 246 244 239 239 239 233 233 233 239 239 241 250 250 252
251 250 255 244 245 250 239 242 251 236 241 245 248 253 246
230 236 224 81 83 78 4 5 9 0 0 9 14 13 21 107 106 102 65 65 55 3 1 0
3 1 0 3 2 0 94 93 62 231 234 181 251 255 179 228 229 135 255 255 148
248 248 134 238 237 119 255 255 137 255 254 143 240 236 137
242 240 157 255 255 196 190 197 143 60 76 27 0 23 0 73 112 47
139 191 109 122 181 87 111 179 70 113 189 67 110 191 63 110 190 65
110 190 67 110 189 70 110 189 70 110 189 72 110 189 72 109 188 71
109 188 71 109 188 69 109 189 68 109 189 66 109 190 62 109 190 61
108 191 61 106 188 60 95 177 53 111 185 72 120 187 84 117 172 88
141 186 117 39 71 21 0 11 0 6 21 2 9 19 11 9 13 14 0 0 4 158 159 163
250 251 253 240 242 241 241 243 240 243 243 243 239 239 239
234 234 234 231 231 231 234 234 234 240 240 240 247 247 247
251 251 251 235 235 235 226 226 226 234 234 234 227 227 227
249 249 249 242 242 242 250 250 250 241 241 241 231 231 231
233 233 233 237 237 237 242 242 242 244 244 244 243 243 243
240 240 240 237 237 237 226 226 226 232 232 232 245 245 245
250 250 250 250 250 250 245 245 245 232 232 232 226 226 226
231 231 231 235 235 235 247 247 247 250 250 250 248 248 248
242 242 242 229 229 229 224 224 224 247 247 247 246 246 246
198 198 198 6 6 6 4 4 4 0 0 0 24 24 24 0 6 0 50 86 24 126 179 87
117 181 67 117 189 61 111 192 53 116 200 60 101 184 54 122 202 79
123 197 82 111 183 71 106 174 61 116 184 71 125 193 82 125 194 87
121 193 93 120 178 101 33 64 23 22 37 18 130 141 125 0 2 0 3 2 0
17 13 10 22 18 17 3 0 0 144 143 138 253 255 249 232 237 230
235 242 235 242 248 244 220 220 220 214 214 214 213 213 213
237 237 237 255 255 255 255 255 255 245 245 245 217 217 217
226 226 226 227 227 227 221 221 221 247 247 247 248 248 248
255 255 255 231 231 231 217 217 217 217 217 217 233 233 233
255 255 255 254 254 254 251 251 251 220 220 220 221 221 221
216 216 216 240 240 240 254 254 254 255 255 255 255 255 255
233 233 233 217 217 217 216 216 216 222 222 224 255 254 255
255 254 255 255 254 255 236 235 240 216 216 216 213 213 211
230 231 226 248 249 244 246 247 242 245 246 241 230 230 228
209 209 211 208 207 212 227 226 234 243 241 252 245 245 255
244 248 255 249 255 255 167 175 164 5 11 0 18 21 14 0 0 0 49 47 52
122 118 119 42 38 27 6 3 0 18 13 0 15 9 0 16 11 0 177 172 130
253 252 187 242 242 156 255 255 154 255 255 148 251 250 132
245 246 129 251 251 139 235 238 135 229 233 146 252 255 186
185 196 140 24 41 0 4 31 0 96 133 79 126 176 107 118 176 91
116 183 80 116 189 74 111 189 69 110 190 67 110 190 69 110 189 70
110 189 70 110 189 72 110 189 74 110 189 74 109 188 71 109 188 71
109 188 69 109 189 66 109 189 64 109 190 62 109 190 61 108 191 61
116 199 69 92 174 50 117 190 82 123 187 93 126 176 105 89 126 74
0 23 0 0 11 0 0 4 0 7 10 3 0 0 0 67 67 67 228 230 229 234 238 237
243 249 247 239 245 243 249 251 250 233 233 233 216 216 216
218 218 218 236 236 236 253 253 253 255 255 255 255 255 255
242 242 242 220 220 220 218 218 218 218 218 218 255 255 255
255 255 255 255 255 255 234 234 234 212 212 212 215 215 215
228 228 228 250 250 250 255 255 255 255 255 255 243 243 243
220 220 220 224 224 224 218 218 218 255 255 255 251 251 251
251 251 251 255 255 255 218 218 218 224 224 224 226 226 226
247 247 247 255 255 255 255 255 255 244 244 244 224 224 224
219 219 219 218 218 218 254 254 254 255 255 255 255 255 255 60 60 60
6 6 6 14 14 14 6 6 6 9 20 3 0 23 0 129 173 96 130 186 87 119 184 68
120 195 68 110 189 61 98 178 55 112 189 75 119 190 84 126 193 88
130 193 88 122 185 78 122 185 80 121 187 87 114 181 88 118 174 101
85 118 75 0 12 0 165 178 160 14 20 6 4 5 0 20 17 12 11 7 4 5 1 0
52 51 46 228 229 223 211 213 208 206 211 205 249 255 251 220 220 220
216 216 216 210 210 210 237 237 237 255 255 255 255 255 255
243 243 243 210 210 210 230 230 230 225 225 225 220 220 220
238 238 238 248 248 248 254 254 254 231 231 231 214 214 214
219 219 219 237 237 237 255 255 255 252 252 252 238 238 238
216 216 216 217 217 217 220 220 220 227 227 227 248 248 248
255 255 255 255 255 255 233 233 233 216 216 216 220 220 220
232 232 234 255 254 255 255 253 255 253 252 255 234 233 238
215 215 215 214 215 210 235 236 230 255 255 250 245 246 240
253 254 249 243 243 241 218 218 220 213 212 218 234 232 243
253 251 255 254 253 255 248 254 255 124 134 136 0 5 0 0 9 0 3 7 0
102 104 93 77 74 69 13 9 0 6 1 0 21 16 0 34 28 0 148 140 104 12 4 0
190 184 132 240 236 165 242 238 147 235 231 123 239 234 117
253 251 138 249 248 140 238 240 141 254 255 172 228 239 163
149 165 102 0 23 0 0 28 0 96 135 80 138 187 122 122 181 101
122 189 94 102 173 67 105 182 66 110 189 70 110 189 70 110 189 72
110 189 72 110 189 72 110 189 72 110 189 74 110 189 74 109 188 71
109 188 69 109 188 69 109 189 66 109 189 64 109 190 62 109 190 62
109 190 61 120 202 74 102 182 61 118 189 85 118 175 94 117 161 102
16 44 6 0 14 0 7 13 1 0 1 0 1 0 0 1 0 0 163 164 158 230 232 227
238 244 240 248 255 255 243 254 250 248 250 249 231 231 231
215 215 215 218 218 218 238 238 238 254 254 254 255 255 255
250 250 250 245 245 245 224 224 224 215 215 215 222 222 222
254 254 254 255 255 255 252 252 252 231 231 231 220 220 220
217 217 217 223 223 223 242 242 242 255 255 255 255 255 255
246 246 246 225 225 225 230 230 230 219 219 219 255 255 255
245 245 245 245 245 245 255 255 255 219 219 219 230 230 230
228 228 228 251 251 251 255 255 255 255 255 255 239 239 239
217 217 217 222 222 222 223 223 223 240 240 240 255 255 255
255 255 255 173 173 173 0 0 0 14 14 14 2 2 2 28 36 23 0 11 0
108 143 85 133 180 100 108 165 68 117 185 74 111 184 69 115 188 80
122 194 92 119 184 90 121 185 91 123 183 87 111 171 75 118 177 83
124 184 94 106 167 87 114 166 100 118 154 110 5 25 0 121 136 113
118 127 110 3 6 0 15 15 7 3 0 0 6 1 0 6 3 0 172 173 167 211 213 208
208 213 207 251 255 255 215 215 215 221 221 221 214 214 214
235 235 235 251 251 251 250 250 250 255 255 255 240 240 240
222 222 222 226 226 226 241 241 241 248 248 248 255 255 255
244 244 244 230 230 230 214 214 214 219 219 219 234 234 234
245 245 245 255 255 255 245 245 245 238 238 238 224 224 224
221 221 221 236 236 236 250 250 250 255 255 255 248 248 248
227 227 227 216 216 216 224 224 224 237 236 241 249 247 255
249 247 255 245 244 252 237 236 241 228 228 226 225 226 221
230 231 223 237 238 230 254 255 247 255 255 250 245 245 243
231 231 233 239 238 246 253 251 255 238 235 252 205 204 222 17 23 39
0 2 7 0 7 0 25 35 11 104 109 87 46 48 26 13 11 0 6 2 0 26 21 0
109 103 55 230 222 176 180 172 125 22 14 0 186 179 124 250 244 170
240 235 143 239 232 126 240 234 124 242 238 138 237 236 146
233 237 160 220 231 162 128 146 84 0 24 0 0 25 0 108 153 86
116 170 94 107 169 83 116 186 90 95 170 67 108 186 76 117 197 84
110 189 74 110 189 74 110 189 74 110 189 74 110 189 74 110 189 74
110 189 74 110 189 74 109 188 71 109 188 69 109 188 69 109 189 66
109 189 64 109 189 64 109 189 64 109 190 62 120 202 76 110 187 71
116 181 87 112 164 92 62 98 54 0 9 0 7 14 6 8 7 5 14 8 8 9 4 1
99 94 88 230 230 220 221 227 217 236 247 239 236 251 246 241 253 251
252 255 255 243 243 243 225 225 225 217 217 217 222 222 222
234 234 234 245 245 245 250 250 250 226 226 226 223 223 223
218 218 218 233 233 233 243 243 243 255 255 255 253 253 253
250 250 250 224 224 224 228 228 228 236 236 236 247 247 247
254 254 254 249 249 249 236 236 236 224 224 224 224 224 224
227 227 227 248 248 248 251 251 251 251 251 251 248 248 248
227 227 227 224 224 224 219 219 219 240 240 240 245 245 245
255 255 255 252 252 252 232 232 232 232 232 232 219 219 219
240 240 240 255 255 255 253 253 253 248 248 248 31 31 31 0 0 0 0 0 0
0 5 0 0 14 0 51 78 43 133 172 115 115 166 89 129 189 99 128 195 98
122 191 100 112 180 93 117 178 100 108 166 89 110 165 84 105 160 77
119 174 93 123 179 104 111 168 100 140 191 134 143 179 133 29 55 18
37 56 26 191 203 181 13 17 2 1 1 0 15 12 7 14 9 5 13 10 5 96 95 90
235 236 231 243 248 242 251 255 255 255 255 255 255 255 255
246 246 246 243 243 243 230 230 230 215 215 215 231 231 231
228 228 228 255 255 255 247 247 247 244 244 244 217 217 217
223 223 223 219 219 219 248 248 248 255 255 255 255 255 255
248 248 248 215 215 215 217 217 217 212 212 212 243 243 243
252 252 252 255 255 255 238 238 238 226 226 226 216 216 216
221 221 221 237 237 237 251 251 251 254 254 254 251 250 255
219 217 228 219 217 230 223 222 230 235 234 239 248 248 246
253 254 248 249 250 242 242 244 233 224 225 217 232 233 227
238 238 236 248 248 250 255 254 255 214 212 225 98 95 112 0 0 16
0 0 16 5 14 19 45 56 39 72 81 52 17 22 0 7 9 0 19 17 0 27 23 0
160 155 97 245 240 176 255 255 199 164 155 100 23 13 0 212 206 148
246 242 169 239 235 148 255 254 158 255 253 156 240 238 153
245 247 174 217 226 163 94 109 52 3 28 0 22 58 0 107 153 81
135 190 107 132 198 101 113 184 78 98 176 66 103 183 68 112 195 81
101 184 70 109 189 76 110 188 76 110 188 76 110 188 76 110 189 74
110 189 74 110 189 74 110 189 74 109 188 71 109 188 71 109 188 69
109 189 68 109 189 66 109 189 66 109 189 66 109 189 66 121 200 81
114 185 79 116 175 91 112 157 98 0 30 0 0 7 0 5 6 8 7 0 7 13 2 6
19 9 8 225 218 210 255 255 244 245 251 239 228 240 230 206 223 217
220 235 232 218 222 221 237 237 237 255 255 255 255 255 255
249 249 249 231 231 231 216 216 216 209 209 209 251 251 251
255 255 255 249 249 249 251 251 251 225 225 225 227 227 227
217 217 217 225 225 225 252 252 252 249 249 249 241 241 241
228 228 228 219 219 219 222 222 222 236 236 236 248 248 248
255 255 255 253 253 253 221 221 221 215 215 215 215 215 215
221 221 221 253 253 253 255 255 255 254 254 254 246 246 246
212 212 212 213 213 213 222 222 222 231 231 231 255 255 255
255 255 255 221 221 221 223 223 223 225 225 225 232 232 232
109 109 109 2 2 2 11 11 11 0 1 0 7 18 12 0 20 1 139 172 129
129 173 110 121 178 99 91 155 69 36 101 19 0 53 0 0 37 0 0 32 0
0 46 0 0 42 0 0 40 0 0 36 0 0 47 0 65 114 59 114 152 101 40 69 25
0 14 0 221 236 207 74 81 63 1 1 0 10 7 0 6 1 0 4 0 0 4 3 0
224 225 220 243 248 242 218 222 221 240 240 240 244 244 244
255 255 255 244 244 244 224 224 224 229 229 229 232 232 232
255 255 255 255 255 255 255 255 255 241 241 241 221 221 221
226 226 226 211 211 211 254 254 254 255 255 255 255 255 255
248 248 248 219 219 219 223 223 223 218 218 218 247 247 247
251 251 251 255 255 255 255 255 255 221 221 221 216 216 216
222 222 222 255 255 255 248 248 248 255 255 255 250 250 252
217 216 224 213 211 222 212 211 219 226 225 230 250 250 250
243 244 239 255 255 250 228 229 221 223 224 216 229 230 224
247 248 243 224 224 224 136 135 140 11 10 18 0 0 9 1 0 14 6 9 24
33 41 44 28 36 15 10 18 0 7 13 0 9 12 0 85 84 27 214 210 146
249 246 169 232 227 146 244 237 165 189 181 119 18 11 0 201 196 141
239 238 173 250 248 174 231 227 153 234 232 158 250 250 186
176 181 125 7 19 0 0 21 0 70 104 44 136 179 110 124 178 94 118 183 83
114 186 74 110 190 69 109 191 67 106 192 67 104 192 69 106 191 72
108 188 75 109 187 77 109 187 75 109 187 75 109 188 73 109 188 73
109 188 71 109 188 71 101 180 63 129 208 91 100 179 60 95 174 55
116 195 76 107 186 67 107 186 67 116 193 77 98 169 63 138 202 108
110 162 90 16 54 5 3 25 2 0 5 0 5 2 9 8 0 7 8 0 2 162 150 150
255 250 242 250 250 238 247 253 241 243 255 243 212 229 221
193 208 203 217 221 220 240 240 240 255 255 255 255 255 255
242 242 242 225 225 225 219 219 219 222 222 222 240 240 240
253 253 253 249 249 249 253 253 253 224 224 224 227 227 227
221 221 221 233 233 233 249 249 249 255 255 255 252 252 252
237 237 237 236 236 236 226 226 226 223 223 223 242 242 242
250 250 250 255 255 255 227 227 227 215 215 215 217 217 217
230 230 230 255 255 255 248 248 248 255 255 255 225 225 225
233 233 233 230 230 230 234 234 234 255 255 255 252 252 252
243 243 243 218 218 218 218 218 218 225 225 225 218 218 218
187 187 187 9 9 9 8 8 8 9 10 12 0 4 6 0 6 0 143 170 135 114 155 97
27 81 6 0 53 0 0 29 0 14 81 2 43 105 32 55 115 41 71 128 51 76 130 52
63 115 40 32 85 15 0 51 0 0 27 0 0 22 0 0 28 0 0 14 0 150 167 133
198 208 184 1 3 0 8 4 0 8 3 0 27 22 18 13 9 6 172 173 168 252 255 251
192 196 195 253 253 253 253 253 253 255 255 255 241 241 241
226 226 226 224 224 224 226 226 226 241 241 241 255 255 255
253 253 253 233 233 233 216 216 216 218 218 218 220 220 220
250 250 250 255 255 255 255 255 255 248 248 248 224 224 224
217 217 217 215 215 215 235 235 235 249 249 249 255 255 255
251 251 251 214 214 214 196 196 196 213 213 213 255 255 255
255 255 255 254 254 254 255 255 255 225 224 230 212 211 219
226 225 231 246 245 250 254 254 254 245 245 243 255 255 250
225 226 220 252 253 245 186 187 181 89 90 84 11 12 7 5 5 5 0 0 2
14 13 18 10 11 16 0 2 11 13 18 14 10 15 0 1 7 0 27 30 0 139 140 74
232 229 158 253 250 171 245 244 152 252 251 159 235 232 153
178 175 108 9 6 0 195 195 143 232 236 175 248 253 189 255 255 201
218 221 168 119 125 77 13 25 0 10 30 0 88 117 61 126 165 100
131 182 103 121 180 86 116 185 78 111 189 69 109 191 63 107 192 62
106 193 62 104 194 62 104 193 65 108 188 73 109 187 75 109 187 75
109 188 73 109 188 73 109 188 71 109 188 71 109 188 71 114 193 76
98 177 60 109 188 71 116 195 78 103 182 67 102 181 66 109 188 73
112 185 78 122 187 95 119 173 97 61 104 48 0 21 0 0 11 0 25 29 28
4 0 6 7 0 5 65 52 59 191 179 181 255 254 248 255 255 246 252 255 246
247 255 247 215 230 223 199 211 207 216 220 219 236 236 236
255 255 255 255 255 255 250 250 250 234 234 234 224 224 224
220 220 220 241 241 241 255 255 255 255 255 255 254 254 254
220 220 220 209 209 209 214 214 214 232 232 232 247 247 247
254 254 254 245 245 245 225 225 225 212 212 212 210 210 210
228 228 228 254 254 254 255 255 255 255 255 255 237 237 237
223 223 223 217 217 217 226 226 226 251 251 251 255 255 255
255 255 255 235 235 235 230 230 230 223 223 223 226 226 226
244 244 244 251 251 251 255 255 255 242 242 242 217 217 217
230 230 230 229 229 229 233 233 233 5 5 5 8 8 8 3 4 6 14 19 22 5 18 8
63 91 53 0 33 0 0 46 0 30 94 7 90 158 71 126 196 110 113 178 96
118 182 98 126 186 98 130 189 99 131 186 102 126 181 100 118 174 103
115 167 101 80 126 62 62 102 42 5 35 0 83 104 65 219 229 202 33 36 19
4 0 0 15 8 2 16 11 7 5 1 0 95 96 91 241 243 240 216 220 219
235 235 235 238 238 238 231 231 231 236 236 236 238 238 238
237 237 237 244 244 244 241 241 241 234 234 234 232 232 232
235 235 235 240 240 240 238 238 238 246 246 246 232 232 232
233 233 233 233 233 233 235 235 235 244 244 244 239 239 239
241 241 241 232 232 232 234 234 234 232 232 232 234 234 234
244 244 244 235 235 235 242 242 242 249 249 249 246 246 246
231 231 231 244 244 246 242 241 246 243 242 247 242 241 246
233 233 235 245 245 245 242 242 240 249 249 247 212 213 208
105 106 100 0 1 0 13 14 8 0 1 0 14 15 9 26 27 21 14 15 9 3 4 0 2 3 0
0 3 0 19 21 0 107 108 48 215 216 146 251 249 172 238 236 153
241 240 150 247 247 149 250 252 155 237 239 156 210 213 144 19 23 0
138 146 97 241 252 196 224 237 183 162 170 131 31 41 6 17 32 0 7 29 0
96 125 67 133 170 101 142 186 109 135 189 101 120 182 83 116 185 78
111 189 70 109 191 65 107 192 62 106 194 58 104 195 55 106 194 58
108 189 69 109 187 75 109 187 75 109 188 73 109 188 73 109 188 71
109 188 71 109 188 69 118 197 80 94 173 56 112 191 76 109 187 75
104 182 72 119 197 87 108 186 77 104 174 78 132 188 113 82 125 69
0 16 0 0 13 0 6 20 5 6 11 7 3 0 4 21 10 18 199 186 193 250 240 241
253 245 242 218 218 210 217 223 213 228 238 229 229 242 233
238 251 244 226 230 229 234 234 234 240 240 240 244 244 244
242 242 242 238 238 238 233 233 233 230 230 230 245 245 245
240 240 240 240 240 240 235 235 235 241 241 241 236 236 236
237 237 237 232 232 232 246 246 246 248 248 248 255 255 255
253 253 253 238 238 238 234 234 234 238 238 238 238 238 238
254 254 254 240 240 240 239 239 239 236 236 236 236 236 236
239 239 239 237 237 237 248 248 248 221 221 221 239 239 239
240 240 240 245 245 245 245 245 245 234 234 234 234 234 234
236 236 236 255 255 255 232 232 232 237 237 237 240 240 240
245 245 245 0 0 0 5 5 5 2 4 3 23 28 24 0 13 0 0 14 0 1 44 0 83 142 52
114 182 81 131 203 101 106 181 80 113 185 85 114 182 81 113 179 73
114 177 70 116 177 74 119 181 82 125 185 97 129 186 105 131 183 108
123 165 99 36 69 14 7 30 0 232 243 211 109 112 91 4 0 0 22 15 9 7 0 0
8 3 0 21 20 18 215 217 214 241 245 244 230 230 230 236 236 236
223 223 223 240 240 240 249 249 249 240 240 240 242 242 242
221 221 221 226 226 226 222 222 222 231 231 231 244 244 244
239 239 239 255 255 255 224 224 224 227 227 227 225 225 225
231 231 231 253 253 253 242 242 242 247 247 247 224 224 224
228 228 228 222 222 222 219 219 219 255 255 255 255 255 255
245 245 245 221 221 221 227 227 227 219 219 219 244 244 244
255 255 255 255 255 255 254 254 255 235 235 237 238 238 240
192 192 192 107 107 107 0 0 0 0 1 0 9 10 4 5 6 0 28 30 19 0 2 0 5 8 0
16 19 2 13 14 0 29 28 8 66 66 32 177 176 119 251 251 177 238 237 155
237 235 150 255 254 165 245 242 149 230 230 130 228 232 137
250 255 173 238 247 180 35 47 0 46 62 15 179 200 144 72 95 43 0 19 0
4 26 0 60 87 44 0 23 0 40 76 12 147 189 113 127 177 92 99 154 61
120 182 81 117 184 78 113 187 72 110 190 67 109 192 62 106 194 58
106 195 53 106 194 56 108 189 68 109 188 73 109 188 73 109 188 71
109 188 71 109 188 69 109 188 69 109 188 69 107 186 69 113 192 77
112 190 78 101 179 69 115 192 86 117 194 90 100 177 75 121 187 100
115 162 107 0 32 0 0 11 0 0 16 0 3 14 0 0 1 0 3 0 0 150 141 144
255 246 250 255 252 255 241 235 235 215 214 210 224 226 221
235 242 234 238 250 240 249 255 251 254 255 253 243 243 243
229 229 229 224 224 224 231 231 231 243 243 243 251 251 251
255 255 255 243 243 243 221 221 221 220 220 220 222 222 222
255 255 255 255 255 255 253 253 253 227 227 227 221 221 221
209 209 209 224 224 224 246 246 246 251 251 251 255 255 255
253 253 253 226 226 226 224 224 224 216 216 216 245 245 245
255 255 255 253 253 253 236 236 236 203 203 203 209 209 209
215 215 215 252 252 252 245 245 245 248 248 248 244 244 244
218 218 218 222 222 222 230 230 230 249 249 249 255 255 255
246 246 246 249 249 249 214 214 214 0 0 0 0 0 0 6 8 5 9 14 7 4 19 0
4 34 0 102 149 71 139 201 102 121 193 83 96 174 62 88 168 53
117 194 80 119 193 78 122 193 73 122 192 70 122 190 71 119 186 73
116 183 80 115 179 85 124 179 96 133 180 108 64 103 40 0 14 0
220 234 199 188 192 169 4 0 0 20 13 7 6 0 0 18 13 10 1 0 0
170 172 169 252 255 255 217 217 217 227 227 227 221 221 221
245 245 245 255 255 255 246 246 246 244 244 244 220 220 220
217 217 217 218 218 218 235 235 235 253 253 253 248 248 248
255 255 255 220 220 220 217 217 217 216 216 216 227 227 227
255 255 255 251 251 251 255 255 255 227 227 227 224 224 224
213 213 213 225 225 225 255 255 255 254 254 254 252 252 252
227 227 227 220 220 220 200 200 200 215 215 215 255 255 253
237 237 235 255 255 255 214 214 216 103 103 105 16 16 18 5 5 7 0 0 2
0 0 0 5 6 0 13 15 4 0 3 0 13 16 0 10 14 0 0 5 0 35 36 2 170 167 126
254 249 193 255 255 180 229 225 138 251 246 155 255 255 169
248 242 156 249 245 156 239 238 146 244 248 161 230 238 163
240 254 192 122 142 93 0 13 0 0 23 0 0 34 0 66 103 52 113 151 100
132 171 116 61 101 39 0 21 0 98 145 65 123 173 86 112 167 74
121 181 83 118 184 78 116 186 74 113 188 69 110 190 65 109 192 62
106 194 58 107 193 60 108 190 66 109 188 69 109 188 69 109 188 69
109 188 69 109 189 68 109 189 68 109 188 69 104 183 66 115 193 81
113 191 81 117 194 88 108 185 83 97 173 73 108 183 88 114 176 101
49 85 49 0 9 0 12 30 14 5 19 2 0 7 0 0 2 0 51 50 45 239 235 232
255 253 255 254 248 252 230 225 229 216 214 215 219 221 218
213 218 212 199 207 196 199 204 197 211 213 210 195 195 195
177 177 177 172 172 172 182 182 182 197 197 197 208 208 208
211 211 211 200 200 200 202 202 202 226 226 226 232 232 232
255 255 255 255 255 255 255 255 255 255 255 255 227 227 227
215 215 215 231 231 231 254 254 254 255 255 255 255 255 255
249 249 249 216 216 216 211 211 211 211 211 211 248 248 248
255 255 255 255 255 255 246 246 246 224 224 224 240 240 240
214 214 214 254 254 254 251 251 251 255 255 255 249 249 249
216 216 216 213 213 213 216 216 216 249 249 249 255 255 255
254 254 254 255 255 255 204 204 204 1 1 1 1 1 1 4 6 3 0 3 0 7 23 0
66 99 44 142 191 110 118 183 79 104 181 65 101 185 64 117 203 80
100 181 60 104 184 59 112 189 59 117 193 61 121 193 65 120 192 67
118 188 74 117 184 81 122 181 91 125 176 97 83 124 58 8 37 0
177 191 155 232 236 211 15 12 0 13 4 0 8 0 0 18 10 8 3 0 0
103 103 101 252 255 255 210 210 210 222 222 222 228 228 228
244 244 244 251 251 251 247 247 247 248 248 248 239 239 239
215 215 215 224 224 224 241 241 241 255 255 255 254 254 254
252 252 252 223 223 223 215 215 215 214 214 214 227 227 227
250 250 250 255 255 255 255 255 255 238 238 238 226 226 226
213 213 213 241 241 241 237 237 237 240 240 240 255 255 255
244 244 244 232 232 232 226 226 226 239 239 237 255 255 251
235 236 231 148 148 146 21 21 21 0 0 4 0 0 5 5 4 10 17 16 21 14 14 14
19 20 15 13 15 2 14 17 0 0 4 0 23 29 0 179 186 145 226 230 180
247 243 182 246 240 164 255 252 160 249 244 144 224 215 120
230 221 130 247 239 156 238 231 150 255 255 178 236 241 161
208 219 151 143 161 103 0 18 0 0 18 0 33 73 11 91 138 70 127 177 106
129 181 109 136 186 117 111 161 90 0 40 0 0 51 0 107 159 77
117 171 83 123 180 83 121 182 78 118 185 72 116 187 69 113 189 67
110 190 67 107 192 65 107 191 67 108 189 68 109 189 68 109 189 68
109 189 68 109 189 68 109 189 68 109 189 68 109 188 69 115 194 77
108 186 74 110 188 79 112 189 87 89 165 67 114 189 96 123 198 107
34 93 27 0 14 0 2 14 12 4 15 9 0 10 0 10 18 3 0 3 0 74 76 63
123 123 115 63 62 60 46 44 47 20 17 24 4 3 8 5 5 5 2 4 0 0 2 0 0 2 0
8 8 6 0 0 0 0 0 0 0 0 0 2 2 2 9 9 9 9 9 9 6 6 6 0 0 0 0 0 0 0 0 0
0 0 0 21 21 21 54 54 54 106 106 106 139 139 139 167 167 167
182 182 182 217 217 217 247 247 247 255 255 255 253 253 253
242 242 242 225 225 225 231 231 231 225 225 225 236 236 236
247 247 247 253 253 253 247 247 247 227 227 227 222 222 222
218 218 218 241 241 241 250 250 250 255 255 255 252 252 252
230 230 230 217 217 217 210 210 210 255 255 255 233 233 233
251 251 251 255 255 255 206 206 206 13 13 13 5 5 5 0 1 0 3 10 3 0 8 0
101 134 81 133 185 103 123 190 87 113 192 75 118 203 82 110 198 75
106 192 67 105 190 61 106 188 54 109 187 51 111 188 56 115 192 64
120 195 77 126 195 88 115 179 83 124 177 95 96 137 67 1 30 0
101 117 78 227 231 206 90 87 72 11 2 0 13 3 1 7 0 0 3 0 0 36 36 34
244 248 249 246 246 246 249 249 249 255 255 255 242 242 242
227 227 227 224 224 224 225 225 225 239 239 239 250 250 250
247 247 247 236 236 236 225 225 225 227 227 227 223 223 223
244 244 244 248 248 248 250 250 250 242 242 242 226 226 226
226 226 226 224 224 224 238 238 238 243 243 243 251 251 251
251 251 251 217 217 217 215 215 215 223 223 223 236 236 236
253 253 253 255 255 255 243 243 241 160 161 155 25 26 20 0 1 0 6 6 6
14 13 18 13 12 20 18 17 25 1 0 6 4 4 6 14 15 10 2 4 0 23 27 4 16 21 0
197 204 163 247 255 208 232 236 177 235 232 153 251 245 151
250 243 136 245 239 129 255 251 150 255 255 167 255 249 170
252 244 171 245 243 168 118 124 54 27 41 0 8 31 0 0 17 0 85 125 73
127 176 110 151 206 125 126 188 91 119 183 86 113 173 87 113 170 93
95 146 77 0 35 0 52 102 31 141 193 111 124 179 85 123 182 74
120 185 69 117 187 65 114 187 69 111 188 72 109 189 78 109 189 78
109 188 69 109 189 66 109 189 66 109 189 66 109 189 66 109 189 66
109 189 68 109 188 69 111 190 73 111 189 77 106 183 77 96 172 72
102 177 82 121 196 105 70 144 57 0 26 0 0 8 0 0 1 11 9 14 17 0 3 0
8 15 0 25 33 12 12 16 0 0 2 0 4 4 2 1 0 5 0 0 7 0 0 7 1 0 5 9 9 7
14 15 7 13 14 6 2 2 0 0 0 0 0 0 0 1 1 1 5 5 5 7 7 7 4 4 4 1 1 1
15 15 15 11 11 11 1 1 1 3 3 3 0 0 0 5 5 5 0 0 0 0 0 0 0 0 0 0 0 0
0 0 0 20 20 20 69 69 69 130 130 130 190 190 190 235 235 235
255 255 255 255 255 255 237 237 237 225 225 225 225 225 225
234 234 234 252 252 252 252 252 252 253 253 253 233 233 233
228 228 228 223 223 223 224 224 224 240 240 240 245 245 245
247 247 247 251 251 251 213 213 213 235 235 235 244 244 244
149 149 149 13 13 13 4 4 4 0 2 1 14 23 20 0 9 0 124 157 110
125 175 102 110 178 79 101 181 68 111 200 82 110 201 80 116 206 83
114 200 75 110 193 63 105 187 53 104 183 55 107 186 61 112 189 75
118 191 86 118 182 86 120 175 91 102 145 73 0 17 0 35 52 10
128 132 105 147 144 129 12 3 0 18 8 6 8 0 0 10 6 5 2 2 0 211 215 216
255 255 255 254 254 254 255 255 255 234 234 234 210 210 210
217 217 217 225 225 225 255 255 255 255 255 255 255 255 255
239 239 239 219 219 219 223 223 223 209 209 209 252 252 252
255 255 255 255 255 253 246 246 244 216 216 214 221 221 219
216 216 214 245 245 243 249 249 247 255 255 253 255 255 253
217 219 216 220 220 220 215 217 216 249 249 251 254 255 255
215 215 217 90 92 91 13 15 10 0 1 0 9 11 8 6 8 7 18 18 20 2 2 2 0 0 0
2 1 0 1 1 0 78 79 65 38 37 17 6 6 0 156 158 119 255 255 212
233 237 178 247 248 180 247 242 161 237 230 140 251 246 146
249 245 145 236 233 140 251 251 165 220 223 146 128 136 61 8 22 0
2 24 0 13 43 0 92 128 64 134 178 115 137 188 121 128 185 106
116 180 86 106 173 67 120 187 81 117 181 85 125 184 100 111 165 90
47 99 27 3 55 0 63 116 36 124 179 88 121 182 79 120 184 72 117 186 69
114 187 70 111 188 72 109 189 76 109 189 76 109 189 68 109 189 64
108 191 61 108 191 61 109 189 64 109 188 69 110 187 75 110 186 77
95 172 60 117 195 85 108 185 81 102 176 81 140 208 125 91 153 80
0 40 0 0 26 0 4 18 19 9 10 28 1 4 11 18 23 19 3 9 0 7 14 0 0 6 0
6 13 0 10 16 6 10 15 11 4 8 9 0 1 2 0 1 0 0 2 0 3 9 0 1 7 0 15 17 14
12 14 13 7 9 8 4 6 5 4 6 3 7 9 6 11 13 10 13 15 12 9 11 8 6 8 5 0 1 0
6 8 5 3 5 4 20 22 21 7 8 10 6 8 7 9 11 8 12 14 11 0 1 0 0 1 0
11 13 10 13 13 11 4 4 4 13 13 13 62 62 62 145 143 144 202 200 203
231 229 232 223 221 224 219 217 220 251 249 252 255 254 255
255 254 255 216 217 219 218 220 219 213 215 210 220 223 216
252 255 251 254 255 253 254 255 255 232 233 238 210 210 218
217 215 226 213 212 220 67 64 71 5 3 6 1 0 0 8 13 6 0 11 0 0 28 0
127 170 114 122 179 98 96 167 65 114 194 81 111 196 79 100 188 68
103 191 69 104 190 65 105 188 58 104 185 54 105 184 56 105 183 61
107 184 72 109 182 77 145 212 109 112 168 79 101 147 75 0 27 0
10 27 0 0 5 0 135 132 113 8 0 0 22 12 11 19 13 15 23 19 18 0 1 0
179 184 177 253 253 253 252 252 252 255 255 255 239 239 239
217 217 217 221 221 221 226 226 226 255 255 255 255 255 255
249 249 249 248 248 248 221 221 221 225 225 225 218 218 218
245 245 245 255 255 253 236 238 233 254 255 251 232 235 228
219 222 215 217 220 211 245 248 239 243 246 237 254 255 250
253 255 249 208 213 207 216 218 215 233 237 238 249 250 254
170 173 178 8 8 16 0 0 7 26 31 34 0 1 4 5 10 13 6 10 9 0 2 0 11 14 0
12 15 0 44 45 11 178 178 142 180 177 142 9 5 0 102 97 59 255 251 205
245 239 181 240 236 163 243 237 161 255 247 180 250 242 177
248 245 176 232 238 164 179 191 115 93 116 38 19 50 0 0 21 0 21 67 0
70 123 31 124 183 89 136 200 104 114 180 83 97 165 66 110 178 75
133 202 96 114 180 80 121 187 87 124 188 91 121 182 87 116 175 85
91 147 60 29 84 0 0 26 0 77 135 50 134 194 106 111 175 79 108 176 73
112 186 71 102 182 59 119 204 74 99 185 52 101 183 55 118 201 69
113 201 55 98 185 42 99 181 55 106 184 74 114 183 90 121 190 97
104 177 72 116 194 84 98 177 72 119 189 101 115 169 109 0 20 0 0 7 0
2 3 0 11 11 23 3 2 20 6 6 16 9 10 14 4 9 3 11 17 5 14 23 6 1 13 0
2 14 0 1 14 0 0 13 0 0 13 0 0 13 0 0 12 0 0 12 0 0 11 0 0 10 6 0 9 8
0 9 6 0 9 4 0 10 2 0 10 1 0 10 0 0 10 0 2 12 1 1 11 2 2 9 1 0 7 0
0 4 3 3 7 8 12 16 19 19 23 24 0 4 0 5 15 4 15 23 12 12 19 11 3 8 1
0 1 0 4 4 2 10 10 10 1 0 0 3 0 2 10 3 10 51 44 51 138 128 137
226 216 225 255 251 255 255 251 255 251 251 255 225 228 235
227 233 229 219 227 214 231 243 223 248 255 243 235 245 234
239 248 247 233 239 253 204 206 229 216 213 242 118 114 141 14 7 25
24 17 24 19 14 10 0 6 0 0 21 0 62 119 51 108 170 85 106 174 73
115 189 76 111 189 70 97 176 59 105 184 67 109 188 69 109 189 66
110 190 59 110 190 57 112 189 61 112 188 66 112 185 77 112 185 78
107 177 65 128 190 91 105 150 85 0 14 0 138 154 115 40 46 10 16 15 0
17 10 0 14 5 8 13 8 15 1 0 0 5 9 0 144 152 128 238 238 238
237 237 237 245 245 245 241 241 241 238 238 238 240 240 240
235 235 235 240 240 240 242 242 242 240 240 240 244 244 244
235 235 235 237 237 237 231 231 231 238 238 238 239 239 237
240 242 237 220 223 216 230 233 224 246 249 240 226 229 220
246 249 240 254 255 248 227 230 223 249 251 246 240 245 241
243 245 244 203 207 208 85 86 91 1 4 11 0 0 7 1 4 11 12 15 20
10 14 15 0 4 0 15 19 4 6 10 0 12 18 0 125 128 85 236 239 192
235 234 188 23 22 0 12 7 0 233 229 182 247 241 189 236 230 170
223 218 150 244 239 171 251 247 186 205 204 147 135 141 81 60 75 10
2 29 0 0 34 0 45 93 9 98 157 65 122 188 91 115 187 85 109 184 79
107 185 75 111 188 76 115 192 78 120 194 79 121 195 84 109 180 78
120 190 91 114 185 83 104 172 69 120 185 85 134 196 99 88 147 55
20 78 0 0 47 0 103 162 82 135 197 114 115 182 89 117 188 82
118 193 75 114 195 66 110 192 58 103 184 55 117 199 65 106 191 46
100 184 44 118 198 77 116 191 86 103 173 84 107 177 88 122 197 96
96 171 68 113 182 91 96 156 84 0 35 0 0 16 0 7 9 0 18 13 10 0 0 5
7 12 18 10 15 18 4 13 8 2 13 0 0 7 0 0 8 0 0 10 0 0 16 0 0 17 0
0 18 0 0 18 0 0 19 0 0 19 0 0 20 0 0 19 0 0 16 0 0 15 0 0 15 0 0 16 0
0 17 0 0 17 0 0 17 0 0 17 0 0 21 0 0 23 0 4 27 0 10 30 3 7 25 3
0 16 0 0 10 0 0 9 0 0 14 0 0 11 0 0 7 0 0 8 0 0 10 1 4 11 4 3 8 4
2 4 3 6 6 8 3 1 6 11 6 13 16 8 19 6 0 9 12 1 15 78 65 82 151 143 158
235 235 247 246 251 255 235 241 239 237 247 238 229 240 224
216 228 214 234 245 237 233 241 243 249 255 255 248 250 255
136 136 162 9 5 30 1 0 14 18 13 20 4 0 0 16 29 3 0 49 0 82 150 63
120 189 96 102 173 71 111 183 75 124 198 83 117 192 73 116 192 70
112 188 64 112 188 62 112 189 61 110 189 61 112 188 64 110 188 68
110 187 73 112 186 73 120 191 73 139 201 102 93 137 78 0 20 0
163 179 134 203 209 165 16 14 0 9 2 0 13 4 9 14 8 18 0 1 0 2 10 0
125 136 106 222 222 222 223 223 223 222 222 222 242 242 242
255 255 255 255 255 255 245 245 245 223 223 223 210 210 210
225 225 225 241 241 241 255 255 255 255 255 255 252 252 252
225 225 225 209 209 207 210 211 206 237 238 232 255 255 250
255 255 250 255 255 251 231 232 227 218 218 216 225 225 223
228 228 228 234 236 235 208 208 210 38 39 41 13 12 17 0 0 4 0 0 4
17 16 21 3 1 4 22 19 12 4 4 0 4 7 0 119 124 70 221 226 170
230 234 184 249 252 207 105 107 67 3 6 0 179 183 133 239 244 190
243 248 192 242 247 193 252 255 210 181 184 137 93 101 42 38 50 0
0 14 0 12 40 0 68 105 27 112 160 74 125 181 90 118 184 87 131 203 103
118 195 89 106 185 76 103 183 72 109 187 75 115 192 78 114 191 75
111 190 75 103 183 72 107 189 79 108 188 77 105 183 74 117 190 85
130 198 99 119 182 91 98 157 73 0 38 0 0 56 0 86 142 69 134 193 113
117 177 89 116 181 81 125 191 83 115 186 68 111 187 63 92 171 43
105 180 51 115 189 66 101 175 62 104 179 74 115 193 91 103 184 82
96 172 72 133 199 111 97 148 82 36 73 30 0 22 0 0 13 0 7 27 2 0 15 0
5 22 4 0 7 0 0 8 0 2 22 0 6 28 0 9 34 0 34 62 13 63 93 39 62 95 38
66 102 41 73 111 52 84 123 66 97 136 83 108 148 96 117 156 109
120 163 110 106 157 90 105 159 84 105 159 84 105 159 83 106 159 81
106 159 79 107 158 79 107 158 79 77 128 51 93 141 67 93 138 69
71 116 51 52 93 33 42 83 25 30 71 15 17 53 9 0 19 0 6 24 12 12 28 18
10 26 16 3 16 9 0 8 4 0 6 5 1 6 9 0 0 5 9 9 17 22 20 31 10 8 19
1 0 11 1 0 11 5 0 14 14 10 24 42 42 50 119 122 127 215 218 223
252 255 255 248 251 255 223 226 233 215 218 223 226 227 232
213 214 218 83 84 88 0 0 4 17 18 22 22 21 26 1 0 6 8 7 13 4 18 1
69 118 52 119 184 94 129 194 110 106 172 85 115 182 89 125 196 90
111 185 62 100 176 44 112 190 54 112 189 57 110 188 66 109 188 71
110 187 75 109 188 73 109 189 66 110 189 64 133 204 86 119 178 84
104 144 92 0 12 0 184 201 147 228 236 179 133 131 90 7 1 0 10 0 8
15 9 19 2 5 0 2 10 0 95 104 83 217 217 217 223 223 223 215 215 215
243 243 243 255 255 255 254 254 254 248 248 248 219 219 219
219 219 219 227 227 227 226 226 226 251 251 251 246 246 246
254 254 254 229 229 229 219 219 217 224 225 220 234 235 229
254 255 250 244 245 240 253 253 251 231 231 231 229 229 231
220 219 224 232 231 236 135 134 139 0 0 2 16 16 18 13 11 12 28 28 28
1 0 0 4 1 0 19 13 1 9 3 0 72 69 26 209 208 152 253 255 192
242 246 185 240 244 194 168 174 130 12 18 0 110 121 79 241 253 203
205 220 165 187 205 147 108 125 70 42 59 14 0 14 0 7 32 0 44 72 0
93 128 48 128 170 86 136 186 97 125 184 90 116 182 84 113 185 85
88 165 61 96 178 70 107 189 79 110 192 81 106 186 73 102 181 66
105 182 68 106 186 71 101 190 72 102 193 74 103 192 74 103 187 73
104 184 73 109 181 79 116 183 90 121 183 100 104 160 87 0 35 0 0 47 0
96 147 80 123 174 99 114 166 84 115 169 81 110 170 70 139 208 92
118 189 71 118 185 72 126 192 84 121 190 84 114 189 84 109 191 83
99 180 77 132 202 113 113 168 100 20 55 13 0 16 0 0 7 0 0 14 0 0 33 0
37 76 31 20 52 11 0 28 0 46 79 34 112 146 95 111 146 88 106 145 80
131 173 101 139 183 106 129 176 96 128 177 95 127 176 95 124 175 96
123 176 98 121 175 100 122 174 102 117 176 96 118 188 90 115 191 83
115 191 83 115 191 82 117 190 82 118 190 82 118 190 82 120 189 83
121 188 85 113 179 81 120 181 88 132 192 104 125 183 99 105 162 83
104 161 84 124 172 110 108 142 109 113 138 119 103 126 110 73 96 80
35 55 43 7 24 14 0 11 4 0 11 4 0 5 4 0 8 7 1 9 11 6 11 15 12 15 22
18 21 28 19 19 29 15 15 23 1 2 7 18 18 26 29 29 41 136 135 149
227 224 241 229 227 241 196 193 204 108 106 111 24 23 21 5 6 0 0 2 0
11 17 7 11 18 11 0 6 4 7 15 17 9 30 11 105 151 87 124 183 99
126 184 107 113 174 96 115 179 92 113 181 80 116 187 67 133 209 77
112 190 54 110 190 57 109 189 66 109 188 71 108 188 75 108 189 71
108 190 64 109 189 64 104 172 59 135 189 103 38 75 31 3 28 0
210 226 163 237 244 176 200 198 150 26 20 0 8 0 6 13 10 21 7 10 1
0 9 0 60 71 57 225 225 225 236 236 236 226 226 226 242 242 242
246 246 246 235 235 235 243 243 243 228 228 228 223 223 223
229 229 229 225 225 225 247 247 247 242 242 242 252 252 252
230 230 230 224 224 222 227 228 223 235 236 231 247 247 245
234 234 234 245 245 247 210 209 215 207 204 213 215 212 221 58 55 64
2 0 6 1 0 4 5 3 4 20 16 13 1 0 0 28 25 18 4 2 0 13 5 0 165 158 106
255 255 202 250 247 192 210 209 153 246 249 196 212 218 172 15 24 0
32 47 8 154 172 132 106 129 85 22 50 0 0 24 0 7 42 0 26 64 0
81 122 44 118 162 75 132 181 90 144 195 103 136 193 98 117 181 84
105 176 74 104 181 75 107 189 81 110 194 83 107 193 82 106 193 80
106 190 78 107 187 74 106 184 72 106 183 71 104 184 69 103 199 74
104 205 77 97 196 69 87 181 57 97 184 69 119 198 91 117 188 92
100 164 80 127 183 110 98 149 83 9 57 0 0 35 0 72 114 51 129 171 105
137 178 108 131 178 97 105 161 62 127 188 84 123 183 87 122 183 88
136 204 105 119 194 91 102 181 74 121 196 101 115 175 103 0 39 0
11 35 11 0 16 0 2 21 1 98 129 97 126 174 124 102 158 95 0 34 0 9 56 0
88 135 63 145 196 117 135 187 102 122 177 86 127 184 87 117 178 75
115 176 72 114 177 72 114 179 75 114 181 76 116 183 80 116 184 85
118 184 87 115 187 85 108 193 74 104 196 69 105 196 69 106 195 69
108 194 71 109 193 72 111 192 74 112 191 76 133 209 100 121 196 91
110 180 82 106 175 82 119 185 97 132 198 111 132 197 113 128 185 116
108 149 105 98 131 100 77 107 79 52 82 54 29 57 32 10 38 13 0 22 0
0 13 0 0 16 0 0 14 0 0 8 0 0 7 0 0 6 0 0 14 3 7 20 11 10 21 17
26 30 39 0 0 12 1 0 14 2 0 14 39 32 48 71 63 78 26 16 25 14 8 10
4 0 0 13 13 3 3 7 0 0 8 0 10 24 7 0 7 0 0 14 0 108 138 110
128 173 116 130 184 109 129 183 107 129 187 103 132 193 100
120 185 83 112 180 69 121 192 74 113 187 64 110 189 62 109 190 62
108 190 64 106 191 64 105 191 66 105 191 66 109 188 71 116 181 77
125 173 97 23 55 16 7 29 0 231 247 174 221 228 148 242 241 185
108 103 74 5 0 3 12 9 20 8 11 2 0 8 0 31 40 35 238 238 238
248 248 248 246 246 246 240 240 240 227 227 227 219 219 219
234 234 234 243 243 243 255 255 255 244 244 244 222 222 222
217 217 217 215 215 215 233 233 233 244 244 244 255 255 253
255 255 251 232 233 228 235 235 235 217 217 219 216 215 221
250 249 255 188 184 198 13 9 23 20 17 28 1 0 7 8 3 7 20 16 13 3 0 0
3 1 0 3 2 0 96 93 62 235 230 174 246 241 175 244 239 183 228 226 175
244 246 199 204 210 164 75 87 41 0 14 0 0 12 0 4 33 0 0 24 0 7 48 0
74 121 51 102 156 72 115 173 73 142 204 97 130 191 88 127 190 86
114 181 76 101 172 66 101 177 69 111 190 81 115 199 87 111 198 85
113 201 88 109 197 84 105 192 79 104 188 76 106 186 73 108 186 74
111 185 74 107 188 70 101 198 69 98 201 68 97 198 68 100 196 70
108 197 77 116 198 87 116 190 91 113 179 91 105 163 86 126 179 109
102 150 88 28 72 11 0 20 0 36 76 13 123 162 97 131 173 101 125 173 89
102 155 67 124 179 98 130 189 105 104 171 76 121 193 94 134 206 107
94 158 74 6 53 0 0 22 0 0 10 0 0 14 0 114 144 108 136 178 130
117 172 114 18 81 11 0 54 0 70 130 40 114 175 80 108 170 71
103 168 64 109 175 67 115 184 68 126 197 79 112 183 63 110 184 61
110 186 64 110 188 68 112 190 71 113 190 74 114 191 77 113 194 74
97 188 61 94 190 57 94 189 59 96 189 59 98 186 63 100 185 64
103 183 68 104 182 72 114 189 84 119 191 92 113 182 89 105 174 85
113 178 94 110 175 93 72 137 57 26 86 14 0 44 0 0 35 0 0 27 0 0 23 0
0 30 0 13 52 5 42 79 35 62 99 55 22 57 15 19 51 12 8 38 0 0 24 0
0 20 0 0 22 0 0 19 0 0 9 0 0 4 4 0 2 12 1 3 15 3 1 14 3 0 9 6 0 7
17 6 14 24 15 16 20 15 9 5 5 0 12 20 0 6 22 0 0 14 0 4 35 1 52 88 52
107 148 104 119 164 109 129 178 112 131 182 105 123 177 91 115 175 79
112 174 73 110 175 73 112 181 74 113 185 73 110 188 68 109 190 61
106 192 59 106 192 59 105 192 62 103 191 69 109 187 77 106 167 74
116 159 90 5 33 0 81 99 57 235 248 169 255 255 177 239 239 175
160 156 121 5 0 0 8 5 14 4 9 3 0 9 0 10 18 20 247 247 247 253 253 253
255 255 255 240 240 240 217 217 217 216 216 216 229 229 229
253 253 253 255 255 255 246 246 246 238 238 238 221 221 221
223 223 223 225 225 225 244 244 244 253 253 251 255 255 251
255 255 253 208 208 210 209 208 213 238 237 245 141 139 152 4 0 15
1 0 12 20 16 30 6 3 10 31 29 30 4 4 0 1 2 0 16 18 0 157 157 129
248 249 209 238 238 178 252 252 188 221 223 173 149 151 111 50 56 20
9 21 0 21 41 0 0 18 0 40 76 15 63 105 41 108 157 92 138 191 119
134 196 110 132 201 94 106 181 54 125 202 70 107 182 63 111 188 74
109 188 73 101 181 66 99 184 67 105 192 75 99 188 72 86 175 59
88 177 61 96 183 68 106 190 76 108 191 77 108 186 74 108 182 71
113 182 73 112 189 73 103 195 68 90 190 58 95 192 63 110 202 77
112 200 80 106 186 73 110 185 80 125 195 97 121 183 97 129 186 105
138 190 116 113 163 92 54 101 31 0 28 0 0 34 0 91 132 62 151 191 121
115 158 89 125 178 110 129 191 116 107 173 85 127 192 102 106 160 82
4 48 0 0 29 0 0 16 0 0 13 0 101 138 94 145 194 129 126 179 109
83 139 78 0 38 0 40 106 16 110 181 77 124 196 88 100 172 60
109 184 66 114 190 68 108 184 60 118 197 69 115 195 64 114 195 64
114 195 66 113 196 66 113 195 67 111 196 69 110 194 70 110 194 70
104 193 67 104 192 69 106 191 70 107 190 72 110 188 76 111 186 81
114 184 85 116 183 90 116 180 93 108 169 89 119 177 101 128 186 112
91 148 79 21 78 10 0 38 0 0 37 0 33 87 11 63 116 38 98 151 73
119 172 94 124 175 100 123 174 99 128 179 104 136 186 113 147 194 122
133 180 110 136 181 112 142 187 120 111 153 87 43 85 21 0 37 0 0 23 0
0 21 1 0 7 2 6 16 15 0 4 7 4 3 9 18 11 18 7 0 3 16 7 8 7 4 0 5 9 0
12 25 0 20 45 6 0 30 0 0 28 0 0 48 0 0 31 0 0 42 0 42 86 25 96 144 68
127 180 90 126 182 85 111 171 73 110 171 76 117 183 86 115 183 80
112 186 73 109 190 62 106 192 57 106 192 57 105 192 61 103 191 71
109 186 82 129 184 103 81 119 58 0 12 0 7 23 0 240 252 170
243 249 161 246 247 179 177 174 133 5 0 0 4 1 10 1 5 8 0 9 8 0 7 10
251 251 251 251 251 251 255 255 255 239 239 239 217 217 217
221 221 221 226 226 226 255 255 255 255 255 255 250 250 250
247 247 247 219 219 219 223 223 223 217 217 217 246 246 246
255 255 255 255 255 253 222 222 220 231 231 233 236 235 241
109 107 118 20 18 31 0 0 12 22 20 33 0 0 9 0 0 4 14 15 9 1 3 0
50 54 29 217 223 189 240 247 206 233 241 194 163 172 119 30 38 0
5 17 0 11 24 0 7 24 0 53 77 27 100 131 71 138 178 108 157 206 127
113 168 84 108 170 84 108 175 80 94 167 60 100 179 60 93 179 44
105 191 54 81 166 39 98 182 60 108 193 72 107 195 73 111 201 78
119 209 86 112 201 81 96 185 65 104 191 74 104 189 72 104 187 73
108 186 74 113 187 76 117 186 77 118 186 77 115 188 73 111 195 71
97 188 59 87 176 50 91 177 54 108 189 69 118 197 82 111 188 76
100 171 65 119 187 86 106 170 74 143 203 113 139 197 110 133 188 104
107 161 77 17 70 0 0 37 0 0 32 0 108 149 91 117 168 111 97 156 92
137 197 123 96 150 75 0 40 0 0 16 0 0 23 0 0 24 0 122 165 119
138 193 125 111 173 87 131 193 108 21 75 13 0 28 0 110 180 84
124 202 92 118 195 81 109 188 71 123 203 82 117 197 72 98 179 51
97 180 50 107 190 58 107 190 58 104 190 57 103 188 58 100 187 57
99 186 56 98 184 57 98 184 57 106 191 64 108 190 66 109 188 69
110 187 73 113 184 78 116 182 84 119 179 89 120 178 94 110 164 86
128 180 106 109 160 91 40 91 24 0 35 0 0 48 0 63 113 50 118 171 99
125 185 95 126 188 89 127 189 90 127 189 90 125 187 88 123 183 87
120 180 84 119 179 83 125 185 89 129 186 92 123 180 86 118 175 81
129 184 93 134 189 98 106 161 70 71 119 43 0 23 0 7 34 3 0 19 0
8 21 11 3 9 9 0 0 5 17 12 18 14 10 9 0 2 0 0 10 0 0 19 0 74 109 53
123 169 104 112 170 94 104 171 91 53 117 41 10 60 0 0 24 0 0 30 0
38 90 7 94 149 58 115 172 78 122 183 88 130 196 98 115 183 80
112 186 75 110 188 68 108 190 64 106 191 64 105 191 66 103 190 73
110 185 84 126 176 103 20 51 0 0 12 0 3 16 0 145 154 75 231 235 151
237 237 167 170 168 120 5 1 0 1 0 6 0 2 11 0 9 16 0 4 6 251 251 251
255 255 255 236 236 236 240 240 240 238 238 238 229 229 229
244 244 244 236 236 236 253 253 253 243 243 243 238 238 238
242 242 242 229 229 229 243 243 243 255 255 255 255 255 255
240 240 240 255 255 255 221 221 223 108 107 113 12 12 22 0 0 11
5 5 17 0 0 9 14 18 21 0 2 0 0 4 0 107 117 92 232 244 208 205 218 174
83 97 44 12 28 0 4 20 0 0 12 0 49 72 30 104 133 77 132 164 99
146 184 111 134 178 99 122 175 87 121 181 85 117 185 76 113 188 69
110 191 63 107 192 63 106 192 67 104 191 74 104 191 74 103 191 68
103 192 66 103 192 66 102 193 66 102 192 68 102 192 68 102 192 69
103 191 69 105 190 71 108 189 71 109 188 73 112 186 73 115 184 75
117 183 75 119 182 75 117 183 73 113 186 68 110 188 68 110 188 68
112 187 69 112 187 69 112 187 69 112 186 71 112 186 71 116 189 74
110 182 70 117 186 77 120 189 82 122 191 85 136 203 100 116 182 82
68 128 40 0 38 0 0 27 0 0 27 0 51 98 52 74 121 67 4 45 0 0 21 0
2 31 0 2 33 0 100 141 97 122 179 111 108 177 88 117 188 86 103 168 74
0 26 0 45 97 31 114 183 90 109 189 78 110 188 76 109 189 74
109 190 72 109 190 69 109 191 67 107 192 65 106 191 64 106 191 64
106 191 64 106 191 64 105 191 66 105 191 66 105 191 68 106 190 66
113 195 67 102 181 53 106 182 58 105 175 59 127 193 85 120 180 80
123 178 87 119 168 86 119 168 89 113 159 84 5 51 0 0 30 0 60 107 37
111 161 90 144 194 121 133 188 105 117 182 78 115 185 69 115 185 69
115 185 69 115 185 69 116 184 71 116 184 71 116 184 71 117 185 72
118 184 74 118 184 74 118 184 74 118 184 76 118 184 76 118 184 76
120 182 81 126 180 94 56 101 32 0 27 0 0 11 0 0 9 9 1 8 18 0 0 12
0 1 2 20 29 8 96 114 72 138 170 107 122 166 87 115 173 86 107 176 85
110 186 95 118 190 104 126 180 102 113 161 87 65 112 42 0 47 0 0 34 0
54 109 25 119 181 82 124 190 84 116 184 73 98 170 58 111 184 77
99 174 69 117 194 88 104 183 74 106 189 71 117 188 84 103 146 77
0 19 0 128 146 86 55 66 0 19 22 0 241 241 167 255 255 193 155 153 102
13 10 0 4 3 8 7 10 29 4 11 27 4 14 13 230 230 230 234 234 234
224 224 224 244 244 244 255 255 255 251 251 251 249 249 249
227 227 227 209 209 209 231 231 231 219 219 219 249 249 249
238 238 238 255 255 255 224 224 224 209 209 209 239 239 239
205 205 207 96 95 100 4 5 10 0 0 7 4 7 14 6 11 15 32 37 40 0 8 3
15 27 13 137 153 127 193 210 174 77 97 48 0 15 0 17 42 0 32 60 2
0 26 0 51 81 53 120 156 108 145 186 120 143 187 108 139 189 100
129 184 91 120 182 83 117 185 76 113 189 67 110 192 58 107 194 55
106 193 60 103 193 70 103 190 85 103 190 85 103 191 71 103 192 64
103 192 64 103 192 64 103 192 66 103 192 66 105 191 68 106 190 68
108 189 69 109 188 71 112 186 73 113 185 73 116 184 73 117 183 75
119 182 75 119 183 73 117 184 69 116 185 69 116 185 69 116 185 69
115 185 69 113 186 69 112 187 68 112 188 66 104 183 58 115 194 67
95 174 49 101 179 57 133 211 91 109 186 70 88 165 53 129 199 101
133 190 119 86 134 82 11 53 17 0 23 0 0 22 0 0 25 0 0 20 0 18 52 1
114 157 104 136 190 128 118 186 101 118 192 93 112 185 78 51 117 20
0 35 0 104 157 87 114 184 88 109 188 79 109 189 78 109 189 76
109 189 74 109 189 74 107 190 72 107 191 70 106 190 69 106 190 68
106 190 69 106 190 69 106 190 69 106 190 69 106 189 71 106 190 68
117 198 69 101 180 52 109 183 60 118 188 72 125 188 81 124 181 84
117 170 80 141 190 108 116 163 83 0 34 0 0 43 0 85 136 59 124 177 99
119 174 93 111 166 83 130 191 98 115 185 73 112 188 66 113 187 66
112 188 66 113 187 66 113 187 66 113 186 68 113 186 68 114 187 69
114 187 69 114 187 69 114 187 69 114 187 69 114 187 69 114 187 70
116 186 70 107 173 63 139 199 103 121 171 102 46 85 41 0 19 3 0 15 14
9 20 22 0 12 3 89 105 78 144 170 122 154 191 121 134 187 99 98 162 65
118 193 92 112 194 94 104 181 85 113 173 83 120 174 90 123 175 101
97 150 78 31 85 10 0 38 0 23 85 0 107 173 65 119 187 76 123 192 85
118 185 88 118 187 96 126 197 105 105 177 78 130 206 97 113 177 80
45 82 15 8 29 0 201 217 146 166 174 101 13 13 0 200 196 133
252 248 184 132 131 77 6 6 0 0 0 2 1 6 28 2 9 28 21 34 27 213 213 213
215 215 215 215 215 215 245 245 245 255 255 255 255 255 255
251 251 251 219 219 219 207 207 207 216 216 216 231 231 231
255 255 255 255 255 255 255 255 255 206 206 206 220 220 220
210 210 212 74 73 78 2 3 7 5 6 10 0 1 4 3 9 9 14 23 20 0 5 0 32 49 31
124 144 116 99 124 84 0 26 0 0 23 0 50 86 14 108 145 67 155 195 122
74 115 59 0 22 0 78 124 60 139 190 115 113 167 83 128 187 93
112 177 77 108 175 69 114 187 70 111 190 65 109 192 62 107 192 62
106 192 69 103 191 78 103 189 88 103 190 86 105 190 71 105 191 64
105 191 66 105 191 66 106 190 66 106 190 66 108 189 68 109 189 68
110 188 69 112 187 69 113 186 71 115 185 71 116 184 71 117 183 73
119 183 73 120 182 73 120 182 71 120 182 71 119 183 71 117 184 71
116 185 69 113 186 68 112 188 66 110 189 62 123 204 73 95 177 43
111 194 62 119 202 72 93 175 49 107 188 67 128 207 92 99 174 73
117 184 105 126 179 123 69 106 75 0 23 2 14 33 11 0 15 0 19 56 2
115 165 94 136 199 120 122 192 104 102 173 79 131 201 103 115 179 82
8 67 0 5 57 0 137 194 115 113 185 86 109 188 81 109 188 79 109 188 79
109 189 78 109 189 78 109 189 76 109 189 76 108 188 75 108 188 73
108 188 75 108 188 75 108 188 75 108 188 75 108 188 77 108 189 71
112 194 68 105 187 59 113 191 69 123 196 81 114 181 76 117 178 83
126 182 95 114 167 85 0 53 0 0 53 0 94 149 68 127 186 102 114 176 90
121 186 94 103 173 77 113 185 83 112 186 75 110 187 71 112 186 71
110 187 71 112 187 69 112 187 69 112 187 69 112 187 69 111 189 70
111 189 70 111 189 70 111 189 70 111 189 70 111 189 70 111 188 72
111 189 70 126 204 82 116 189 74 125 188 97 133 186 118 94 133 89
22 52 24 0 13 0 0 22 0 6 31 0 43 75 26 116 157 91 102 155 73
134 199 105 130 205 102 114 196 88 101 180 75 116 182 85 119 179 89
121 180 96 133 192 108 117 176 92 47 107 19 0 58 0 5 67 0 128 193 93
109 173 76 122 185 96 110 172 86 114 176 91 120 182 96 107 171 77
77 131 47 0 16 0 117 133 71 234 247 168 232 239 161 21 19 0 86 80 30
250 245 189 130 128 79 3 3 0 0 1 0 0 2 27 0 7 28 53 66 57 220 220 220
219 219 219 221 221 221 241 241 241 255 255 255 255 255 255
244 244 244 223 223 223 235 235 235 219 219 219 251 251 251
255 255 255 247 247 247 245 245 245 247 247 247 209 209 211 74 73 78
11 12 16 0 0 4 12 16 17 9 15 13 0 5 0 3 17 4 15 34 12 42 67 35 3 34 0
0 34 0 60 101 35 133 177 100 150 198 112 130 179 88 112 163 71
128 180 98 8 59 0 0 37 0 94 148 70 122 179 98 96 159 68 123 189 89
119 188 79 113 188 70 111 189 67 109 190 69 107 191 70 106 190 76
104 190 79 103 190 83 104 190 81 106 190 69 108 190 66 108 190 66
108 190 66 108 189 68 109 189 68 109 189 68 110 188 68 112 187 69
112 187 69 113 186 71 115 185 71 116 184 71 116 184 71 116 184 71
117 184 71 119 183 71 120 183 69 119 183 71 116 184 71 115 185 69
112 187 68 110 189 64 109 190 61 120 203 69 114 197 63 100 183 51
105 187 59 121 201 80 108 187 72 98 173 68 118 189 95 124 191 114
10 64 6 0 17 0 9 33 9 0 9 0 65 93 53 138 184 119 130 192 106
95 172 70 99 178 73 99 171 71 132 197 103 103 161 74 0 46 0 44 99 18
129 189 103 111 186 85 109 188 79 109 188 79 109 188 79 109 189 78
109 189 78 109 189 78 109 189 76 108 188 77 108 188 75 108 188 77
108 188 75 109 187 77 109 187 77 109 187 77 109 188 73 101 182 61
116 198 74 118 195 79 115 188 80 105 173 74 113 176 85 123 181 97
32 86 8 0 42 0 83 140 61 129 191 108 116 182 94 108 179 83 108 185 83
105 184 77 98 177 68 109 187 75 110 187 75 110 187 75 110 187 73
110 187 73 110 187 73 110 187 73 109 188 71 110 189 74 110 189 72
110 189 72 110 189 72 110 189 72 109 190 72 110 189 72 109 190 70
97 181 57 100 181 60 105 178 71 115 180 88 129 183 108 115 159 100
58 96 49 0 32 0 0 18 0 0 32 0 24 65 9 124 175 106 100 159 75
114 184 88 124 199 94 84 160 52 103 173 74 116 183 86 110 178 79
112 180 81 137 203 106 127 193 96 58 121 30 0 51 0 34 92 5 101 159 74
122 180 95 119 174 91 114 167 87 129 182 104 124 176 101 25 68 0
15 39 0 229 242 173 231 240 157 238 241 164 88 82 32 14 5 0
243 237 189 106 103 60 5 5 0 0 2 0 0 5 25 0 6 25 93 106 96
244 244 244 240 240 240 239 239 239 233 233 233 231 231 231
233 233 233 232 232 232 236 236 236 247 247 247 241 241 241
239 239 239 231 231 231 223 223 223 231 231 231 237 237 237 93 93 95
0 0 5 18 19 24 10 14 17 3 9 7 19 30 22 4 18 3 0 10 0 0 24 0 0 19 0
33 72 15 111 158 88 146 197 118 121 177 86 108 168 70 112 175 71
105 167 60 122 180 70 119 174 72 2 56 0 2 56 0 110 166 95 130 188 111
114 177 86 112 180 77 114 186 76 113 187 74 110 188 79 109 188 81
107 189 81 106 190 78 106 191 70 106 192 67 108 189 68 109 189 68
109 189 68 109 189 68 109 188 69 110 188 69 110 188 69 110 188 69
112 187 69 112 187 69 112 187 69 113 186 69 113 186 69 113 186 69
113 186 69 113 186 69 115 186 68 115 186 68 113 186 69 112 187 69
110 187 71 109 188 69 108 190 66 108 190 64 101 184 54 109 191 63
100 179 54 102 177 59 121 192 86 119 186 91 104 168 82 106 166 92
27 83 18 0 30 0 3 39 0 0 17 0 73 106 59 126 170 109 91 153 70
117 192 91 104 184 71 119 199 84 121 189 88 132 192 104 76 128 53
0 39 0 89 144 63 119 184 92 110 187 81 107 190 76 107 190 76
107 190 76 107 190 76 107 190 76 109 189 76 109 189 74 108 188 75
108 188 73 109 187 75 109 188 73 109 187 75 109 187 75 110 187 75
109 188 73 95 175 60 123 203 90 110 185 80 106 176 78 105 170 80
121 183 100 59 115 40 0 32 0 74 130 57 113 174 97 105 170 86
112 183 91 113 191 90 101 184 76 110 198 85 91 178 63 108 188 77
110 186 77 110 186 77 110 187 75 109 187 75 109 187 75 109 187 75
109 188 73 110 188 76 109 189 74 109 189 74 109 189 74 109 189 74
107 190 74 109 190 72 107 190 72 101 188 71 101 186 69 105 185 70
114 188 75 124 190 84 125 182 88 114 163 84 103 145 82 0 34 0 0 34 0
0 33 0 2 46 0 126 178 112 118 177 95 102 168 71 134 205 101
113 187 88 109 186 82 110 187 73 105 182 66 107 181 68 120 188 85
110 174 87 79 137 60 0 39 0 48 100 26 117 169 87 120 169 87
120 167 87 143 186 115 76 115 58 0 20 0 156 175 109 241 252 176
244 249 165 242 242 168 182 174 128 22 9 0 179 169 133 38 34 0
12 11 0 4 9 3 3 9 23 0 8 18 133 149 138 255 255 255 255 255 255
255 255 255 231 231 231 212 212 212 215 215 215 226 226 226
250 250 250 255 255 255 255 255 255 231 231 231 210 210 210
240 240 240 224 224 224 98 98 98 2 2 4 6 7 12 9 12 19 15 19 22
14 23 18 4 18 5 0 12 0 0 21 0 2 35 0 84 125 65 122 169 99 138 193 110
115 176 83 99 165 65 115 184 77 128 200 88 127 196 80 118 176 63
121 174 68 87 140 52 0 39 0 6 57 0 122 178 105 135 194 110 100 166 69
116 185 79 114 186 78 111 187 79 110 188 78 109 189 76 107 190 72
107 192 65 107 192 63 109 189 68 110 188 69 110 187 71 110 188 69
110 188 69 110 188 69 110 188 69 110 188 69 110 188 69 110 188 69
110 188 69 110 188 69 110 188 69 109 188 69 109 188 69 109 189 68
109 189 66 108 190 66 108 189 68 106 190 69 106 189 71 105 190 71
105 190 69 106 190 68 103 185 61 91 171 50 114 188 75 121 189 86
106 169 80 122 178 103 93 145 81 2 49 0 0 24 0 0 30 0 4 44 0
95 141 69 108 160 85 119 181 96 137 208 112 79 157 48 111 190 71
118 195 79 122 188 88 135 193 108 50 103 31 0 35 0 115 169 91
115 180 86 110 188 78 106 191 70 106 191 70 107 191 70 107 190 72
107 190 72 107 190 72 109 190 72 108 189 71 108 189 71 109 188 71
109 188 71 109 188 71 109 188 71 110 187 71 110 187 71 102 179 65
122 198 89 101 172 70 109 174 80 113 173 87 109 166 87 0 39 0 9 62 0
114 168 93 124 183 103 115 181 93 102 176 77 105 187 77 115 204 84
112 207 81 95 187 62 108 188 73 110 186 77 110 187 75 110 187 75
110 187 75 109 188 73 109 188 73 109 188 73 109 189 74 109 190 72
109 190 72 109 190 72 107 190 72 107 191 70 107 191 70 106 191 72
110 199 83 111 200 82 112 198 75 113 193 70 116 187 65 120 184 70
126 182 85 131 180 101 91 132 72 0 31 0 0 23 0 4 45 1 0 30 0
102 151 85 133 186 106 106 169 78 133 210 106 104 188 74 105 189 68
116 197 76 108 187 70 109 182 75 116 181 91 108 166 89 62 115 45
0 30 0 73 119 46 135 177 105 132 171 104 96 130 70 0 29 0 98 122 72
243 255 186 228 236 153 245 249 165 239 236 167 234 222 180 15 1 0
70 59 31 7 1 0 15 13 0 8 13 6 3 12 17 0 8 12 173 189 179 255 255 255
254 254 254 255 255 255 237 237 237 215 215 215 220 220 220
227 227 227 255 255 255 255 255 255 255 255 255 246 246 246
220 220 220 230 230 230 136 136 136 0 0 0 5 5 7 0 0 7 6 9 16 7 11 14
0 7 0 0 8 0 10 33 4 65 96 54 125 164 107 128 175 105 137 190 110
124 184 94 119 187 86 125 198 90 103 182 67 90 171 53 119 191 79
115 171 74 125 171 83 134 182 98 92 141 60 0 33 0 12 64 0 134 188 110
122 182 96 117 183 85 116 185 76 113 189 67 111 190 62 110 191 60
109 191 63 109 191 67 109 190 70 110 187 71 112 186 71 112 186 73
112 186 71 112 186 71 112 186 71 110 187 71 110 187 71 110 188 69
109 188 69 109 188 69 108 189 69 108 189 68 106 190 68 106 190 68
105 191 66 102 193 62 101 194 62 101 193 66 101 193 68 101 192 71
101 192 73 102 191 71 105 190 71 106 187 69 122 199 87 107 175 74
109 169 83 124 175 106 64 107 54 0 24 0 0 13 0 1 21 0 0 23 0
97 144 64 121 186 82 100 178 66 111 194 80 114 193 86 103 179 71
107 179 67 104 172 61 110 175 75 130 192 106 26 83 12 0 37 0
127 181 106 115 175 85 110 189 74 104 193 65 104 193 65 106 192 65
106 192 67 106 192 67 106 192 67 107 191 67 106 190 66 106 190 66
108 190 66 108 190 66 109 189 66 109 189 66 109 189 66 110 188 68
112 185 68 121 189 78 111 174 70 118 178 82 122 176 88 50 102 19
0 42 0 90 138 62 130 181 102 119 175 88 113 177 80 106 178 70
117 198 77 120 210 78 98 193 51 101 193 56 109 189 66 112 186 71
112 186 71 110 187 71 110 188 69 110 188 69 109 188 69 109 189 68
109 190 69 109 191 67 107 191 67 107 191 67 107 191 67 107 192 65
106 192 65 104 193 67 109 201 77 97 189 65 95 184 58 111 193 67
124 200 78 122 191 75 114 172 70 107 160 70 142 188 115 99 140 80
25 63 12 0 23 0 0 17 0 6 46 0 138 178 125 120 174 99 115 195 82
103 194 65 105 193 71 113 197 83 114 193 84 111 186 83 110 177 80
108 168 80 108 163 82 28 75 3 11 51 0 126 160 109 115 144 98 6 33 0
23 46 2 180 199 143 238 251 171 243 249 159 231 232 152 231 226 162
253 240 198 43 27 1 11 0 0 9 2 0 9 9 0 5 10 3 0 11 7 0 8 5
205 220 213 246 245 241 246 245 243 255 254 255 243 243 243
227 227 229 233 233 235 232 232 234 255 255 255 248 248 246
244 245 240 255 255 251 241 242 237 164 164 164 1 1 3 5 4 10 23 24 29
0 1 4 0 8 3 2 14 2 0 10 0 14 41 6 87 124 73 137 182 117 127 180 102
111 170 80 111 177 79 121 192 86 118 195 83 107 186 71 115 196 78
116 199 81 103 177 66 116 173 78 151 201 112 130 180 91 128 178 91
74 126 43 0 25 0 5 57 0 120 177 100 118 180 94 117 183 83 114 187 70
113 189 63 110 191 62 109 191 63 109 190 70 109 189 74 109 188 71
110 187 71 110 187 73 110 187 73 110 187 73 110 187 73 109 188 73
109 188 73 109 188 71 109 188 69 109 189 68 108 189 68 108 190 66
106 190 66 106 190 66 105 191 64 102 194 61 101 194 61 101 194 62
101 194 64 101 193 69 102 191 71 105 189 75 108 187 80 113 185 85
123 188 98 140 197 118 110 159 93 36 74 23 0 22 0 0 20 0 1 24 0
43 65 29 142 175 118 125 181 90 112 187 69 117 204 74 104 195 66
115 197 87 109 184 81 126 195 88 113 179 71 111 177 71 124 187 96
2 61 0 0 39 0 139 191 119 118 177 87 111 188 74 106 192 65 106 192 67
106 192 67 107 191 67 107 191 67 107 191 67 107 191 67 106 190 66
106 190 66 108 190 66 108 190 66 108 190 66 108 190 66 109 189 66
110 188 66 117 187 71 117 183 73 124 185 82 124 181 87 124 178 92
0 34 0 48 98 11 145 195 106 122 175 83 119 176 81 126 191 91
123 195 83 102 183 55 96 184 46 101 194 53 102 193 56 109 189 66
112 187 69 112 187 69 112 187 69 110 188 69 110 188 68 109 189 68
109 189 68 110 190 67 109 191 67 109 191 67 109 191 67 109 191 65
109 191 65 107 192 65 106 192 67 93 181 58 98 188 64 104 190 65
106 190 66 111 191 68 117 190 73 119 187 76 118 178 78 118 172 84
154 202 126 100 145 80 8 47 0 0 28 0 0 29 0 15 46 12 136 181 124
111 184 76 105 192 62 87 175 52 85 170 53 104 187 79 113 192 85
114 187 80 128 193 93 126 180 94 108 151 82 0 20 0 25 50 8 44 62 20
3 20 0 16 28 0 34 44 0 222 231 150 249 254 164 233 231 154
241 235 173 255 255 212 133 119 92 11 0 0 22 16 4 3 3 0 1 6 0 0 7 2
0 5 1 225 237 235 229 226 217 228 225 218 229 225 224 236 234 237
255 253 255 245 242 251 254 253 255 230 230 228 197 200 191
217 221 207 254 255 243 233 236 225 0 1 0 2 2 10 1 0 16 2 6 17
13 27 14 0 20 0 0 22 0 41 80 27 110 157 87 122 180 95 106 172 72
109 183 70 109 189 68 108 190 66 106 191 64 106 190 66 108 189 69
108 188 73 109 187 77 112 186 75 132 199 86 107 169 58 106 168 61
134 191 94 127 183 94 65 120 39 0 52 0 0 25 0 96 154 80 112 173 95
129 195 105 126 198 99 107 185 76 99 179 66 101 186 69 105 190 71
99 183 62 111 192 72 114 194 79 107 187 74 107 186 77 111 190 81
105 184 75 92 172 61 114 195 77 110 190 69 106 186 63 107 186 61
110 189 62 113 192 65 112 191 66 110 190 65 110 195 65 102 189 56
112 198 65 119 205 72 104 186 60 90 169 50 106 179 74 129 194 104
129 185 112 123 171 113 66 105 58 3 35 0 0 18 0 0 12 0 10 31 0
68 96 45 128 174 99 120 180 90 116 183 88 111 187 78 109 192 60
107 192 62 109 188 81 111 185 88 100 173 68 119 189 77 107 176 59
127 191 94 1 56 1 0 48 3 135 186 117 115 174 84 113 184 78 109 188 73
108 188 73 108 188 73 108 189 71 108 189 71 108 189 71 108 189 71
108 189 71 108 189 71 106 190 69 106 190 69 106 190 69 106 190 69
108 189 69 109 188 69 125 198 81 100 168 59 111 175 78 131 191 105
40 96 21 0 41 0 102 158 57 124 182 72 122 181 73 120 181 77
116 182 84 113 184 78 110 189 61 108 191 57 105 191 66 106 190 69
109 188 71 110 187 71 110 187 71 110 187 71 110 187 71 110 188 69
110 188 69 110 188 69 110 188 69 109 188 69 109 188 69 109 188 69
109 188 69 109 188 69 109 188 69 109 189 68 108 190 66 106 190 66
106 190 66 106 190 68 106 190 68 106 190 69 108 189 69 110 187 73
108 180 72 111 175 78 131 186 102 129 176 106 0 28 0 0 13 0 1 25 1
51 83 42 120 176 85 116 189 71 103 183 60 99 183 59 97 184 67
107 192 75 114 194 73 117 186 77 119 173 87 139 178 115 91 112 69
0 9 0 32 39 0 159 162 107 178 176 137 7 4 0 163 163 89 226 228 144
233 233 159 255 255 198 240 234 186 167 161 125 7 1 0 10 6 0 11 11 3
26 28 25 0 1 2 101 106 109 242 250 253 220 216 204 220 216 207
210 206 203 234 229 233 254 251 255 252 249 255 255 254 255
218 218 216 211 214 203 223 227 212 217 221 206 66 70 56 14 16 13
0 2 7 1 0 18 2 9 15 0 10 0 0 19 0 58 99 41 121 171 98 114 174 86
109 177 74 115 194 75 99 184 55 103 193 59 102 194 57 103 193 59
105 192 62 106 190 68 109 188 73 110 186 77 110 187 75 121 197 75
114 190 66 101 171 55 98 165 60 123 187 93 132 191 107 77 133 58
3 59 0 0 36 0 76 133 64 135 196 119 122 188 101 107 177 81 114 186 84
110 187 75 99 178 63 117 197 82 105 188 74 98 180 69 101 183 75
108 189 84 111 192 87 110 192 84 108 190 79 110 191 73 113 194 73
116 196 73 115 194 69 110 188 66 107 185 63 108 183 65 106 184 64
99 184 55 117 202 72 109 190 61 97 176 51 115 188 73 123 190 87
119 177 92 128 179 110 104 147 93 24 61 18 0 20 0 5 35 0 0 18 0
18 44 0 110 137 84 142 180 107 120 182 81 113 187 76 113 185 85
111 187 78 111 192 55 110 192 56 110 188 79 111 185 86 102 175 68
118 191 74 110 180 55 125 191 85 0 51 0 0 47 3 141 191 118 115 172 78
113 185 77 110 187 73 109 188 73 109 188 73 109 188 73 109 188 71
108 189 71 108 189 71 108 189 71 108 189 71 108 189 69 106 190 69
108 189 69 106 190 69 108 189 69 109 188 69 119 192 75 107 175 66
117 181 85 111 173 90 7 62 0 23 80 1 114 173 65 117 181 59 120 183 66
117 183 73 116 182 84 112 185 80 110 189 61 108 191 57 106 189 71
106 189 75 108 188 73 109 188 69 109 188 71 109 188 69 109 188 71
109 188 69 109 188 71 109 188 69 109 188 71 109 188 69 109 188 71
109 188 69 109 188 71 109 188 69 109 188 71 109 188 69 109 189 66
108 190 66 108 189 68 105 191 68 105 190 69 103 191 69 103 191 68
105 191 68 98 177 58 121 193 83 127 189 92 122 173 94 115 154 97
0 30 0 0 9 0 0 23 0 72 118 45 133 195 94 114 187 70 119 199 78
112 197 78 101 186 69 113 192 75 114 181 76 139 188 107 132 163 103
51 67 20 14 21 0 140 141 73 247 244 177 234 226 179 36 28 0 69 66 0
254 255 177 246 246 176 227 227 165 255 255 206 115 113 75 4 2 0
8 6 0 1 0 0 4 4 4 1 2 6 205 208 213 251 255 255 210 208 196
229 226 217 227 223 220 255 254 255 251 249 254 251 249 254
255 254 255 215 215 215 232 235 228 234 237 226 97 103 91 0 3 0 0 2 0
9 15 13 0 0 7 0 11 5 0 19 0 64 103 46 124 171 103 129 183 105
116 180 86 112 185 78 113 194 76 115 201 74 103 193 61 102 194 61
103 193 61 105 191 64 106 190 68 109 188 71 110 187 75 109 187 75
108 194 71 107 196 70 100 183 65 97 175 66 116 188 89 136 202 114
117 178 98 82 140 64 24 77 7 0 39 0 21 73 0 106 161 78 139 195 104
122 179 82 115 176 73 122 187 83 108 183 82 99 177 76 103 181 82
116 194 93 116 194 93 107 186 81 109 188 79 121 201 88 104 185 65
106 187 66 109 190 69 113 192 73 114 193 78 112 190 80 109 186 82
106 185 76 111 197 72 96 182 55 111 190 73 117 188 84 105 168 79
122 174 100 122 166 107 81 119 70 0 31 0 0 22 0 0 28 0 0 30 0
55 95 35 129 171 105 129 175 102 123 178 87 117 185 72 113 189 67
113 187 76 111 189 69 111 193 47 111 193 47 111 189 70 111 187 78
106 180 65 118 192 67 114 186 52 125 189 75 0 50 0 0 48 0 146 198 116
113 171 69 113 186 69 109 189 66 109 189 66 109 189 66 109 189 66
109 189 66 109 189 66 109 189 66 109 189 66 109 189 66 109 189 66
108 190 66 109 189 66 108 190 66 109 189 66 110 188 68 111 184 67
117 184 78 124 188 94 73 134 54 0 31 0 75 132 53 126 188 79
116 180 58 119 184 64 116 184 71 115 183 82 110 186 78 109 190 59
106 192 57 105 190 69 105 190 73 105 190 71 105 191 68 105 190 69
105 191 68 105 190 69 105 191 68 105 190 69 105 191 68 105 190 69
105 191 68 105 190 69 105 191 68 105 190 69 105 191 68 105 190 69
106 190 68 108 190 66 108 190 66 108 189 68 105 190 69 105 190 69
103 191 69 103 191 68 105 191 68 107 188 67 113 187 74 111 176 76
113 167 83 154 196 132 81 114 67 2 27 0 0 16 0 0 40 0 100 152 77
123 188 88 120 192 82 126 202 94 98 173 70 115 182 87 125 183 99
119 160 92 28 56 0 24 38 0 122 127 61 232 233 153 247 244 165
251 245 183 152 146 86 16 13 0 206 206 136 239 238 174 233 232 176
255 255 212 28 25 0 4 2 0 16 14 2 17 16 12 3 3 5 23 24 28 222 225 230
251 255 255 243 240 231 251 248 241 239 236 231 249 245 244
226 224 225 233 231 234 230 230 232 232 234 233 254 255 253
147 152 146 15 20 13 0 7 0 4 14 3 3 13 2 4 14 5 0 14 0 63 100 48
129 176 104 140 193 115 108 168 82 109 177 78 113 189 81 107 190 72
115 203 80 102 193 64 102 193 62 103 192 64 105 191 66 108 189 68
109 188 71 112 186 73 109 188 71 107 200 70 99 194 64 104 194 70
112 197 80 107 186 79 98 169 73 107 173 85 129 188 106 108 162 86
48 100 25 0 27 0 0 34 0 70 119 37 128 178 91 133 184 92 125 182 87
120 192 92 111 190 85 111 190 85 114 193 88 109 188 83 102 181 72
104 184 71 114 193 76 115 194 75 108 188 67 103 183 62 106 185 68
113 191 79 114 193 84 110 187 83 103 182 75 108 191 73 124 204 89
104 176 76 103 167 81 136 188 122 105 149 98 31 66 26 0 29 0 0 17 0
0 26 0 12 50 0 92 135 66 127 178 101 110 168 83 120 183 92 112 179 76
116 187 67 114 188 63 113 187 72 113 189 65 111 194 44 111 194 44
111 190 65 111 188 72 108 184 62 120 192 66 117 189 53 124 189 71
2 55 0 0 46 0 147 197 112 112 170 67 113 186 68 109 190 62 109 190 62
109 190 62 109 189 64 109 189 64 109 189 64 109 189 64 109 189 64
109 189 64 109 189 66 109 189 66 110 188 66 110 188 66 110 188 66
112 187 68 111 181 67 124 189 85 124 187 98 27 85 8 0 36 0 111 168 87
129 191 82 122 188 65 117 185 64 115 185 69 112 185 78 109 187 75
106 192 59 105 193 55 103 191 68 103 190 73 105 190 69 105 191 68
105 191 68 105 191 68 105 191 68 105 191 68 105 191 68 105 191 68
105 191 68 105 191 68 105 191 68 105 191 68 105 191 68 105 191 68
105 191 68 106 190 68 108 189 68 109 189 68 108 189 69 106 190 69
105 190 71 103 191 69 103 191 68 105 191 66 121 203 79 106 184 65
112 179 73 112 171 79 112 160 86 139 179 119 72 105 60 1 33 0 0 15 0
37 80 27 130 183 105 108 167 75 98 162 66 105 168 79 135 189 114
121 165 102 21 54 0 19 40 0 127 139 67 237 242 158 255 255 165
240 239 147 242 236 158 210 206 135 14 11 0 129 129 67 243 242 186
255 254 206 148 146 107 7 6 0 23 22 2 1 1 0 1 0 0 0 0 2 129 130 134
232 233 238 248 251 255 255 255 248 254 251 244 242 241 236
238 237 232 220 219 215 227 226 224 207 207 207 240 241 243
226 230 233 22 28 28 0 8 5 0 11 1 20 34 17 0 13 0 9 28 0 46 73 30
132 178 106 107 165 78 122 185 94 132 199 102 103 178 73 103 183 72
115 200 83 98 188 65 102 192 68 102 193 66 103 192 66 105 191 68
108 189 69 109 188 69 112 186 71 109 189 68 113 207 69 103 202 60
102 196 60 106 195 67 107 191 70 106 182 73 108 178 79 115 178 87
130 188 104 117 170 92 81 132 57 16 64 0 0 22 0 14 60 0 88 134 62
116 170 84 105 179 64 108 193 64 116 198 72 115 197 73 118 197 78
121 200 83 115 194 77 106 184 65 122 200 81 118 196 76 111 189 69
106 184 64 104 182 62 103 183 62 106 184 65 107 184 68 117 189 81
105 172 75 135 196 118 131 185 123 51 94 51 0 29 0 0 18 0 0 13 0
0 34 0 37 77 17 120 168 92 131 187 98 115 179 82 124 195 91
107 182 77 106 183 71 113 189 63 114 189 62 113 188 70 113 189 65
111 194 44 111 194 44 111 190 63 111 189 70 109 185 63 118 193 66
118 190 56 127 192 74 18 72 0 0 43 0 138 188 103 113 171 68
112 187 68 108 190 62 108 190 62 108 190 62 108 190 64 108 190 64
109 189 66 109 189 66 110 188 66 110 188 66 110 188 68 110 188 68
112 187 68 112 187 68 112 187 68 113 186 69 114 182 71 127 189 88
116 176 90 0 43 0 19 76 5 122 181 97 122 186 74 128 196 73 115 186 64
113 186 68 110 187 75 108 189 71 105 193 57 103 194 55 101 193 66
102 191 71 106 190 69 108 189 68 108 189 68 108 189 68 108 189 68
108 189 68 108 189 68 108 189 68 108 189 68 108 189 68 108 189 68
108 189 68 108 189 68 108 189 68 108 189 68 108 189 68 109 189 68
109 188 69 108 189 71 106 189 71 105 190 73 103 191 71 103 191 68
105 191 66 110 195 68 118 198 75 131 204 89 111 176 74 116 170 84
123 171 97 127 168 108 19 55 9 0 22 0 0 15 0 81 120 65 134 180 108
124 173 92 135 183 107 94 134 81 10 41 0 0 21 0 156 171 114
237 246 163 250 255 156 241 243 136 251 250 144 240 236 139
241 236 154 53 52 0 62 60 9 245 242 197 238 236 197 27 24 0 14 12 0
19 17 4 4 4 0 1 0 0 14 14 16 217 218 222 254 255 255 222 225 230
255 254 251 255 255 250 255 255 248 245 245 237 221 221 213
225 226 220 225 225 225 252 255 255 88 93 99 0 1 7 1 11 12 1 14 5
0 15 0 0 11 0 33 59 12 132 171 106 129 185 98 109 175 75 108 179 75
114 190 82 109 189 78 102 186 72 106 193 76 110 199 79 102 192 69
103 191 69 105 190 69 106 190 69 109 188 69 110 188 69 112 186 71
110 188 66 110 201 64 103 198 54 101 194 54 108 195 62 117 199 73
120 198 79 118 190 82 114 182 81 118 182 88 122 180 95 127 182 101
119 173 97 65 117 43 0 37 0 0 34 0 46 100 22 70 136 36 100 172 60
126 198 86 124 194 82 112 182 70 112 182 70 113 183 69 108 181 66
103 176 59 109 184 66 114 189 71 110 188 69 103 182 63 103 184 66
110 193 75 123 199 90 122 182 92 135 185 112 75 123 63 3 46 0 0 27 0
0 28 0 0 35 2 21 62 18 80 125 66 132 185 107 113 172 78 106 173 68
118 192 81 100 179 64 104 187 73 121 202 84 111 190 65 113 189 65
113 187 72 111 189 67 111 193 49 110 194 47 110 191 63 111 189 70
105 183 64 117 193 69 115 187 59 129 196 81 40 96 21 0 39 0
118 170 88 115 175 75 110 188 69 105 191 64 106 191 64 106 191 64
106 190 66 108 190 66 108 189 68 109 188 69 109 188 69 110 187 71
110 187 71 112 186 71 112 186 73 112 186 73 113 185 73 115 185 73
120 186 78 125 187 88 97 156 74 0 26 0 67 125 51 118 180 94
115 182 69 127 197 73 113 187 64 110 188 68 109 188 73 106 190 69
103 194 57 102 195 55 101 193 66 102 192 69 109 188 69 112 187 68
112 187 68 112 187 68 112 187 68 112 187 68 112 187 68 112 187 68
112 187 68 112 187 68 112 187 68 112 187 68 112 187 68 112 187 68
112 187 68 112 187 69 110 188 69 110 187 71 109 188 73 108 188 75
105 189 75 103 190 73 103 191 69 105 191 66 95 180 51 116 198 72
129 204 85 102 170 59 128 190 91 118 174 87 120 171 94 94 135 79
0 24 0 0 10 0 3 33 0 138 172 121 134 171 102 76 111 43 0 25 0 0 16 0
15 26 0 207 214 162 255 255 175 240 244 134 232 235 120 243 243 129
249 246 139 255 255 172 107 105 48 17 15 0 229 226 191 130 129 98
4 2 0 3 2 0 8 5 0 22 21 17 0 0 0 113 112 117 247 248 252 254 255 255
207 211 214 255 255 253 255 254 250 248 248 240 235 235 225
219 219 209 228 229 221 251 251 249 193 197 200 0 0 9 0 3 10 8 19 21
0 9 0 0 20 0 5 34 0 94 130 66 155 202 121 109 174 70 126 203 89
106 185 70 89 169 54 109 194 77 105 192 75 93 182 66 115 206 87
102 191 73 103 190 73 105 190 71 106 189 71 109 188 71 110 187 71
112 187 69 112 188 66 105 186 57 102 185 51 106 189 57 114 195 66
115 194 69 112 187 68 114 188 73 122 194 84 116 187 81 110 178 79
112 179 84 122 188 98 128 193 109 113 178 96 48 112 34 0 33 0 0 25 0
21 65 6 72 117 52 106 154 80 120 170 85 121 175 81 122 180 77
121 185 75 108 176 63 104 177 62 105 182 70 111 191 80 114 200 91
111 200 94 99 190 87 99 175 87 106 150 87 37 66 18 0 28 0 0 33 0
0 22 0 0 38 0 56 106 53 112 168 103 130 193 112 116 186 88 118 191 83
108 187 70 114 195 75 123 204 86 99 179 64 89 170 52 110 190 69
110 189 70 110 188 78 109 189 74 109 193 56 109 193 55 109 190 69
109 189 76 101 179 67 115 192 78 110 183 65 133 200 95 63 121 47
0 34 0 98 152 77 116 179 88 108 188 75 103 191 69 105 190 69
105 190 69 105 190 71 106 189 71 106 189 73 108 188 73 108 188 75
109 187 77 109 187 77 110 186 77 110 186 78 110 186 78 112 185 78
115 184 78 125 188 83 125 185 89 77 134 57 0 29 0 97 155 81
115 177 91 116 184 71 115 187 62 112 188 64 109 189 68 108 189 71
105 191 68 103 193 59 102 194 57 101 193 66 103 191 69 112 187 69
116 185 69 116 185 69 116 185 69 116 185 69 116 185 69 116 185 69
116 185 69 116 185 69 116 185 69 116 185 69 116 185 69 116 185 69
116 185 69 116 185 69 115 185 69 113 185 73 110 187 75 109 187 77
108 188 77 106 188 77 105 189 75 105 190 71 105 191 66 103 188 59
107 189 61 105 184 57 105 179 58 113 181 72 127 192 90 104 163 71
150 197 125 44 75 31 0 19 0 0 11 0 61 85 53 52 77 20 19 44 0 51 67 20
160 170 133 5 5 0 113 112 66 247 249 165 248 250 141 246 247 130
252 253 134 252 252 140 238 236 149 150 148 99 9 8 0 156 154 129
15 14 0 8 6 0 3 1 0 20 17 12 6 5 3 13 13 15 209 208 213 254 255 255
254 255 255 228 232 235 222 220 221 210 209 207 209 208 203
244 244 234 255 255 246 255 255 248 231 233 230 31 35 38 0 7 15 0 3 9
0 10 9 0 13 0 0 30 0 86 124 63 130 174 95 116 172 73 122 195 78
99 181 57 108 192 70 120 205 84 103 191 71 94 183 65 98 187 71
88 179 62 102 191 75 103 190 75 105 189 75 108 188 73 109 188 73
110 187 71 113 186 71 112 187 69 101 176 58 105 183 63 104 182 62
97 175 55 99 177 57 108 186 66 109 187 68 103 180 64 107 184 70
118 195 83 112 190 81 101 178 74 111 187 87 126 202 104 119 196 102
107 174 94 72 122 63 24 64 14 0 19 0 0 23 0 24 67 0 70 117 36
109 159 72 132 185 93 153 209 118 128 188 98 110 174 87 120 188 101
136 210 125 125 202 120 80 159 78 44 110 39 0 15 0 1 21 0 0 14 0
0 15 0 24 67 14 89 139 78 114 174 102 109 177 92 114 190 92
112 191 82 108 191 75 100 185 64 93 179 56 112 196 74 124 208 87
99 180 60 109 190 70 109 189 74 109 188 81 107 189 78 107 192 62
106 193 60 107 191 70 107 189 78 97 176 67 114 192 82 107 181 68
134 205 103 77 137 63 0 33 0 84 140 69 118 182 95 106 188 78
102 192 69 103 191 71 103 191 71 105 190 71 105 190 73 106 189 73
106 189 75 106 188 77 108 188 77 108 187 78 109 187 78 109 186 80
109 186 80 110 185 80 113 184 78 125 188 83 127 184 90 64 120 47
0 41 0 105 165 91 114 179 89 120 190 76 102 176 51 112 188 66
109 189 68 106 190 69 105 191 68 103 192 62 102 193 62 101 193 68
105 190 71 112 187 69 116 185 69 116 185 69 116 185 69 116 185 69
116 185 69 116 185 69 116 185 69 116 185 69 116 185 69 116 185 69
116 185 69 116 185 69 116 185 69 116 185 69 115 185 71 113 185 75
112 185 77 110 186 78 109 186 80 108 187 80 106 188 78 106 189 73
106 190 69 121 206 79 112 195 65 95 176 47 127 206 79 107 182 63
108 178 66 113 180 75 123 179 88 124 161 92 0 12 0 7 23 10 0 6 0
14 30 0 113 127 65 229 237 180 245 247 200 69 64 34 19 11 0
215 212 135 237 237 137 255 255 147 247 247 133 230 229 123
255 255 175 204 202 161 3 2 0 28 27 9 5 6 0 17 14 5 9 8 3 2 1 0 4 2 3
117 117 119 235 234 239 205 206 210 230 231 233 242 246 247
224 224 226 223 223 223 217 218 213 241 242 234 255 255 246
255 255 248 156 158 155 0 1 4 0 1 7 14 28 29 0 15 8 0 11 0 39 77 28
143 189 117 113 167 73 129 193 81 110 189 64 105 192 61 105 192 62
103 192 66 103 191 69 102 191 71 102 191 73 102 191 75 108 195 82
104 191 78 102 186 74 107 187 74 112 191 76 115 192 76 115 188 73
110 184 71 107 180 75 109 184 81 112 189 83 113 191 82 110 188 76
108 187 72 106 187 69 106 187 67 115 199 77 115 199 77 113 197 75
112 196 75 110 193 75 108 191 75 107 190 74 109 186 80 117 186 95
117 179 94 96 155 73 50 107 26 1 54 0 0 25 0 0 31 0 6 47 0 13 52 0
76 115 68 107 146 101 96 138 92 111 155 106 54 101 49 0 48 0 0 34 0
0 24 0 0 11 0 12 40 0 86 122 61 139 185 113 138 193 110 117 182 90
107 182 81 112 193 88 109 193 82 102 189 76 99 186 69 99 187 65
104 190 65 108 195 65 112 197 68 109 193 69 109 192 74 109 191 83
107 191 79 106 193 63 104 194 60 106 192 69 105 190 73 97 179 69
115 194 85 114 190 81 118 190 90 110 172 95 0 54 0 61 118 47
116 182 95 114 196 85 110 200 76 110 198 76 109 197 75 108 196 74
107 195 75 109 194 75 108 193 74 109 194 77 110 193 77 109 192 76
110 190 75 108 188 75 107 187 74 106 184 72 108 182 71 133 196 91
119 175 84 48 103 35 0 38 0 116 176 102 116 181 89 102 172 58
116 192 68 99 177 57 103 182 63 108 192 71 112 197 76 109 195 72
100 188 65 97 184 67 101 186 69 109 188 71 106 184 65 102 180 61
104 182 63 109 187 68 112 190 71 111 189 70 108 186 67 109 187 68
108 186 67 106 184 65 104 182 63 103 181 62 103 181 62 103 181 62
105 179 64 118 190 82 106 174 71 113 184 82 124 196 96 114 188 89
111 188 84 110 190 79 95 178 60 106 190 66 106 191 61 108 191 59
109 190 59 110 189 64 110 188 68 112 186 71 119 182 75 138 184 86
40 69 2 16 33 17 6 16 8 159 168 123 229 238 171 243 247 171
253 252 188 198 190 154 13 3 0 179 171 109 253 248 164 242 242 142
237 238 136 249 248 155 230 230 160 216 217 185 4 4 0 13 13 3
19 20 12 13 12 7 5 5 3 8 8 8 44 44 46 239 238 243 224 223 228
226 227 229 223 224 226 254 255 255 220 220 222 231 231 231
202 202 200 240 241 236 254 255 249 239 240 234 48 50 49 0 2 2
7 17 18 1 18 12 0 17 0 0 29 0 100 146 84 112 165 83 128 189 86
117 188 70 108 191 61 105 192 59 103 192 62 103 192 64 103 191 68
102 192 69 103 190 73 103 190 75 103 190 77 104 188 77 106 188 77
109 189 78 112 190 78 113 190 76 114 188 75 112 186 75 125 202 98
119 197 95 111 190 85 103 182 75 98 180 69 101 184 68 108 191 73
114 198 77 97 181 59 98 182 60 101 182 61 103 184 64 105 186 68
107 186 69 109 188 73 109 187 75 109 186 80 98 175 71 96 168 68
112 177 83 128 186 99 116 167 90 77 119 55 40 77 25 0 29 0 0 25 0
0 12 0 0 21 0 0 14 0 1 28 0 0 21 0 0 20 0 1 28 0 75 103 52
133 168 104 134 176 100 116 166 77 114 174 74 115 182 77 107 180 73
113 190 84 108 190 82 104 187 79 100 187 74 100 188 68 103 192 64
107 198 61 109 200 63 110 195 66 110 194 73 110 192 82 110 194 80
110 197 67 109 200 63 111 198 68 111 196 75 109 192 78 113 192 83
106 182 73 107 179 77 98 162 78 0 50 0 29 87 13 129 193 107
109 187 77 104 190 65 103 189 66 102 188 65 101 187 64 100 186 63
100 184 62 100 184 62 117 201 79 114 198 76 110 194 72 106 190 68
104 188 67 104 188 67 108 189 69 111 188 72 122 188 80 118 174 83
39 94 29 0 51 0 123 184 107 116 183 88 99 171 59 114 190 68
113 191 72 116 195 78 106 187 67 92 173 55 94 174 59 108 191 77
114 193 84 106 183 77 118 188 89 128 196 97 136 203 106 135 203 104
127 194 97 122 190 91 125 192 95 130 198 99 113 180 83 116 184 85
120 187 90 125 193 94 128 195 98 129 197 98 129 196 99 130 196 98
121 186 86 109 173 76 113 179 82 120 187 92 112 181 88 112 186 89
118 193 90 110 188 76 108 189 68 108 190 62 108 191 59 108 191 59
108 191 61 108 190 62 109 189 66 115 186 66 129 183 63 93 129 42
8 27 7 0 4 0 60 67 25 237 240 171 237 240 153 251 248 171 237 225 183
14 1 0 84 74 25 243 238 172 250 249 166 244 244 156 247 248 172
255 255 200 113 115 93 5 6 0 8 9 4 8 9 4 11 11 9 0 0 0 6 6 8
209 209 211 222 221 226 218 217 222 223 224 226 228 229 231
247 249 248 237 238 242 244 245 247 234 234 234 255 255 255
236 236 234 152 152 150 0 1 0 6 12 10 16 27 21 0 18 1 0 12 0 59 99 49
133 185 113 108 169 76 123 191 82 111 187 65 108 190 62 105 192 61
105 192 62 105 191 64 105 191 68 103 191 69 105 190 73 105 189 75
115 199 87 112 194 83 105 187 76 98 178 67 94 172 62 96 173 61
101 178 66 105 183 71 104 187 71 101 189 69 103 190 73 104 192 72
103 191 71 100 188 68 98 183 64 95 178 62 100 180 67 101 179 69
106 179 72 109 180 78 113 181 82 116 182 85 118 182 88 117 184 89
118 196 94 110 192 84 107 185 76 110 181 75 120 182 81 128 181 89
132 175 95 133 168 102 130 158 107 101 123 85 12 31 3 0 7 0 6 21 0
0 10 0 0 7 0 51 75 39 118 156 95 131 178 100 130 180 91 110 164 66
108 165 60 125 184 74 129 193 83 118 184 78 122 190 91 116 188 89
108 184 84 100 181 76 94 181 64 92 183 52 90 185 41 92 186 40
96 182 49 99 181 57 101 181 66 102 185 67 106 191 61 108 196 58
111 197 62 112 197 68 97 178 60 99 177 67 108 182 71 119 190 86
119 182 91 20 79 0 0 44 0 118 177 93 121 193 83 116 196 71 114 194 71
111 191 66 108 188 63 106 186 61 103 185 59 102 184 58 102 184 58
104 186 58 107 189 61 109 191 63 108 193 63 107 192 62 105 190 60
107 186 61 113 179 69 118 174 85 26 80 18 10 65 7 128 189 111
116 183 86 99 171 59 115 190 71 117 194 78 115 192 78 114 191 75
118 195 81 121 197 89 120 195 92 120 192 93 123 187 100 112 161 95
94 133 78 56 95 42 20 59 4 0 35 0 0 25 0 0 24 0 0 26 0 0 34 0 0 30 0
0 28 0 0 37 0 22 61 8 56 95 40 91 130 77 110 155 90 114 168 84
121 180 88 135 195 105 129 192 103 105 169 82 97 166 75 109 179 83
111 186 81 109 188 73 108 190 66 108 191 61 106 192 59 106 192 59
106 191 61 105 191 64 110 189 61 122 186 50 136 183 79 28 53 21 0 5 0
0 7 0 213 216 147 236 235 142 249 245 156 245 233 183 115 102 68
15 6 0 216 210 162 242 241 176 251 252 184 245 244 188 145 145 107
9 10 0 12 14 11 14 16 13 2 4 3 8 10 9 1 2 4 129 130 132 244 245 247
239 240 242 245 246 248 242 243 245 242 243 245 228 228 228
252 253 255 248 249 253 252 251 255 246 245 250 200 199 204 31 32 34
0 1 0 7 14 7 14 28 13 0 12 0 0 30 0 120 166 102 126 184 100
118 184 86 108 182 69 106 186 65 106 191 64 105 191 64 106 190 66
106 190 66 106 190 68 106 190 69 106 189 71 106 189 73 109 192 78
111 191 78 109 189 78 105 185 74 104 182 72 107 185 76 117 193 85
124 202 90 101 182 61 98 182 58 100 184 62 104 189 68 109 194 75
110 195 78 106 188 77 104 183 76 118 195 93 121 192 96 123 189 99
123 187 101 125 184 102 126 183 106 128 180 106 127 181 105
115 181 94 119 188 97 127 192 100 130 189 97 129 182 94 132 177 96
138 175 105 144 175 116 130 156 111 5 29 0 0 11 0 0 25 0 0 19 0
35 66 25 129 162 117 127 168 108 145 200 116 118 180 81 104 167 60
115 179 67 127 190 75 125 188 73 121 185 73 122 188 82 116 182 82
115 182 85 112 184 85 110 187 83 108 191 75 107 196 68 108 201 61
110 201 61 109 190 61 109 187 67 107 183 74 104 182 70 101 181 56
99 180 49 97 178 47 96 176 51 112 189 77 109 182 77 111 179 76
115 179 82 129 188 98 66 121 40 0 33 0 114 166 91 109 171 70
107 175 62 110 178 65 112 182 68 116 186 70 117 190 73 118 193 74
120 195 76 101 177 55 101 180 55 103 182 57 105 186 58 107 189 61
110 193 63 111 194 64 114 193 68 111 177 67 119 178 88 13 69 8
11 69 10 123 186 107 115 183 84 103 175 65 120 194 79 114 188 77
128 202 91 126 198 86 107 179 71 109 176 79 124 189 99 117 182 92
96 155 75 0 36 0 0 28 0 0 28 0 0 37 0 11 51 0 23 63 11 25 65 13
24 64 12 50 90 38 44 84 32 33 73 21 20 60 8 6 46 0 0 36 0 0 28 0
0 26 0 9 58 0 43 97 9 95 149 65 125 182 101 127 186 106 117 181 97
111 177 89 106 176 78 110 186 78 109 188 69 108 190 64 106 191 61
105 192 61 103 193 61 103 192 62 108 191 61 118 190 54 135 191 82
78 111 64 0 9 0 0 8 0 152 154 89 240 239 149 250 244 156 255 248 189
172 160 120 26 17 0 189 185 148 235 234 186 236 238 189 131 131 93
25 25 1 0 1 0 2 6 5 17 19 18 1 3 2 5 6 8 69 70 72 229 230 232
197 198 200 242 243 245 254 255 255 251 252 254 250 251 253
217 217 217 254 255 255 254 255 255 249 248 254 233 232 240
157 156 164 0 1 6 16 17 19 3 11 0 10 25 2 0 13 0 66 106 46
130 181 104 117 181 87 110 181 77 107 185 73 99 182 64 106 190 69
106 190 69 108 189 69 108 189 69 108 189 69 108 189 69 108 189 69
108 189 71 105 186 68 108 187 72 110 188 76 112 190 80 111 189 80
110 187 81 109 186 82 110 186 77 110 183 65 106 180 57 104 178 57
108 183 65 116 193 81 121 196 91 119 193 94 117 188 96 98 166 79
95 160 80 88 150 75 79 136 67 70 122 56 60 110 47 54 99 40 50 94 35
61 98 44 61 96 42 59 92 37 60 90 38 64 92 43 71 96 54 79 103 69
85 108 80 7 32 10 0 20 0 0 24 0 16 65 18 94 155 86 108 178 92
113 190 86 125 203 91 94 171 57 103 177 62 117 190 72 126 200 79
125 196 76 117 186 69 116 185 69 123 191 80 113 182 76 114 182 79
113 184 80 113 186 79 111 189 77 109 190 70 107 191 67 109 189 66
116 189 74 119 186 80 119 185 88 119 187 88 120 189 80 118 191 73
119 193 72 121 191 77 120 186 86 120 183 92 117 175 88 111 166 82
130 181 102 99 144 75 0 24 0 67 108 48 127 176 95 125 178 88
124 179 86 123 178 85 122 179 84 119 179 81 118 180 79 116 181 77
123 190 84 118 187 78 111 183 71 107 181 66 105 183 64 110 188 69
114 194 73 121 196 78 115 181 71 123 182 92 12 68 7 2 60 2 114 177 96
113 181 82 107 179 69 125 197 85 102 173 67 117 188 82 119 188 81
109 174 74 114 174 88 110 167 88 57 111 33 0 44 0 55 121 34 73 143 54
100 170 81 119 189 100 123 193 104 120 190 101 117 187 98 117 187 98
117 187 98 123 193 104 130 200 111 131 201 112 120 190 101 99 169 80
76 146 57 65 129 42 30 84 0 0 44 0 0 35 0 37 89 14 99 153 78
117 175 99 112 173 93 111 177 87 112 184 82 110 187 75 108 189 68
106 191 64 105 192 62 103 192 62 102 193 64 105 191 64 109 188 63
112 177 73 117 162 97 0 16 0 19 30 0 80 80 26 241 238 161 249 242 162
255 255 194 188 180 131 8 2 0 174 170 143 220 219 188 112 113 82
19 21 0 10 12 1 5 10 6 20 26 26 3 7 8 0 1 2 30 34 35 206 210 211
224 228 227 197 201 200 242 244 243 254 255 255 252 252 252
251 251 251 217 217 217 245 246 248 242 243 247 255 253 255
249 247 255 75 73 87 19 19 29 21 22 24 4 15 1 0 19 0 4 34 0
121 164 93 127 183 96 104 170 70 108 184 76 107 189 78 101 185 71
108 188 73 109 188 73 109 188 73 109 188 71 109 188 69 109 188 69
110 188 69 109 188 69 119 198 79 111 190 73 103 181 69 102 180 70
109 186 80 115 192 88 116 193 91 119 189 90 136 194 94 130 185 84
119 175 78 110 167 72 98 157 67 74 136 50 43 106 25 21 83 6 0 50 0
0 49 0 0 46 0 0 43 0 0 39 0 0 36 0 0 34 0 0 30 0 0 18 0 0 24 0 0 30 0
0 26 0 0 17 0 0 13 0 0 18 0 3 27 3 0 25 6 0 16 0 26 70 34 112 169 114
117 186 105 105 186 81 96 185 59 104 194 62 113 195 69 108 186 64
103 181 59 108 186 64 116 194 74 120 198 78 118 196 76 114 192 73
108 186 67 112 187 69 114 188 73 118 190 78 119 191 81 118 190 82
118 187 81 118 184 84 119 181 84 120 179 89 121 178 97 120 179 97
120 181 88 119 184 82 121 184 79 121 183 84 120 178 94 128 182 107
128 178 109 120 166 101 133 173 110 115 153 96 8 40 1 29 61 22
146 181 125 143 182 115 140 181 113 137 180 109 135 178 106
131 179 103 127 178 99 124 179 95 110 168 81 112 173 80 115 179 83
116 184 85 115 183 82 109 180 76 102 175 70 99 170 64 118 184 76
124 185 92 22 80 21 0 47 0 107 172 90 116 184 85 109 181 71
121 193 83 123 194 90 110 178 77 119 184 80 124 184 88 67 121 45
0 47 0 10 57 0 70 124 46 110 182 82 105 187 77 107 189 79 107 189 79
108 190 80 111 193 83 116 198 88 119 201 91 114 196 86 112 194 84
108 190 80 103 185 75 100 182 72 98 180 70 97 179 69 103 175 73
108 162 74 111 155 76 49 95 20 0 25 0 0 39 0 60 113 43 110 168 92
119 183 97 115 182 85 110 186 78 108 189 71 106 190 66 103 192 64
102 193 64 101 194 64 102 192 69 98 181 73 103 174 80 123 177 99
0 32 0 3 19 0 29 30 0 226 222 161 247 240 170 247 240 172 243 238 180
13 9 0 98 98 74 122 124 103 0 2 0 7 8 2 10 12 9 7 13 11 4 10 10 0 6 6
3 9 9 214 218 219 225 229 228 252 255 255 210 214 213 239 241 240
245 247 246 243 243 243 243 243 243 228 228 228 217 221 222
208 209 214 239 237 250 205 202 219 0 0 16 1 1 13 6 7 11 0 8 0 0 15 0
70 101 42 133 178 97 129 186 91 101 170 64 113 191 81 108 194 83
109 195 84 108 187 78 110 186 77 110 186 77 110 187 73 110 187 71
110 188 69 112 187 68 110 188 68 117 195 75 106 184 65 99 178 63
107 185 75 122 201 94 127 205 103 117 195 96 112 176 89 126 163 96
93 118 63 36 65 9 0 29 0 0 21 0 0 31 0 0 44 0 0 49 0 45 104 38
50 111 41 60 122 45 74 137 56 89 153 66 103 168 74 113 179 81
119 185 85 121 187 87 118 183 83 115 175 79 116 171 78 120 168 84
120 162 88 117 152 94 113 145 98 0 26 0 0 15 0 39 76 35 134 179 124
130 184 108 108 172 75 101 171 57 114 188 65 117 191 70 110 185 66
109 187 68 115 196 78 116 201 82 107 195 73 98 189 62 95 187 54
98 189 52 104 190 55 112 193 62 120 194 73 126 192 86 130 187 93
130 181 102 130 178 104 136 183 111 129 179 110 122 170 110
110 160 97 99 151 79 88 143 62 81 135 49 77 130 50 56 104 42 55 99 46
48 87 40 38 75 31 40 72 25 42 70 32 2 25 5 1 22 5 35 58 29 37 63 24
41 69 29 46 77 35 54 86 39 57 94 43 61 102 46 61 105 46 88 137 72
93 144 75 99 155 82 106 167 90 113 174 94 117 181 97 119 184 100
119 186 93 114 179 75 123 184 91 42 100 41 0 39 0 108 173 89
122 190 89 106 178 70 107 179 71 126 194 93 114 180 82 60 122 21
0 54 0 4 54 0 75 119 58 128 170 107 131 179 105 136 201 101
123 195 83 115 187 75 115 187 75 119 191 79 119 191 79 111 183 71
102 174 62 109 181 69 109 181 69 110 182 70 111 183 71 112 184 72
113 185 73 113 185 73 117 182 78 128 178 91 137 179 103 134 176 104
104 149 80 42 88 23 0 37 0 28 84 11 124 185 105 116 181 89 112 184 82
109 188 73 106 190 69 103 192 66 102 193 66 101 193 66 101 191 77
98 184 95 108 183 101 116 179 88 39 82 3 0 11 0 8 9 0 199 192 150
249 240 185 240 236 165 234 233 168 50 51 11 8 10 0 15 17 6 5 7 4
3 4 6 0 2 5 5 11 11 4 13 12 0 7 4 188 197 194 251 255 255 248 254 252
240 244 243 246 251 247 221 223 220 217 219 216 224 224 224
229 229 229 248 248 250 223 227 230 214 215 220 219 217 230
130 128 142 6 3 20 0 0 11 2 8 8 0 14 0 0 19 0 113 154 88 126 180 92
116 181 77 115 189 76 105 185 70 119 206 91 114 201 86 106 188 77
109 187 75 109 187 75 110 187 73 110 187 71 112 186 71 112 186 71
113 186 71 104 176 66 102 174 66 107 178 76 119 189 93 120 189 98
89 157 70 32 100 17 0 50 0 0 20 0 0 19 0 7 37 0 41 76 20 82 121 64
110 156 94 119 170 104 115 172 103 121 183 108 120 185 103 117 186 97
116 186 90 114 187 82 114 187 79 113 187 74 113 188 70 115 195 74
114 192 72 114 189 70 116 186 72 117 183 77 117 177 81 115 167 85
113 158 91 0 37 0 0 27 0 0 31 0 24 62 13 103 144 84 132 176 101
136 185 96 127 182 81 105 169 59 117 187 73 123 195 87 112 188 80
102 179 73 101 180 73 100 182 72 96 179 65 119 198 81 118 192 77
112 182 70 103 165 64 89 143 57 73 119 46 59 99 39 50 89 32 8 53 0
4 53 0 0 48 0 0 45 0 0 42 0 0 40 0 0 38 0 0 34 0 0 32 0 0 32 0 0 36 0
0 40 0 0 33 0 0 32 0 0 31 0 0 15 0 0 25 0 0 27 0 0 26 0 0 27 0 0 26 0
0 26 0 0 27 0 0 28 0 0 46 0 0 39 0 0 32 0 0 35 0 0 55 0 34 91 23
70 127 59 93 151 77 115 169 85 125 176 99 62 112 61 0 33 0
116 173 104 129 191 106 106 171 77 97 165 66 30 96 0 0 35 0 0 34 0
62 122 26 139 192 112 140 190 117 125 172 100 127 181 97 102 167 63
106 179 64 117 187 73 118 191 76 117 187 73 111 184 69 112 182 68
111 184 69 107 177 63 109 182 67 117 187 73 120 193 78 124 194 80
119 192 77 117 187 73 116 182 74 131 187 90 116 166 79 118 167 86
145 196 119 132 183 108 47 99 24 0 43 0 0 57 0 116 180 94 113 182 89
110 185 82 108 188 75 105 190 69 103 192 66 102 192 68 101 191 77
108 194 103 112 192 105 117 183 86 87 134 53 5 28 0 1 7 0 174 170 143
247 241 205 248 245 192 177 177 125 9 10 0 2 5 0 12 14 9 8 12 13
0 0 5 5 8 13 0 3 6 0 2 2 193 199 197 213 219 217 212 216 215
252 255 255 252 255 253 254 255 253 238 240 237 223 225 222
227 227 227 224 224 224 255 255 255 227 228 233 205 206 211
224 223 231 36 33 44 15 13 24 10 13 20 5 15 14 0 9 0 10 49 5
128 181 113 117 184 91 97 173 64 110 194 72 102 188 61 113 199 74
102 188 63 106 192 69 93 179 56 105 190 69 118 201 83 110 189 74
109 186 74 119 190 84 117 185 86 115 179 85 130 190 104 124 178 102
75 126 57 15 63 1 0 29 0 0 29 0 0 42 0 74 129 45 84 145 50 103 167 71
121 185 89 128 194 97 125 193 94 114 184 85 105 177 77 112 184 82
110 185 80 110 186 78 110 186 77 110 187 75 110 187 73 110 187 71
110 188 69 107 185 63 106 184 62 107 185 65 113 191 72 120 194 81
122 195 87 122 190 91 122 184 99 88 143 75 0 27 0 0 23 0 0 15 0
0 23 0 50 75 35 103 127 79 146 178 113 119 174 83 111 176 74
119 183 87 132 192 104 130 187 106 112 164 90 91 141 72 82 128 64
43 87 26 21 62 4 0 33 0 0 19 0 0 22 0 0 29 0 0 30 0 0 29 0 0 44 0
0 47 0 24 81 4 53 111 35 55 113 36 62 124 41 81 143 57 90 153 64
100 163 72 104 168 74 110 174 80 117 178 85 121 180 88 121 179 94
119 176 97 116 174 97 121 185 99 120 186 98 122 188 100 124 188 102
121 185 101 110 171 91 92 153 75 81 139 65 74 130 59 69 122 54
52 104 38 28 78 17 3 53 0 0 37 0 0 39 0 2 45 0 0 15 0 15 44 0
30 61 27 0 26 0 71 112 68 43 92 37 0 46 0 0 41 0 0 60 0 52 120 19
114 183 74 134 204 92 115 182 76 97 164 59 107 173 73 126 195 89
112 186 73 109 188 69 110 188 69 109 188 69 110 188 69 109 188 69
110 188 69 109 188 69 110 188 69 109 188 69 110 188 69 109 188 69
110 188 69 109 188 69 110 188 69 110 188 69 117 190 73 124 193 84
122 188 90 109 173 77 118 182 85 136 198 99 74 136 39 0 28 0 0 53 0
117 180 101 99 167 80 100 172 73 119 198 83 120 201 80 97 181 60
95 180 61 97 186 70 97 180 72 134 201 104 99 150 73 0 15 0 5 19 0
139 141 127 227 225 213 111 110 92 3 2 0 15 17 4 9 12 3 10 12 9
12 13 15 10 9 15 2 1 6 40 41 43 191 193 192 242 244 243 218 220 219
219 221 220 242 244 243 254 255 255 244 244 244 235 235 235
226 226 226 234 234 234 229 229 229 254 254 254 247 248 253
234 235 240 196 193 202 8 5 14 4 3 9 2 7 10 5 20 13 0 18 0 60 106 59
124 184 112 107 181 86 96 179 65 112 198 73 104 191 61 108 193 64
105 190 61 121 207 80 105 193 70 100 185 64 100 183 67 98 176 67
97 172 69 107 177 81 117 181 94 107 166 86 58 111 39 0 46 0 0 20 0
4 45 0 62 101 48 117 154 103 143 189 124 103 171 72 101 180 63
108 187 70 113 192 75 114 193 76 110 189 72 103 182 65 99 178 61
109 188 71 109 188 71 109 188 71 109 188 71 109 188 71 109 188 71
109 188 71 109 188 69 101 179 59 111 189 67 115 193 73 109 188 69
105 184 69 106 184 74 104 179 76 102 171 78 138 201 120 81 136 68
0 22 0 0 33 0 2 27 0 0 8 0 23 37 14 0 16 0 47 88 28 69 119 48
77 123 58 42 86 27 3 41 0 0 23 0 0 27 0 6 33 0 0 16 0 2 27 0 23 50 17
50 80 42 78 111 68 97 133 85 106 145 92 105 151 86 130 188 103
122 187 93 118 183 93 126 192 105 119 185 98 110 176 88 113 182 91
103 173 75 117 188 82 118 192 81 119 193 78 119 193 78 116 190 79
111 184 76 107 178 74 102 175 70 107 180 73 115 188 81 121 194 89
121 191 92 116 183 88 115 180 90 123 185 102 133 190 113 119 172 102
124 174 111 125 170 113 120 162 112 129 168 123 132 170 129
112 148 110 85 116 82 14 37 9 7 27 2 0 24 0 0 19 0 0 31 0 0 33 0
44 96 32 99 157 80 127 192 100 121 192 88 118 192 79 117 192 74
117 192 73 116 191 72 113 188 70 109 187 68 109 188 69 108 189 69
108 189 69 108 189 69 108 189 69 108 189 69 108 189 69 108 189 69
108 189 69 108 189 69 108 189 69 108 189 69 108 189 69 108 189 69
108 189 69 108 189 68 101 181 56 106 186 65 115 188 80 110 181 75
112 181 72 130 198 87 117 183 75 74 136 39 0 44 0 37 99 26
125 188 109 115 184 93 109 182 74 113 191 72 108 187 70 111 195 74
109 198 72 103 188 67 123 193 95 105 157 83 0 26 0 0 15 0 42 47 40
52 52 52 26 24 27 10 10 10 0 0 0 0 1 0 0 1 0 12 13 15 11 9 14
42 40 45 209 209 211 255 255 255 245 245 245 226 226 226 238 238 238
241 241 241 245 245 245 241 241 241 235 235 235 237 237 237
244 244 244 237 237 237 237 237 237 251 251 255 254 254 255
147 144 153 1 0 5 12 11 16 4 10 8 0 13 0 0 23 0 121 168 114
122 183 106 104 178 79 101 184 70 112 198 75 106 192 65 100 185 58
109 191 67 112 196 74 103 186 68 103 183 72 108 185 81 117 191 94
128 198 109 104 172 89 61 123 46 0 41 0 0 38 0 20 73 3 91 141 70
136 184 110 134 180 105 122 169 89 118 172 84 127 199 91 120 199 82
116 195 78 111 190 73 108 187 70 106 185 68 106 185 68 106 185 68
109 188 71 109 188 71 109 188 71 109 188 71 109 188 71 109 188 71
109 188 71 109 188 71 111 188 72 115 193 74 110 188 69 100 177 61
101 177 68 113 185 83 118 188 92 116 182 92 136 198 112 138 193 109
140 189 110 68 109 41 0 29 0 0 12 0 2 20 8 0 6 0 0 23 4 0 28 5 3 28 7
0 17 0 0 9 0 0 8 0 12 30 14 36 58 37 123 148 119 131 158 123
141 172 128 144 181 127 143 185 119 139 187 113 136 188 106
133 192 102 105 172 75 112 184 85 101 172 78 108 179 87 115 185 96
112 185 93 123 197 102 115 190 89 104 182 72 106 185 70 110 189 70
112 193 72 113 194 76 113 193 80 113 191 82 115 188 81 104 169 65
113 171 69 120 177 80 130 185 92 135 189 103 136 187 108 133 180 108
132 174 111 142 181 126 131 167 121 117 149 110 101 130 99 77 105 80
45 70 49 9 32 14 0 9 0 0 13 0 0 21 2 2 29 0 72 105 60 110 151 91
114 165 90 124 180 93 124 188 92 118 186 85 109 180 74 101 174 66
101 178 66 108 185 69 114 192 73 115 191 69 109 187 65 109 189 68
108 189 69 108 189 69 108 189 69 108 189 69 108 189 69 108 189 69
108 189 69 108 189 69 108 189 69 108 189 69 108 189 69 108 189 69
108 189 69 108 189 69 108 189 68 112 192 69 107 187 66 115 188 80
118 189 83 112 181 72 117 185 74 130 196 88 133 197 100 43 104 24
0 38 0 66 129 50 119 188 97 116 189 81 104 181 65 114 193 76
113 197 76 106 195 69 115 198 80 128 195 100 118 170 98 0 19 0 0 11 0
1 6 0 0 0 0 1 0 2 24 24 24 9 9 7 4 6 1 0 1 0 6 7 9 96 94 99
223 221 226 220 220 222 246 246 246 238 238 238 243 243 243
252 252 252 228 228 228 219 219 219 228 228 228 237 237 237
251 251 251 253 253 253 247 247 247 221 221 221 252 252 255
254 254 255 76 75 83 1 0 6 13 14 16 7 17 8 0 8 0 22 54 13 145 193 131
115 177 94 110 185 82 106 186 73 106 190 69 109 193 71 98 179 58
110 189 72 94 172 60 120 195 90 104 178 79 103 174 80 127 197 109
83 150 70 6 70 0 0 46 0 12 72 0 73 131 55 120 179 99 123 181 96
119 175 84 126 183 86 124 181 78 104 168 58 122 195 80 115 194 77
111 190 73 108 187 70 108 187 70 111 190 73 115 194 77 117 196 79
109 188 71 109 188 71 109 188 71 109 188 71 109 188 71 109 188 71
109 188 71 109 188 71 118 195 81 110 187 73 102 179 65 104 178 67
112 183 77 120 188 89 119 184 90 116 180 86 122 181 89 129 184 93
117 167 80 123 170 92 95 135 75 0 16 0 62 90 68 2 29 14 0 16 0 0 15 0
0 19 0 0 24 2 0 16 0 0 8 0 0 12 0 8 30 9 0 10 0 0 15 0 13 41 0
36 70 19 53 91 30 60 103 34 60 106 31 55 106 27 83 137 59 98 154 79
100 156 85 99 154 86 105 162 94 110 167 99 114 171 100 117 175 98
133 192 108 129 192 101 126 190 94 121 187 90 116 181 87 110 175 85
106 170 84 106 165 83 100 151 72 97 144 66 90 134 59 84 127 55
76 117 47 58 99 33 35 73 12 19 54 0 0 21 0 0 24 0 0 22 0 0 17 0
0 15 0 0 19 0 0 22 0 0 22 0 19 42 26 104 129 108 134 164 128
130 169 114 122 168 93 130 185 92 124 185 82 101 167 59 96 165 56
104 178 67 114 190 81 116 193 81 109 186 72 103 181 62 104 180 58
105 183 61 109 189 68 108 189 69 108 189 69 108 189 69 108 189 69
108 189 69 108 189 69 108 189 69 108 189 69 108 189 69 108 189 69
108 189 69 108 189 69 108 189 69 108 189 69 108 189 68 120 200 77
108 188 67 108 184 75 116 189 81 116 188 76 111 181 67 112 180 71
116 180 83 117 179 96 18 80 3 0 46 0 89 155 65 120 191 85 97 171 58
123 200 86 105 186 68 97 183 60 114 197 79 125 192 97 129 179 108
0 13 0 0 14 0 11 16 10 22 22 22 23 21 24 13 13 13 1 1 0 9 11 6 0 1 0
140 142 141 238 237 242 220 218 223 219 219 221 253 253 253
255 255 255 249 249 249 239 239 239 218 218 218 214 214 214
228 228 228 242 242 242 255 255 255 251 251 251 252 252 252
219 219 219 254 254 255 240 240 250 8 6 17 1 0 6 0 1 0 8 19 5 0 10 0
79 116 64 129 181 107 107 172 80 120 195 90 106 186 73 97 180 64
109 192 74 101 180 65 109 185 76 107 177 81 113 179 91 120 185 101
110 175 93 50 114 36 0 40 0 0 51 0 64 126 51 110 173 94 117 181 97
126 191 99 125 191 91 112 178 70 101 168 52 111 179 56 128 200 75
108 183 64 106 185 68 107 186 69 108 187 70 110 189 72 112 191 74
113 192 75 114 193 76 109 188 71 109 188 71 109 188 71 109 188 71
109 188 71 109 188 71 109 188 71 109 188 71 110 187 71 105 182 70
110 183 76 119 190 88 120 188 87 111 176 76 108 171 67 112 173 70
118 174 77 139 192 104 118 169 92 0 41 0 0 37 0 14 57 4 111 154 101
121 166 107 90 140 67 76 127 50 45 92 20 8 53 0 0 34 0 0 34 0 0 31 0
0 20 0 7 30 1 0 20 0 0 13 0 0 15 0 3 23 0 4 25 0 0 16 0 0 10 0 0 17 0
0 14 0 4 23 3 0 15 0 0 14 0 0 17 3 0 7 0 0 9 0 0 19 0 0 20 0 0 19 0
0 18 0 0 17 0 0 16 0 0 16 0 0 16 0 0 21 0 0 26 0 0 28 0 0 24 0 0 19 0
0 19 0 0 27 0 2 37 0 0 18 0 12 48 0 31 66 0 46 82 12 94 130 56
133 170 93 97 131 54 22 54 0 0 18 0 19 52 23 100 137 93 131 176 111
127 179 94 112 170 68 110 174 60 113 182 63 123 196 78 120 195 77
115 192 76 111 188 74 107 186 69 105 184 65 106 184 64 106 184 64
109 188 69 108 189 69 108 189 69 108 189 69 108 189 69 108 189 69
108 189 69 108 189 69 108 189 69 108 189 69 108 189 69 108 189 69
108 189 69 108 189 69 108 189 69 108 189 69 108 188 67 107 186 67
104 181 69 108 182 71 117 190 75 120 190 76 114 182 73 109 175 75
125 189 103 100 163 84 0 47 0 31 97 7 110 181 79 94 167 59 134 207 99
107 186 71 102 188 65 105 185 70 107 172 80 133 183 114 0 18 0 2 15 0
1 3 0 13 11 14 13 11 14 0 0 0 0 0 0 48 50 45 222 224 221 244 246 245
219 218 223 232 231 236 236 236 238 255 255 255 255 255 255
252 252 252 249 249 249 240 240 240 222 222 222 219 219 219
246 246 246 250 250 250 240 240 240 249 249 249 232 232 232
245 245 255 192 192 202 0 0 9 12 13 18 1 6 2 9 22 4 0 12 0 114 153 90
112 166 82 108 174 74 122 198 89 103 183 70 96 176 63 111 191 80
106 182 73 114 184 85 124 186 103 131 189 115 96 154 80 11 69 0
0 31 0 40 100 26 116 179 100 126 190 106 114 180 92 117 184 87
114 185 81 110 182 70 111 184 66 116 192 66 118 195 63 116 193 63
106 184 64 107 186 69 109 188 71 111 190 73 110 189 72 107 186 69
103 182 65 101 180 63 109 188 71 109 188 71 109 188 71 109 188 71
109 188 71 109 188 71 109 188 71 109 188 71 107 184 70 114 188 77
120 191 85 121 189 86 117 182 82 118 180 79 131 189 87 143 199 102
124 177 87 48 100 18 0 39 0 0 43 0 65 116 50 120 173 103 136 193 112
121 181 91 130 190 90 122 183 80 113 170 75 108 162 74 107 156 77
101 144 75 82 122 62 66 100 49 48 77 33 24 51 10 0 21 0 0 11 0 0 15 0
0 23 0 0 22 0 0 16 0 1 19 0 0 7 0 0 6 0 2 15 6 0 7 0 0 4 0 0 9 0
0 10 0 0 12 0 0 13 0 0 13 0 0 14 0 0 17 0 0 20 0 0 24 0 0 28 0 0 15 0
0 25 0 1 40 0 19 58 13 38 78 28 58 99 43 75 116 56 85 127 61
101 144 72 133 180 102 145 193 109 125 174 83 119 169 74 138 188 91
140 188 89 119 164 81 76 116 64 0 34 0 0 29 0 24 74 3 100 156 67
132 193 90 120 187 72 122 193 73 115 189 66 110 186 62 103 181 59
101 179 59 102 181 62 106 185 68 112 189 73 113 192 75 108 189 69
108 189 69 108 189 69 108 189 69 108 189 69 108 189 69 108 189 69
108 189 69 108 189 69 108 189 69 108 189 69 108 189 69 108 189 69
108 189 69 108 189 69 108 189 69 106 185 66 120 199 82 117 194 80
104 181 67 108 182 67 115 188 73 118 188 76 123 190 87 117 181 94
120 184 100 33 98 14 0 54 0 107 175 76 106 177 73 124 195 89
116 193 81 117 201 80 107 187 74 106 169 78 133 179 114 0 19 0 0 12 0
0 1 0 10 8 11 11 9 12 23 23 23 123 125 122 207 209 204 238 240 237
252 254 253 255 255 255 248 248 250 249 249 251 230 230 230
225 225 225 224 224 224 236 236 236 244 244 244 239 239 239
254 254 254 242 242 242 236 236 236 228 228 228 239 239 239
245 245 245 226 226 236 142 142 152 0 0 11 17 18 23 10 15 9 6 20 0
0 22 0 123 165 91 115 172 77 116 185 78 114 191 79 100 180 69
103 182 75 112 189 85 111 183 81 123 188 96 149 205 132 74 124 61
0 30 0 0 36 0 74 131 54 117 176 92 108 171 80 117 185 86 123 194 88
105 179 68 98 175 59 107 185 65 104 184 61 95 177 51 106 188 60
130 212 86 110 189 70 110 189 72 111 190 73 110 189 72 109 188 71
106 185 68 104 183 66 102 181 64 109 188 71 109 188 71 109 188 71
109 188 71 109 188 71 109 188 71 109 188 71 109 188 73 105 182 70
121 195 84 122 192 80 108 176 65 114 177 70 132 190 90 124 177 89
96 147 68 9 56 0 0 42 0 25 76 9 111 167 92 128 187 103 111 177 80
114 186 78 118 187 78 114 172 70 121 175 79 134 188 94 145 198 108
136 186 101 117 166 85 118 165 87 132 178 103 144 187 115 134 177 105
122 165 93 112 158 83 106 153 73 94 143 61 79 127 43 66 115 36
61 108 40 46 91 34 39 83 32 67 109 63 20 61 19 0 28 0 49 88 44
55 94 47 42 85 29 43 87 24 46 93 25 50 100 29 59 111 39 70 123 53
80 133 65 86 139 69 119 174 93 115 171 84 114 170 83 121 177 90
128 186 99 129 188 98 118 178 88 108 168 78 136 197 104 118 182 88
106 170 76 109 173 77 116 182 85 119 185 88 122 188 91 128 188 100
138 190 118 115 164 99 52 103 34 0 53 0 0 53 0 75 135 45 116 183 80
123 193 81 115 189 68 118 194 68 118 197 69 115 194 67 108 186 66
105 182 68 108 186 77 113 191 82 108 188 73 108 189 69 108 189 69
108 189 69 108 189 69 108 189 69 108 189 69 108 189 69 108 189 69
108 189 69 108 189 69 108 189 69 108 189 69 108 189 69 108 189 69
108 189 69 105 184 67 124 203 86 121 198 84 107 184 68 108 183 65
108 181 64 109 181 69 123 191 88 123 190 97 105 171 83 85 149 63
0 42 0 69 134 40 118 186 87 113 181 80 116 187 81 120 201 83
115 193 83 118 178 90 125 169 106 0 14 0 1 12 0 15 15 13 26 21 27
17 15 18 143 143 143 237 239 236 223 228 222 204 209 205 212 216 215
254 255 255 238 239 241 247 247 249 221 221 221 227 227 227
236 236 236 249 249 249 254 254 254 239 239 239 250 250 250
231 231 231 222 222 222 223 223 223 228 228 228 250 250 250
231 231 239 119 119 129 11 9 22 0 0 7 0 7 0 0 10 0 9 38 0 136 179 97
129 187 84 125 195 83 105 182 70 98 176 67 112 189 87 115 186 90
115 182 85 130 192 106 68 121 51 0 25 0 0 43 0 97 151 75 139 197 112
131 192 99 125 190 88 113 182 73 96 169 54 112 190 70 121 201 80
113 195 71 107 191 69 110 196 73 107 192 71 97 182 61 109 190 72
109 188 71 108 187 70 108 187 70 109 188 71 111 190 73 113 192 75
115 194 77 109 188 71 109 188 71 109 188 71 109 188 71 109 188 71
109 188 71 109 188 71 110 187 71 94 168 55 119 192 77 119 187 74
102 168 58 117 178 75 128 183 90 60 111 34 0 22 0 0 24 0 72 123 56
134 188 112 117 180 91 112 180 77 106 180 67 111 191 70 103 178 59
119 182 75 125 183 81 123 181 81 120 177 80 123 180 85 128 185 90
120 179 85 109 168 74 120 180 84 124 184 88 126 188 87 127 190 86
123 189 81 120 188 77 121 188 75 122 188 80 121 185 91 128 187 103
112 168 93 142 198 127 51 103 37 0 37 0 103 154 88 123 174 105
135 188 110 130 185 101 123 182 92 117 178 83 114 178 82 114 179 85
116 183 90 118 185 90 111 178 75 112 179 73 111 178 72 106 175 68
103 172 65 104 176 68 113 185 77 121 194 86 111 184 76 105 181 72
108 184 76 111 189 80 106 185 76 97 176 67 96 175 66 105 180 77
108 171 80 115 173 89 115 172 91 116 175 95 0 39 0 0 50 0 70 135 45
116 184 83 117 187 75 111 185 64 106 182 58 103 182 57 106 184 64
111 188 76 116 191 86 118 195 89 108 188 73 108 189 69 108 189 69
108 189 69 108 189 69 108 189 69 108 189 69 108 189 69 108 189 69
108 189 69 108 189 69 108 189 69 108 189 69 108 189 69 108 189 69
108 189 71 86 165 50 104 183 68 107 184 68 108 186 67 117 195 75
111 186 68 103 177 64 116 187 81 119 189 91 114 180 90 130 194 107
0 47 0 0 65 0 120 184 90 117 181 85 108 176 73 113 190 76 113 186 79
117 175 90 115 157 94 0 15 0 7 18 2 14 14 14 3 0 4 3 0 2 187 187 187
231 233 230 222 227 221 212 217 213 242 247 243 254 255 255
246 247 249 255 255 255 214 214 214 206 206 206 208 208 208
236 236 236 255 255 255 255 255 255 255 255 255 221 221 221
213 213 213 223 223 223 221 221 221 249 249 249 228 229 234 95 95 103
2 2 14 4 7 14 0 4 0 11 30 0 39 71 6 137 183 93 121 183 74 116 186 70
97 173 64 96 173 71 120 194 99 114 183 94 107 172 82 56 116 30 0 25 0
47 98 23 114 167 87 125 181 94 112 172 76 113 178 74 121 189 78
118 191 74 112 187 68 110 188 68 108 189 68 106 190 69 103 191 71
102 191 73 102 191 75 103 190 75 108 188 73 109 188 71 109 188 71
109 188 71 109 188 71 109 188 71 109 188 71 109 188 71 104 183 66
91 170 53 119 198 81 115 194 77 100 179 62 106 185 68 97 176 59
99 177 58 123 197 76 125 196 78 108 176 65 130 192 91 113 169 82
25 77 2 0 48 0 33 79 15 124 174 103 122 177 96 120 180 84 116 184 75
112 187 69 109 189 68 106 190 68 108 189 69 113 186 69 115 185 69
115 185 69 115 185 71 113 185 73 113 185 75 112 186 75 112 186 75
110 187 75 110 187 73 110 187 71 110 188 69 110 188 68 109 189 66
110 189 64 112 187 68 106 172 66 107 164 69 146 200 114 110 162 80
95 143 69 0 44 0 74 120 47 141 188 110 128 176 90 128 177 85
125 180 79 124 181 78 121 183 76 120 183 78 118 183 79 117 184 81
115 183 80 113 184 80 113 184 80 112 185 78 112 185 77 110 187 75
109 188 73 108 189 71 106 190 68 105 191 66 105 191 64 103 192 62
102 193 62 102 194 61 102 194 61 106 191 64 111 183 71 110 175 75
105 169 75 125 187 102 111 172 94 20 82 5 0 38 0 21 87 0 108 175 78
123 194 88 95 167 55 120 194 79 117 191 78 97 174 62 103 179 71
123 201 91 108 188 73 108 189 69 108 189 69 108 189 69 108 189 69
108 189 69 108 189 69 108 189 69 108 189 69 108 189 69 108 189 69
108 189 69 108 189 69 108 189 69 108 189 69 108 189 71 109 187 75
109 187 75 109 188 69 109 189 66 109 189 66 110 188 68 110 187 71
112 185 77 109 180 78 118 185 90 120 184 97 53 117 31 0 43 0
90 150 64 125 186 93 118 184 84 123 197 86 111 182 78 121 176 93
106 146 86 0 10 0 3 11 0 9 7 8 21 16 22 3 0 2 198 196 197 241 243 240
226 231 225 228 235 228 244 250 246 241 245 246 234 235 237
226 226 226 250 250 250 231 231 231 233 233 233 239 239 239
228 228 228 245 245 245 255 255 255 238 238 238 238 238 238
237 237 237 236 236 236 235 235 235 247 248 250 54 55 60 0 0 11
3 6 15 0 9 1 1 22 0 48 83 15 130 180 85 120 184 70 123 193 77
101 177 69 113 187 90 119 189 101 123 188 104 36 98 12 0 31 0
58 114 25 101 156 63 129 186 91 119 179 81 109 172 67 117 183 73
124 194 80 119 192 75 110 188 69 109 188 69 108 189 71 105 190 73
103 190 75 102 191 75 102 190 78 103 190 77 108 188 73 109 188 71
109 188 71 109 188 71 109 188 71 109 188 71 109 188 71 109 188 71
102 181 64 102 181 64 122 201 84 108 187 70 96 175 58 111 190 73
113 192 75 123 201 82 119 192 74 104 172 59 127 192 90 96 156 66
13 67 0 0 37 0 40 92 20 126 178 103 122 178 91 120 180 84 117 183 75
115 185 69 110 188 68 108 189 68 105 190 69 105 190 69 106 190 68
106 190 66 105 191 68 105 191 68 105 190 69 105 190 71 105 190 71
105 190 71 105 190 71 105 190 69 106 190 69 106 190 68 108 190 66
108 190 64 109 189 64 112 188 66 126 194 83 106 169 65 133 193 97
125 181 92 113 165 83 0 45 0 30 77 0 136 183 102 128 177 86
127 179 81 125 180 76 123 182 72 120 184 70 117 186 70 116 186 72
114 186 76 113 184 78 113 184 80 112 185 78 112 185 77 110 187 75
110 187 73 109 188 71 108 189 69 106 190 68 105 191 64 105 192 62
103 193 61 102 194 59 101 195 57 101 195 57 103 193 61 114 192 72
121 193 83 115 183 80 111 178 83 126 190 106 112 175 96 42 104 27
0 31 0 23 87 3 103 169 79 122 189 94 110 181 79 110 181 75 98 171 63
136 210 99 106 183 69 109 188 71 108 189 69 108 189 69 108 189 69
108 189 69 108 189 69 108 189 69 108 189 69 108 189 69 108 189 69
108 189 69 108 189 69 108 189 69 108 189 69 108 189 69 108 189 71
109 187 77 109 187 77 109 188 69 109 189 64 109 189 64 109 189 66
110 187 71 110 187 75 106 179 72 118 188 89 116 182 92 90 152 67
0 34 0 66 123 42 125 183 96 124 186 89 119 190 84 108 176 75
120 173 93 98 136 79 0 9 0 9 15 5 9 4 8 24 17 25 8 3 9 206 204 205
251 253 250 240 245 239 242 249 242 243 250 243 227 231 230
218 222 223 218 218 218 251 251 251 248 248 248 249 249 249
242 242 242 217 217 217 222 222 222 229 229 229 246 246 246
252 252 252 253 253 253 246 246 246 233 233 233 254 255 251 7 8 10
0 0 11 1 5 16 8 19 13 0 12 0 59 96 27 127 178 83 115 179 65
111 184 67 109 184 81 114 187 97 113 180 100 43 105 28 0 57 0 27 86 0
125 187 80 136 199 85 132 196 84 113 180 67 108 176 65 120 190 78
122 194 84 112 186 75 110 187 75 109 187 75 108 188 77 106 188 77
105 189 75 103 190 75 103 190 75 105 190 73 108 188 73 109 188 71
109 188 71 109 188 71 109 188 71 109 188 71 109 188 71 109 188 71
104 183 66 110 189 72 116 195 78 101 180 63 101 180 63 116 195 78
114 193 76 121 198 84 99 168 62 137 201 105 111 173 87 0 57 0 0 29 0
60 118 34 114 173 79 121 182 79 119 183 73 117 184 71 116 184 73
113 185 75 110 187 75 108 188 73 106 189 71 103 191 69 98 194 69
95 195 69 95 195 69 95 195 71 96 194 71 96 194 73 98 193 73 99 193 73
101 192 73 103 190 73 106 189 73 108 189 71 110 187 71 112 187 69
113 186 69 113 186 71 125 199 88 101 177 69 117 187 88 125 192 99
123 185 100 15 72 0 0 43 0 120 175 92 121 180 88 120 182 83
118 184 76 116 186 72 113 188 70 110 189 70 107 190 72 110 189 74
113 185 75 116 184 75 115 184 75 115 184 75 113 185 73 113 185 73
112 186 73 110 187 73 109 188 73 108 189 71 108 189 71 106 190 69
106 190 69 105 190 69 105 190 69 106 190 69 119 196 80 117 191 78
119 191 81 109 180 76 113 180 83 143 208 118 117 180 99 36 96 22
0 56 0 29 89 19 108 168 94 112 176 92 109 176 81 119 190 84
129 202 87 108 183 64 109 188 69 108 189 69 108 189 69 108 189 69
108 189 69 108 189 69 108 189 69 108 189 69 108 189 69 108 189 69
108 189 69 108 189 69 108 189 69 108 189 69 108 189 69 108 188 73
109 187 78 109 187 78 108 189 68 108 190 62 108 190 62 108 190 64
109 188 69 110 187 73 108 182 71 116 187 83 117 184 91 120 182 99
0 47 0 21 78 1 127 182 98 123 182 88 118 186 83 112 178 80
135 186 109 85 120 66 0 18 0 11 17 7 3 0 2 4 0 5 28 23 29 218 216 219
254 255 251 251 255 249 251 255 250 240 247 240 213 217 216
211 215 214 215 215 215 249 249 249 255 255 255 255 255 255
244 244 244 212 212 212 205 205 205 206 206 206 251 251 251
255 255 255 255 255 255 252 252 252 233 233 233 253 255 247 0 1 0
0 2 14 1 5 16 4 14 13 0 10 0 63 102 35 129 183 87 113 180 67
106 178 66 119 193 96 107 179 95 58 124 50 0 42 0 41 98 17 131 191 95
120 187 72 124 194 70 119 189 67 109 180 62 109 182 65 119 192 77
115 189 78 100 177 65 109 187 77 109 187 77 108 188 77 106 189 75
106 189 73 106 189 73 105 190 71 106 189 71 108 189 71 109 188 71
109 188 71 109 188 71 109 188 71 109 188 71 109 188 71 109 188 71
110 189 72 108 187 70 104 183 66 103 182 65 112 191 74 113 192 75
101 180 63 103 176 69 131 196 106 107 166 86 14 72 0 0 47 0 60 120 32
126 188 91 133 199 91 94 163 47 116 185 69 115 185 69 113 185 75
112 185 77 110 186 77 109 187 75 108 189 71 105 190 69 99 193 69
96 195 69 96 195 69 96 195 69 96 194 71 96 194 73 96 194 73 98 193 75
99 192 75 102 190 77 103 190 77 106 188 77 109 187 77 110 186 77
112 185 77 112 185 77 101 181 70 104 186 78 111 187 87 111 184 94
124 192 109 60 123 44 0 38 0 93 154 74 118 181 92 117 183 86
114 185 79 111 188 76 109 189 74 104 192 72 103 192 74 106 191 74
113 186 71 116 184 71 116 184 71 115 185 71 115 185 71 115 185 73
113 185 73 113 185 75 112 186 75 110 186 77 110 186 77 109 187 77
109 187 77 108 188 77 108 188 77 108 188 77 120 199 84 111 188 72
121 198 82 116 190 77 94 163 57 112 178 80 140 202 117 132 190 116
64 120 55 0 41 0 23 79 14 110 170 98 124 188 101 130 198 97
105 175 61 119 193 72 109 189 68 108 189 69 108 189 69 108 189 69
108 189 69 108 189 69 108 189 69 108 189 69 108 189 69 108 189 69
108 189 69 108 189 69 108 189 69 108 189 69 108 189 69 108 188 73
109 186 80 109 187 78 108 189 68 108 191 61 108 190 62 108 190 64
109 188 69 109 188 71 113 190 76 114 185 79 118 185 90 124 186 103
34 90 17 0 36 0 120 173 93 118 177 85 118 184 84 115 181 84
140 191 116 39 73 22 0 16 0 11 14 5 7 2 6 4 0 5 72 65 72 232 230 233
251 253 248 245 250 243 251 255 250 235 242 235 216 221 217
226 230 229 226 228 227 244 244 244 252 252 252 254 254 254
243 243 243 225 225 225 216 216 216 213 213 213 244 244 244
249 249 249 250 250 250 245 245 245 236 236 236 230 234 219 0 2 0
5 8 17 3 7 19 0 4 4 0 16 0 63 102 37 135 189 95 116 182 72 119 192 84
123 196 104 66 137 57 0 48 0 44 104 34 105 160 79 122 182 86
103 173 57 106 182 58 109 185 63 103 181 61 105 183 64 110 187 71
109 186 70 102 181 66 109 187 75 109 188 73 109 188 73 108 189 71
108 189 69 108 189 69 108 189 68 108 189 68 109 188 71 109 188 71
109 188 71 109 188 71 109 188 71 109 188 71 109 188 71 109 188 71
115 194 77 108 187 70 102 181 64 111 190 73 113 192 75 105 184 67
106 185 68 113 185 85 119 178 110 13 67 7 0 37 0 69 133 39 117 183 75
109 178 62 122 192 78 111 183 71 112 185 77 110 186 78 110 186 77
110 187 75 110 187 73 110 187 73 110 187 73 110 187 71 112 188 66
110 189 64 109 189 66 108 190 66 106 190 68 103 191 69 102 191 73
101 192 75 101 191 77 99 192 78 101 190 80 101 190 82 102 189 84
103 188 84 105 187 85 105 188 84 90 176 69 109 194 90 109 189 94
105 179 92 122 190 113 93 159 85 0 39 0 56 118 43 117 181 97
116 182 92 113 185 85 110 187 81 106 190 78 103 191 78 100 193 78
103 192 76 110 188 69 115 186 66 115 186 68 115 186 68 115 185 69
113 186 71 113 185 73 113 185 75 112 185 77 112 185 78 112 185 80
110 185 80 110 185 82 109 186 82 109 186 82 109 186 80 117 196 81
115 194 75 119 197 78 116 190 75 106 176 64 108 175 72 121 181 91
124 181 102 128 184 113 42 97 30 0 24 0 62 118 47 128 187 105
120 184 88 112 178 72 114 184 70 110 188 69 108 189 69 108 189 69
108 189 69 108 189 69 108 189 69 108 189 69 108 189 69 108 189 69
108 189 69 108 189 69 108 189 69 108 189 69 108 189 69 108 189 69
108 188 73 109 186 82 109 186 80 108 190 66 108 191 59 106 191 61
106 191 64 108 189 69 109 188 71 117 195 76 116 190 79 110 177 80
120 182 99 76 132 61 0 25 0 96 147 70 119 175 86 119 183 86
119 183 89 130 177 105 0 21 0 0 9 0 4 7 0 27 22 28 16 9 17
131 124 131 243 241 244 234 236 231 229 234 227 235 242 234
227 237 229 230 236 232 252 255 253 246 248 247 234 234 234
231 231 231 232 232 232 239 239 239 248 248 248 245 245 245
241 241 241 230 230 230 226 226 226 225 225 225 231 231 231
241 241 241 215 220 200 6 9 0 6 9 18 6 10 22 0 3 5 0 22 0 68 108 45
134 189 98 108 175 69 123 196 89 99 172 83 0 50 0 0 53 0 119 176 108
126 179 99 106 165 71 112 185 77 109 190 72 107 188 68 103 184 64
100 181 61 104 184 63 108 188 67 111 191 68 109 189 68 109 189 66
109 189 66 110 188 66 110 188 66 110 188 68 110 188 68 110 188 68
109 188 69 109 188 71 109 188 71 109 188 71 109 188 71 109 188 71
109 188 71 109 188 71 115 194 77 111 190 73 110 189 72 117 196 79
104 183 66 102 181 64 123 202 85 119 191 91 10 67 0 0 40 0 61 118 41
118 182 88 109 178 71 111 183 71 114 188 77 108 184 75 109 186 80
108 187 78 109 187 75 109 188 73 110 187 71 112 186 71 113 185 73
115 185 71 116 185 66 116 186 64 115 186 64 112 188 66 110 188 66
108 189 68 106 190 69 103 191 71 102 191 73 102 191 75 102 190 77
103 189 78 105 188 80 105 188 80 106 187 82 106 188 80 108 192 81
112 195 87 108 186 87 111 184 95 124 191 111 108 170 95 0 43 0
22 80 3 120 179 95 118 182 88 116 184 83 111 187 78 107 190 76
104 191 74 102 193 74 103 192 72 109 189 66 112 188 64 112 188 66
112 188 66 110 188 68 110 188 69 110 188 69 110 187 71 109 188 73
109 187 75 109 187 77 109 187 77 109 187 78 108 187 78 109 186 80
108 188 77 108 189 69 104 186 62 98 178 57 108 183 65 124 194 82
118 183 79 109 170 75 119 174 90 136 190 112 119 173 97 28 80 6
0 46 0 85 143 59 122 182 94 123 184 89 106 173 68 110 187 73
108 189 69 108 189 69 108 189 69 108 189 69 108 189 69 108 189 69
108 189 69 108 189 69 108 189 69 108 189 69 108 189 69 108 189 69
108 189 69 108 189 69 108 188 75 109 186 84 109 186 80 108 190 64
108 191 57 106 192 59 106 191 62 108 189 68 108 189 69 114 194 73
118 192 79 104 171 74 119 181 98 101 154 86 0 34 0 68 116 42
123 177 91 117 181 84 130 191 98 115 161 89 0 23 0 7 21 0 0 1 0
12 5 12 6 0 7 190 183 191 249 247 250 219 221 216 219 226 218
222 229 221 225 235 226 244 250 246 252 255 253 254 255 255
226 226 226 218 218 218 217 217 217 233 233 233 255 255 255
255 255 255 255 255 255 223 223 223 215 215 215 211 211 211
223 223 223 243 243 243 219 227 204 6 12 0 1 4 13 9 12 27 0 7 11
0 21 1 80 120 58 124 178 90 111 178 73 107 179 77 39 111 27 0 35 0
64 126 63 119 175 110 121 172 95 132 188 99 120 194 97 109 192 88
105 187 79 105 188 74 106 190 69 109 191 65 108 191 61 109 191 57
109 191 55 110 190 55 110 190 57 112 189 59 112 188 62 112 188 66
113 186 69 112 187 69 110 187 71 109 188 71 109 188 71 109 188 71
109 188 71 109 188 71 109 188 71 109 188 71 111 190 73 109 188 71
111 190 73 116 195 78 99 178 61 111 190 73 115 194 77 52 123 17
0 30 0 45 98 20 118 175 96 123 185 102 121 187 100 123 194 102
102 178 78 104 183 76 106 188 77 106 189 73 108 189 71 109 188 69
112 186 71 113 186 71 115 185 73 116 184 71 115 185 69 113 186 68
112 187 68 110 188 66 109 189 66 108 190 66 108 190 66 106 190 66
108 190 66 109 189 66 110 188 66 113 187 66 115 186 68 117 184 68
119 184 68 116 185 68 121 197 75 108 187 68 106 179 71 118 186 87
125 188 99 122 180 96 12 65 0 4 56 0 124 179 86 123 181 79 120 184 72
117 186 67 113 189 65 109 191 63 106 193 63 104 193 63 105 191 64
105 191 64 105 191 64 105 191 64 105 191 66 105 191 66 105 191 66
105 191 66 105 191 66 105 191 66 105 191 68 105 191 68 105 191 68
103 191 68 105 191 68 105 191 66 99 184 54 96 179 49 93 173 50
107 181 66 122 191 85 115 180 80 117 176 82 139 195 104 122 177 84
134 189 96 109 162 72 0 49 0 27 83 0 116 174 90 123 180 99 107 172 82
110 186 77 108 189 69 108 189 69 108 189 69 108 189 69 108 189 69
108 189 69 108 189 69 108 189 69 108 189 69 108 189 69 108 189 69
108 189 69 108 189 69 108 189 69 108 188 75 109 186 84 109 186 80
108 190 64 108 191 57 106 192 59 106 191 62 106 190 68 108 189 69
110 190 67 106 180 65 119 187 88 115 177 94 115 167 101 0 35 0
52 98 25 130 182 99 117 178 83 129 189 99 69 114 45 11 40 0 12 24 2
0 1 0 4 0 5 23 13 24 234 227 235 252 250 253 215 217 212 226 233 225
221 228 220 226 236 227 248 254 250 249 254 250 254 255 255
222 222 222 222 222 222 220 220 220 229 229 229 255 255 255
255 255 255 253 253 253 228 228 228 223 223 223 222 222 222
230 230 230 243 243 243 231 239 218 0 6 0 0 0 9 8 15 25 7 19 19
0 20 0 93 131 72 116 167 88 132 192 104 99 165 78 0 52 0 41 107 35
113 175 102 105 163 86 117 172 88 121 182 89 111 187 89 99 181 79
97 180 72 109 191 80 119 203 82 116 201 74 107 190 60 97 180 46
109 191 55 110 190 55 110 190 57 110 190 59 112 188 64 112 188 66
113 186 69 112 186 71 110 187 73 109 188 73 108 189 69 108 189 68
106 190 68 106 190 68 108 189 71 108 188 73 107 186 71 105 182 68
108 182 69 115 187 75 107 179 69 125 196 90 93 163 64 0 31 0 19 81 0
114 175 80 123 186 97 105 171 84 118 188 100 119 194 103 116 194 93
108 190 82 106 189 73 106 190 69 108 189 69 109 188 69 110 188 69
113 186 71 115 185 71 113 186 71 112 187 69 110 188 69 109 189 68
109 189 68 108 189 68 108 190 66 108 190 66 108 190 66 109 189 64
110 189 64 113 187 62 115 187 62 117 185 62 119 185 62 120 184 62
119 185 62 110 186 62 98 176 54 102 176 61 112 181 74 122 184 87
138 194 103 43 95 10 0 49 0 125 178 86 124 180 79 121 183 72
118 186 65 114 189 62 111 191 60 109 192 62 106 193 63 103 192 64
103 192 66 103 192 66 103 192 66 103 192 66 103 192 66 103 192 66
103 192 66 103 192 64 103 192 64 103 192 64 103 192 64 103 192 64
103 192 64 103 192 64 103 192 62 97 184 51 111 194 64 115 195 72
113 187 74 116 185 79 119 185 85 121 183 84 119 181 80 111 172 68
114 175 71 121 182 79 52 112 14 0 51 0 87 142 61 131 184 112
111 170 90 112 185 80 108 189 69 108 189 69 108 189 69 108 189 69
108 189 69 108 189 69 108 189 69 108 189 69 108 189 69 108 189 69
108 189 69 108 189 69 108 189 69 108 189 69 108 189 71 109 186 80
109 187 77 108 190 66 108 191 61 108 190 62 108 190 64 108 189 68
109 189 68 110 188 66 91 164 47 143 210 107 108 168 80 126 179 107
0 28 0 50 98 24 135 183 107 119 170 91 120 167 95 10 47 0 0 26 0
0 6 0 0 1 0 18 13 19 92 87 94 253 251 254 252 252 250 217 220 213
238 243 236 228 233 227 230 236 232 247 251 250 233 234 236
249 249 249 221 221 221 233 233 233 229 229 229 227 227 227
247 247 247 242 242 242 238 238 238 236 236 236 237 237 237
238 238 238 239 239 239 241 241 241 241 244 233 0 2 0 12 15 22 0 2 5
0 14 0 4 28 0 82 115 60 143 185 122 123 171 113 0 34 0 0 46 0
127 188 110 117 182 88 133 200 97 125 192 89 104 173 67 109 187 77
106 189 75 106 189 73 108 189 71 108 189 69 108 189 68 108 190 66
108 190 66 108 190 64 109 189 64 109 189 66 109 189 66 109 189 68
109 189 68 109 188 69 110 187 73 110 186 77 109 187 75 106 190 66
103 193 61 102 194 59 102 193 62 103 191 71 106 188 77 112 188 80
117 186 80 127 190 83 104 162 59 111 168 71 119 174 90 29 82 14
0 42 0 115 183 84 112 186 75 110 186 77 110 186 78 109 187 78
108 188 77 108 188 75 108 188 73 108 189 71 108 189 69 108 189 69
108 189 69 109 188 69 109 188 69 110 188 69 109 188 69 109 188 69
109 188 69 108 189 69 108 189 69 108 189 69 108 189 68 108 189 68
108 189 68 108 189 68 109 189 68 109 189 68 110 188 68 110 188 68
112 187 68 112 187 68 110 188 68 115 196 76 97 178 58 113 191 72
116 189 74 118 185 80 117 178 83 93 148 65 0 39 0 69 122 44
128 184 97 119 181 80 129 197 84 110 186 64 103 183 58 111 195 73
105 190 69 106 190 68 106 190 68 106 190 68 106 190 68 106 190 68
106 190 68 106 190 68 106 190 68 106 190 68 106 190 68 106 190 68
106 190 68 106 190 68 106 190 68 106 190 68 106 190 66 105 191 66
106 190 66 109 188 69 112 186 73 113 185 75 115 184 77 115 184 75
113 185 73 101 175 60 119 193 78 113 186 78 120 188 87 0 53 0 8 62 0
129 178 112 132 186 111 114 186 84 110 191 73 109 190 72 109 190 72
109 190 72 109 190 72 108 189 69 108 189 69 108 189 69 108 189 69
108 189 68 108 189 68 108 189 68 108 189 68 108 189 68 108 189 68
109 188 69 109 188 69 109 189 68 109 189 68 109 188 69 109 188 71
110 187 71 112 187 69 107 181 60 121 190 71 120 187 74 122 185 81
119 175 86 0 50 0 31 82 7 143 185 121 142 176 126 104 130 93 0 10 0
3 20 2 3 16 6 2 11 6 0 1 0 131 135 134 235 240 234 210 216 206
246 249 240 249 252 245 255 255 253 255 255 255 210 207 216
222 219 228 216 216 218 254 254 254 246 246 246 255 255 255
245 245 245 206 206 206 225 225 225 208 208 208 252 252 252
255 255 255 255 255 255 247 247 247 233 233 233 249 250 244 19 21 18
3 6 11 0 6 5 0 13 0 0 11 0 67 96 48 140 177 125 57 98 54 0 30 0
79 131 65 118 177 93 115 182 76 115 188 71 112 184 72 111 188 76
109 188 71 108 189 69 108 189 69 108 189 69 108 189 69 108 189 69
108 189 69 108 189 69 108 189 69 108 189 69 108 189 69 108 189 69
108 189 69 108 189 69 108 189 69 109 188 73 110 186 78 110 187 75
106 191 64 102 194 57 99 196 55 99 195 61 102 192 69 105 189 77
105 178 73 129 194 92 117 175 72 128 182 84 124 174 85 68 116 42
0 30 0 70 125 60 112 184 84 108 189 69 108 189 69 108 189 69
108 189 69 108 189 69 108 189 69 108 189 69 108 189 69 108 189 69
108 189 69 108 189 69 108 189 69 108 189 69 108 189 69 108 189 69
108 189 69 108 189 69 108 189 69 108 189 69 108 189 69 108 189 69
108 189 69 108 189 69 108 189 69 108 189 69 108 189 69 108 189 69
108 189 69 108 189 69 108 189 69 106 190 69 111 194 78 99 182 64
112 192 71 116 191 73 113 182 73 114 178 81 103 160 81 0 39 0
61 114 42 125 182 101 117 181 85 127 196 87 111 186 68 104 184 63
110 193 75 105 190 71 108 189 71 108 189 69 108 189 69 108 189 69
108 189 69 108 189 69 108 189 69 108 189 69 108 189 69 108 189 69
108 189 69 108 189 69 108 189 69 108 189 69 108 189 69 106 190 69
106 190 68 106 190 68 109 188 71 112 186 71 113 185 75 113 185 73
113 185 73 110 188 69 114 195 75 98 182 61 110 188 76 120 192 90
54 119 29 0 39 0 88 134 72 129 181 109 115 185 86 110 190 75
109 190 72 109 190 72 109 190 72 109 190 72 108 189 69 108 189 69
108 189 69 108 189 69 108 189 68 108 189 68 108 189 68 108 189 68
108 190 66 108 190 66 109 189 64 109 189 66 109 188 69 109 188 71
109 188 73 110 187 73 110 187 71 112 187 69 112 183 63 124 193 74
118 182 68 114 176 69 119 174 80 5 57 0 27 74 2 141 180 125
143 167 135 51 66 47 0 13 0 0 6 0 7 20 13 0 10 6 0 7 4 195 205 197
219 227 216 213 219 207 248 251 240 254 255 248 253 253 251
244 242 247 213 207 219 221 218 229 224 223 228 252 252 252
250 250 250 255 255 255 240 240 240 212 212 212 225 225 225
217 217 217 241 241 241 250 250 250 254 254 254 247 247 247
233 233 233 251 250 245 69 70 65 6 7 11 15 21 19 8 20 6 0 19 0
69 95 56 132 165 118 0 30 0 19 67 9 138 194 119 114 177 86 113 182 75
106 179 62 109 186 72 112 191 76 108 189 71 108 189 69 108 189 69
108 189 69 108 189 69 108 189 69 108 189 69 108 189 69 108 189 69
108 189 69 108 189 69 108 189 69 108 189 69 108 189 69 108 189 69
109 188 71 110 186 77 110 187 73 106 190 66 103 193 61 101 195 59
99 195 62 102 192 69 106 189 75 103 176 69 127 192 90 121 179 79
134 188 94 111 161 76 2 49 0 13 61 1 118 175 106 112 184 82
108 189 69 108 189 69 108 189 69 108 189 69 108 189 69 108 189 69
108 189 69 108 189 69 108 189 69 108 189 69 108 189 69 108 189 69
108 189 69 108 189 69 108 189 69 108 189 69 108 189 69 108 189 69
108 189 69 108 189 69 108 189 69 108 189 69 108 189 69 108 189 69
108 189 69 108 189 69 108 189 69 108 189 69 108 189 69 108 189 69
106 190 69 108 191 75 103 186 68 111 191 70 119 194 76 108 177 68
112 176 79 122 179 100 0 41 0 49 102 30 122 179 98 116 180 84
125 194 85 111 186 68 105 185 64 110 193 75 105 190 71 108 189 71
108 189 69 108 189 69 108 189 69 108 189 69 108 189 69 108 189 69
108 189 69 108 189 69 108 189 69 108 189 69 108 189 69 108 189 69
108 189 69 108 189 69 106 190 69 106 190 68 106 190 68 109 188 71
112 186 71 113 185 75 113 185 73 113 185 73 110 188 69 122 203 83
95 179 58 108 186 74 122 194 92 110 175 85 0 47 0 28 74 12
120 172 100 115 185 86 110 190 75 109 190 72 109 190 72 109 190 72
109 190 72 108 189 69 108 189 69 108 189 69 108 189 69 108 189 68
108 189 68 108 189 68 108 189 68 108 190 66 108 190 66 109 189 64
110 188 66 109 189 68 109 188 71 109 188 71 109 188 71 109 188 69
110 188 68 114 188 67 119 188 71 116 180 70 118 176 76 124 177 89
0 42 0 30 72 9 149 182 135 125 145 117 13 26 8 0 6 0 3 14 6 4 15 11
0 3 0 80 89 86 234 240 236 210 215 208 221 227 217 247 250 239
254 255 248 251 251 249 231 230 235 220 217 226 223 220 229
217 217 219 237 237 237 255 255 255 255 255 255 255 255 255
236 236 236 222 222 222 212 212 212 251 251 251 255 255 255
255 255 255 248 248 248 231 231 231 237 234 229 117 116 112 0 0 0
4 8 7 0 6 0 0 14 0 38 61 32 61 92 50 0 23 0 90 140 71 128 186 102
122 186 89 110 182 72 109 186 70 119 198 81 102 183 65 108 189 69
108 189 69 108 189 69 108 189 69 108 189 69 108 189 69 108 189 69
108 189 69 108 189 69 108 189 69 108 189 69 108 189 69 108 189 69
108 189 69 108 189 69 109 188 71 110 187 73 110 187 71 106 190 68
103 192 64 101 194 64 101 194 64 103 191 68 106 189 71 118 192 81
110 175 71 115 172 77 142 195 107 52 101 20 0 36 0 97 148 82
112 170 94 112 185 80 108 189 69 108 189 69 108 189 69 108 189 69
108 189 69 108 189 69 108 189 69 108 189 69 108 189 69 108 189 69
108 189 69 108 189 69 108 189 69 108 189 69 108 189 69 108 189 69
108 189 69 108 189 69 108 189 69 108 189 69 108 189 69 108 189 69
108 189 69 108 189 69 108 189 69 108 189 69 108 189 69 108 189 69
108 189 69 108 189 69 106 190 69 106 189 73 107 190 72 109 189 68
120 195 77 106 175 66 110 174 77 136 193 114 0 50 0 33 86 14
118 175 94 116 180 84 123 192 83 112 187 69 106 186 65 108 191 73
105 190 71 108 189 71 108 189 69 108 189 69 108 189 69 108 189 69
108 189 69 108 189 69 108 189 69 108 189 69 108 189 69 108 189 69
108 189 69 108 189 69 108 189 69 108 189 69 106 190 69 106 190 68
106 190 68 109 188 71 112 186 71 113 185 75 113 185 73 113 185 73
110 188 69 114 195 75 108 192 71 105 183 71 118 190 88 120 185 95
46 100 24 0 28 0 106 158 86 115 185 86 110 190 75 109 190 72
109 190 72 109 190 72 109 190 72 108 189 69 108 189 69 108 189 69
108 189 69 108 189 68 108 189 68 108 189 68 108 189 68 108 190 66
108 190 66 110 189 64 110 188 66 109 189 68 108 189 69 108 189 69
106 190 69 106 190 68 108 190 66 115 193 73 108 178 62 116 179 74
129 186 92 131 178 100 0 19 0 59 93 43 146 172 135 45 63 37 0 7 0
0 6 0 9 19 11 0 5 2 5 11 11 148 154 154 252 255 253 242 247 241
246 249 240 228 231 222 229 232 223 225 225 223 221 221 223
247 244 251 253 250 255 246 246 248 231 231 231 236 236 236
232 232 232 240 240 240 253 253 253 240 240 240 242 242 242
232 232 232 232 232 232 234 234 234 237 237 237 241 241 241
240 235 229 163 158 154 3 0 0 1 1 0 2 6 7 0 5 0 0 17 1 0 22 0
37 77 17 140 192 110 109 169 73 122 189 83 109 183 72 112 191 76
121 205 84 100 185 64 108 189 69 108 189 69 108 189 69 108 189 69
108 189 69 108 189 69 108 189 69 108 189 69 108 189 69 108 189 69
108 189 69 108 189 69 108 189 69 108 189 69 108 189 69 109 188 69
110 188 69 110 188 69 106 190 69 103 191 69 102 192 68 101 193 66
103 192 66 108 189 68 127 200 85 104 169 65 106 162 71 132 184 102
0 39 0 36 86 13 130 184 109 110 172 87 110 186 78 108 189 69
108 189 69 108 189 69 108 189 69 108 189 69 108 189 69 108 189 69
108 189 69 108 189 69 108 189 69 108 189 69 108 189 69 108 189 69
108 189 69 108 189 69 108 189 69 108 189 69 108 189 69 108 189 69
108 189 69 108 189 69 108 189 69 108 189 69 108 189 69 108 189 69
108 189 69 108 189 69 108 189 69 108 189 69 108 189 69 106 190 69
106 189 73 108 191 73 107 187 66 119 194 76 108 177 68 110 174 77
140 197 118 15 68 0 15 68 0 114 171 90 116 180 84 120 189 80
113 188 70 108 188 67 107 190 72 105 190 71 108 189 71 108 189 69
108 189 69 108 189 69 108 189 69 108 189 69 108 189 69 108 189 69
108 189 69 108 189 69 108 189 69 108 189 69 108 189 69 108 189 69
108 189 69 106 190 69 106 190 68 106 190 68 109 188 71 112 186 71
113 185 75 113 185 73 113 185 73 110 188 69 108 189 69 111 195 74
104 182 70 106 178 76 116 181 91 98 152 76 0 21 0 90 142 70
115 185 86 110 190 75 109 190 72 109 190 72 109 190 72 109 190 72
108 189 69 108 189 69 108 189 69 108 189 69 108 189 68 108 189 68
108 189 68 108 189 68 108 190 66 108 190 66 110 188 66 110 188 66
109 189 66 108 189 68 105 191 68 105 191 66 105 191 66 106 190 66
118 198 77 103 175 63 112 177 77 127 181 97 125 167 101 0 17 0
101 127 90 101 121 94 2 16 0 0 6 0 17 28 14 5 12 5 0 2 0 9 13 16
68 72 75 252 254 253 254 255 253 255 255 250 222 223 215 223 224 218
228 229 224 232 232 232 255 254 255 254 253 255 255 255 255
225 225 225 216 216 216 206 206 206 231 231 231 255 255 255
255 255 255 255 255 255 224 224 224 216 216 216 214 214 214
228 228 228 250 250 250 240 231 226 187 180 174 4 0 0 5 4 2 25 25 33
3 10 16 0 7 2 0 22 0 99 138 75 145 195 106 122 183 79 114 184 70
110 187 75 105 188 72 111 199 77 106 194 71 106 190 69 108 189 69
108 189 69 108 189 69 108 189 69 108 189 69 108 189 69 108 189 69
108 189 69 108 189 69 108 189 69 108 189 69 108 189 69 108 189 69
108 189 69 109 189 68 110 188 66 110 188 68 106 189 71 103 190 73
102 191 71 102 192 69 105 191 64 108 190 64 111 184 67 117 180 76
134 190 103 52 103 26 0 36 0 97 149 75 123 180 99 118 183 89
110 187 75 108 189 69 108 189 69 108 189 69 108 189 69 108 189 69
108 189 69 108 189 69 108 189 69 108 189 69 108 189 69 108 189 69
108 189 69 108 189 69 108 189 69 108 189 69 108 189 69 108 189 69
108 189 69 108 189 69 108 189 69 108 189 69 108 189 69 108 189 69
108 189 69 108 189 69 108 189 69 108 189 69 108 189 69 108 189 69
108 189 69 106 190 69 108 191 75 107 190 72 106 186 65 116 191 73
116 185 76 112 176 79 133 190 111 38 91 19 0 52 0 111 168 87
116 180 84 118 187 78 113 188 70 109 189 68 106 189 71 105 190 71
108 189 71 108 189 69 108 189 69 108 189 69 108 189 69 108 189 69
108 189 69 108 189 69 108 189 69 108 189 69 108 189 69 108 189 69
108 189 69 108 189 69 108 189 69 106 190 69 106 190 68 106 190 68
109 188 71 112 186 71 113 185 75 113 185 73 113 185 73 110 188 69
108 189 69 105 189 68 105 183 71 98 170 68 123 188 98 118 172 96
0 27 0 60 112 40 115 185 86 110 190 75 109 190 72 109 190 72
109 190 72 109 190 72 108 189 69 108 189 69 108 189 69 108 189 69
108 189 68 108 189 68 108 189 68 108 189 68 108 190 66 109 189 66
110 188 66 110 188 66 108 190 66 106 190 66 103 192 66 102 193 64
103 192 64 105 191 66 117 198 78 110 183 75 109 173 79 117 168 93
95 133 76 9 35 0 110 128 104 33 46 26 9 23 0 0 8 0 0 6 0 4 11 3 5 9 8
7 11 14 0 0 4 162 163 165 251 251 249 252 253 248 223 224 218
224 225 219 233 234 229 241 241 241 255 254 255 246 245 250
253 253 255 223 223 223 217 217 217 213 213 213 236 236 236
255 255 255 252 252 252 254 254 254 235 235 235 224 224 224
217 217 217 228 228 228 249 249 249 234 223 219 211 202 197 21 14 6
3 0 0 21 19 32 2 4 19 0 3 7 7 31 9 134 171 104 126 178 80 131 194 80
115 186 68 112 190 78 104 188 74 103 193 69 100 191 64 106 190 68
108 189 69 108 189 69 108 189 69 108 189 69 108 189 69 108 189 69
108 189 69 108 189 69 108 189 69 108 189 69 108 189 69 108 189 69
108 189 69 108 189 69 109 189 68 110 189 64 110 188 66 108 188 73
105 189 77 103 190 75 103 191 71 106 191 64 109 190 62 109 179 63
123 185 84 138 193 110 0 31 0 30 81 12 123 177 101 122 182 94
118 186 83 110 187 73 108 189 69 108 189 69 108 189 69 108 189 69
108 189 69 108 189 69 108 189 69 108 189 69 108 189 69 108 189 69
108 189 69 108 189 69 108 189 69 108 189 69 108 189 69 108 189 69
108 189 69 108 189 69 108 189 69 108 189 69 108 189 69 108 189 69
108 189 69 108 189 69 108 189 69 108 189 69 108 189 69 108 189 69
108 189 69 108 189 69 106 190 69 112 195 79 103 186 68 105 185 64
113 188 70 125 194 85 115 179 82 120 177 98 61 114 42 0 40 0
108 165 84 116 180 84 116 185 76 114 189 71 111 191 70 105 188 70
105 190 71 108 189 71 108 189 69 108 189 69 108 189 69 108 189 69
108 189 69 108 189 69 108 189 69 108 189 69 108 189 69 108 189 69
108 189 69 108 189 69 108 189 69 108 189 69 106 190 69 106 190 68
106 190 68 109 188 71 112 186 71 113 185 75 113 185 73 113 185 73
110 188 69 101 182 62 112 196 75 106 184 72 103 175 73 125 190 100
124 178 102 15 61 0 11 63 0 115 185 86 110 190 75 109 190 72
109 190 72 109 190 72 109 190 72 108 189 69 108 189 69 108 189 69
108 189 69 108 189 68 108 189 68 108 189 68 108 189 68 108 190 66
109 189 66 110 188 66 110 188 66 108 190 64 105 191 64 102 193 64
101 194 64 102 193 64 103 191 68 110 193 77 116 188 86 110 172 86
128 175 107 54 87 40 12 32 4 60 73 56 0 5 0 0 14 0 37 52 21 0 6 0
1 9 0 17 22 18 16 20 23 10 11 15 74 73 78 243 241 242 246 245 243
228 227 222 216 215 210 219 220 215 235 235 235 252 253 255
248 249 253 246 246 248 235 235 235 231 231 231 223 223 223
227 227 227 239 239 239 242 242 242 250 250 250 232 232 232
229 229 229 228 228 228 234 234 234 243 243 243 255 252 248
255 253 246 73 66 58 4 0 0 17 13 30 4 2 24 0 3 14 7 28 11 142 177 111
117 167 68 122 182 68 125 196 76 115 193 81 109 193 79 103 195 68
84 177 47 106 190 68 108 189 69 108 189 69 108 189 69 108 189 69
108 189 69 108 189 69 108 189 69 108 189 69 108 189 69 108 189 69
108 189 69 108 189 69 108 189 69 108 189 69 109 189 68 110 189 62
110 188 66 108 188 75 105 189 78 103 190 77 103 190 73 106 191 64
110 189 64 131 199 86 115 177 78 90 144 66 0 31 0 65 118 50
120 179 99 118 184 87 116 188 78 109 188 71 108 189 69 108 189 69
108 189 69 108 189 69 108 189 69 108 189 69 108 189 69 108 189 69
108 189 69 108 189 69 108 189 69 108 189 69 108 189 69 108 189 69
108 189 69 108 189 69 108 189 69 108 189 69 108 189 69 108 189 69
108 189 69 108 189 69 108 189 69 108 189 69 108 189 69 108 189 69
108 189 69 108 189 69 108 189 69 108 189 69 106 190 69 114 197 81
101 184 66 104 184 63 111 186 68 131 200 91 116 180 83 110 167 88
74 127 55 0 33 0 106 163 82 116 180 84 115 184 75 114 189 71
111 191 70 105 188 70 105 190 71 108 189 71 108 189 69 108 189 69
108 189 69 108 189 69 108 189 69 108 189 69 108 189 69 108 189 69
108 189 69 108 189 69 108 189 69 108 189 69 108 189 69 108 189 69
106 190 69 106 190 68 106 190 68 109 188 71 112 186 71 113 185 75
113 185 73 113 185 73 110 188 69 90 171 51 130 214 93 106 184 72
113 185 83 117 182 92 131 185 109 41 87 25 0 24 0 115 185 86
110 190 75 109 190 72 109 190 72 109 190 72 109 190 72 108 189 69
108 189 69 108 189 69 108 189 69 108 189 68 108 189 68 108 189 68
108 189 68 108 190 66 109 189 66 110 188 66 110 188 66 108 190 64
105 191 64 102 193 62 101 194 64 102 193 66 103 191 71 104 186 76
117 188 92 115 174 94 150 196 134 24 55 14 0 12 0 0 9 0 0 5 0 1 18 0
136 157 118 56 72 43 0 6 0 7 14 7 5 9 10 0 0 4 6 5 10 190 188 191
222 220 221 249 248 244 253 252 248 248 247 245 242 242 242
226 227 229 209 210 212 216 216 216 236 236 236 255 255 255
255 255 255 243 243 243 226 226 226 220 220 220 222 222 222
252 252 252 255 255 255 255 255 255 245 245 245 231 231 231
255 250 245 255 247 240 181 174 166 4 0 0 41 33 54 4 2 26 7 13 27
0 7 0 102 133 73 135 182 88 129 189 76 117 186 69 111 189 77
105 189 75 86 178 51 86 179 49 106 190 68 108 189 69 108 189 69
108 189 69 108 189 69 108 189 69 108 189 69 108 189 69 108 189 69
108 189 69 108 189 69 108 189 69 108 189 69 108 189 69 108 189 69
109 189 68 111 190 65 111 189 67 109 189 76 107 189 79 106 190 78
106 191 74 109 191 67 111 189 67 111 179 68 133 192 98 27 81 6 0 42 0
108 164 93 115 177 94 118 186 83 119 193 78 109 188 69 108 189 69
108 189 69 108 189 69 108 189 69 108 189 69 108 189 69 108 189 69
108 189 69 108 189 69 108 189 69 108 189 69 108 189 69 108 189 69
108 189 69 108 189 69 108 189 69 108 189 69 108 189 69 108 189 69
108 189 69 108 189 69 108 189 69 108 189 69 108 189 69 108 189 69
108 189 69 108 189 69 108 189 69 108 189 69 108 189 69 106 190 69
103 186 70 106 189 71 106 186 65 115 190 72 112 181 72 114 178 81
124 181 102 95 148 76 0 39 0 81 138 57 115 179 83 115 184 75
119 194 76 109 189 68 106 189 71 107 192 73 108 189 71 108 189 69
108 189 69 108 189 69 108 189 69 108 189 69 108 189 69 108 189 69
108 189 69 108 189 69 108 189 69 108 189 69 108 189 69 108 189 69
108 189 69 106 190 69 106 190 68 106 190 68 109 188 71 112 186 71
113 185 75 113 185 73 113 185 73 110 188 69 106 187 67 105 189 68
117 195 83 102 174 72 117 182 92 125 179 103 51 97 35 0 34 0
108 178 79 109 189 74 114 195 77 113 194 76 107 188 70 103 184 66
103 184 64 105 186 66 108 189 69 108 189 69 108 189 68 108 189 68
108 189 68 108 189 68 108 190 66 109 189 66 94 172 52 104 184 61
116 198 72 117 203 76 107 196 68 97 188 61 101 189 66 112 196 82
111 190 85 124 193 104 125 181 108 105 148 94 0 13 0 4 22 0 0 8 0
10 24 1 93 119 72 127 155 104 131 153 114 0 8 0 0 6 0 11 17 13 0 0 4
0 0 4 111 109 112 228 224 225 251 247 246 237 236 234 255 255 253
222 222 222 222 223 225 224 225 227 215 215 215 255 255 255
252 252 252 255 255 255 250 250 250 217 217 217 215 215 215
219 219 219 241 241 241 255 255 255 251 251 251 252 252 252
218 218 218 255 254 248 253 246 240 212 205 197 23 17 19 3 0 14
2 0 21 0 0 15 4 20 7 53 82 28 143 187 100 121 178 73 125 193 80
94 171 59 99 183 69 103 193 69 107 198 69 106 190 68 108 189 69
108 189 69 108 189 69 108 189 69 108 189 69 108 189 69 108 189 69
108 189 69 108 189 69 108 189 69 108 189 69 108 189 69 108 189 69
108 189 69 109 189 68 111 189 67 111 189 69 109 189 74 107 189 78
107 190 76 107 190 74 110 190 69 113 188 70 125 190 86 115 174 84
1 54 0 14 67 0 116 174 100 125 189 102 115 187 79 106 184 65
109 188 69 108 189 69 108 189 69 108 189 69 108 189 69 108 189 69
108 189 69 108 189 69 108 189 69 108 189 69 108 189 69 108 189 69
108 189 69 108 189 69 108 189 69 108 189 69 108 189 69 108 189 69
108 189 69 108 189 69 108 189 69 108 189 69 108 189 69 108 189 69
108 189 69 108 189 69 108 189 69 108 189 69 108 189 69 108 189 69
108 189 69 106 190 69 103 186 70 106 189 71 106 186 65 115 190 72
112 181 72 114 178 81 124 181 102 95 148 76 0 39 0 81 138 57
115 179 83 115 184 75 119 194 76 109 189 68 106 189 71 107 192 73
108 189 71 108 189 69 108 189 69 108 189 69 108 189 69 108 189 69
108 189 69 108 189 69 108 189 69 108 189 69 108 189 69 108 189 69
108 189 69 108 189 69 108 189 69 106 190 69 106 190 68 106 190 68
109 188 71 112 186 71 113 185 75 113 185 73 113 185 73 110 188 69
106 187 67 105 189 68 116 194 82 104 176 74 117 182 92 124 178 102
54 100 38 0 34 0 108 178 79 108 188 73 113 194 76 112 193 75
107 188 70 103 184 66 103 184 64 106 187 67 108 189 69 108 189 69
108 189 68 108 189 68 108 189 68 108 189 68 108 190 66 108 190 66
115 195 74 114 194 73 112 194 70 108 192 68 102 188 63 100 186 63
104 189 70 112 191 82 124 198 101 111 176 94 133 185 119 46 89 36
0 27 0 1 24 0 0 13 0 19 38 6 125 159 99 127 163 99 136 168 118
38 62 26 0 16 0 9 19 10 6 10 11 9 8 13 37 35 40 223 218 222
255 254 255 255 254 253 255 254 253 232 230 231 223 223 225
215 215 217 228 228 228 248 248 248 253 253 253 255 255 255
251 251 251 228 228 228 217 217 217 212 212 212 249 249 249
253 253 253 249 249 249 246 246 246 228 228 228 239 234 228
239 234 228 255 250 246 64 59 63 8 4 19 14 11 30 3 5 17 6 20 7 4 30 0
116 156 83 128 182 88 131 197 91 100 173 65 105 188 74 107 197 73
100 191 64 106 190 68 108 189 69 108 189 69 108 189 69 108 189 69
108 189 69 108 189 69 108 189 69 108 189 69 108 189 69 108 189 69
108 189 69 108 189 69 108 189 69 108 189 69 109 188 69 111 189 69
111 189 70 110 189 72 107 190 74 107 190 72 109 190 72 111 188 72
114 186 76 123 187 90 89 147 63 0 43 0 66 119 49 114 173 93
115 182 87 109 183 72 109 189 68 108 189 69 108 189 69 108 189 69
108 189 69 108 189 69 108 189 69 108 189 69 108 189 69 108 189 69
108 189 69 108 189 69 108 189 69 108 189 69 108 189 69 108 189 69
108 189 69 108 189 69 108 189 69 108 189 69 108 189 69 108 189 69
108 189 69 108 189 69 108 189 69 108 189 69 108 189 69 108 189 69
108 189 69 108 189 69 108 189 69 108 189 69 106 190 69 103 186 70
107 190 72 106 186 65 116 191 73 112 181 72 115 179 82 124 181 102
95 148 76 0 39 0 81 138 57 115 179 83 115 184 75 118 193 75
108 188 67 106 189 71 106 191 72 108 189 71 108 189 69 108 189 69
108 189 69 108 189 69 108 189 69 108 189 69 108 189 69 108 189 69
108 189 69 108 189 69 108 189 69 108 189 69 108 189 69 108 189 69
106 190 69 106 190 68 106 190 68 109 188 71 112 186 71 113 185 75
113 185 73 113 185 73 110 188 69 105 186 66 105 189 68 114 192 80
106 178 76 117 182 92 124 178 102 59 105 43 0 35 0 106 176 77
107 187 72 112 193 75 112 193 75 107 188 70 103 184 66 104 185 65
107 188 68 108 189 69 108 189 69 108 189 68 108 189 68 108 189 68
108 189 68 108 190 66 108 190 66 108 189 68 106 187 66 102 183 62
100 181 60 101 185 63 109 190 72 112 190 80 114 186 86 116 182 95
112 172 98 129 179 116 0 28 0 0 27 0 1 29 0 17 41 5 101 129 81
150 192 118 118 165 85 134 175 109 96 130 80 0 20 0 0 14 0 6 12 8
10 11 15 1 0 4 204 199 203 247 241 243 239 235 236 232 228 229
239 237 238 248 246 249 242 242 244 245 245 245 227 227 227
227 227 227 225 225 225 230 230 230 249 249 249 255 255 255
255 255 255 231 231 231 226 226 226 229 229 229 231 231 231
247 247 247 212 212 204 223 222 217 216 215 213 23 21 26 1 0 11
0 0 11 17 20 25 0 6 0 0 20 0 55 90 32 129 178 99 120 181 86
113 184 78 114 194 79 105 193 71 90 178 55 106 190 69 108 189 69
108 189 69 108 189 69 108 189 69 108 189 69 108 189 69 108 189 69
108 189 69 108 189 69 108 189 69 108 189 69 108 189 69 108 189 69
108 189 69 109 188 69 111 188 72 111 188 72 110 189 70 109 190 69
109 190 69 109 190 70 111 188 74 116 184 83 123 183 95 60 114 36
0 37 0 113 167 92 113 175 90 108 178 79 104 181 67 111 192 71
108 189 69 108 189 69 108 189 69 108 189 69 108 189 69 108 189 69
108 189 69 108 189 69 108 189 69 108 189 69 108 189 69 108 189 69
108 189 69 108 189 69 108 189 69 108 189 69 108 189 69 108 189 69
108 189 69 108 189 69 108 189 69 108 189 69 108 189 69 108 189 69
108 189 69 108 189 69 108 189 69 108 189 69 108 189 69 108 189 69
108 189 69 106 190 69 103 186 70 107 190 72 107 187 66 116 191 73
112 181 72 115 179 82 125 182 103 96 149 77 0 38 0 80 137 56
114 178 82 114 183 74 118 193 75 108 188 67 106 189 71 106 191 72
108 189 71 108 189 69 108 189 69 108 189 69 108 189 69 108 189 69
108 189 69 108 189 69 108 189 69 108 189 69 108 189 69 108 189 69
108 189 69 108 189 69 108 189 69 106 190 69 106 190 68 106 190 68
109 188 71 112 186 71 113 185 75 113 185 73 113 185 73 110 188 69
105 186 66 104 188 67 112 190 78 110 182 80 117 182 92 122 176 100
66 112 50 0 35 0 104 174 75 105 185 70 111 192 74 111 192 74
107 188 70 104 185 67 105 186 66 108 189 69 108 189 69 108 189 69
108 189 68 108 189 68 108 189 68 108 189 68 108 190 66 108 189 68
94 175 55 101 182 62 104 185 65 101 182 62 104 183 66 110 187 75
113 184 82 110 177 84 114 175 97 131 186 118 55 103 43 0 21 0 0 21 0
3 37 0 97 129 79 147 186 121 139 192 102 110 167 72 120 171 92
124 165 105 0 27 0 0 10 0 0 8 0 3 7 8 1 0 4 159 154 160 243 237 241
226 220 222 219 213 215 242 238 239 252 247 251 235 233 236
255 255 255 220 220 220 227 227 227 226 226 226 231 231 231
255 255 255 255 255 255 250 250 250 238 238 238 223 223 223
227 227 227 225 225 225 255 255 255 213 216 207 243 245 240
147 146 151 5 4 12 9 8 16 0 1 5 30 35 31 0 5 0 0 17 0 1 32 0
94 136 73 117 172 89 117 183 83 113 190 76 115 198 80 101 186 65
106 190 69 108 189 69 108 189 69 108 189 69 108 189 69 108 189 69
108 189 69 108 189 69 108 189 69 108 189 69 108 189 69 108 189 69
108 189 69 108 189 69 108 189 69 109 188 71 111 188 76 111 188 74
110 190 69 109 191 63 109 191 63 110 190 67 113 186 78 116 183 88
130 189 109 27 80 8 0 33 0 132 186 108 121 184 93 120 191 85
106 185 68 102 183 62 108 189 69 108 189 69 108 189 69 108 189 69
108 189 69 108 189 69 108 189 69 108 189 69 108 189 69 108 189 69
108 189 69 108 189 69 108 189 69 108 189 69 108 189 69 108 189 69
108 189 69 108 189 69 108 189 69 108 189 69 108 189 69 108 189 69
108 189 69 108 189 69 108 189 69 108 189 69 108 189 69 108 189 69
108 189 69 108 189 69 108 189 69 106 190 69 104 187 71 107 190 72
107 187 66 116 191 73 113 182 73 116 180 83 125 182 103 96 149 77
0 38 0 80 137 56 114 178 82 114 183 74 117 192 74 107 187 66
105 188 70 105 190 71 108 189 71 108 189 69 108 189 69 108 189 69
108 189 69 108 189 69 108 189 69 108 189 69 108 189 69 108 189 69
108 189 69 108 189 69 108 189 69 108 189 69 108 189 69 106 190 69
106 190 68 106 190 68 109 188 71 112 186 71 113 185 75 113 185 73
113 185 73 110 188 69 104 185 65 104 188 67 110 188 76 113 185 83
117 182 92 121 175 99 73 119 57 0 35 0 102 172 73 103 183 68
110 191 73 110 191 73 107 188 70 104 185 67 106 187 67 109 190 70
108 189 69 108 189 69 108 189 68 108 189 68 108 189 68 108 189 68
108 190 66 108 189 68 101 185 64 113 196 78 117 198 80 106 185 68
105 179 66 116 185 79 121 185 91 117 176 94 129 182 112 59 109 46
0 42 0 0 22 0 1 42 0 80 122 59 131 172 104 129 178 96 115 181 75
110 179 70 112 173 80 126 178 104 16 54 5 0 19 0 0 10 0 3 9 7 0 0 2
75 70 76 232 226 230 219 213 217 218 212 216 241 236 240 255 253 255
255 254 255 255 255 255 220 220 220 227 227 227 226 226 226
231 231 231 255 255 255 255 255 255 250 250 250 238 238 238
223 223 223 227 227 227 225 225 225 255 255 255 208 216 205
232 237 231 54 57 64 0 0 9 2 3 7 0 1 0 1 7 0 0 5 0 0 7 0 0 11 0
41 79 30 124 176 102 124 188 91 111 185 72 118 198 83 108 191 73
108 189 69 108 189 69 108 189 69 108 189 69 108 189 69 108 189 69
108 189 69 108 189 69 108 189 69 108 189 69 108 189 69 108 189 69
108 189 69 108 189 69 108 189 69 109 188 73 111 187 79 111 187 78
111 190 65 110 191 60 109 192 58 110 190 65 113 186 81 117 181 94
118 174 101 3 56 0 11 63 0 138 196 112 118 184 86 113 186 78
108 189 71 107 191 70 108 189 69 108 189 69 108 189 69 108 189 69
108 189 69 108 189 69 108 189 69 108 189 69 108 189 69 108 189 69
108 189 69 108 189 69 108 189 69 108 189 69 108 189 69 108 189 69
108 189 69 108 189 69 108 189 69 108 189 69 108 189 69 108 189 69
108 189 69 108 189 69 108 189 69 108 189 69 108 189 69 108 189 69
108 189 69 108 189 69 108 189 69 106 190 69 104 187 71 108 191 73
108 188 67 117 192 74 113 182 73 116 180 83 125 182 103 97 150 78
0 37 0 80 137 56 114 178 82 114 183 74 117 192 74 107 187 66
105 188 70 105 190 71 108 189 71 108 189 69 108 189 69 108 189 69
108 189 69 108 189 69 108 189 69 108 189 69 108 189 69 108 189 69
108 189 69 108 189 69 108 189 69 108 189 69 108 189 69 106 190 69
106 190 68 106 190 68 109 188 71 112 186 71 113 185 75 113 185 73
113 185 73 110 188 69 104 185 65 103 187 66 108 186 74 117 189 87
117 182 92 120 174 98 80 126 64 0 35 0 100 170 71 102 182 67
108 189 71 110 191 73 107 188 70 105 186 68 107 188 68 110 191 71
108 189 69 108 189 69 108 189 68 108 189 68 108 189 68 108 189 68
108 190 66 106 190 68 105 190 69 115 198 80 114 195 77 102 179 65
110 179 72 130 195 95 136 194 107 127 179 104 58 107 42 0 25 0 0 24 0
0 38 0 70 116 51 146 194 120 119 168 87 124 184 86 105 179 58
120 198 76 117 185 82 126 183 102 55 98 42 2 32 0 1 20 1 7 16 11
0 0 2 16 11 17 227 221 225 233 224 229 225 219 223 233 227 231
255 250 255 255 253 255 246 244 247 227 227 227 227 227 227
225 225 225 230 230 230 249 249 249 255 255 255 255 255 255
231 231 231 226 226 226 229 229 229 231 231 231 247 247 247
246 255 245 208 217 212 5 9 18 0 0 9 0 1 0 9 12 3 9 16 0 81 92 75
27 43 32 0 9 0 3 38 0 75 124 58 118 179 84 109 181 69 105 184 69
113 193 78 108 189 71 108 189 69 108 189 69 108 189 69 108 189 69
108 189 69 108 189 69 108 189 69 108 189 69 108 189 69 108 189 69
108 189 69 108 189 69 108 189 69 108 189 69 109 188 73 111 186 83
111 187 79 111 190 63 110 192 56 110 192 55 111 190 63 114 185 83
117 181 97 101 156 89 0 41 0 50 104 29 133 191 106 112 179 76
103 177 64 109 192 74 117 202 81 106 190 69 108 189 69 108 189 69
108 189 69 108 189 69 108 189 69 108 189 69 108 189 69 108 189 69
108 189 69 108 189 69 108 189 69 108 189 69 108 189 69 108 189 69
108 189 69 108 189 69 108 189 69 108 189 69 108 189 69 108 189 69
108 189 69 108 189 69 108 189 69 108 189 69 108 189 69 108 189 69
108 189 69 108 189 69 108 189 69 108 189 69 106 190 69 105 188 72
108 191 73 108 188 67 117 192 74 114 183 74 116 180 83 126 183 104
97 150 78 0 37 0 79 136 55 113 177 81 113 182 73 117 192 74
107 187 66 105 188 70 105 190 71 108 189 71 108 189 69 108 189 69
108 189 69 108 189 69 108 189 69 108 189 69 108 189 69 108 189 69
108 189 69 108 189 69 108 189 69 108 189 69 108 189 69 108 189 69
106 190 69 106 190 68 106 190 68 109 188 71 112 186 71 113 185 75
113 185 73 113 185 73 110 188 69 103 184 64 103 187 66 106 184 72
119 191 89 117 182 92 119 173 97 85 131 69 0 35 0 98 168 69
100 180 65 107 188 70 109 190 72 107 188 70 105 186 68 108 189 69
111 192 72 108 189 69 108 189 69 108 189 68 108 189 68 108 189 68
108 189 68 108 190 66 106 190 68 103 188 67 107 192 73 104 184 69
100 174 63 117 184 79 131 190 96 108 161 79 69 116 46 0 20 0 0 34 0
0 33 0 71 116 57 136 186 115 117 170 88 127 184 90 124 192 81
107 188 57 120 206 73 118 195 81 123 186 97 89 137 75 0 31 0 2 24 3
2 13 5 1 3 2 11 6 10 224 218 222 255 252 255 255 245 253 235 225 233
216 206 215 215 208 215 229 227 230 248 248 248 253 253 253
255 255 255 251 251 251 228 228 228 217 217 217 212 212 212
249 249 249 253 253 253 249 249 249 246 246 246 228 228 228
243 249 245 156 162 162 0 0 11 8 8 18 11 16 10 10 19 0 5 22 0
136 158 122 109 135 108 1 31 3 0 19 0 0 32 0 94 145 68 110 169 79
101 166 74 132 204 105 109 187 75 108 189 71 108 189 71 108 189 71
108 189 71 109 188 71 109 188 69 109 188 69 109 188 69 109 189 68
109 189 68 108 190 66 108 190 66 108 190 66 108 190 66 108 189 69
111 187 78 111 188 76 110 190 65 110 192 58 110 192 58 113 189 65
116 184 81 118 180 95 106 158 92 0 30 0 61 113 39 117 175 88
117 186 79 112 190 71 114 199 78 108 196 73 106 190 69 108 189 69
108 189 69 108 189 69 108 189 69 108 189 69 108 189 69 108 189 69
108 189 69 108 189 69 108 189 69 108 189 69 108 189 69 108 189 69
108 189 69 108 189 69 108 189 69 108 189 69 108 189 69 108 189 69
108 189 69 108 189 69 108 189 69 108 189 69 108 189 69 108 189 69
108 189 69 108 189 69 108 189 69 108 189 69 108 189 69 106 190 69
105 188 70 108 191 73 108 188 67 117 192 74 114 184 72 116 181 79
126 184 99 97 151 76 0 37 0 79 135 60 113 176 85 113 182 76
117 192 74 107 187 66 104 187 69 105 190 73 108 189 71 108 189 69
108 189 69 108 189 69 108 189 69 108 189 69 108 189 69 108 189 69
108 189 69 108 189 69 108 189 69 108 189 69 108 189 69 108 189 69
108 189 69 108 189 69 106 190 68 106 190 68 109 189 68 110 188 69
112 186 73 112 186 73 112 186 75 110 187 73 104 183 64 106 186 65
106 184 65 122 194 84 118 182 86 118 172 94 89 133 72 0 34 0
95 169 70 97 181 67 104 189 72 107 190 74 107 188 70 106 185 68
109 188 69 114 192 72 110 188 69 110 188 68 110 188 68 110 188 68
109 188 69 109 188 69 109 188 69 108 189 69 116 197 79 116 194 82
111 182 78 110 174 78 124 179 96 113 164 89 47 92 27 0 19 0 0 35 0
0 37 0 55 106 39 141 197 122 125 185 99 104 170 73 99 167 64
112 187 69 109 197 61 112 200 64 115 194 79 119 184 92 105 156 90
0 20 0 0 20 0 0 5 0 3 5 4 1 0 2 176 170 174 251 244 251 255 250 255
255 248 255 229 222 230 229 224 231 216 214 217 255 255 255
252 252 252 255 255 255 250 250 250 217 217 217 215 215 215
219 219 219 241 241 241 255 255 255 251 251 251 252 252 252
218 218 218 255 253 255 57 55 66 8 2 16 6 3 10 0 3 0 6 25 0 24 61 7
115 161 96 135 186 119 67 115 53 0 38 0 0 15 0 17 50 5 105 141 95
131 171 121 130 183 115 94 168 69 100 183 67 115 195 82 118 198 85
105 183 71 95 172 58 107 181 66 126 201 83 112 187 68 112 188 66
110 189 62 109 190 61 108 191 59 108 191 59 106 192 59 106 191 61
109 189 64 110 188 66 110 189 70 110 190 69 111 190 65 114 188 67
119 185 77 122 181 89 94 144 73 0 32 0 87 137 64 112 170 83
119 189 77 113 193 68 92 181 51 111 200 72 106 190 68 108 189 69
108 189 69 108 189 69 108 189 69 108 189 69 108 189 69 108 189 69
108 189 69 108 189 69 108 189 69 108 189 69 108 189 69 108 189 69
108 189 69 108 189 69 108 189 69 108 189 69 108 189 69 108 189 69
108 189 69 108 189 69 108 189 69 108 189 69 108 189 69 108 189 69
108 189 69 108 189 69 108 189 69 108 189 69 108 189 69 106 190 69
108 192 71 94 178 57 107 186 67 119 194 76 128 199 81 106 172 62
110 170 74 88 143 62 0 41 0 107 162 97 112 173 93 112 180 81
111 186 68 109 189 66 106 189 73 107 191 77 108 189 71 108 189 69
108 189 69 108 189 69 108 189 69 108 189 69 108 189 69 108 189 69
108 189 69 108 189 69 108 189 69 108 189 69 108 189 69 108 189 69
108 189 69 108 189 69 106 190 68 106 190 66 108 190 64 108 190 64
108 189 69 108 188 73 109 187 78 109 187 78 107 184 68 115 191 69
114 186 60 109 177 54 128 186 83 112 164 81 54 97 41 0 46 0
107 188 93 100 194 80 102 192 78 104 191 76 107 190 74 111 189 70
113 186 68 116 185 66 123 190 74 122 189 73 127 196 79 126 196 80
116 189 74 111 185 72 105 182 68 96 170 59 108 177 68 113 175 76
122 175 95 142 186 123 125 161 115 39 71 34 0 14 0 0 35 0 0 20 0
68 124 49 129 196 103 110 185 82 99 178 69 109 191 80 108 192 81
100 185 66 104 194 60 107 194 63 108 186 74 112 177 87 131 181 118
0 36 0 0 18 0 0 7 0 0 4 5 7 6 11 162 157 163 252 247 253 246 239 247
245 239 249 233 227 237 222 219 226 229 229 231 254 254 254
253 253 253 255 255 255 240 240 240 216 216 216 229 229 229
225 225 225 244 244 244 253 253 253 245 245 245 251 251 251
227 227 227 222 218 235 24 20 35 12 4 19 7 5 10 0 4 0 0 24 0
64 110 45 126 185 101 130 195 105 105 164 82 38 82 19 0 15 0 0 18 0
9 34 5 106 135 104 141 186 131 114 181 84 109 188 71 108 185 71
113 190 78 118 194 85 108 184 75 105 178 70 119 193 82 112 186 71
110 188 68 110 189 64 109 190 62 109 190 61 108 191 59 108 191 59
108 191 59 109 190 59 109 190 62 110 189 72 110 189 74 111 189 70
114 187 69 119 185 75 124 181 86 85 135 62 0 35 0 95 145 74
116 172 85 117 187 75 114 195 67 93 183 51 107 198 67 106 190 68
108 189 69 108 189 69 108 189 69 108 189 69 108 189 69 108 189 69
108 189 69 108 189 69 108 189 69 108 189 69 108 189 69 108 189 69
108 189 69 108 189 69 108 189 69 108 189 69 108 189 69 108 189 69
108 189 69 108 189 69 108 189 69 108 189 69 108 189 69 108 189 69
108 189 69 108 189 69 108 189 69 108 189 69 108 189 69 108 189 69
106 190 69 106 190 68 97 181 59 109 188 69 119 194 76 125 196 74
105 172 57 116 176 76 90 145 62 0 33 0 104 158 100 113 174 97
114 181 84 111 186 68 107 187 62 105 188 72 108 192 80 108 189 71
108 189 69 108 189 69 108 189 69 108 189 69 108 189 69 108 189 69
108 189 69 108 189 69 108 189 69 108 189 69 108 189 69 108 189 69
108 189 69 108 189 69 108 189 69 106 190 69 106 190 66 106 191 62
106 191 62 105 191 68 106 189 73 106 188 80 108 187 80 108 185 71
117 191 70 118 189 57 112 178 52 125 184 74 122 174 89 43 86 32
0 45 0 108 188 93 101 194 80 103 191 79 106 190 78 109 189 76
111 188 72 115 185 71 116 185 69 101 168 53 120 187 71 115 184 67
109 179 63 121 194 77 117 191 76 106 183 67 120 192 82 115 177 76
115 167 82 141 183 119 100 133 86 0 27 0 0 11 0 2 31 1 0 17 0
88 139 72 122 186 99 124 202 93 99 184 65 95 184 64 104 195 76
105 193 80 104 193 75 104 194 62 108 193 64 110 186 77 110 174 87
127 177 114 15 53 12 0 20 0 0 8 0 0 3 3 6 5 10 138 136 141
242 237 243 233 228 235 244 238 248 244 241 250 241 238 247
242 242 244 242 242 242 233 233 233 236 236 236 237 237 237
235 235 235 241 241 241 237 237 237 245 245 245 242 242 242
234 234 234 240 240 240 238 238 238 182 180 194 1 0 12 16 8 23
10 8 11 0 9 0 0 21 0 108 158 87 130 192 106 120 187 94 117 179 93
104 151 83 28 65 13 0 13 0 0 22 0 16 51 9 82 127 62 139 197 94
121 189 66 114 183 66 118 188 76 119 190 84 112 187 84 103 180 76
97 176 71 108 187 80 108 188 77 108 188 73 108 189 69 109 189 68
110 188 66 110 189 64 110 189 64 109 190 61 108 190 64 109 189 74
109 189 74 110 189 70 113 188 70 118 186 77 122 181 87 73 123 52
0 38 0 106 156 87 119 174 90 116 184 75 116 194 72 97 183 56
103 192 66 106 190 68 108 189 69 108 189 69 108 189 69 108 189 69
108 189 69 108 189 69 108 189 69 108 189 69 108 189 69 108 189 69
108 189 69 108 189 69 108 189 69 108 189 69 108 189 69 108 189 69
108 189 69 108 189 69 108 189 69 108 189 69 108 189 69 108 189 69
108 189 69 108 189 69 108 189 69 108 189 69 108 189 69 108 189 69
108 189 69 108 189 69 106 190 69 105 189 67 102 186 64 112 191 72
118 193 74 120 191 71 105 172 57 123 183 85 89 144 63 0 26 0
101 155 95 116 177 99 117 184 87 112 187 69 105 185 60 103 186 70
108 192 78 108 189 71 108 189 69 108 189 69 108 189 69 108 189 69
108 189 69 108 189 69 108 189 69 108 189 69 108 189 69 108 189 69
108 189 69 108 189 69 108 189 69 108 189 69 108 189 69 108 189 69
108 189 68 106 191 64 106 190 66 106 190 69 106 189 75 106 187 82
108 187 82 109 186 74 117 193 71 122 194 66 111 180 55 118 180 71
132 186 100 23 70 15 0 46 0 117 184 87 112 189 75 111 188 76
111 188 76 111 187 78 111 187 78 112 185 77 110 186 77 107 181 70
87 164 50 111 189 70 130 208 88 105 185 62 100 180 55 118 199 71
116 191 73 133 192 102 138 185 115 58 97 40 0 18 0 0 19 0 0 23 0
20 56 8 97 143 81 132 189 108 123 193 95 107 187 74 101 186 67
105 194 74 103 192 76 97 183 74 102 189 74 106 193 63 109 194 65
111 188 76 109 174 84 122 172 109 40 78 37 0 23 1 0 10 0 0 2 0 5 5 7
111 109 112 233 228 234 219 214 220 242 237 244 255 253 255
255 253 255 255 255 255 228 228 228 213 213 213 213 213 213
234 234 234 255 255 255 252 252 252 249 249 249 230 230 230
217 217 217 216 216 216 225 225 225 253 253 253 153 151 165 0 0 11
11 5 17 13 13 15 0 13 0 2 33 0 123 175 101 115 182 89 108 178 80
111 176 84 121 172 97 125 165 103 32 64 14 0 25 0 0 31 0 0 32 0
65 115 20 126 179 73 128 185 80 111 173 66 127 196 90 114 190 82
98 177 70 124 207 101 105 188 82 105 188 80 105 189 78 108 188 77
110 187 75 112 186 73 113 186 71 113 186 68 109 190 62 106 191 64
107 190 74 107 190 76 109 190 70 111 189 70 117 186 77 121 182 87
63 115 43 0 41 0 114 164 95 121 176 93 113 180 74 117 195 75
98 184 61 100 188 65 106 190 69 108 189 69 108 189 69 108 189 69
108 189 69 108 189 69 108 189 69 108 189 69 108 189 69 108 189 69
108 189 69 108 189 69 108 189 69 108 189 69 108 189 69 108 189 69
108 189 69 108 189 69 108 189 69 108 189 69 108 189 69 108 189 69
108 189 69 108 189 69 108 189 69 108 189 69 108 189 69 108 189 69
108 189 69 108 189 69 108 189 69 106 190 69 103 187 65 106 190 68
113 192 73 118 193 74 116 187 67 106 173 60 130 190 94 79 133 55
0 25 0 102 157 92 118 179 99 119 187 88 112 187 69 104 184 59
102 185 69 107 191 77 108 189 71 108 189 69 108 189 69 108 189 69
108 189 69 108 189 69 108 189 69 108 189 69 108 189 69 108 189 69
108 189 69 108 189 69 108 189 69 108 189 69 108 189 69 108 189 69
108 189 71 108 189 69 108 189 68 106 190 68 106 189 71 106 188 77
106 187 82 108 187 82 108 186 74 115 193 73 124 199 72 112 182 58
114 177 70 134 189 105 5 55 0 6 58 0 122 182 86 119 186 73 117 185 72
114 186 74 113 187 74 111 188 76 108 188 75 108 188 75 94 177 63
122 205 89 112 192 77 101 180 63 117 194 78 103 181 62 95 170 51
131 198 93 104 156 82 8 51 0 0 17 0 0 35 0 0 33 0 40 77 23 114 156 92
136 189 109 104 170 73 98 174 66 99 182 64 106 194 72 108 195 78
98 185 72 97 178 73 106 188 77 107 192 63 111 193 65 114 188 77
107 172 82 118 168 105 58 95 52 1 25 1 0 11 1 0 2 0 6 6 6 96 94 97
235 230 234 217 212 216 238 236 241 255 253 255 255 254 255
255 255 255 222 222 222 215 215 215 210 210 210 234 234 234
255 255 255 249 249 249 250 250 250 239 239 239 224 224 224
227 227 227 224 224 224 254 254 254 120 120 132 6 6 16 0 0 9 11 15 14
1 16 0 33 66 19 121 178 101 106 176 78 103 176 71 118 189 87
129 184 100 132 178 106 128 167 104 20 60 0 0 21 0 0 32 0 0 26 0
89 124 56 145 188 108 124 178 84 108 171 66 117 191 76 116 197 77
99 184 65 102 190 77 102 190 80 105 188 82 108 186 84 110 185 82
113 184 80 116 183 77 115 185 71 109 189 64 105 191 64 106 191 74
106 190 76 107 191 70 110 190 69 115 187 75 119 183 86 63 115 43
0 41 0 114 164 95 121 176 93 114 179 75 119 194 76 99 183 62
102 187 66 106 190 69 108 189 69 108 189 69 108 189 69 108 189 69
108 189 69 108 189 69 108 189 69 108 189 69 108 189 69 108 189 69
108 189 69 108 189 69 108 189 69 108 189 69 108 189 69 108 189 69
108 189 69 108 189 69 108 189 69 108 189 69 108 189 69 108 189 69
108 189 69 108 189 69 108 189 69 108 189 69 108 189 69 108 189 69
108 189 69 108 189 69 106 190 69 102 186 65 109 193 72 112 192 71
116 191 72 114 185 67 108 174 66 131 190 98 57 111 33 0 34 0
107 162 95 118 180 97 119 187 86 113 188 70 106 186 63 103 186 70
106 190 76 108 189 71 108 189 69 108 189 69 108 189 69 108 189 69
108 189 69 108 189 69 108 189 69 108 189 69 108 189 69 108 189 69
108 189 69 108 189 69 108 189 69 108 189 69 108 189 69 109 188 71
108 189 71 108 189 69 108 189 69 106 189 73 106 188 77 106 187 82
106 188 80 107 187 72 112 192 71 123 199 73 111 182 62 113 179 73
121 181 95 0 44 0 28 80 14 124 181 87 122 184 75 118 185 72
114 187 70 111 189 69 109 191 67 105 191 66 103 192 66 131 217 94
100 185 66 100 180 67 102 178 70 103 171 72 129 193 97 119 178 88
53 105 30 10 54 1 0 26 0 0 19 0 9 46 0 65 103 42 130 173 102
139 191 106 96 158 59 115 187 77 112 193 73 111 197 74 105 193 71
97 184 67 101 183 72 113 190 86 117 195 85 109 191 63 111 193 65
114 188 77 109 172 83 119 168 103 59 96 53 1 25 1 0 13 0 0 4 0 7 7 5
99 97 98 245 241 242 225 223 224 237 235 238 245 243 246 242 242 244
244 244 244 227 227 227 234 234 234 227 227 227 236 236 236
251 251 251 235 235 235 240 240 240 226 226 226 223 223 223
236 236 236 229 229 229 249 249 249 77 80 89 2 5 12 0 0 7 9 15 11
0 18 0 63 100 49 124 183 101 109 184 81 117 195 85 97 170 62
133 194 99 135 187 104 133 177 102 110 156 81 36 89 7 0 42 0 8 35 0
0 19 0 49 82 25 125 169 94 131 188 93 112 180 71 104 182 63 95 179 58
105 190 73 103 190 77 105 188 82 108 187 82 112 184 82 115 183 80
116 183 78 115 185 73 109 189 66 105 191 64 104 191 74 104 191 74
106 192 69 109 190 69 114 188 73 118 184 86 71 125 50 0 39 0
106 156 87 119 174 91 117 182 78 119 192 75 100 181 61 106 190 69
108 189 69 108 189 69 108 189 69 108 189 69 108 189 69 108 189 69
108 189 69 108 189 69 108 189 69 108 189 69 108 189 69 108 189 69
108 189 69 108 189 69 108 189 69 108 189 69 108 189 69 108 189 69
108 189 69 108 189 69 108 189 69 108 189 69 108 189 69 108 189 69
108 189 69 108 189 69 108 189 69 108 189 69 108 189 69 108 189 69
108 189 69 106 190 69 103 187 66 111 195 74 109 189 68 115 190 71
115 185 69 111 177 71 128 187 97 26 80 4 2 54 0 117 173 102
118 180 94 115 183 80 114 189 71 110 190 67 104 187 71 104 188 74
108 189 71 108 189 69 108 189 69 108 189 69 108 189 69 108 189 69
108 189 69 108 189 69 108 189 69 108 189 69 108 189 69 108 189 69
108 189 69 108 189 69 108 189 69 108 189 69 109 188 71 109 188 71
109 188 69 108 189 71 106 189 75 106 188 77 106 188 78 106 188 77
107 188 70 108 188 67 118 197 72 109 182 64 117 184 79 96 158 72
0 41 0 55 112 41 121 183 86 119 186 73 116 186 70 113 189 67
110 190 65 107 192 63 105 191 64 105 191 66 113 197 76 123 201 89
110 181 79 112 175 86 128 182 104 83 130 62 19 59 0 1 38 0 0 30 0
0 22 0 23 60 16 103 142 87 149 190 120 131 181 96 114 171 74
125 193 82 118 198 77 109 195 70 104 195 68 97 187 63 98 183 66
115 195 82 123 199 91 111 185 72 111 192 64 113 194 66 115 187 77
113 173 85 124 173 108 43 79 35 1 24 0 0 11 0 5 10 4 4 4 2
113 112 110 254 250 249 240 239 237 238 236 237 230 230 230
224 224 224 228 228 228 236 236 236 253 253 253 250 250 250
241 241 241 234 234 234 223 223 223 226 226 226 245 245 245
250 250 250 255 255 255 243 243 243 235 235 235 49 54 60 0 1 7 0 0 5
12 19 12 0 14 0 72 111 58 124 188 102 112 189 83 104 187 69
126 205 88 101 168 65 129 186 92 129 182 94 145 198 110 110 169 75
41 92 15 2 29 0 2 21 0 0 12 0 7 46 0 85 132 62 132 190 105 124 190 92
108 181 73 109 187 75 108 188 73 109 187 75 110 187 75 112 186 75
113 185 75 115 184 75 113 186 71 109 189 66 105 191 66 104 192 72
104 191 74 106 192 69 109 191 67 112 190 71 117 185 84 81 138 61
0 37 0 95 145 74 117 171 87 121 184 79 120 191 73 99 179 58
113 194 73 108 189 69 108 189 69 108 189 69 108 189 69 108 189 69
108 189 69 108 189 69 108 189 69 108 189 69 108 189 69 108 189 69
108 189 69 108 189 69 108 189 69 108 189 69 108 189 69 108 189 69
108 189 69 108 189 69 108 189 69 108 189 69 108 189 69 108 189 69
108 189 69 108 189 69 108 189 69 108 189 69 108 189 69 108 189 69
108 189 69 108 189 69 106 190 69 103 186 68 112 196 75 105 185 64
114 189 70 117 187 73 114 179 77 122 180 95 0 49 0 23 76 8
127 183 108 116 179 88 111 180 74 115 190 72 115 195 72 107 190 72
101 186 69 108 189 71 108 189 69 108 189 69 108 189 69 108 189 69
108 189 69 108 189 69 108 189 69 108 189 69 108 189 69 108 189 69
108 189 69 108 189 69 108 189 69 108 189 69 108 189 69 109 188 69
109 188 69 109 188 69 108 189 71 106 189 73 106 189 73 106 189 75
106 189 71 106 187 67 104 184 61 115 193 71 108 181 66 123 191 90
70 132 46 0 41 0 80 142 65 114 187 79 111 191 68 109 191 65
109 191 65 107 192 65 107 191 67 106 190 68 109 188 73 105 176 72
103 167 73 128 181 103 120 165 100 48 82 31 0 15 0 0 9 0 0 16 0
0 21 0 0 21 0 76 114 67 147 187 125 120 167 89 119 172 80 135 201 95
103 178 60 102 186 64 90 181 54 93 185 60 100 190 67 104 189 70
118 197 82 120 192 80 97 170 52 113 192 64 114 193 66 117 186 77
116 174 87 132 178 114 21 54 11 0 22 0 0 10 0 13 18 11 0 1 0
127 126 122 255 251 248 252 251 247 242 241 239 223 223 221
217 217 217 219 219 219 243 243 243 255 255 255 255 255 255
245 245 245 223 223 223 221 221 221 218 218 218 243 243 243
253 253 253 253 253 253 249 249 249 229 229 229 39 46 52 0 1 5
15 19 22 14 24 16 0 10 0 64 105 49 123 187 100 106 186 75 119 204 83
107 191 69 118 187 78 105 167 66 123 180 85 122 179 82 118 184 78
135 191 102 88 125 74 6 33 2 0 13 0 0 26 0 0 30 0 45 93 35 115 168 98
114 173 89 116 181 87 115 184 78 113 185 73 113 186 69 112 187 69
112 187 69 113 186 71 112 187 69 109 189 66 106 190 66 106 191 74
106 191 74 106 192 69 107 191 67 112 190 71 117 186 80 89 148 66
0 35 0 87 138 63 115 169 83 123 186 79 119 190 70 99 177 57
116 197 76 108 189 69 108 189 69 108 189 69 108 189 69 108 189 69
108 189 69 108 189 69 108 189 69 108 189 69 108 189 69 108 189 69
108 189 69 108 189 69 108 189 69 108 189 69 108 189 69 108 189 69
108 189 69 108 189 69 108 189 69 108 189 69 108 189 69 108 189 69
108 189 69 108 189 69 108 189 69 108 189 69 108 189 69 108 189 69
108 189 69 108 189 69 106 190 69 104 187 69 112 196 75 102 182 61
113 188 69 119 189 77 116 181 81 118 175 94 0 30 0 37 90 20
134 191 112 115 179 85 108 177 70 115 190 71 118 198 75 108 191 73
100 185 66 108 189 69 108 189 69 108 189 69 108 189 69 108 189 69
108 189 69 108 189 69 108 189 69 108 189 69 108 189 69 108 189 69
108 189 69 108 189 69 108 189 69 108 189 69 108 189 68 110 188 68
110 188 66 109 189 68 109 188 69 108 189 71 106 189 71 106 190 69
108 189 68 106 188 64 102 182 59 114 189 71 108 180 70 129 195 98
52 114 29 0 43 0 98 161 80 111 190 75 107 194 64 107 192 65
107 191 69 109 189 74 110 188 79 113 183 85 116 180 93 128 185 108
113 159 94 57 96 41 0 30 0 0 12 0 0 18 0 11 25 0 9 28 0 100 131 99
9 47 6 0 38 0 81 123 57 133 182 100 127 184 87 115 183 74 113 190 74
115 200 79 97 189 65 99 193 71 107 199 75 103 187 66 108 186 66
114 185 65 99 171 46 115 192 62 116 192 66 117 184 78 120 176 89
137 181 120 4 36 0 0 19 0 0 9 0 20 23 16 0 1 0 135 134 130
250 249 245 255 255 251 243 244 239 222 222 220 219 219 217
216 216 216 247 247 247 255 255 255 255 255 255 248 248 248
219 219 219 224 224 224 215 215 215 254 254 254 255 255 255
251 251 251 253 253 253 225 225 225 5 13 16 6 11 14 0 1 4 0 9 0
0 17 0 74 117 61 113 179 91 108 190 79 103 192 66 105 191 66
112 186 71 117 183 77 120 181 78 119 182 77 115 185 71 117 183 75
144 196 111 95 137 71 15 55 2 0 26 0 0 23 0 0 28 2 0 22 0 76 118 72
133 182 117 120 174 90 124 185 82 106 173 58 112 183 63 101 177 55
104 182 62 111 191 70 110 188 68 113 192 73 108 188 77 100 183 69
105 189 67 117 199 75 118 193 74 109 178 71 94 153 69 0 42 0
86 137 60 115 170 79 110 174 64 118 188 66 115 191 69 110 190 67
108 189 68 108 189 69 108 189 69 108 189 69 108 189 69 108 189 69
108 189 69 108 189 69 108 189 69 108 189 69 108 189 69 108 189 69
108 189 69 108 189 69 108 189 69 108 189 69 108 189 69 108 189 69
108 189 69 108 189 69 108 189 69 108 189 69 108 189 69 108 189 69
108 189 69 108 189 69 108 189 69 108 189 69 108 189 69 108 189 69
108 189 69 106 190 69 112 195 77 110 193 75 125 205 82 106 181 62
110 179 72 117 181 85 106 163 86 0 42 0 73 126 54 113 171 87
126 190 93 116 186 74 114 189 70 108 188 67 100 184 63 106 191 72
108 189 69 108 189 69 108 189 69 108 189 69 108 189 69 108 189 69
108 189 69 108 189 69 108 189 69 108 189 69 108 189 69 108 189 69
108 189 69 108 189 69 108 189 69 108 189 68 110 189 64 110 189 64
108 188 65 107 186 67 107 188 68 110 191 71 112 194 70 114 196 70
124 204 79 99 177 55 109 181 69 120 188 85 131 194 103 14 71 0 0 53 0
121 183 98 113 192 73 109 196 65 103 184 64 94 170 62 100 169 78
117 177 103 124 175 116 120 163 117 63 99 61 0 31 0 0 12 0 1 27 0
0 24 0 12 35 0 81 105 57 151 179 130 138 176 127 124 167 114 0 29 0
0 41 0 152 204 119 100 160 64 114 182 79 130 208 98 103 190 77
101 192 75 99 192 75 101 192 71 106 190 68 110 189 62 115 187 59
116 187 57 111 186 57 114 188 67 127 192 88 120 174 90 127 168 110
0 13 0 14 32 10 0 4 0 0 2 0 5 6 1 148 147 143 240 239 234 229 228 223
244 245 239 246 247 242 236 238 235 253 253 253 227 227 227
242 242 242 238 238 238 234 234 234 250 250 250 238 238 238
231 231 231 239 239 239 239 239 239 239 239 239 240 240 240
241 241 241 5 13 15 4 9 12 0 1 2 1 11 2 0 15 0 78 121 65 117 183 93
108 191 77 102 193 66 103 192 64 110 188 69 116 184 73 119 182 75
117 183 73 113 187 66 113 186 68 110 173 66 127 184 90 129 181 107
78 123 68 0 31 0 0 20 0 0 11 0 0 25 0 43 79 35 99 141 78 113 162 80
132 189 92 122 188 82 105 177 65 134 211 97 106 183 67 115 187 75
115 187 77 112 187 82 107 184 78 99 180 62 101 181 60 115 190 71
132 199 93 98 156 72 0 39 0 77 130 50 114 169 78 116 180 68
119 189 67 122 198 74 104 184 61 109 189 68 108 189 69 108 189 69
108 189 69 108 189 69 108 189 69 108 189 69 108 189 69 108 189 69
108 189 69 108 189 69 108 189 69 108 189 69 108 189 69 108 189 69
108 189 69 108 189 69 108 189 69 108 189 69 108 189 69 108 189 69
108 189 69 108 189 69 108 189 69 108 189 69 108 189 69 108 189 69
108 189 69 108 189 69 108 189 69 108 189 69 106 189 71 106 189 73
110 193 75 110 190 67 107 182 63 110 179 73 118 181 90 79 135 60
0 37 0 88 142 67 117 175 90 123 188 86 114 184 70 114 189 70
110 190 69 102 186 65 105 190 71 108 189 69 108 189 69 108 189 69
108 189 69 108 189 69 108 189 69 108 189 69 108 189 69 108 189 69
108 189 69 108 189 69 108 189 69 108 189 69 108 189 69 108 189 69
108 189 68 109 190 62 110 191 63 111 191 68 112 192 71 110 191 71
109 190 69 107 189 63 107 188 60 111 190 65 102 175 58 101 170 64
108 172 78 112 169 88 0 49 0 46 95 29 133 187 109 105 176 70
109 186 72 114 185 83 120 182 97 129 182 114 115 159 108 61 97 61
4 34 8 0 28 5 0 11 0 0 12 0 5 36 0 53 88 34 113 152 89 139 181 109
121 165 90 128 175 107 124 173 107 58 105 33 0 38 0 86 140 56
115 174 82 119 186 89 111 188 84 105 188 82 101 191 78 101 191 77
102 191 71 105 191 66 109 190 59 115 188 55 116 187 55 112 187 58
121 192 74 117 179 78 126 179 99 118 159 103 0 21 0 3 20 1 0 4 0
12 14 9 8 8 6 168 167 163 226 225 220 218 219 213 236 237 231
245 247 242 244 246 243 255 255 255 223 223 223 224 224 224
222 222 222 230 230 230 255 255 255 253 253 253 247 247 247
225 225 225 220 220 220 220 220 220 229 229 229 244 244 244 12 18 18
3 9 9 0 1 2 4 14 5 0 11 0 81 124 68 123 189 101 108 190 79 102 192 68
103 192 64 110 188 69 115 185 73 117 183 73 117 184 71 113 187 64
112 188 64 114 189 71 116 185 78 123 187 91 133 188 105 103 148 83
48 85 33 0 14 0 0 14 0 0 22 0 0 18 0 37 75 26 84 130 68 114 170 95
136 200 113 122 194 95 107 178 74 127 192 92 109 173 76 100 167 74
112 182 84 120 193 85 114 188 73 109 182 67 114 181 78 106 164 80
0 39 0 55 108 28 118 174 83 125 189 77 121 191 67 124 200 76
101 181 58 109 189 68 108 189 69 108 189 69 108 189 69 108 189 69
108 189 69 108 189 69 108 189 69 108 189 69 108 189 69 108 189 69
108 189 69 108 189 69 108 189 69 108 189 69 108 189 69 108 189 69
108 189 69 108 189 69 108 189 69 108 189 69 108 189 69 108 189 69
108 189 69 108 189 69 108 189 69 108 189 69 108 189 69 108 189 69
108 189 69 108 189 69 106 189 71 101 184 70 107 190 74 95 175 52
111 186 67 109 177 74 124 186 100 36 92 21 0 39 0 110 164 88
122 181 91 119 185 79 112 182 66 115 190 71 113 193 72 105 189 68
103 188 67 108 189 69 108 189 69 108 189 69 108 189 69 108 189 69
108 189 69 108 189 69 108 189 69 108 189 69 108 189 69 108 189 69
108 189 69 108 189 69 108 189 69 108 189 69 108 190 66 108 191 61
110 193 63 112 194 70 113 194 74 112 193 75 108 189 68 105 185 60
104 183 56 111 187 65 118 187 78 116 180 86 123 180 101 61 110 44
0 36 0 93 134 76 125 169 106 124 176 101 122 176 100 129 179 110
124 168 109 79 115 69 19 49 13 0 17 0 0 21 0 0 11 0 0 23 0 45 83 36
108 154 92 129 183 107 121 184 95 116 184 85 116 184 85 116 179 90
122 179 98 120 175 92 16 69 0 8 63 0 112 170 85 118 183 93 102 176 81
106 187 85 102 189 82 101 191 77 102 192 69 105 191 64 108 191 59
112 190 55 115 188 55 116 188 63 120 188 75 113 175 78 130 181 104
104 143 90 0 25 0 0 14 0 0 5 0 2 4 1 0 0 0 191 190 188 211 210 206
218 219 214 239 240 235 254 255 253 254 255 253 255 255 255
223 223 223 213 213 213 211 211 211 228 228 228 255 255 255
255 255 255 255 255 255 230 230 230 220 220 220 215 215 215
225 225 225 242 242 242 29 35 35 2 6 7 0 0 2 6 16 7 0 10 0 77 120 64
126 192 104 107 189 79 102 192 68 103 192 66 110 187 71 115 185 73
117 183 75 116 184 71 112 188 64 109 189 64 105 186 68 106 184 72
111 183 73 110 175 71 122 177 83 148 193 112 101 138 71 20 50 0
0 24 0 0 11 0 0 23 0 0 34 0 44 91 39 92 147 80 138 199 121 114 174 88
115 169 85 113 166 84 113 170 91 117 179 94 115 183 84 112 181 75
117 186 79 128 192 95 117 174 95 0 46 0 20 73 0 133 189 98 128 192 82
122 193 71 116 192 70 106 186 63 108 189 68 108 189 69 108 189 69
108 189 69 108 189 69 108 189 69 108 189 69 108 189 69 108 189 69
108 189 69 108 189 69 108 189 69 108 189 69 108 189 69 108 189 69
108 189 69 108 189 69 108 189 69 108 189 69 108 189 69 108 189 69
108 189 69 108 189 69 108 189 69 108 189 69 108 189 69 108 189 69
108 189 69 108 189 69 108 189 69 108 189 69 106 189 71 105 188 74
102 185 69 95 175 52 115 190 71 111 179 78 129 191 106 0 48 0 9 61 0
129 183 105 125 184 92 115 181 73 111 182 64 115 190 71 115 195 74
107 191 70 102 187 66 108 189 69 108 189 69 108 189 69 108 189 69
108 189 69 108 189 69 108 189 69 108 189 69 108 189 69 108 189 69
108 189 69 108 189 69 108 189 69 108 189 69 108 189 69 108 190 66
108 191 61 108 191 61 108 189 68 108 189 71 108 188 73 109 190 72
110 190 67 113 189 65 122 192 76 125 190 88 125 182 101 117 166 101
0 33 0 27 65 18 133 166 119 137 170 123 147 185 136 102 140 93
39 75 31 0 23 0 0 13 0 0 13 0 0 19 0 0 21 0 37 71 21 104 145 87
143 194 125 118 180 97 96 167 73 113 192 87 120 204 92 103 185 74
110 182 80 118 183 89 129 189 101 75 133 49 0 36 0 66 123 44
115 177 94 111 180 91 108 186 87 103 189 80 102 191 75 102 192 69
103 192 64 106 191 62 110 189 61 112 189 61 115 186 66 112 178 68
123 182 88 135 183 109 74 111 60 0 18 0 1 15 0 0 10 2 0 1 0 14 14 14
225 223 224 217 216 214 231 231 229 242 244 239 251 255 252
252 255 253 245 247 246 232 232 232 225 225 225 225 225 225
233 233 233 246 246 246 249 249 249 249 249 249 224 224 224
221 221 221 221 221 221 229 229 229 242 242 242 62 66 65 1 5 4 0 0 2
7 14 6 0 9 0 62 102 49 125 191 104 106 188 80 102 191 71 103 191 69
110 187 73 115 184 75 116 183 77 116 184 73 112 188 66 108 189 68
110 192 82 108 190 82 112 191 76 119 192 74 126 191 71 121 179 67
126 176 81 125 165 92 53 87 37 0 16 0 4 33 11 0 12 0 0 23 0 0 20 0
40 85 30 83 127 64 118 160 94 133 175 111 132 180 118 118 171 101
104 163 79 107 171 77 120 184 88 131 191 103 128 181 111 16 67 1
0 40 0 141 197 110 124 190 84 122 193 75 103 178 59 114 194 73
108 189 69 108 189 69 108 189 69 108 189 69 108 189 69 108 189 69
108 189 69 108 189 69 108 189 69 108 189 69 108 189 69 108 189 69
108 189 69 108 189 69 108 189 69 108 189 69 108 189 69 108 189 69
108 189 69 108 189 69 108 189 69 108 189 69 108 189 69 108 189 69
108 189 69 108 189 69 108 189 69 108 189 69 108 189 69 108 189 69
108 189 69 106 189 71 114 197 83 98 181 65 108 188 63 119 194 75
113 181 82 119 180 100 0 23 0 47 99 35 140 194 116 124 184 88
112 179 66 113 184 64 114 189 70 114 193 74 108 192 70 101 187 64
108 189 69 108 189 69 108 189 69 108 189 69 108 189 69 108 189 69
108 189 69 108 189 69 108 189 69 108 189 69 108 189 69 108 189 69
108 189 69 108 189 69 108 189 69 108 190 66 105 190 60 103 188 59
101 184 66 100 182 71 104 183 74 110 188 76 116 194 75 123 196 79
118 186 77 122 181 91 136 187 120 93 135 87 0 34 0 90 119 88
115 140 108 99 123 91 18 42 16 0 21 0 0 14 0 0 18 0 0 15 0 0 24 0
50 91 25 123 169 94 131 183 98 125 186 93 117 185 86 109 186 82
108 191 83 104 192 80 99 191 80 104 194 81 103 182 73 115 186 82
114 179 85 116 175 91 15 72 0 2 58 0 116 174 97 118 184 97 110 184 85
106 188 77 103 191 69 102 193 66 103 192 66 105 191 68 108 189 69
110 187 71 110 180 64 111 174 69 130 186 97 138 183 114 27 60 15
0 16 0 2 16 3 8 14 12 1 2 4 69 69 71 255 254 255 241 240 238
247 247 245 238 240 237 224 228 227 220 224 223 230 232 231
246 246 246 252 252 252 251 251 251 242 242 242 229 229 229
225 225 225 226 226 226 252 252 252 255 255 255 255 255 255
247 247 247 234 234 234 104 108 107 3 5 4 0 0 2 3 10 2 0 11 0
36 76 23 119 184 100 105 186 81 102 191 73 103 191 71 110 187 75
115 184 77 116 183 78 115 185 73 112 187 68 108 189 68 94 178 64
130 214 100 122 203 85 102 180 60 123 194 74 110 174 62 118 176 76
135 184 103 0 33 0 1 37 0 85 116 84 6 35 7 0 26 0 0 13 0 0 13 0
14 45 1 8 40 0 69 103 53 128 168 118 147 192 137 137 190 118
126 184 100 118 176 89 109 166 85 130 180 117 49 99 38 0 28 0
127 182 101 118 183 81 119 189 75 97 174 58 115 194 77 108 189 69
108 189 69 108 189 69 108 189 69 108 189 69 108 189 69 108 189 69
108 189 69 108 189 69 108 189 69 108 189 69 108 189 69 108 189 69
108 189 69 108 189 69 108 189 69 108 189 69 108 189 69 108 189 69
108 189 69 108 189 69 108 189 69 108 189 69 108 189 69 108 189 69
108 189 69 108 189 69 108 189 69 108 189 69 108 189 69 108 189 69
106 189 71 118 201 87 98 181 65 116 196 71 120 195 77 115 182 85
82 143 65 0 23 0 88 140 78 138 193 112 117 177 79 111 178 63
117 188 68 114 189 70 110 189 70 108 192 70 102 188 65 108 189 69
108 189 69 108 189 69 108 189 69 108 189 69 108 189 69 108 189 69
108 189 69 108 189 69 108 189 69 108 189 69 108 189 69 108 189 69
108 189 69 108 189 69 108 189 68 104 189 60 103 187 63 102 185 71
102 184 76 106 185 80 109 187 78 113 190 76 120 190 78 119 184 84
116 171 90 106 150 97 14 48 15 0 24 3 51 72 55 1 19 0 0 8 0 10 29 7
0 17 0 0 12 0 8 41 0 65 105 45 117 163 90 129 183 95 114 176 77
125 194 87 120 194 81 105 185 70 100 185 68 106 195 79 101 191 77
88 180 69 90 180 67 96 180 66 110 188 78 110 180 84 119 181 96
76 132 57 0 27 0 97 153 78 114 176 90 113 184 82 108 189 71
105 191 66 102 193 64 102 192 68 103 190 73 105 189 78 108 187 80
106 175 66 117 180 76 127 181 95 118 163 96 0 19 0 0 21 0 0 13 3
9 15 15 3 4 8 130 129 134 255 254 255 255 255 255 255 255 255
240 245 241 216 220 219 208 212 211 221 223 222 255 255 255
255 255 255 255 255 255 248 248 248 218 218 218 213 213 213
215 215 215 246 246 246 255 255 255 255 255 255 251 251 251
234 234 234 146 148 147 4 6 5 3 3 5 0 5 0 0 14 0 10 48 0 113 176 95
104 185 80 102 191 75 103 190 73 110 186 77 115 184 78 116 183 80
115 184 75 112 187 69 108 190 62 101 187 54 100 187 56 108 192 70
100 179 70 107 181 84 120 188 103 127 189 112 43 99 28 0 47 0
102 146 83 145 183 124 134 167 114 94 119 77 14 34 0 7 23 0 0 12 0
0 21 0 0 19 0 0 31 0 37 76 31 89 137 75 125 179 104 127 181 103
112 166 91 124 174 115 84 131 77 0 40 0 94 148 72 114 178 81
114 183 74 106 183 71 108 188 73 108 189 71 108 189 69 108 189 69
108 189 69 108 189 69 108 189 69 108 189 69 108 189 69 108 189 69
108 189 69 108 189 69 108 189 69 108 189 69 108 189 69 108 189 69
108 189 69 108 189 69 108 189 69 108 189 69 108 189 69 108 189 69
108 189 69 108 189 69 108 189 69 108 189 69 108 189 69 108 189 69
108 189 69 108 189 69 108 189 69 108 189 69 106 189 71 113 195 84
103 186 70 114 194 69 118 193 75 114 181 84 28 89 12 0 41 0
117 169 107 130 185 104 109 169 69 111 178 63 122 193 71 114 189 71
106 185 66 107 191 69 103 189 66 108 189 69 108 189 69 108 189 69
108 189 69 108 189 69 108 189 69 108 189 69 108 189 69 108 189 69
108 189 69 108 189 69 108 189 69 108 189 69 108 189 69 108 189 69
108 189 68 103 188 61 106 192 69 111 195 84 114 195 92 114 192 91
108 185 81 103 176 68 100 169 63 119 180 87 111 163 91 61 100 56
0 11 0 0 9 3 8 20 16 0 4 0 10 23 3 0 19 0 29 61 12 83 121 64
123 168 101 133 186 106 120 184 90 107 178 74 101 179 67 106 189 71
121 206 85 109 197 75 89 177 57 88 175 60 93 180 67 100 183 75
112 196 85 103 188 71 102 184 73 113 184 88 117 181 97 117 173 100
0 46 0 38 92 16 114 174 86 115 184 77 110 188 66 105 192 61
102 194 61 102 192 68 102 190 77 102 188 89 106 186 89 106 177 71
119 181 80 130 184 100 62 107 42 0 18 0 0 19 0 4 17 8 1 7 7 11 12 16
187 186 191 247 245 248 255 255 255 253 253 253 245 249 248
223 227 228 221 225 226 220 222 221 255 255 255 253 253 253
255 255 255 246 246 246 219 219 219 222 222 222 227 227 227
251 251 251 255 255 255 255 255 255 247 247 247 232 232 232
172 172 170 5 5 5 5 4 9 0 2 0 0 17 0 0 31 0 111 169 92 108 183 82
106 189 73 106 189 71 110 187 75 113 184 78 115 184 78 113 185 77
110 188 69 108 190 62 91 177 40 101 187 52 107 188 67 94 171 67
113 183 97 114 180 108 97 158 91 0 47 0 20 77 0 128 183 100
122 174 92 129 173 96 134 170 106 136 166 112 88 114 67 35 60 18
1 30 0 3 36 0 3 40 0 0 30 0 0 19 0 0 30 0 43 91 31 109 154 99
121 162 118 109 150 108 10 53 0 68 114 49 119 173 85 113 175 74
124 191 86 105 177 67 112 187 69 110 188 68 110 188 68 110 188 68
109 189 68 109 188 69 109 188 69 108 189 69 108 189 69 108 189 69
106 190 69 106 189 71 106 189 71 105 190 71 105 190 71 106 189 71
108 189 69 108 189 69 108 189 69 108 189 68 108 189 68 109 189 68
109 189 68 109 189 68 109 188 69 109 188 71 109 188 71 109 188 71
109 188 69 109 188 69 109 189 68 109 188 69 109 187 75 111 189 77
109 184 66 117 189 77 114 179 85 0 49 0 3 58 0 129 185 114 122 180 93
103 166 62 111 178 63 126 197 77 114 187 72 104 181 67 109 188 73
106 187 69 108 189 69 108 189 68 108 189 69 108 189 69 108 189 71
108 189 71 108 189 69 108 189 69 108 189 68 108 189 68 109 189 68
109 188 69 109 188 71 110 187 71 110 187 73 112 186 75 110 181 75
118 188 89 128 197 108 135 200 118 129 194 114 113 176 95 97 156 72
85 143 59 0 43 0 17 63 1 0 25 0 0 24 0 0 16 0 0 14 0 10 33 4 55 84 40
91 131 68 123 171 95 142 195 113 130 188 101 113 179 81 114 187 80
116 194 82 108 193 74 97 185 62 106 196 72 98 186 64 97 185 65
122 207 90 129 212 98 115 195 84 106 189 75 112 200 78 95 180 63
109 184 83 125 189 102 129 185 110 31 82 13 0 28 0 122 177 96
117 183 77 112 188 66 108 190 62 105 191 64 103 191 69 102 190 77
103 188 84 108 186 87 115 181 84 119 175 86 140 191 116 8 49 0
11 39 1 0 10 0 13 23 15 0 1 2 38 36 41 240 235 241 239 234 240
255 253 255 242 240 241 240 242 241 220 224 223 223 227 226
224 226 225 251 251 251 235 235 235 238 238 238 241 241 241
225 225 225 236 236 236 243 243 243 237 237 237 237 237 237
237 237 237 236 236 236 235 235 235 191 190 185 2 2 0 21 22 27 0 2 5
0 15 3 0 22 0 101 151 80 115 177 80 108 181 64 112 190 68 106 180 65
105 182 70 124 197 89 121 198 86 111 191 70 117 199 75 99 183 59
100 181 60 136 213 97 107 176 70 112 174 88 128 184 109 33 88 20
0 42 0 118 181 90 116 184 81 116 184 81 116 184 83 117 182 88
120 180 90 121 180 86 123 179 88 99 152 74 59 108 42 8 56 0 0 23 0
0 19 0 0 26 0 0 29 2 0 27 5 0 18 0 58 86 61 0 15 0 29 62 9
144 184 113 141 185 98 131 178 82 113 169 62 125 190 74 119 189 67
114 185 63 112 183 61 110 184 63 113 188 69 115 193 73 117 196 77
107 188 68 101 184 66 98 183 64 101 188 71 107 196 78 108 199 80
101 192 75 94 183 65 102 185 67 105 186 66 107 187 66 108 188 63
109 190 62 111 190 63 112 191 66 113 191 69 112 187 69 112 186 73
113 185 75 113 185 73 114 187 72 114 187 69 114 188 65 114 188 67
118 186 75 99 166 61 114 179 75 135 200 100 63 126 35 0 50 0
83 142 58 110 170 82 126 188 89 122 188 80 118 185 72 115 183 70
115 185 73 119 188 81 122 193 89 124 197 89 108 186 67 104 184 61
104 183 64 112 191 74 119 199 84 119 199 84 106 189 71 95 179 57
109 191 67 110 190 65 98 176 54 104 179 60 121 193 81 118 187 80
112 178 78 121 179 92 134 179 110 131 169 112 125 162 111 113 149 103
76 111 69 25 60 18 0 27 0 0 21 0 0 37 0 0 27 0 0 20 0 0 27 0 9 59 0
55 111 38 108 165 84 138 201 110 116 182 84 113 184 78 113 184 78
112 185 77 110 187 75 109 188 73 108 189 71 106 190 69 106 190 69
106 190 69 106 190 69 106 190 69 106 189 71 108 189 71 108 189 71
106 190 69 100 189 63 113 201 78 103 180 68 120 186 88 113 168 87
101 150 84 0 32 0 67 115 53 113 173 77 116 186 72 124 201 87
105 185 70 102 186 65 100 186 63 86 170 48 118 195 83 121 181 95
117 164 94 111 152 92 0 28 0 0 18 0 0 13 0 0 3 0 1 0 0 144 135 140
247 237 245 225 215 223 222 215 222 220 214 218 230 228 229
254 254 252 254 255 253 246 246 246 221 221 221 220 220 220
215 215 215 235 235 235 255 255 255 251 251 251 255 255 255
219 219 219 216 216 216 216 216 216 226 226 226 240 240 240
215 211 208 33 31 32 20 20 28 0 4 9 0 13 5 0 20 0 57 99 36 125 180 89
119 186 73 116 187 67 111 186 68 102 179 63 114 193 78 122 201 86
104 184 63 97 178 57 107 190 74 98 178 63 127 199 87 114 181 76
125 181 94 114 166 91 11 64 0 18 77 0 117 183 85 113 187 74
110 189 74 109 189 74 110 187 81 110 188 78 113 188 70 114 187 70
107 174 69 125 186 93 129 184 103 92 143 76 35 79 26 0 32 0 0 18 0
0 25 6 0 14 0 15 39 17 0 11 0 0 28 0 68 101 44 88 123 55 109 147 70
139 183 96 132 186 90 129 187 87 124 185 82 122 183 80 119 182 78
116 181 77 114 183 76 112 184 76 122 198 89 113 191 79 104 184 71
97 180 64 98 183 66 99 186 69 102 189 72 102 190 70 104 189 70
105 189 68 105 189 65 107 189 61 107 190 60 107 190 58 108 189 61
108 188 63 110 188 69 110 187 73 112 186 75 113 187 76 113 187 72
113 189 67 114 190 64 115 189 66 113 181 70 114 179 75 123 187 90
129 193 97 4 69 0 0 42 0 110 175 81 129 195 95 110 179 73 110 180 68
109 179 67 108 178 66 107 179 69 110 181 75 112 182 83 114 185 81
125 195 83 114 187 70 106 178 66 106 179 71 114 187 82 116 191 86
113 189 81 107 183 74 119 193 82 105 179 68 107 176 69 115 182 79
135 196 103 135 193 109 114 166 92 119 163 100 90 122 73 52 77 38
10 34 0 0 18 0 0 15 0 0 15 0 0 17 0 0 25 0 0 22 0 16 56 6 59 107 45
100 156 81 123 187 100 125 195 97 112 188 80 101 179 67 108 189 71
108 189 69 108 189 69 108 189 69 108 189 69 108 189 69 108 189 69
108 189 69 108 189 69 108 189 69 108 189 69 108 189 69 108 189 69
108 189 69 108 189 69 106 190 68 98 189 58 109 198 70 105 182 66
121 188 85 112 168 81 109 159 90 0 44 0 50 98 40 114 174 78
120 188 75 126 198 90 107 185 75 112 193 75 119 201 77 102 185 55
120 193 78 121 175 97 139 180 124 27 60 13 0 19 0 7 23 0 2 11 0
16 17 11 7 1 1 214 203 209 255 251 255 241 229 239 225 215 223
224 218 222 236 232 231 255 255 251 255 255 251 250 250 248
227 227 227 215 215 215 212 212 212 231 231 231 254 254 254
255 255 255 255 255 255 227 227 227 219 219 219 217 217 217
227 227 227 243 243 243 236 230 234 88 83 89 9 8 16 1 9 11 1 17 7
0 22 0 10 49 0 129 181 98 120 183 79 111 179 66 120 193 76 102 180 61
102 181 64 117 198 78 101 182 61 97 178 58 114 197 81 100 180 65
113 185 73 119 186 81 133 189 102 90 142 67 0 34 0 66 125 45
117 183 85 113 187 74 110 189 74 109 189 74 110 187 81 110 188 78
113 188 70 114 188 65 122 192 68 117 185 64 115 179 69 121 178 81
122 174 91 108 153 84 78 119 63 54 90 44 5 37 0 0 21 0 0 25 0 0 21 0
0 23 0 0 23 0 0 18 0 8 48 0 51 91 38 69 112 56 99 144 85 126 172 110
137 186 120 133 185 111 119 174 93 107 165 80 123 184 91 120 185 85
116 183 77 111 181 69 106 179 62 106 181 62 112 188 64 115 195 72
104 192 70 103 192 72 103 194 67 104 193 63 104 194 62 104 194 60
106 193 63 106 192 65 100 184 63 100 183 67 100 183 69 101 184 68
103 184 64 103 185 61 104 186 58 104 186 60 117 194 80 95 171 63
114 189 86 103 177 78 0 51 0 16 90 0 116 192 94 117 194 90 106 184 75
107 186 71 108 188 73 108 188 73 108 188 75 106 185 76 102 183 78
104 179 76 110 173 69 119 177 75 127 184 87 129 188 96 127 187 99
123 185 100 123 185 100 124 186 101 135 194 110 125 182 101
124 176 102 96 145 79 74 117 63 52 91 46 9 45 9 0 27 0 0 27 0 0 25 0
0 20 0 0 14 0 0 14 0 0 22 0 30 64 14 67 104 50 105 145 85 108 155 87
115 167 92 121 181 95 122 187 93 117 189 89 110 185 80 105 183 71
108 189 71 108 189 69 108 189 69 108 189 69 108 189 69 108 189 69
108 189 69 108 189 69 108 189 69 108 189 69 108 189 69 108 189 69
108 189 69 108 189 69 108 189 69 106 190 68 98 189 60 105 194 66
107 186 69 121 190 84 109 168 76 122 172 99 19 63 10 24 72 10
119 179 79 122 191 75 121 193 83 105 181 72 112 191 76 122 201 82
108 188 65 115 184 77 125 175 102 112 150 99 0 16 0 0 23 0 4 18 0
2 8 0 7 6 2 83 77 79 255 251 255 255 250 255 247 236 244 222 212 220
226 221 225 236 235 233 252 254 249 249 251 246 246 246 244
237 237 237 219 219 219 221 221 221 231 231 231 240 240 240
254 254 254 253 253 253 233 233 233 226 226 226 223 223 223
231 231 231 245 245 245 246 236 247 160 154 164 1 0 5 2 6 7 10 23 13
0 24 0 0 32 0 105 152 80 122 178 87 106 172 66 123 196 81 107 185 65
96 176 55 109 190 69 102 186 65 116 199 81 113 196 80 107 187 72
106 178 66 118 185 80 134 190 103 68 120 45 0 24 0 106 165 85
117 183 85 113 187 74 110 189 74 109 189 74 110 187 81 110 188 78
113 188 70 113 189 63 103 175 47 107 179 51 116 184 63 123 187 73
127 185 83 128 183 90 129 178 97 129 175 103 129 171 108 74 115 59
51 91 39 8 47 0 0 24 0 0 32 0 0 23 0 0 41 1 0 22 0 0 20 0 0 24 0
1 37 1 23 60 19 51 90 43 77 120 66 94 138 77 120 167 97 128 179 102
140 192 109 141 196 105 135 190 96 128 186 86 128 186 84 124 191 86
108 187 80 104 190 79 104 191 76 105 193 73 106 194 71 107 196 70
110 196 73 110 195 76 107 189 78 107 189 79 108 190 82 108 190 82
110 190 79 111 191 76 111 192 71 111 192 72 111 189 80 97 174 72
137 211 114 52 127 34 0 46 0 70 144 55 113 188 97 119 196 100
112 190 88 114 193 86 117 196 87 116 198 88 113 194 89 108 189 86
102 182 83 104 175 81 115 169 83 126 171 90 132 176 101 132 178 106
125 172 104 109 158 93 93 142 77 82 131 66 35 81 17 33 77 16 15 54 0
0 24 0 0 13 0 0 17 0 0 21 5 0 25 3 0 32 0 0 36 0 12 51 0 49 89 29
92 132 69 118 159 93 124 167 96 122 166 91 132 181 100 128 182 96
124 183 91 120 184 87 117 185 84 113 186 81 111 187 79 110 188 78
108 189 71 108 189 69 108 189 69 108 189 69 108 189 69 108 189 69
108 189 69 108 189 69 108 189 69 108 189 69 108 189 69 108 189 69
108 189 69 108 189 69 108 189 69 106 190 68 99 190 61 101 190 64
110 189 70 121 190 83 108 167 73 133 186 106 37 85 25 0 50 0
122 183 79 117 186 67 112 184 74 103 179 71 104 180 71 107 184 72
106 183 67 117 183 85 133 177 114 39 70 28 1 27 0 3 22 0 1 12 0
8 11 2 4 3 1 184 178 182 244 234 243 222 212 221 254 244 252
244 239 243 250 248 249 242 244 241 233 238 232 216 221 215
229 231 228 247 247 247 239 239 239 246 246 246 237 237 237
223 223 223 240 240 240 236 236 236 255 255 255 255 255 255
251 251 251 244 244 244 237 237 237 255 242 255 234 226 241 18 13 20
2 4 1 15 26 12 0 16 0 0 31 0 47 88 28 136 189 111 115 176 81
118 188 76 110 186 64 104 184 61 104 188 64 99 184 63 118 203 86
107 190 76 116 196 81 108 180 68 113 180 75 129 185 98 50 102 27
0 28 0 125 184 104 117 183 85 113 187 74 110 189 74 109 189 74
110 187 81 110 188 78 113 188 70 113 189 67 116 191 72 112 187 69
114 184 68 118 186 73 123 189 79 122 185 78 115 173 71 107 163 66
111 166 73 113 165 80 125 176 97 117 167 94 104 153 87 76 126 63
13 63 2 0 19 0 0 21 0 0 18 2 0 19 0 0 20 0 0 21 0 0 23 0 0 25 0
0 25 0 0 22 0 9 44 2 39 75 29 66 102 54 85 122 70 101 138 84
117 155 98 122 168 104 112 174 97 106 179 90 107 180 88 108 182 83
110 185 82 111 186 81 112 187 84 112 187 86 113 187 92 113 186 96
115 185 97 115 185 96 117 186 95 117 187 91 117 188 86 117 187 88
117 186 95 121 189 104 124 189 109 0 55 0 0 64 0 114 180 106
121 188 111 110 179 98 114 184 96 116 187 95 118 189 95 117 191 96
114 187 97 108 180 94 102 174 92 104 166 91 113 155 92 95 128 75
64 96 47 41 74 29 28 64 20 16 52 8 0 36 0 0 22 0 2 36 0 3 37 0 0 18 0
1 28 0 10 31 0 0 8 0 4 18 1 29 52 24 72 115 61 85 138 66 106 158 84
115 168 90 119 171 88 121 174 84 125 179 85 126 182 83 123 181 78
120 182 75 116 182 74 116 184 75 116 188 78 121 194 86 124 200 92
127 205 95 108 189 71 108 189 69 108 189 69 108 189 69 108 189 69
108 189 69 108 189 69 108 189 69 108 189 69 108 189 69 108 189 69
108 189 69 108 189 69 108 189 69 108 189 69 106 190 68 100 191 64
99 190 63 111 192 72 117 189 79 108 170 71 137 191 107 51 100 34
0 38 0 120 182 71 110 180 56 105 177 65 111 184 77 107 180 75
104 177 72 118 189 85 135 195 107 98 137 84 0 20 0 0 19 0 0 9 0
7 15 2 0 1 0 78 74 75 225 218 225 226 216 225 206 196 205 255 252 255
255 253 255 253 253 253 237 242 238 223 230 223 211 218 211
212 214 211 250 250 250 255 255 255 255 255 255 246 246 246
214 214 214 221 221 221 217 217 217 247 247 247 255 255 255
255 255 255 251 251 251 232 232 232 255 246 255 255 249 255 81 76 83
2 3 0 11 19 4 0 8 0 6 31 0 0 25 0 129 175 111 130 185 101 112 179 73
108 181 63 117 197 72 106 191 64 95 180 61 97 184 69 101 185 71
118 198 83 111 183 71 111 178 73 125 181 94 32 84 9 0 52 0
127 186 106 117 183 85 113 187 74 110 189 74 109 189 74 110 187 81
110 188 78 113 188 70 113 188 69 104 180 71 113 188 83 121 194 86
118 192 81 109 181 69 105 175 61 111 178 63 119 183 69 124 188 76
129 191 82 114 175 72 99 159 63 107 166 76 121 181 95 122 181 99
119 170 101 108 146 97 84 114 78 42 72 36 3 33 0 0 13 0 0 13 0 0 25 0
7 37 1 0 24 0 0 26 0 0 27 0 0 23 0 0 18 0 0 15 0 0 15 0 0 19 0
25 64 19 28 72 19 40 85 28 52 101 36 68 118 47 82 134 60 93 145 73
99 150 81 103 154 88 104 154 93 105 153 95 105 153 95 107 153 91
108 154 90 108 155 85 108 155 85 103 149 85 103 148 89 58 103 48
0 33 0 55 98 52 98 144 97 92 138 89 71 120 65 69 119 58 64 115 49
55 106 39 40 93 25 23 75 11 7 59 0 0 45 0 0 34 0 0 24 0 1 28 0 3 31 0
0 24 0 0 15 0 0 14 0 0 18 0 0 26 0 0 19 0 0 28 0 11 40 0 59 83 31
70 92 46 18 34 0 44 57 29 152 177 137 119 169 100 116 180 94
116 179 90 112 176 82 115 177 78 122 185 80 122 186 76 115 179 65
116 184 65 116 185 66 116 187 69 115 188 70 113 188 70 109 186 72
105 183 71 103 181 69 108 189 71 108 189 69 108 189 69 108 189 69
108 189 69 108 189 69 108 189 69 108 189 69 108 189 69 108 189 69
108 189 69 108 189 69 108 189 69 108 189 69 108 189 69 105 191 68
102 193 66 101 192 65 110 191 71 114 186 74 111 173 72 134 190 101
57 107 36 0 37 0 114 179 63 109 179 54 107 177 65 118 189 87
117 187 89 118 185 90 131 196 104 127 179 104 17 48 7 9 27 5 0 6 0
0 5 0 0 4 0 0 0 0 190 185 191 227 220 228 229 221 232 221 214 222
255 253 255 255 255 255 246 250 249 236 243 236 219 230 222
214 224 216 212 214 211 244 244 244 255 255 255 255 255 255
248 248 248 220 220 220 216 216 216 214 214 214 236 236 236
249 249 249 255 255 255 249 249 249 232 232 232 249 234 255
251 239 255 161 154 161 3 2 0 3 7 0 0 10 0 13 31 7 0 12 0 65 103 52
133 183 110 121 183 84 111 181 65 121 200 73 104 189 62 98 186 66
93 180 65 101 185 71 113 193 78 111 183 71 115 182 77 125 181 94
14 66 0 25 78 8 122 181 101 117 183 85 113 187 74 110 189 74
109 189 74 110 187 81 110 188 78 113 188 70 111 188 72 118 194 94
114 191 97 110 186 88 107 184 82 106 182 74 109 183 70 112 185 67
115 186 64 116 188 63 115 185 60 120 190 66 119 188 69 120 189 72
123 193 79 117 187 75 116 179 74 108 159 66 123 168 83 138 181 99
141 184 104 125 167 91 93 135 63 59 98 31 35 74 11 0 19 0 0 18 0
0 18 0 0 22 0 0 26 0 0 29 0 0 26 0 0 22 0 0 6 0 0 4 0 0 7 0 1 10 0
0 14 0 1 16 0 1 17 0 2 18 0 0 10 0 0 10 0 0 9 0 0 9 0 0 9 0 0 10 0
0 10 0 0 11 0 2 15 0 15 29 6 0 6 0 0 5 0 8 20 10 0 10 0 0 14 0 1 16 0
0 14 0 0 15 0 0 13 0 0 11 0 0 10 0 0 11 0 0 12 0 0 15 0 0 24 0 3 35 0
4 37 0 0 25 0 0 16 0 0 27 0 27 66 11 60 100 38 105 145 75 112 150 77
144 180 106 157 189 116 143 172 106 45 69 9 0 19 0 130 161 101
124 182 95 122 194 94 120 191 87 110 181 75 109 181 69 116 189 72
115 186 66 104 175 53 111 185 60 109 184 57 104 180 54 101 177 53
99 177 55 102 180 60 105 184 65 107 186 67 108 189 69 108 189 69
108 189 69 108 189 69 108 189 69 108 189 69 108 189 69 108 189 69
108 189 69 108 189 69 108 189 69 108 189 69 108 189 69 108 189 69
108 189 69 105 191 68 104 195 68 105 196 69 109 190 70 111 183 71
114 177 72 127 184 90 58 109 34 0 44 0 115 178 63 121 190 65
112 180 71 116 182 85 118 183 93 124 186 103 113 170 91 56 100 39
0 10 0 13 23 12 7 14 6 3 8 2 0 0 0 75 73 78 248 243 250 242 234 245
224 216 227 234 229 236 254 253 255 254 255 255 246 252 250
244 254 246 220 233 224 211 222 214 229 234 230 233 233 233
245 245 245 243 243 243 240 240 240 238 238 238 228 228 228
229 229 229 250 250 250 252 252 252 251 251 251 244 244 244
233 233 233 229 214 247 212 200 224 213 206 213 4 1 0 1 2 0 12 19 1
21 33 19 0 14 0 0 24 0 128 172 111 136 192 103 116 184 73 119 195 73
100 182 56 110 197 80 106 193 80 104 188 74 106 186 71 109 181 69
121 188 83 128 184 97 2 54 0 41 94 24 118 177 97 117 183 85
113 187 74 110 189 74 109 189 74 110 187 81 110 188 78 113 188 70
111 188 72 107 185 83 105 185 86 108 186 85 111 190 83 113 193 82
113 192 75 109 189 66 106 185 58 138 215 87 103 180 50 113 190 60
118 195 67 114 190 64 121 197 71 112 188 64 116 187 67 123 188 70
126 186 72 125 185 72 125 182 75 124 181 78 125 179 81 126 180 86
128 178 91 136 183 103 126 172 97 114 157 88 98 140 76 77 116 59
45 84 29 11 48 0 0 18 0 0 8 0 2 4 1 0 3 0 0 4 0 0 6 0 0 8 0 0 8 0
0 8 0 0 10 0 0 10 0 0 10 0 0 9 0 0 9 0 0 10 0 0 10 0 0 10 0 0 8 0
9 24 0 2 16 0 0 14 0 0 6 0 7 21 4 6 21 2 0 8 0 0 17 0 0 16 0 0 15 0
0 17 0 0 21 0 6 27 0 13 33 8 15 41 6 53 91 34 62 104 38 80 124 61
105 149 86 128 174 110 141 190 124 145 195 122 145 196 117 127 177 92
111 160 71 135 181 93 119 161 75 142 181 102 82 115 44 0 16 0
100 142 68 106 172 72 110 189 74 112 191 76 103 182 65 105 184 65
117 197 76 122 200 78 115 194 69 116 195 68 115 194 67 114 193 66
113 192 65 111 190 65 108 187 62 105 185 60 104 184 61 108 189 68
108 189 69 108 189 69 108 189 69 108 189 69 108 189 69 108 189 69
108 189 69 108 189 69 108 189 69 108 189 69 108 189 69 108 189 69
108 189 69 108 189 69 106 190 68 105 195 71 107 198 71 108 189 69
109 182 67 116 179 74 123 178 85 57 108 33 0 50 0 122 182 68
135 200 80 116 181 79 108 168 80 111 168 91 120 173 103 81 130 65
0 16 0 3 18 0 0 2 0 29 31 28 1 3 2 1 0 4 200 195 202 245 239 249
255 252 255 252 246 255 248 245 252 217 216 222 207 211 212
199 205 203 233 244 238 242 255 246 248 255 251 248 253 249
225 225 225 222 222 222 215 215 215 231 231 231 254 254 254
242 242 242 247 247 247 223 223 223 220 220 220 220 220 220
230 230 230 244 244 244 234 221 251 209 197 219 229 223 227
116 111 105 3 1 0 15 17 4 5 12 4 0 13 0 0 23 0 76 112 64 121 172 95
126 188 89 109 182 67 115 195 74 96 180 66 95 182 69 105 189 75
90 170 55 128 200 88 119 186 81 123 179 92 0 46 0 43 96 26 120 179 99
117 183 85 113 187 74 110 189 74 109 189 74 110 187 81 110 188 78
113 188 70 111 189 67 108 189 68 106 190 69 106 190 68 106 190 68
106 190 68 106 190 68 106 190 66 106 190 66 108 189 68 108 189 68
108 189 68 108 189 69 109 188 69 109 188 69 110 188 69 110 188 69
110 188 66 112 188 66 112 188 66 113 186 68 113 186 69 115 185 71
116 184 73 117 183 75 117 180 75 117 179 78 120 180 82 123 180 85
126 181 88 127 182 91 130 183 93 132 180 104 122 159 108 4 36 0
53 89 41 99 138 81 93 138 73 77 127 56 53 105 31 51 104 32 40 93 23
37 89 23 31 83 19 24 74 11 17 65 3 11 57 0 7 52 0 3 49 0 10 61 0
13 66 0 21 73 0 30 81 12 41 92 26 50 102 36 57 110 42 61 114 42
77 131 53 79 137 52 86 144 57 96 154 67 106 164 80 114 173 93
122 180 104 125 184 104 121 181 85 121 181 81 120 182 85 120 181 86
118 182 88 117 182 88 117 183 86 117 183 85 124 189 87 112 174 73
123 183 85 126 181 88 134 186 103 134 180 107 0 21 0 22 75 0
120 193 85 107 189 65 103 184 63 115 196 76 100 184 63 109 193 72
103 186 68 114 198 77 108 189 69 108 189 68 108 189 68 109 189 64
109 190 62 109 190 61 110 189 61 109 190 62 108 189 68 108 189 69
108 189 69 108 189 69 108 189 69 108 189 69 108 189 69 108 189 69
108 189 69 108 189 69 108 189 69 108 189 69 108 189 69 108 189 69
108 189 69 106 190 68 106 194 71 105 194 68 109 188 69 132 202 88
113 176 71 130 185 94 46 96 23 0 36 0 117 175 65 130 190 77
121 180 86 117 171 95 140 189 124 91 134 80 0 23 0 8 35 2 0 4 0
18 20 19 0 0 2 7 5 10 137 135 140 221 216 223 226 220 230 250 244 254
255 252 255 255 253 255 225 224 230 219 223 224 218 224 222
218 229 223 247 255 251 248 255 251 252 255 253 222 222 222
226 226 226 223 223 223 229 229 229 255 255 255 255 255 255
253 253 253 229 229 229 221 221 221 230 230 230 227 227 227
253 253 253 212 202 226 235 226 243 228 222 224 214 211 204 13 10 1
1 1 0 0 1 0 11 18 11 0 13 0 20 47 12 120 162 98 118 174 87 116 183 78
109 186 72 105 187 76 114 198 86 109 192 78 97 177 62 120 192 80
110 177 72 124 180 93 14 66 0 28 81 11 118 177 97 117 183 85
113 187 74 110 189 74 109 189 74 110 187 81 110 188 78 113 188 70
111 190 63 108 191 57 106 192 55 106 192 57 106 192 59 105 192 62
105 191 66 105 191 68 105 190 71 105 190 73 106 189 75 106 189 75
106 189 75 108 188 75 108 188 75 109 188 73 108 188 73 105 190 71
103 191 69 105 190 69 105 190 69 106 190 69 106 189 71 109 188 71
109 188 71 108 185 69 111 185 70 113 186 71 116 186 74 119 187 76
120 188 77 121 189 78 125 187 90 93 144 75 0 35 0 72 123 54
118 175 96 125 188 99 124 191 96 116 186 88 118 190 91 120 194 99
120 193 101 121 191 103 122 190 103 124 190 102 124 189 99 127 187 97
125 189 93 120 188 85 117 188 84 116 186 87 115 185 87 113 182 89
110 181 87 109 180 84 109 181 81 120 193 86 117 194 82 115 192 78
114 191 77 112 188 79 109 186 80 107 184 82 108 183 78 113 187 72
113 188 69 113 187 72 111 188 76 110 188 79 110 188 79 109 188 79
109 189 78 124 202 90 104 181 69 105 176 70 111 179 80 129 192 103
134 193 113 7 63 0 0 55 0 106 183 71 105 190 63 101 185 61 112 196 75
101 184 66 108 193 76 102 186 72 112 196 82 106 189 75 106 189 73
108 189 71 108 189 68 109 189 64 109 190 61 110 190 59 109 190 61
109 189 66 108 189 69 108 189 69 108 189 69 108 189 69 108 189 69
108 189 69 108 189 69 108 189 69 108 189 69 108 189 69 108 189 69
108 189 69 108 189 69 108 189 69 106 190 68 108 196 73 108 194 71
114 192 73 112 182 70 113 174 71 128 182 94 32 79 11 0 36 0
131 186 85 112 167 65 120 173 91 137 186 120 115 155 103 16 51 9
3 30 0 0 16 0 4 9 3 0 0 2 2 0 5 36 34 39 227 222 229 247 242 249
239 233 243 255 253 255 255 253 255 249 248 254 227 228 232
218 222 225 217 223 223 222 231 228 242 253 247 249 255 253
254 255 255 234 234 234 230 230 230 224 224 224 226 226 226
244 244 244 250 250 250 253 253 253 225 225 225 223 223 223
229 229 229 231 231 231 246 246 246 237 233 247 248 245 254
247 245 246 255 255 250 121 118 111 5 2 0 1 0 0 23 25 22 2 12 3 0 9 0
68 102 52 129 176 106 118 178 88 110 181 77 101 179 70 126 208 97
111 194 80 106 186 71 110 182 70 104 171 66 127 183 96 38 90 15
2 55 0 119 178 98 117 183 85 113 187 74 110 189 74 109 189 74
110 187 81 110 188 78 113 188 70 111 191 60 109 192 50 108 193 46
108 192 52 106 192 55 105 192 61 105 191 66 103 191 71 103 190 75
103 189 78 105 188 80 105 188 80 105 189 78 106 188 78 106 188 77
108 188 75 106 189 75 101 190 80 99 191 82 99 191 80 99 191 80
101 190 80 101 191 78 103 189 78 103 190 77 104 188 74 105 188 74
108 188 75 109 189 74 111 190 75 112 191 74 113 192 75 119 187 86
82 132 61 0 33 0 103 153 82 125 180 99 123 184 91 114 180 80
110 181 77 109 182 77 100 175 74 101 175 76 106 177 83 110 179 86
115 182 89 119 184 90 125 186 91 124 189 87 123 191 82 121 190 81
120 189 83 116 187 85 113 183 85 111 181 83 110 181 79 108 181 74
122 196 85 121 196 78 119 194 75 115 193 73 112 189 73 110 187 75
108 184 76 106 184 74 109 190 72 107 191 70 107 190 74 106 190 78
104 190 79 103 191 81 103 191 79 103 191 78 107 194 77 104 189 72
109 189 76 109 186 80 113 184 88 114 182 95 55 120 40 0 47 0
84 161 49 107 189 65 104 185 65 111 194 76 103 186 72 110 192 81
101 185 74 110 193 85 105 189 78 105 189 77 106 189 73 108 189 69
109 189 66 109 190 62 110 190 59 109 190 61 109 189 66 108 189 69
108 189 69 108 189 69 108 189 69 108 189 69 108 189 69 108 189 69
108 189 69 108 189 69 108 189 69 108 189 69 108 189 69 108 189 69
108 189 69 106 190 68 106 192 69 106 190 68 115 189 74 120 188 79
123 180 83 118 170 88 7 51 0 49 93 30 130 179 90 134 185 93
128 173 104 118 158 106 25 57 20 4 28 2 0 17 0 18 28 19 2 4 3 10 8 11
14 12 17 200 198 203 253 251 255 253 251 255 235 232 239 236 233 240
225 222 229 228 227 232 243 244 248 246 247 251 244 248 249
240 246 244 224 230 228 220 226 224 219 221 220 240 240 240
246 246 246 252 252 252 250 250 250 233 233 233 228 228 228
225 225 225 247 247 247 250 250 250 244 244 244 243 243 243
229 229 229 254 255 255 234 235 237 251 251 249 248 247 243
203 199 196 30 24 24 4 0 0 14 12 13 16 21 15 0 8 0 5 31 0 109 148 93
134 186 111 112 177 85 98 171 66 117 197 84 113 193 80 110 190 75
105 177 65 109 176 71 130 186 99 53 105 30 0 28 0 120 179 99
117 183 85 113 187 74 110 189 74 109 189 74 110 187 81 110 188 78
113 188 70 113 190 62 110 191 52 110 191 50 109 191 54 108 191 57
106 191 64 105 190 69 103 190 73 103 190 77 103 189 78 103 189 78
105 189 78 105 189 77 106 189 75 108 188 73 108 189 69 106 189 71
101 191 77 98 192 78 98 192 78 98 193 77 99 192 77 99 192 77
101 192 75 102 191 75 102 191 73 103 190 73 106 191 74 106 191 72
107 190 72 108 191 73 108 191 73 114 187 82 55 107 33 0 31 0
125 176 101 126 182 95 118 183 83 107 176 69 109 186 74 106 185 70
107 187 76 107 186 77 108 185 81 109 184 81 113 184 82 115 183 80
116 183 78 116 184 75 112 182 66 111 184 67 113 185 75 116 188 80
118 191 86 120 193 88 122 195 88 121 198 86 98 176 57 99 177 55
101 180 55 102 182 57 105 185 62 107 186 67 109 187 75 109 189 76
106 191 74 104 191 76 104 190 79 103 191 81 102 191 83 100 192 83
102 191 81 102 192 78 97 188 69 105 194 74 111 196 77 108 190 79
103 180 76 102 176 81 100 170 82 0 46 0 58 131 24 108 185 69
105 184 69 112 190 78 109 189 78 110 192 82 101 183 75 107 190 82
105 189 78 105 189 77 106 189 73 106 189 71 109 189 68 109 189 64
110 189 62 110 189 62 109 189 68 108 189 69 108 189 69 108 189 69
108 189 69 108 189 69 108 189 69 108 189 69 108 189 69 108 189 69
108 189 69 108 189 69 108 189 69 108 189 69 108 189 69 108 189 68
106 190 66 112 193 72 104 177 62 120 185 81 125 180 87 98 146 72
0 18 0 93 133 81 105 149 72 132 176 97 130 169 114 28 60 21 12 36 12
0 6 0 0 5 0 3 5 4 9 9 9 13 11 14 156 154 157 253 251 254 239 237 242
241 239 244 234 232 237 225 223 228 222 221 226 221 220 225
246 247 251 245 246 250 245 246 248 244 248 249 218 222 223
219 223 222 213 215 214 253 253 253 249 249 249 253 253 253
248 248 248 218 218 218 220 220 220 225 225 225 243 243 243
252 252 252 243 243 243 247 247 247 221 221 221 249 255 250
245 252 244 245 247 244 252 252 252 219 215 216 116 110 114 6 0 0
6 0 2 17 17 15 10 18 7 0 8 0 34 66 27 139 185 123 125 184 102
114 182 81 104 181 69 109 189 76 110 190 75 107 179 67 120 187 82
131 187 100 63 115 40 0 24 0 109 168 88 117 183 85 113 187 74
110 189 74 109 189 74 110 187 81 110 188 78 113 188 70 113 189 63
113 188 61 113 188 61 112 188 64 110 188 66 108 189 69 106 189 71
105 189 75 103 190 75 103 190 75 103 190 73 105 190 71 105 191 68
106 190 66 108 190 62 109 190 61 108 191 61 103 193 61 101 194 61
101 194 61 101 194 62 101 194 62 102 193 62 102 193 64 103 192 64
105 194 68 107 193 68 106 192 67 106 192 69 107 191 69 106 190 69
106 190 69 110 186 78 23 78 0 0 42 0 134 189 105 124 186 89
118 187 78 107 185 66 116 200 76 113 202 76 108 198 74 107 197 74
107 194 77 108 191 77 110 188 76 109 186 72 111 184 69 109 184 65
106 184 62 105 185 62 105 184 65 105 184 69 105 183 73 106 184 74
105 185 72 105 186 68 109 191 67 107 192 63 107 192 62 106 191 61
106 191 62 105 191 66 105 190 69 105 190 73 106 190 79 106 189 83
106 189 85 104 189 86 103 189 88 102 190 86 103 190 83 103 191 78
106 195 75 104 192 69 101 185 63 105 186 68 110 186 77 115 187 85
130 200 104 0 47 0 30 98 0 110 181 77 109 182 77 111 186 81
113 191 82 113 192 83 100 182 71 105 187 76 105 189 75 105 190 73
106 189 71 106 190 69 109 188 69 109 189 68 110 188 68 110 188 68
109 188 69 108 189 69 108 189 69 108 189 69 108 189 69 108 189 69
108 189 69 108 189 69 108 189 69 108 189 69 108 189 69 108 189 69
108 189 69 108 189 69 108 189 69 108 189 68 113 195 71 111 189 69
104 172 61 107 167 67 129 179 94 59 101 35 0 16 0 105 142 101
133 174 108 131 170 103 36 69 26 18 44 19 0 8 0 2 11 8 0 0 4 7 5 10
6 4 5 109 107 108 241 241 241 255 255 255 241 241 243 255 255 255
241 241 243 215 215 217 222 222 224 221 221 223 247 246 251
246 245 250 246 245 250 246 247 251 220 221 225 221 222 224
214 214 214 253 253 253 249 249 249 253 253 253 248 248 248
218 218 218 220 220 220 225 225 225 243 243 243 252 252 252
243 243 243 247 247 247 221 221 221 243 255 239 248 255 244
230 237 230 255 255 255 235 230 236 221 211 219 46 35 39 6 0 0 3 0 0
17 22 16 0 5 0 0 11 0 81 121 71 140 194 119 122 187 87 108 182 69
104 184 71 110 190 75 111 183 71 125 192 87 129 185 98 83 135 60
0 29 0 73 132 52 117 183 85 113 187 74 110 189 74 109 189 74
110 187 81 110 188 78 113 188 70 114 188 65 115 186 66 115 186 68
113 186 69 112 187 69 109 188 71 106 189 71 105 190 71 103 191 71
103 191 71 103 191 69 105 191 66 106 191 64 108 191 61 109 190 59
110 190 59 109 191 57 106 192 57 105 193 57 105 193 57 105 193 57
105 192 59 105 192 61 105 192 61 106 191 62 109 194 67 109 194 67
108 192 68 107 191 69 108 189 68 107 188 68 106 187 67 110 183 76
5 60 0 14 65 0 132 188 101 114 179 79 106 178 66 94 174 51 102 189 59
100 191 60 98 191 61 98 190 63 100 190 67 102 190 70 105 189 68
109 188 69 113 188 69 113 189 67 107 187 64 107 187 64 107 186 67
105 185 70 105 183 73 104 184 73 103 183 70 101 184 66 111 195 71
110 195 66 110 195 65 108 195 64 107 193 66 106 192 67 105 190 69
105 190 73 109 189 74 109 189 76 109 188 79 107 189 81 106 189 83
104 190 81 104 190 79 106 190 76 103 188 67 105 189 67 109 189 68
113 190 74 115 187 79 115 183 82 132 197 103 14 77 0 3 66 0
113 178 86 112 179 84 112 182 83 118 193 88 114 192 82 101 181 66
102 186 65 106 190 68 105 191 68 106 190 68 108 189 68 109 188 69
110 187 71 112 186 73 110 187 71 109 188 71 108 189 69 108 189 69
108 189 69 108 189 69 108 189 69 108 189 69 108 189 69 108 189 69
108 189 69 108 189 69 108 189 69 108 189 69 108 189 69 108 189 69
108 189 68 111 191 68 93 168 49 121 187 77 134 191 94 133 180 100
8 48 0 22 56 23 152 185 154 139 174 120 39 74 18 12 39 8 0 7 0
8 19 15 0 0 5 14 8 20 9 1 12 113 108 112 232 231 229 221 221 219
255 255 253 244 244 244 255 255 255 246 246 246 221 221 221
224 224 226 228 228 230 244 243 248 247 246 251 247 246 251
245 243 248 229 227 232 225 223 228 220 220 222 240 240 240
246 246 246 252 252 252 250 250 250 233 233 233 228 228 228
225 225 225 247 247 247 250 250 250 244 244 244 243 243 243
229 229 229 212 230 204 223 238 217 212 222 214 227 228 232
250 245 252 255 248 255 159 148 152 17 7 8 4 0 0 17 17 15 0 5 2
0 12 0 4 41 0 89 140 73 120 182 83 117 190 75 101 180 65 112 192 77
116 188 76 118 185 80 124 180 93 112 164 89 7 60 0 20 79 0 117 183 85
113 187 74 110 189 74 109 189 74 110 187 81 110 188 78 113 188 70
114 188 67 116 185 68 116 185 69 115 185 69 113 186 69 110 188 68
108 189 68 106 190 66 105 191 64 103 192 64 103 192 64 105 191 64
106 191 62 108 190 62 109 190 62 110 189 62 110 189 62 110 189 64
109 189 66 109 189 66 109 189 66 109 189 68 109 189 68 109 189 68
110 188 68 114 192 73 113 191 72 112 189 73 111 188 72 109 186 70
108 185 69 107 184 68 111 179 76 0 45 0 42 89 17 127 181 97
117 179 82 112 184 72 103 183 62 113 198 69 115 204 74 101 194 64
101 193 68 104 194 71 108 193 74 113 194 76 115 194 75 119 194 75
120 195 76 108 183 65 106 183 67 108 185 73 109 187 78 111 186 83
112 189 85 114 191 85 113 193 82 102 183 65 103 184 63 104 186 60
103 188 61 105 189 67 106 189 71 107 190 76 110 191 73 111 190 62
113 190 58 113 190 62 111 190 65 110 190 69 109 190 70 109 190 70
109 190 70 99 179 58 107 185 65 122 195 80 127 196 89 119 183 86
114 174 86 118 175 96 58 114 39 0 41 0 115 174 94 115 177 91
113 180 85 122 195 90 115 192 78 101 182 61 99 184 55 106 191 61
106 191 61 108 190 62 108 190 66 109 188 71 110 187 75 112 185 78
112 185 77 109 188 73 108 189 69 108 189 69 108 189 69 108 189 69
108 189 69 108 189 69 108 189 69 108 189 69 108 189 69 108 189 69
108 189 69 108 189 69 108 189 69 108 189 69 109 189 68 110 189 64
92 166 45 124 190 82 154 211 116 83 130 52 0 31 0 82 112 86
130 160 136 34 66 19 0 15 0 0 23 0 4 19 12 0 1 5 21 17 31 6 0 12
81 68 85 255 253 255 241 242 237 249 250 245 202 203 198 240 242 239
216 218 215 241 241 239 255 255 253 255 255 255 249 249 249
229 227 230 222 220 225 222 220 225 231 226 233 252 247 254
255 253 255 255 254 255 234 234 234 230 230 230 224 224 224
226 226 226 244 244 244 250 250 250 253 253 253 225 225 225
223 223 223 229 229 229 231 231 231 246 246 246 187 202 179
212 225 207 225 232 225 222 223 225 255 252 255 255 252 255
255 252 255 88 79 80 8 2 2 6 4 5 9 14 17 7 23 13 0 11 0 7 43 0
129 175 102 126 182 91 102 174 72 116 194 85 117 191 78 107 176 69
115 179 85 132 191 109 28 85 14 0 38 0 117 182 92 116 184 83
113 186 79 113 187 76 111 187 78 111 188 76 111 189 69 113 189 67
113 186 68 113 186 69 113 186 69 110 188 68 109 189 66 108 190 66
106 191 64 105 192 62 105 192 62 105 192 62 106 191 62 106 191 64
108 190 64 109 189 64 110 189 64 110 189 64 110 188 68 110 188 69
112 187 69 110 188 69 112 186 71 110 187 71 112 186 71 110 187 71
116 190 75 114 191 75 114 188 75 111 188 74 111 185 72 108 185 71
108 182 69 112 178 78 0 42 0 65 110 41 125 177 94 116 178 79
110 182 70 101 181 60 107 192 65 111 200 72 100 190 66 100 190 67
102 187 66 102 186 65 103 184 64 104 183 64 104 182 63 106 181 63
109 186 70 109 186 72 109 185 76 108 186 77 109 184 79 108 185 79
108 185 79 108 186 76 111 190 75 111 190 71 110 191 70 110 191 70
110 191 71 109 189 74 109 189 78 110 189 70 113 190 58 113 191 53
113 191 56 113 190 60 111 190 63 110 190 67 110 190 69 110 190 69
109 187 67 104 179 61 112 184 72 123 192 85 128 194 97 126 189 100
103 164 84 71 127 52 0 26 0 118 171 99 117 176 92 113 179 82
124 197 89 114 193 74 100 182 58 98 183 54 106 191 61 108 191 59
109 190 61 110 189 62 112 187 68 112 186 71 113 185 77 112 185 77
109 188 73 108 189 69 108 189 69 108 189 71 108 189 71 108 189 71
108 189 71 108 189 71 108 189 71 108 189 71 108 189 71 106 190 69
108 189 69 106 190 69 106 190 68 109 189 68 120 195 77 121 189 78
107 167 69 132 181 99 2 43 0 16 47 5 105 128 110 16 36 24 4 24 0
3 21 0 17 30 20 0 2 4 6 6 14 1 0 11 56 45 61 248 238 249 246 244 245
251 252 247 247 247 245 231 232 227 231 233 230 223 225 222
224 224 222 248 248 246 255 255 255 255 255 255 226 224 227
223 221 224 223 221 226 228 223 229 255 253 255 255 253 255
255 254 255 222 222 222 226 226 226 223 223 223 229 229 229
255 255 255 255 255 255 253 253 253 229 229 229 221 221 221
230 230 230 227 227 227 253 253 253 213 218 211 219 224 218
212 214 211 239 239 239 255 255 255 255 254 255 255 254 255
231 229 230 2 0 1 1 1 1 12 13 15 2 7 3 7 17 8 0 8 0 19 35 9
147 178 134 113 171 94 128 200 101 117 193 84 108 185 71 103 176 71
111 182 88 86 150 74 0 44 0 72 129 61 114 172 95 119 179 89
120 185 81 127 197 83 118 193 74 106 186 65 117 199 75 108 190 66
108 190 66 108 190 66 106 190 66 106 190 66 106 190 66 105 191 66
105 191 64 105 191 64 106 191 64 106 191 64 106 191 64 106 191 64
108 190 64 108 190 62 108 190 64 109 189 68 109 189 68 110 188 69
109 188 69 110 188 69 109 188 69 110 187 71 109 188 71 110 187 71
112 191 74 113 190 76 100 179 64 107 184 70 106 185 70 120 197 85
83 149 51 0 32 0 95 135 72 123 175 92 121 183 82 108 182 67
117 199 75 105 190 69 102 190 70 103 190 73 105 190 71 108 189 68
109 189 66 109 189 64 109 189 66 108 189 71 108 188 73 109 188 71
109 188 71 109 188 71 108 188 73 109 188 73 108 188 73 108 188 73
108 189 71 108 189 71 108 189 69 108 189 69 108 189 69 108 189 69
108 189 71 108 189 71 108 189 68 108 190 62 109 190 59 109 190 62
109 189 66 109 188 69 108 189 71 108 189 71 108 188 73 113 192 75
115 194 77 116 195 78 116 195 80 112 190 81 106 183 79 99 175 75
101 167 80 0 35 0 86 132 67 117 175 90 119 186 83 133 210 94
95 179 55 101 187 64 101 187 64 108 189 68 109 189 64 113 188 61
115 187 59 115 187 59 115 187 61 115 186 66 113 186 69 109 188 71
108 189 71 108 189 71 108 188 73 108 188 75 108 188 75 106 188 77
106 188 77 97 180 66 107 190 76 111 194 78 104 189 70 103 187 66
108 194 71 111 197 72 110 191 71 109 176 73 123 179 90 131 179 103
76 116 53 2 31 0 19 39 12 0 4 0 0 4 7 1 2 6 0 0 4 24 23 31 7 6 14
0 0 5 72 71 76 213 213 213 227 227 225 255 255 253 253 253 251
255 255 255 229 229 227 224 224 224 210 210 210 237 237 237
250 250 250 255 255 255 247 247 247 232 232 232 222 222 222
222 222 224 234 232 235 250 248 251 255 254 255 247 247 247
224 224 224 227 227 227 224 224 224 241 241 241 255 255 255
248 248 248 249 249 249 226 226 226 223 223 223 223 223 223
232 232 232 245 245 245 233 233 233 239 239 239 235 235 235
238 238 238 237 237 237 234 234 234 243 243 243 242 242 242
213 213 213 0 0 0 7 7 7 21 21 21 0 0 0 15 15 15 0 0 0 29 44 25
134 182 122 126 192 105 108 178 79 103 179 71 87 162 57 112 186 89
117 184 105 0 56 0 25 79 17 119 170 103 110 164 80 135 192 95
123 190 77 108 184 62 106 187 67 107 191 70 105 191 68 105 191 68
105 191 68 105 191 68 105 191 68 105 191 68 105 191 68 106 190 68
106 190 68 106 190 68 106 190 68 108 190 66 108 190 66 108 190 64
108 190 64 108 190 64 109 189 66 109 189 68 109 188 69 109 188 69
109 188 69 109 188 69 109 188 71 109 188 71 109 188 71 112 191 74
112 191 76 100 179 64 107 186 71 106 185 70 118 196 84 80 147 50
0 32 0 99 138 75 123 175 92 119 184 80 110 185 67 114 198 74
103 191 71 101 190 72 105 189 77 106 189 73 109 189 68 110 189 64
109 190 62 108 190 66 108 189 71 106 189 73 108 189 71 108 189 69
108 189 69 108 189 69 108 189 69 108 189 69 108 189 69 108 189 69
108 189 69 108 189 69 108 189 69 108 189 69 108 189 69 108 189 69
108 189 69 108 189 68 106 191 64 106 191 64 108 189 68 108 189 69
108 189 71 108 188 73 108 188 75 108 188 73 110 190 75 111 192 74
111 194 76 111 194 76 109 192 76 105 188 74 100 182 72 102 173 79
0 34 0 74 115 55 122 176 92 119 186 83 126 204 85 98 182 58
102 187 66 101 186 67 108 188 73 110 188 69 113 187 62 116 187 59
116 187 57 115 187 59 115 186 64 112 187 68 108 189 69 106 189 71
106 189 71 108 189 71 108 188 73 108 188 73 106 189 75 106 189 75
106 189 73 96 179 63 95 178 62 106 189 73 110 193 75 105 188 70
106 190 69 120 196 87 118 178 90 147 195 121 113 153 91 0 15 0 4 25 0
18 31 14 11 13 12 1 0 7 12 3 20 6 0 14 32 23 40 3 0 9 90 87 94
226 228 227 252 255 251 236 241 234 233 235 232 232 232 232
237 237 237 235 235 235 243 243 243 236 236 236 236 236 236
229 229 229 235 235 235 232 232 232 239 239 239 237 237 237
237 237 237 240 240 240 234 234 234 237 237 237 230 230 230
232 232 232 243 243 243 242 242 242 240 240 240 239 239 239
231 231 231 234 234 234 234 234 234 238 238 238 241 241 241
239 239 239 233 233 233 253 253 253 255 255 255 255 255 255
237 237 237 214 214 214 215 215 215 229 229 229 255 255 255
255 255 255 132 132 132 7 7 7 0 0 0 15 15 15 0 0 0 4 4 4 3 16 0
12 51 4 113 170 99 113 175 92 122 187 95 119 186 91 115 182 89
134 195 115 41 97 24 0 30 0 85 135 62 129 181 98 135 192 97
111 177 71 98 172 59 106 186 71 100 185 68 105 190 73 105 190 73
106 189 73 106 189 73 106 189 73 106 189 73 106 189 71 108 189 71
108 189 69 108 189 69 108 189 69 109 189 68 109 189 68 109 189 66
109 189 66 109 189 66 109 189 68 109 189 68 109 188 69 109 188 69
109 188 69 109 188 69 109 188 71 109 188 71 110 189 72 111 190 73
111 190 75 100 179 64 108 187 72 107 186 71 117 195 83 75 142 45
0 32 0 104 143 80 122 174 91 119 184 80 112 187 69 113 197 73
102 190 70 101 190 72 105 189 77 106 189 73 109 189 68 110 189 64
109 190 62 108 190 66 108 189 71 106 189 73 108 189 71 108 189 69
108 189 69 108 189 69 108 189 69 108 189 69 108 189 69 108 189 69
108 189 69 108 189 69 108 189 69 108 189 69 108 189 69 108 189 69
108 189 69 108 189 68 108 190 66 108 190 64 108 189 68 108 189 69
108 189 71 108 188 73 108 188 73 108 188 73 106 187 69 108 189 69
110 191 71 111 192 72 111 192 74 107 190 74 105 187 76 110 180 84
0 32 0 52 91 34 126 178 96 119 184 84 114 191 75 104 188 66
103 188 71 102 186 72 106 188 77 109 187 75 112 187 68 113 187 62
113 187 62 112 188 64 112 186 71 109 188 73 106 189 71 105 190 71
105 190 69 106 190 68 106 190 68 106 190 68 108 190 66 108 190 66
102 183 62 114 193 74 119 198 81 113 191 79 105 181 72 103 179 71
107 182 77 115 182 87 130 182 107 129 171 108 6 41 0 0 13 0 16 34 8
12 20 7 19 19 19 3 0 5 26 18 33 38 27 43 12 4 19 118 112 124
248 245 252 238 239 241 247 252 248 236 241 235 214 216 213
213 213 213 216 216 216 243 243 243 255 255 255 255 255 255
236 236 236 212 212 212 214 214 214 218 218 218 248 248 248
252 252 252 252 252 252 249 249 249 219 219 219 216 216 216
215 215 215 242 242 242 255 255 255 255 255 255 239 239 239
215 215 215 217 217 217 218 218 218 245 245 245 255 255 255
255 255 255 247 247 247 224 224 224 255 255 255 255 255 255
255 255 255 237 237 237 211 211 211 215 215 215 223 223 223
255 255 255 250 250 250 255 255 255 126 126 126 0 0 0 0 0 0 17 17 17
12 12 12 12 22 11 0 18 0 0 35 0 85 133 71 135 188 116 127 184 105
124 182 98 112 167 86 117 170 92 0 39 0 17 65 0 150 202 120
130 186 97 106 170 73 99 172 67 105 185 74 102 186 74 105 189 77
105 189 77 106 188 77 106 189 75 106 189 75 106 189 75 108 188 73
108 188 73 108 189 71 108 189 71 109 188 71 109 188 69 110 188 69
110 188 69 110 188 69 110 188 69 109 189 68 109 189 68 109 188 69
109 188 69 109 188 69 109 188 69 109 188 71 109 188 71 111 190 73
111 190 73 109 188 73 101 180 65 110 189 74 109 188 73 114 192 80
69 136 39 0 32 0 111 150 87 121 173 90 119 184 80 116 191 73
111 195 71 102 190 70 100 189 71 105 189 77 106 189 73 109 189 68
110 189 64 109 190 62 108 190 66 108 189 71 106 189 73 108 189 71
108 189 69 108 189 69 108 189 69 108 189 69 108 189 69 108 189 69
108 189 69 108 189 69 108 189 69 108 189 69 108 189 69 108 189 69
108 189 69 108 189 69 108 189 68 108 190 66 108 190 66 108 189 69
108 189 71 108 188 73 108 188 73 108 188 73 108 189 71 104 185 65
105 186 65 107 188 67 109 190 69 111 192 72 111 192 74 112 192 79
119 186 91 0 29 0 34 71 17 131 180 101 120 182 85 106 180 67
111 192 74 105 189 75 103 187 76 106 188 80 108 187 78 110 187 71
112 187 68 110 188 66 109 188 69 108 188 75 106 188 77 103 190 73
102 192 69 103 191 68 105 191 66 105 192 62 106 191 61 108 191 61
109 190 61 123 202 75 113 191 71 111 185 72 116 187 81 118 185 88
112 179 86 111 177 89 119 177 100 116 160 99 40 74 24 0 18 0 4 25 0
0 9 0 0 5 0 13 11 12 15 8 15 9 0 10 6 0 9 143 135 148 229 223 233
242 239 246 254 255 255 248 252 251 236 241 237 218 220 219
217 217 217 211 211 211 245 245 245 255 255 255 255 255 255
238 238 238 218 218 218 217 217 217 218 218 218 252 252 252
253 253 253 254 254 254 253 253 253 220 220 220 218 218 218
216 216 216 250 250 250 255 255 255 255 255 255 242 242 242
211 211 211 221 221 221 219 219 219 250 250 250 255 255 255
255 255 255 249 249 249 228 228 228 252 252 252 245 245 245
255 255 255 238 238 238 227 227 227 234 234 234 228 228 228
247 247 247 247 247 247 253 253 253 248 248 248 124 124 124 0 0 0
0 0 0 16 16 16 5 12 4 8 27 5 0 13 0 0 34 0 84 124 74 126 170 109
129 176 106 140 188 112 116 163 83 63 107 28 0 23 0 105 153 77
132 185 105 115 179 92 107 181 84 102 184 76 103 189 78 105 189 78
105 189 78 105 189 78 105 189 77 106 188 77 106 189 75 108 188 73
108 188 73 109 188 73 109 188 71 110 187 71 110 187 71 112 186 71
112 186 71 112 186 71 110 187 71 109 188 69 109 189 68 109 188 69
109 188 69 109 188 69 109 188 69 109 188 71 109 188 71 112 191 74
110 189 72 108 187 72 101 180 65 113 192 77 110 189 74 111 189 77
62 129 32 0 32 0 118 157 94 119 171 88 119 184 80 119 194 76
108 192 68 101 189 69 100 189 71 105 189 77 106 189 73 109 189 68
110 189 64 109 190 62 108 190 66 108 189 71 106 189 73 108 189 71
108 189 69 108 189 69 108 189 69 108 189 69 108 189 69 108 189 69
108 189 69 108 189 69 108 189 69 108 189 69 108 189 69 108 189 69
108 189 69 108 189 69 108 189 69 108 189 68 108 189 68 108 189 69
108 189 71 106 189 73 106 189 73 106 189 71 106 190 69 103 187 63
103 188 61 106 188 62 107 189 63 110 190 69 113 192 73 115 194 77
124 190 93 0 29 0 30 62 12 135 179 104 123 180 86 104 176 66
113 193 78 105 189 77 101 187 78 105 188 82 106 188 80 108 188 73
109 188 69 108 189 69 106 189 73 105 189 78 103 189 78 101 192 73
101 193 68 102 193 66 102 193 62 105 192 59 106 192 57 109 191 57
110 190 57 109 185 59 121 192 74 121 188 82 116 177 82 117 175 91
122 178 103 112 164 98 96 141 86 29 62 19 16 40 6 0 11 0 20 34 11
0 6 0 0 1 0 27 23 22 6 0 2 18 8 16 176 166 175 223 216 224
219 216 223 247 246 251 250 254 255 241 247 247 251 255 255
239 241 240 239 239 239 224 224 224 240 240 240 236 236 236
254 254 254 241 241 241 241 241 241 238 238 238 233 233 233
247 247 247 242 242 242 242 242 242 248 248 248 234 234 234
240 240 240 232 232 232 250 250 250 245 245 245 253 253 253
244 244 244 227 227 227 240 240 240 234 234 234 247 247 247
247 247 247 246 246 246 245 245 245 242 242 242 236 236 236
230 230 230 235 235 235 238 238 238 246 246 246 251 251 251
239 239 239 234 234 234 222 222 222 226 226 226 240 240 240
244 244 244 129 129 129 5 5 5 4 4 4 14 16 11 0 5 0 14 31 13 5 27 6
0 26 0 58 91 48 124 161 107 138 178 108 131 172 96 135 176 100 0 41 0
18 61 0 115 166 97 125 186 109 119 189 101 104 185 82 103 190 77
105 189 78 105 189 77 105 189 77 105 189 75 106 189 75 106 189 73
108 189 71 108 189 71 109 188 71 109 188 71 109 188 71 110 187 71
110 187 71 110 187 71 112 186 73 110 187 71 109 188 69 109 189 68
109 188 69 109 188 69 109 188 69 109 188 69 109 188 71 109 188 71
113 192 75 109 188 71 106 185 70 101 180 65 115 194 79 112 191 76
109 187 75 56 123 26 0 32 0 125 164 101 118 170 87 119 184 80
123 198 80 106 190 66 101 189 69 99 188 70 105 189 77 106 189 73
109 189 68 110 189 64 109 190 62 108 190 66 108 189 71 106 189 73
108 189 71 108 189 69 108 189 69 108 189 69 108 189 69 108 189 69
108 189 69 108 189 69 108 189 69 108 189 69 108 189 69 108 189 69
108 189 69 108 189 69 108 189 69 108 189 69 108 189 68 108 189 69
108 189 71 108 189 71 106 189 73 106 189 71 106 190 69 106 190 68
106 191 64 105 190 61 106 188 60 107 188 60 109 189 66 113 191 71
119 194 76 128 190 93 0 28 0 37 67 17 136 178 106 123 180 86
109 178 69 113 192 77 105 189 77 101 187 78 105 188 82 105 189 78
106 189 73 106 190 69 106 190 69 105 190 71 102 190 77 101 191 77
101 192 71 101 193 68 101 194 64 102 193 62 105 192 59 108 191 59
110 190 59 113 187 62 121 190 73 117 180 73 114 171 77 121 174 94
133 180 112 114 157 101 54 93 46 0 30 0 0 12 0 0 7 0 16 27 11 7 13 1
5 6 0 15 12 7 10 4 4 80 71 74 215 206 211 252 246 250 255 252 255
243 241 246 217 216 221 226 230 233 236 241 244 244 250 250
254 255 255 255 255 255 241 241 241 233 233 233 219 219 219
228 228 228 241 241 241 255 255 255 255 255 255 249 249 249
235 235 235 229 229 229 229 229 229 236 236 236 250 250 250
255 255 255 249 249 249 243 243 243 228 228 228 232 232 232
241 241 241 246 246 246 254 254 254 249 249 249 238 238 238
231 231 231 228 228 228 236 236 236 250 250 250 222 222 222
222 222 222 218 218 218 238 238 238 255 255 255 255 255 255
247 247 247 228 228 228 231 231 231 221 221 221 221 221 221
251 251 251 254 254 254 138 138 138 11 11 11 2 2 0 6 7 1 11 16 9
0 6 1 0 13 3 0 9 0 18 44 5 110 141 84 130 162 97 153 185 118
82 117 53 0 24 0 56 101 44 114 170 105 122 189 109 109 187 85
108 192 78 103 190 73 103 191 71 103 191 71 103 191 69 105 190 69
105 191 68 106 190 68 106 190 66 108 189 68 108 189 68 108 189 68
109 188 69 109 188 71 109 188 73 110 187 75 109 188 73 109 188 69
109 189 68 109 188 69 109 188 69 109 188 69 109 188 69 109 188 71
109 188 71 114 193 76 109 188 71 105 184 69 101 180 65 116 195 80
113 192 77 107 185 73 51 118 21 0 32 0 130 169 106 117 169 86
119 184 80 125 200 82 105 189 65 101 189 69 99 188 70 105 189 77
106 189 73 109 189 68 110 189 64 109 190 62 108 190 66 108 189 71
106 189 73 108 189 71 108 189 69 108 189 69 108 189 69 108 189 69
108 189 69 108 189 69 108 189 69 108 189 69 108 189 69 108 189 69
108 189 69 108 189 69 108 189 69 108 189 69 108 189 69 109 188 69
109 188 69 108 189 71 108 189 71 106 189 71 105 190 71 105 191 68
105 191 66 110 195 66 108 193 63 107 190 60 106 187 59 110 186 64
113 188 69 118 191 74 128 188 92 0 28 0 50 78 27 135 177 103
125 180 86 115 185 73 111 190 73 104 188 74 102 189 76 105 189 78
105 189 75 106 190 69 106 190 66 105 191 64 103 192 66 102 191 73
101 192 73 101 193 68 101 193 66 102 193 66 103 192 64 106 191 64
109 189 66 113 186 69 116 184 75 116 178 77 110 164 76 122 170 96
127 169 106 75 112 61 0 30 0 0 12 0 5 27 4 0 12 2 3 8 4 17 19 16
0 0 0 16 12 9 20 15 12 126 118 116 216 206 207 255 252 253
255 253 255 246 241 245 233 233 235 224 225 229 230 234 237
214 219 222 251 255 255 254 255 255 255 255 255 251 251 251
227 227 227 215 215 215 212 212 212 237 237 237 255 255 255
255 255 255 255 255 255 223 223 223 223 223 223 223 223 223
224 224 224 255 255 255 255 255 255 255 255 255 232 232 232
220 220 220 216 216 216 233 233 233 254 254 254 253 253 253
254 254 254 228 228 228 221 221 221 219 219 219 229 229 229
246 246 246 216 216 216 221 221 221 211 211 211 237 237 237
255 255 255 252 252 252 252 252 252 226 226 226 215 215 215
211 211 211 243 243 243 254 254 254 255 255 255 241 241 241
122 122 122 1 0 0 3 0 0 3 0 0 16 15 20 0 2 2 0 4 0 3 21 0 4 25 0
49 73 23 134 158 106 150 178 129 13 44 3 0 31 0 95 146 89 121 185 109
112 189 87 114 197 81 105 190 69 103 192 66 105 191 66 105 191 64
105 191 64 105 192 62 106 191 62 106 191 62 106 191 62 106 191 64
108 190 66 108 189 68 108 189 71 108 188 73 108 188 75 108 188 73
109 188 69 109 189 68 109 188 69 109 188 69 109 188 69 109 188 69
109 188 71 109 188 71 114 193 76 109 188 71 105 184 69 101 180 65
117 196 81 113 192 77 106 184 72 49 116 19 0 32 0 133 172 109
117 169 86 119 184 80 127 202 84 104 188 64 100 188 68 98 187 69
105 189 77 106 189 73 109 189 68 110 189 64 109 190 62 108 190 66
108 189 71 106 189 73 108 189 71 108 189 69 108 189 69 108 189 69
108 189 69 108 189 69 108 189 69 108 189 69 108 189 69 108 189 69
108 189 69 108 189 69 108 189 69 108 189 69 108 189 69 108 189 69
109 188 69 109 188 69 108 189 71 106 189 71 106 189 71 105 190 69
105 191 68 105 191 64 113 198 69 110 195 65 109 190 61 107 186 59
110 184 63 115 186 68 120 188 75 129 186 92 0 29 0 59 88 34
134 176 100 125 181 84 120 190 76 109 189 68 103 188 69 104 189 72
105 189 75 106 189 71 106 191 64 106 191 61 105 192 59 103 193 61
103 191 68 102 192 69 102 193 66 103 192 66 105 190 69 106 189 71
110 187 75 113 184 78 116 182 84 120 178 91 134 185 108 126 171 104
81 118 64 15 46 2 0 12 0 0 18 0 10 29 9 8 22 9 2 6 7 0 0 5 1 0 4
10 5 9 30 24 26 176 167 168 243 234 235 222 214 212 235 226 227
235 229 229 237 233 234 255 255 255 219 220 222 207 212 215
214 219 223 235 240 243 248 249 251 247 247 247 252 252 252
224 224 224 220 220 220 206 206 206 233 233 233 247 247 247
247 247 247 255 255 255 214 214 214 223 223 223 223 223 223
215 215 215 255 255 255 249 249 249 254 254 254 225 225 225
218 218 218 209 209 209 226 226 226 253 253 253 246 246 246
253 253 253 222 222 222 218 218 218 217 217 217 225 225 225
238 238 238 240 240 240 235 235 235 249 249 249 235 235 235
228 228 228 238 238 238 234 234 234 253 253 253 228 228 228
242 242 242 242 242 242 235 235 235 254 254 254 236 236 236
243 243 243 206 205 203 7 0 0 14 6 3 10 5 11 4 5 10 4 9 12 0 7 0
0 7 0 0 9 0 1 18 0 89 110 79 108 132 106 0 19 0 2 48 1 112 169 100
121 191 93 97 176 59 93 177 53 104 191 61 116 201 72 116 201 71
106 192 59 100 186 51 101 189 53 106 194 58 112 199 66 105 192 61
101 186 59 103 187 63 110 194 73 113 196 80 109 192 78 103 186 72
108 189 69 109 189 68 109 188 69 109 188 69 109 188 69 109 188 69
109 188 71 109 188 71 106 185 68 115 194 77 105 184 69 107 186 71
105 184 69 113 192 77 117 195 83 70 137 40 3 45 0 108 147 84
119 171 88 115 180 76 116 191 73 105 189 65 104 192 72 95 184 66
105 189 77 106 189 73 109 189 68 110 189 64 109 190 62 108 190 66
108 189 71 106 189 73 108 189 71 108 189 69 108 189 69 108 189 69
108 189 69 108 189 69 108 189 69 108 189 69 108 189 69 108 189 69
108 189 69 108 189 69 108 189 69 108 189 69 108 189 69 108 189 69
109 188 71 109 188 71 108 189 71 106 189 71 106 190 69 105 191 68
103 192 66 103 192 62 99 186 55 101 187 54 122 203 74 121 197 71
107 178 58 120 188 75 127 193 85 103 156 66 0 29 0 74 105 46
131 174 94 113 171 69 127 198 80 108 188 63 104 188 66 115 200 79
104 188 67 103 185 61 102 183 52 106 188 52 110 194 56 110 196 59
106 191 62 100 186 61 97 181 59 105 186 68 109 187 75 107 182 79
110 177 84 116 178 95 127 180 108 132 180 118 85 125 75 0 28 0 0 19 0
0 12 0 9 26 7 8 21 4 0 5 0 3 10 3 18 17 23 3 0 9 23 17 27 115 108 116
219 212 219 255 248 253 235 226 227 252 243 244 241 233 231
239 234 231 239 235 234 237 237 237 238 239 241 236 241 244
237 242 246 237 242 245 230 231 233 240 240 240 228 228 228
239 239 239 241 241 241 233 233 233 247 247 247 238 238 238
244 244 244 239 239 239 235 235 235 230 230 230 230 230 230
235 235 235 239 239 239 244 244 244 228 228 228 253 253 253
238 238 238 241 241 241 245 245 245 229 229 229 240 240 240
248 248 248 237 237 237 237 237 237 237 237 237 236 236 236
235 235 235 250 250 250 248 248 248 255 255 255 236 236 236
218 218 218 223 223 223 227 227 227 251 251 251 251 251 251
255 255 255 242 242 242 220 220 220 228 228 228 224 224 224
254 254 254 245 241 240 255 250 245 112 101 99 10 4 8 7 4 13 6 9 14
0 2 2 4 12 1 16 27 11 0 5 0 9 22 5 17 33 22 45 70 49 3 41 2 35 85 22
107 170 81 132 204 96 108 186 67 105 185 60 102 182 57 100 181 53
100 181 50 103 186 52 108 192 55 110 196 59 111 197 62 106 192 59
102 189 59 104 190 65 110 195 74 111 196 79 106 190 76 99 183 69
108 189 69 109 189 68 109 188 69 109 188 69 109 188 69 109 188 69
109 188 71 109 188 71 106 185 68 115 194 77 106 185 70 106 185 70
105 184 69 113 192 77 115 193 81 74 141 44 0 41 0 99 138 75
119 171 88 118 183 79 122 197 79 103 187 63 98 186 66 102 191 73
105 189 77 106 189 73 109 189 68 110 189 64 109 190 62 108 190 66
108 189 71 106 189 73 108 189 71 108 189 69 108 189 69 108 189 69
108 189 69 108 189 69 108 189 69 108 189 69 108 189 69 108 189 69
108 189 69 108 189 69 108 189 69 108 189 69 108 189 69 108 189 69
109 188 71 109 188 71 108 189 71 106 190 69 105 190 69 103 191 68
103 192 66 103 192 62 100 187 56 105 190 60 122 203 75 117 193 69
107 177 61 111 177 69 129 190 87 96 149 61 0 35 0 105 140 76
143 191 105 119 181 74 124 198 75 111 192 64 99 183 59 95 179 57
110 191 71 108 188 65 108 185 55 112 188 54 116 194 58 117 194 62
111 190 63 106 184 64 120 194 81 126 197 91 118 184 87 112 174 88
137 193 120 142 192 131 70 112 64 0 15 0 1 29 4 0 9 0 1 19 5 0 8 0
1 11 2 1 8 0 3 9 0 0 0 0 1 0 7 55 49 63 183 175 188 240 232 243
232 225 233 249 242 249 255 252 255 255 252 252 242 236 236
223 219 218 224 223 221 220 220 218 254 255 255 250 254 255
251 255 255 234 239 242 220 221 223 230 230 230 225 225 225
245 245 245 255 255 255 248 248 248 247 247 247 227 227 227
222 222 222 223 223 223 251 251 251 252 252 252 252 252 252
251 251 251 223 223 223 222 222 222 220 220 220 253 253 253
252 252 252 254 254 254 245 245 245 219 219 219 222 222 222
227 227 227 251 251 251 255 255 255 255 255 255 247 247 247
232 232 232 255 255 255 255 255 255 255 255 255 237 237 237
214 214 214 214 214 214 223 223 223 247 247 247 255 255 255
255 255 255 246 246 246 222 222 222 221 221 221 221 221 221
255 255 255 255 254 253 251 242 237 251 242 237 147 141 143 21 19 24
0 0 5 22 26 29 23 27 28 17 21 20 0 2 1 0 1 0 0 3 2 5 23 11 2 31 0
0 20 0 80 132 57 127 188 95 119 184 80 115 183 74 111 181 67
109 179 63 108 182 61 111 187 61 114 193 65 117 198 67 107 188 57
99 182 52 90 175 46 89 175 50 96 181 60 104 191 74 110 197 82
114 198 84 108 189 69 109 189 68 109 188 69 109 188 69 109 188 69
109 188 69 109 188 71 109 188 71 107 186 69 114 193 76 107 186 71
106 185 70 106 185 70 113 192 77 112 190 78 82 149 52 0 33 0
86 125 62 122 174 91 119 184 80 127 202 84 102 186 62 94 182 62
110 199 81 105 189 77 106 189 73 109 189 68 110 189 64 109 190 62
108 190 66 108 189 71 106 189 73 108 189 71 108 189 69 108 189 69
108 189 69 108 189 69 108 189 69 108 189 69 108 189 69 108 189 69
108 189 69 108 189 69 108 189 69 108 189 69 108 189 69 108 189 69
108 189 69 109 188 69 109 188 69 108 189 69 106 190 69 105 190 69
103 191 68 103 192 66 103 192 62 109 196 65 105 190 61 113 192 67
108 181 64 114 182 73 117 179 78 133 190 96 65 114 32 0 30 0
119 160 90 129 182 90 108 172 60 110 186 60 114 197 67 108 192 68
103 184 64 117 196 79 116 191 73 117 187 65 120 189 64 127 193 69
126 194 73 122 189 74 117 183 77 125 185 89 120 176 89 121 172 95
111 157 92 63 106 53 5 42 1 0 17 0 3 27 11 8 27 21 0 5 2 0 8 7
11 17 17 14 18 17 0 1 0 3 4 0 8 7 5 171 165 175 231 225 239
244 238 250 217 211 221 238 233 240 252 247 253 235 229 233
249 245 246 243 239 240 212 211 209 216 215 213 211 211 209
254 255 255 252 255 255 252 255 255 233 237 238 216 218 217
223 223 223 224 224 224 248 248 248 255 255 255 255 255 255
245 245 245 220 220 220 219 219 219 217 217 217 255 255 255
255 255 255 255 255 255 255 255 255 217 217 217 219 219 219
217 217 217 250 250 250 255 255 255 255 255 255 244 244 244
214 214 214 210 210 210 212 212 212 246 246 246 255 255 255
255 255 255 251 251 251 234 234 234 247 247 247 247 247 247
249 249 249 238 238 238 227 227 227 226 226 226 231 231 231
241 241 241 255 255 255 254 254 254 237 237 237 218 218 218
215 215 215 224 224 224 251 251 251 255 255 253 255 249 247
228 220 217 232 228 225 199 199 197 80 84 83 0 1 2 0 0 5 8 8 16
19 17 28 13 12 20 0 0 5 1 10 5 7 26 4 0 25 0 0 41 0 69 116 46
122 174 92 126 180 92 130 186 95 128 188 90 123 186 81 116 182 72
113 182 66 113 184 64 125 201 77 118 197 72 109 189 66 102 186 64
101 186 67 102 189 72 106 193 80 110 194 80 108 189 69 109 189 68
109 188 69 109 188 69 109 188 69 109 188 69 109 188 71 109 188 71
108 187 70 113 192 75 109 188 73 105 184 69 107 186 71 113 192 77
109 187 75 93 160 63 0 28 0 73 112 49 128 180 97 115 180 76
123 198 80 106 190 66 96 184 64 111 200 82 105 189 77 106 189 73
109 189 68 110 189 64 109 190 62 108 190 66 108 189 71 106 189 73
108 189 71 108 189 69 108 189 69 108 189 69 108 189 69 108 189 69
108 189 69 108 189 69 108 189 69 108 189 69 108 189 69 108 189 69
108 189 69 108 189 69 108 189 69 108 189 69 110 188 69 109 188 69
108 189 69 105 191 68 103 191 68 102 193 66 102 193 64 102 193 64
103 192 62 102 187 60 118 196 76 110 182 70 113 178 76 123 180 86
133 185 100 22 71 0 0 33 0 119 165 90 110 167 70 106 175 59
109 188 61 111 196 66 107 191 69 105 185 70 125 198 90 121 188 82
118 180 71 120 178 68 127 183 76 133 188 86 135 189 95 137 187 102
125 168 96 106 145 82 53 88 34 0 24 0 0 13 0 2 26 4 12 32 20 0 15 12
4 15 19 0 2 8 12 17 23 1 4 9 0 0 2 12 12 12 138 137 133 255 255 253
255 253 255 234 231 240 235 229 239 225 222 231 218 215 222
251 248 255 255 254 255 253 251 254 240 238 241 225 225 225
227 227 227 225 225 223 250 252 251 248 250 247 248 253 249
236 238 235 228 228 228 230 230 230 232 232 232 243 243 243
251 251 251 248 248 248 241 241 241 229 229 229 215 215 215
222 222 222 253 253 253 255 255 255 255 255 255 253 253 253
222 222 222 215 215 215 228 228 228 243 243 243 249 249 249
249 249 249 240 240 240 227 227 227 224 224 224 224 224 224
252 252 252 255 255 255 255 255 255 247 247 247 234 234 234
229 229 229 229 229 229 227 227 227 238 238 238 249 249 249
250 250 250 245 245 245 235 235 235 227 227 227 228 228 228
236 236 236 249 249 249 250 250 250 247 247 247 228 228 228
221 219 220 221 217 218 249 245 244 252 253 247 252 255 248
248 255 245 150 157 150 37 41 44 4 2 13 15 11 26 3 0 11 7 4 11 7 9 8
2 14 0 12 35 9 0 13 0 0 26 0 13 47 0 59 97 40 115 155 92 142 185 114
136 183 103 124 177 89 128 184 87 136 197 93 115 181 71 116 186 72
115 189 74 112 191 74 110 190 75 105 188 74 103 187 75 103 187 73
108 189 69 109 189 68 109 188 69 109 188 69 109 188 69 109 188 69
109 188 71 109 188 71 109 188 71 112 191 74 111 190 75 104 183 68
108 187 72 113 192 77 105 183 71 105 172 75 0 34 0 57 96 33
133 185 102 109 174 70 114 189 71 110 194 70 103 191 71 107 196 78
105 189 77 106 189 73 109 189 68 110 189 64 109 190 62 108 190 66
108 189 71 106 189 73 108 189 71 108 189 69 108 189 69 108 189 69
108 189 69 108 189 69 108 189 69 108 189 69 108 189 69 108 189 69
108 189 69 108 189 69 108 189 69 108 189 69 108 189 69 108 189 69
110 188 68 109 189 68 108 189 68 105 191 68 103 191 68 102 193 66
102 193 64 102 193 64 92 181 53 100 184 60 129 206 90 122 191 84
109 171 74 124 178 92 118 166 90 0 37 0 31 78 6 125 178 96 107 172 70
122 195 78 123 205 77 107 192 65 95 178 62 100 177 71 116 183 88
122 181 91 129 182 92 137 183 95 135 177 95 119 160 84 97 136 69
84 117 60 21 48 3 3 25 0 0 10 0 0 13 0 0 13 0 0 7 0 0 6 3 5 13 15
16 21 27 0 0 7 0 0 7 7 6 12 117 117 119 223 221 222 240 239 237
225 224 222 226 224 227 246 245 250 255 253 255 254 253 255
244 243 249 225 224 230 224 223 229 236 235 240 237 236 241
250 251 255 248 249 251 250 252 251 224 226 223 226 228 223
224 226 221 238 240 235 248 248 246 246 246 246 244 244 244
233 233 233 225 225 225 228 228 228 235 235 235 247 247 247
251 251 251 249 249 249 227 227 227 226 226 226 226 226 226
227 227 227 249 249 249 251 251 251 248 248 248 233 233 233
227 227 227 227 227 227 236 236 236 249 249 249 252 252 252
252 252 252 224 224 224 221 221 221 221 221 221 229 229 229
242 242 242 220 220 220 220 220 220 215 215 215 239 239 239
255 255 255 255 255 255 253 253 253 229 229 229 226 226 226
220 220 220 229 229 229 250 250 250 251 251 251 252 252 252
221 221 221 218 218 220 223 220 227 226 225 230 245 250 243
249 255 241 239 250 233 247 255 244 210 214 213 124 123 131 19 12 28
12 3 20 35 28 36 14 12 13 5 10 3 0 7 0 0 21 6 0 9 0 0 8 0 0 11 0
7 31 0 47 76 32 97 130 75 129 168 101 135 179 100 124 177 87
129 186 89 124 189 85 120 189 82 111 185 74 104 181 69 103 183 72
108 190 80 115 198 84 108 189 71 109 189 68 109 188 69 109 188 69
109 188 69 109 188 69 109 188 71 109 188 71 110 189 72 111 190 73
113 192 77 103 182 67 109 188 73 114 193 78 101 179 67 115 182 85
14 56 0 36 75 12 129 181 98 109 174 70 106 181 63 107 191 67
107 195 75 104 193 75 105 189 77 106 189 73 109 189 68 110 189 64
109 190 62 108 190 66 108 189 71 106 189 73 108 189 71 108 189 69
108 189 69 108 189 69 108 189 69 108 189 69 108 189 69 108 189 69
108 189 69 108 189 69 108 189 69 108 189 69 108 189 69 108 189 69
108 189 69 108 189 69 110 188 68 109 189 68 108 189 68 105 191 68
103 192 66 102 193 66 101 194 64 102 193 64 104 193 65 99 183 61
111 188 74 118 186 83 120 179 89 137 190 110 81 127 55 0 21 0
98 150 75 128 188 102 103 172 66 113 191 72 120 205 78 104 190 67
107 189 79 125 199 102 109 173 89 121 173 99 132 175 104 132 169 102
110 141 82 66 93 42 13 38 0 0 10 0 6 18 0 0 8 0 1 7 0 11 17 7
13 18 12 5 7 4 0 1 0 0 0 2 0 0 4 11 10 15 125 124 129 199 199 201
255 254 255 245 243 244 202 200 201 222 221 219 223 223 221
249 251 248 254 255 255 254 255 255 246 247 251 220 223 228
216 217 222 211 212 217 235 235 243 254 255 255 254 255 255
254 255 255 210 212 209 214 217 210 210 213 206 240 241 235
255 255 253 253 253 253 252 252 252 228 228 228 211 211 211
218 218 218 231 231 231 255 255 255 253 253 253 255 255 255
220 220 220 225 225 225 225 225 225 220 220 220 255 255 255
253 253 253 255 255 255 226 226 226 216 216 216 215 215 215
232 232 232 255 255 255 255 255 255 255 255 255 230 230 230
220 220 220 215 215 215 225 225 225 242 242 242 226 226 226
228 228 228 218 218 218 240 240 240 255 255 255 253 253 253
249 249 249 225 225 225 222 222 222 220 220 220 237 237 237
255 255 255 252 252 252 253 253 253 218 218 218 228 227 232
203 202 216 240 243 252 250 255 247 239 253 230 243 255 231
235 249 226 222 229 222 229 228 234 209 203 217 132 121 137 17 7 15
6 0 0 10 11 6 24 33 30 11 25 28 3 16 22 20 28 31 17 23 23 1 13 3
0 7 0 0 10 0 14 42 0 61 97 35 97 139 65 128 178 93 130 187 93
132 194 95 126 193 88 115 186 80 107 183 75 107 185 76 109 189 76
109 188 71 109 189 68 109 188 69 109 188 69 109 188 69 109 188 69
109 188 71 109 188 71 111 190 73 110 189 72 114 193 78 103 182 67
110 189 74 114 193 78 98 176 64 123 190 93 47 89 23 11 50 0
117 169 86 116 181 77 105 180 62 98 182 58 104 192 72 106 195 77
105 189 77 106 189 73 109 189 68 110 189 64 109 190 62 108 190 66
108 189 71 106 189 73 108 189 71 108 189 69 108 189 69 108 189 69
108 189 69 108 189 69 108 189 69 108 189 69 108 189 69 108 189 69
108 189 69 108 189 69 108 189 69 108 189 69 108 189 69 108 189 69
110 188 68 109 189 68 108 189 68 105 191 68 103 192 66 102 193 66
101 194 64 102 193 64 111 200 74 108 192 71 98 174 65 114 182 83
128 186 101 126 177 102 27 69 5 4 49 0 136 190 114 117 182 92
102 175 68 102 183 63 115 201 76 98 186 66 103 184 81 111 184 95
126 183 112 96 141 82 49 86 32 10 37 0 0 13 0 0 9 0 2 16 0 11 21 13
0 0 2 6 1 7 14 9 13 18 13 17 11 6 10 3 0 0 3 0 0 10 6 5 123 122 120
180 179 177 253 252 250 246 245 243 255 254 255 245 243 244
232 230 231 242 242 242 228 230 225 242 247 241 251 255 252
252 255 255 238 242 245 215 220 224 223 226 233 205 208 215
235 238 247 252 255 255 252 253 255 254 255 255 220 221 216
223 224 218 220 222 211 238 239 231 255 255 253 246 246 246
251 251 251 231 231 231 220 220 220 228 228 228 229 229 229
249 249 249 255 255 255 255 255 255 223 223 223 220 220 220
220 220 220 223 223 223 255 255 255 255 255 255 255 255 255
223 223 223 224 224 224 222 222 222 231 231 231 255 255 255
254 254 254 249 249 249 225 225 225 220 220 220 220 220 220
229 229 229 244 244 244 236 236 236 241 241 241 227 227 227
241 241 241 248 248 248 238 238 238 242 242 242 223 223 223
239 239 239 231 231 231 240 240 240 251 251 251 232 232 232
243 243 243 227 227 227 255 254 255 227 227 239 232 235 242
244 251 243 245 255 237 239 251 227 238 250 230 234 239 232
221 221 223 223 217 227 255 247 255 227 218 223 108 102 102 19 19 17
0 1 2 1 8 18 0 5 19 0 1 16 6 6 18 9 12 17 6 15 10 0 13 0 0 15 0
0 21 0 0 29 0 15 51 0 47 88 20 93 139 66 125 176 97 135 188 108
124 182 98 110 169 85 100 163 74 115 183 82 113 184 78 113 184 78
112 185 77 112 185 77 112 185 77 112 186 75 112 186 75 112 189 75
111 188 74 116 193 77 103 180 64 111 190 71 114 193 74 96 175 56
128 196 93 67 114 44 0 33 0 105 158 76 124 188 91 107 181 70
90 171 51 102 187 70 111 198 81 105 189 75 105 190 71 108 189 68
109 189 66 109 189 66 108 189 68 108 188 73 106 189 75 106 189 71
106 190 69 106 190 69 106 190 69 108 189 69 108 189 69 108 189 69
108 189 69 108 189 69 108 189 69 108 189 69 108 189 69 108 189 69
108 189 69 108 189 71 108 189 69 108 189 68 106 190 68 105 191 68
103 191 68 103 191 68 103 192 66 103 191 68 105 191 68 99 180 62
126 202 93 120 188 87 130 190 100 121 174 96 87 132 65 0 20 0
62 101 44 142 188 123 114 168 92 127 187 99 125 190 96 133 203 105
100 169 78 75 137 60 51 105 43 5 47 0 0 32 0 0 17 0 0 8 0 0 9 0
7 15 4 13 17 16 16 17 22 6 0 10 5 0 8 6 0 7 6 0 6 7 2 6 47 43 44
143 139 138 232 228 225 247 243 240 253 252 248 252 251 247
241 240 238 255 254 255 238 236 237 226 224 227 218 218 218
224 226 221 233 238 232 226 231 227 243 247 246 241 245 246
217 221 224 230 233 238 238 241 248 238 241 248 240 241 246
239 240 244 238 239 241 237 237 235 236 237 231 236 236 228
236 235 230 245 245 243 236 236 236 248 248 248 237 237 237
235 235 235 243 243 243 229 229 229 238 238 238 242 242 242
241 241 241 237 237 237 236 236 236 236 236 236 237 237 237
241 241 241 242 242 242 248 248 248 223 223 223 238 238 238
235 235 235 231 231 231 247 247 247 236 236 236 228 228 228
239 239 239 239 239 239 239 239 239 240 240 240 241 241 241
254 254 254 240 240 240 255 255 255 231 231 231 214 214 214
229 229 229 218 218 218 254 254 254 255 255 255 252 252 252
254 254 254 223 223 223 219 219 219 208 208 208 238 238 238
254 254 255 250 249 254 241 242 244 218 220 217 227 230 223
223 226 219 246 249 242 243 245 242 250 250 250 255 254 255
212 210 213 225 223 224 228 226 227 221 221 221 152 154 153 25 26 30
2 5 10 0 1 10 2 5 14 2 7 13 0 4 8 0 4 1 0 8 0 1 13 1 1 15 0 2 17 0
0 13 0 0 13 0 10 31 0 53 77 43 105 129 93 134 160 123 136 169 122
127 177 108 122 179 98 119 176 95 114 174 88 112 172 84 113 177 83
120 184 88 125 191 91 119 188 81 114 186 74 111 184 67 109 185 63
109 188 63 111 190 63 111 192 63 115 187 75 101 155 77 0 32 0
61 115 39 103 165 79 122 192 93 100 178 69 104 187 73 106 191 74
109 194 75 106 194 72 108 193 72 108 192 71 107 190 72 108 188 73
107 187 76 105 188 74 113 198 79 112 198 75 110 196 73 108 194 71
106 190 69 103 187 66 102 186 65 101 185 64 102 185 67 102 185 67
106 187 69 107 188 70 109 190 72 111 192 74 113 192 77 111 194 76
100 190 66 98 190 63 97 189 62 99 189 65 101 189 66 107 191 70
114 193 76 119 193 82 121 188 85 125 186 91 99 153 69 134 182 108
116 156 93 0 21 0 0 27 0 145 174 128 137 168 124 123 155 108
115 148 101 87 120 73 30 63 20 0 27 0 0 19 0 0 14 0 0 6 0 5 16 8
5 11 7 0 1 0 0 0 0 16 16 18 18 16 21 3 1 6 3 1 6 11 9 12 11 9 12
66 64 67 169 167 168 220 218 219 231 229 230 255 255 253 252 251 249
255 255 253 219 219 217 227 227 227 227 227 227 219 219 219
255 255 255 251 251 251 252 252 250 225 227 224 224 226 225
218 220 219 235 237 236 254 255 255 245 246 248 249 250 252
241 242 244 220 220 222 218 218 220 219 219 219 255 255 255
255 255 253 255 255 253 234 234 232 216 216 216 223 223 223
222 222 222 247 247 247 245 245 245 255 255 255 235 235 235
228 228 228 217 217 217 212 212 212 255 255 255 250 250 250
250 250 250 255 255 255 212 212 212 217 217 217 214 214 214
253 253 253 247 247 247 255 255 255 246 246 246 207 207 207
225 225 225 206 206 206 251 251 251 255 255 255 249 249 249
250 250 250 222 222 222 255 255 255 253 253 253 255 255 255
235 235 235 214 214 214 219 219 219 214 214 214 241 241 241
255 255 255 252 252 252 243 243 243 221 221 221 215 215 215
216 216 216 241 241 241 255 255 255 255 255 255 239 239 239
215 215 215 216 216 216 224 224 224 246 246 246 251 251 251
255 255 255 251 251 251 220 220 220 215 215 215 204 204 204
232 232 232 255 255 255 217 217 217 176 177 179 21 24 31 5 9 18 0 0 9
3 8 14 8 13 17 4 9 12 2 7 10 4 10 8 14 20 18 3 10 3 0 5 0 0 7 0 0 5 0
0 5 0 17 25 12 39 54 31 74 107 60 95 139 80 125 171 109 142 188 123
137 187 116 126 178 103 120 173 93 116 174 87 129 188 94 127 192 92
126 192 86 123 191 80 119 189 73 117 191 70 120 194 71 125 194 85
133 187 109 8 59 0 13 67 0 133 192 110 110 175 83 108 180 78
119 195 86 113 194 76 109 193 72 107 193 70 106 190 69 105 188 70
104 184 69 104 182 72 102 180 71 101 179 69 104 187 69 104 188 66
104 188 67 104 188 67 106 187 67 105 186 66 105 186 66 105 186 68
112 191 74 112 191 74 111 190 75 109 188 73 109 186 72 108 185 71
107 184 72 105 184 69 112 199 82 108 199 80 107 196 78 107 191 77
109 189 78 110 186 78 116 184 81 120 181 86 128 184 97 118 167 88
141 184 115 130 168 109 31 60 12 8 35 0 92 116 80 115 139 105
77 98 67 23 43 15 0 16 0 3 21 0 0 13 0 0 5 0 3 12 9 12 17 20 4 7 12
0 0 7 4 3 11 16 13 20 17 12 19 6 1 8 7 0 7 15 10 16 19 17 20
127 127 127 214 214 214 234 234 234 227 227 227 213 213 213
225 225 225 255 255 255 255 255 255 255 255 255 222 222 222
222 222 222 222 222 222 222 222 222 255 255 255 255 255 255
255 255 255 232 232 232 219 219 219 214 214 214 231 231 231
252 252 252 252 252 252 254 254 254 236 236 236 219 219 219
214 214 214 222 222 222 254 254 254 255 255 255 255 255 255
240 240 240 216 216 216 220 220 220 226 226 226 249 249 249
255 255 255 255 255 255 237 237 237 220 220 220 215 215 215
218 218 218 254 254 254 255 255 255 255 255 255 254 254 254
218 218 218 215 215 215 218 218 218 250 250 250 253 253 253
255 255 255 246 246 246 214 214 214 223 223 223 211 211 211
237 237 237 248 248 248 249 249 249 247 247 247 228 228 228
244 244 244 245 245 245 246 246 246 237 237 237 228 228 228
227 227 227 232 232 232 241 241 241 255 255 255 248 248 248
229 229 229 222 222 222 215 215 215 230 230 230 243 243 243
255 255 255 255 255 255 238 238 238 219 219 219 207 207 207
225 225 225 238 238 238 255 255 255 255 255 255 254 254 254
235 235 235 229 229 229 222 222 222 223 223 223 252 252 252
255 255 255 239 240 242 235 238 245 183 186 195 95 98 105 15 18 25
0 0 5 0 1 4 9 13 16 5 9 8 22 26 25 13 18 12 0 5 0 0 2 0 1 7 0 8 14 4
8 14 2 0 11 0 0 16 0 0 19 0 0 28 0 15 51 3 51 90 37 90 131 73
122 164 101 135 182 114 113 161 87 118 171 91 125 179 95 122 178 89
112 171 77 107 169 72 111 173 74 118 177 85 123 173 100 65 112 44
0 35 0 120 173 93 108 167 77 106 172 72 122 191 84 133 207 94
113 190 74 112 191 72 111 189 70 110 187 71 110 184 71 109 181 73
108 179 73 107 179 71 107 181 68 106 184 65 107 184 68 108 185 69
112 186 71 114 188 73 115 189 74 115 189 76 109 181 69 110 182 70
111 183 73 112 184 74 116 185 76 118 187 78 119 188 81 117 188 82
105 179 80 105 180 85 107 181 86 109 180 86 111 177 87 112 174 88
115 170 87 116 167 90 124 169 100 135 175 113 110 144 93 58 87 43
7 28 0 0 13 0 9 27 3 0 14 0 2 20 0 0 8 0 0 7 0 0 15 0 3 15 3 6 17 9
9 18 15 4 9 12 15 18 23 5 6 11 1 0 6 2 0 6 3 0 5 21 16 22 95 90 94
174 169 173 251 249 250 251 251 251 246 246 246 235 235 235
222 222 222 218 218 218 229 229 229 245 245 245 255 255 255
248 248 248 230 230 230 220 220 220 220 220 220 230 230 230
248 248 248 255 255 255 255 255 255 244 244 244 219 219 219
216 216 216 225 225 225 236 236 236 253 253 253 255 255 255
228 228 228 223 223 223 217 217 217 232 232 232 244 244 244
255 255 255 253 253 253 248 248 248 220 220 220 222 222 222
239 239 239 252 252 252 255 255 255 255 255 255 237 237 237
215 215 215 217 217 217 229 229 229 249 249 249 255 255 255
255 255 255 249 249 249 229 229 229 217 217 217 224 224 224
240 240 240 253 253 253 255 255 255 249 249 249 233 233 233
225 225 225 219 219 219 246 246 246 251 251 251 255 255 255
244 244 244 235 235 235 225 225 225 231 231 231 222 222 222
240 240 240 251 251 251 246 246 246 249 249 249 233 233 233
224 224 224 232 232 232 230 230 230 253 253 253 246 246 246
254 254 254 232 232 232 225 225 225 231 231 231 231 231 231
247 247 247 238 238 238 251 251 251 234 234 234 237 237 237
228 228 228 235 235 235 244 244 244 247 247 247 255 255 255
232 232 232 213 213 213 236 236 236 239 240 242 251 251 255
251 254 255 251 254 255 223 226 231 147 150 155 54 58 61 0 4 5 0 1 0
0 1 0 0 3 0 5 10 4 2 7 0 4 9 2 10 16 6 6 12 2 0 5 0 13 31 9 0 18 0
0 10 0 0 11 0 0 25 0 9 37 0 5 36 0 0 29 0 19 56 4 46 85 28 81 123 60
103 148 83 113 158 89 119 165 93 127 175 101 138 183 114 115 155 93
128 168 108 0 28 0 50 96 24 137 188 109 130 186 97 105 167 70
108 173 71 114 181 76 114 181 75 115 182 76 116 183 78 118 183 81
119 183 86 121 182 87 122 183 88 117 182 80 116 183 78 116 183 78
117 184 79 117 184 79 119 184 82 119 184 82 120 185 83 117 179 80
117 179 80 118 180 81 119 181 82 120 180 84 121 181 85 122 182 86
122 181 91 110 168 91 115 172 101 120 175 107 121 174 106 110 161 94
92 138 74 74 115 55 62 99 45 2 36 0 8 36 0 0 13 0 0 8 0 7 22 3
11 23 9 0 9 0 0 5 0 0 11 0 4 21 2 9 23 6 0 10 0 0 5 0 0 3 0 7 13 11
10 16 16 10 11 15 0 0 4 7 6 11 71 70 75 167 165 170 238 233 237
253 249 250 236 234 235 239 237 238 218 218 218 227 227 227
250 250 250 251 251 251 248 248 248 247 247 247 236 236 236
228 228 228 228 228 228 249 249 249 249 249 249 249 249 249
249 249 249 228 228 228 228 228 228 224 224 224 246 246 246
245 245 245 255 255 255 246 246 246 225 225 225 234 234 234
225 225 225 246 246 246 255 255 255 246 246 246 250 250 250
226 226 226 230 230 230 221 221 221 230 230 230 254 254 254
244 244 244 247 247 247 228 228 228 239 239 239 229 229 229
244 244 244 243 243 243 250 250 250 251 251 251 231 231 231
232 232 232 232 232 232 231 231 231 251 251 251 250 250 250
255 255 255 235 235 235 232 232 232 223 223 223 231 231 231
249 249 249 243 243 243 251 251 251 232 232 232 228 228 228
240 240 240 232 232 232 250 250 250 226 226 226 229 229 229
213 213 213 243 243 243 255 255 255 255 255 255 249 249 249
212 212 212 218 218 218 227 227 227 229 229 229 255 255 255
253 253 253 255 255 255 231 231 231 219 219 219 224 224 224
237 237 237 255 255 255 252 252 252 248 248 248 220 220 220
225 225 225 223 223 223 212 212 212 255 255 255 253 253 253
245 245 245 234 234 234 221 221 221 237 237 237 230 231 233
254 255 255 252 255 255 249 252 255 227 230 235 219 222 227
218 222 225 201 205 206 175 179 178 52 56 55 16 21 17 0 2 0 0 2 0
8 13 6 8 14 4 0 5 0 0 4 0 12 22 13 7 19 9 2 14 4 0 10 0 0 7 0 0 7 0
0 9 0 0 11 0 0 12 0 0 18 0 0 20 0 0 15 0 0 13 0 0 25 0 21 52 8
44 75 31 65 93 52 111 139 98 11 43 0 27 62 8 132 170 109 138 181 112
113 161 85 117 169 87 115 167 84 116 170 84 119 173 87 123 177 93
128 180 98 132 183 106 137 185 111 136 187 110 131 184 104
130 183 101 129 182 100 127 180 98 125 178 96 124 175 96 123 174 95
122 173 94 126 174 98 123 171 95 118 166 90 112 160 84 105 151 78
99 145 72 93 139 66 91 136 69 52 92 42 38 77 33 18 55 14 0 33 0
0 20 0 0 18 0 0 21 0 1 24 0 0 9 0 0 7 0 4 16 2 0 10 1 0 2 0 5 9 10
15 16 21 0 5 5 0 9 0 0 6 0 0 5 0 0 12 2 6 15 10 0 9 6 0 5 5 5 11 11
77 78 80 144 145 147 214 214 216 245 245 245 254 252 253 255 255 253
255 251 250 242 241 239 225 223 224 212 212 212 226 226 226
247 247 247 255 255 255 255 255 255 251 251 251 197 197 197
223 223 223 222 222 222 253 253 253 253 253 253 253 253 253
253 253 253 222 222 222 223 223 223 217 217 217 252 252 252
255 255 255 255 255 255 243 243 243 212 212 212 222 222 222
219 219 219 240 240 240 255 255 255 255 255 255 255 255 255
217 217 217 215 215 215 215 215 215 236 236 236 255 255 255
255 255 255 255 255 255 230 230 230 226 226 226 212 212 212
237 237 237 250 250 250 255 255 255 255 255 255 225 225 225
225 225 225 225 225 225 225 225 225 255 255 255 255 255 255
254 254 254 221 221 221 219 219 219 215 215 215 240 240 240
255 255 255 251 251 251 253 253 253 230 230 230 217 217 217
223 223 223 224 224 224 255 255 255 222 222 222 224 224 224
213 213 213 241 241 241 255 255 255 255 255 255 251 251 251
220 220 220 225 225 225 228 228 228 231 231 231 248 248 248
251 251 251 252 252 252 234 234 234 223 223 223 225 225 225
242 242 242 255 255 255 254 254 254 240 240 240 220 220 220
222 222 222 226 226 226 215 215 215 255 255 255 255 255 255
245 245 245 232 232 232 213 213 213 217 217 217 214 214 216
247 248 253 246 249 254 252 255 255 249 253 255 226 230 233
206 210 211 219 223 224 246 250 249 252 255 255 223 228 224
167 172 168 99 104 98 37 42 36 0 5 0 0 2 0 2 7 1 1 2 4 3 4 8 8 9 11
11 15 16 13 17 16 11 17 13 6 12 8 0 10 2 2 12 3 6 18 6 8 22 7 2 19 3
0 10 0 0 7 0 0 13 0 3 20 1 0 12 0 12 31 9 0 9 0 0 19 0 0 19 0 0 28 0
0 27 0 0 37 0 35 73 14 36 76 14 40 78 17 44 84 24 50 88 31 54 91 37
57 94 42 59 96 44 55 94 39 53 94 36 52 91 34 49 88 31 46 85 30
44 83 28 42 79 25 41 78 24 13 50 0 13 47 0 8 42 0 3 37 0 0 31 0
0 25 0 0 20 0 0 17 0 0 23 0 0 20 1 0 18 0 0 17 0 0 15 0 0 14 0 1 15 0
3 15 3 0 5 0 0 2 0 22 26 27 16 17 21 0 0 7 0 0 9 0 0 11 0 0 8
11 20 17 4 15 7 0 4 0 0 3 0 44 53 50 116 125 124 186 192 192
235 239 240 236 237 239 227 229 228 221 221 221 232 232 230
254 253 251 255 255 251 254 250 247 233 232 228 224 224 222
218 218 218 233 233 233 248 248 248 246 246 246 250 250 250
243 243 243 217 217 217 227 227 227 226 226 226 249 249 249
248 248 248 248 248 248 249 249 249 226 226 226 227 227 227
220 220 220 246 246 246 255 255 255 255 255 255 239 239 239
216 216 216 220 220 220 222 222 222 234 234 234 254 254 254
255 255 255 254 254 254 222 222 222 214 214 214 222 222 222
242 242 242 251 251 251 255 255 255 255 255 255 236 236 236
222 222 222 214 214 214 234 234 234 250 250 250 253 253 253
253 253 253 227 227 227 227 227 227 227 227 227 227 227 227
253 253 253 253 253 253 246 246 246 220 220 220 220 220 220
220 220 220 243 243 243 255 255 255 249 249 249 247 247 247
242 242 242 227 227 227 223 223 223 227 227 227 251 251 251
225 225 225 229 229 229 226 226 226 235 235 235 242 242 242
242 242 242 248 248 248 243 243 243 223 223 223 227 227 227
241 241 241 247 247 247 255 255 255 243 243 243 233 233 233
219 219 219 217 217 217 234 234 234 247 247 247 255 255 255
248 248 248 240 240 240 224 224 224 220 220 220 233 233 233
245 245 245 249 249 249 255 255 255 251 251 251 228 228 228
229 229 229 236 236 238 243 244 248 248 249 253 243 244 248
232 233 237 230 231 235 241 242 244 246 247 249 244 246 245
227 229 228 245 247 244 254 255 253 245 247 242 221 223 218
182 184 179 125 127 122 76 78 75 25 23 28 16 13 22 6 3 12 2 0 8 3 0 7
2 1 7 0 0 5 0 0 4 0 0 4 0 4 5 4 8 9 4 10 10 3 9 9 0 9 6 1 10 7
2 11 10 21 29 32 0 4 7 0 5 4 15 26 20 0 5 0 3 20 2 0 13 0 0 10 0
0 12 0 0 14 0 0 14 0 0 17 0 0 18 0 0 20 0 0 20 0 0 22 0 0 22 0 0 22 0
0 20 0 0 19 0 0 18 0 0 17 0 0 15 0 0 15 0 0 15 0 0 14 0 0 14 0 0 14 0
0 14 0 0 15 0 0 14 0 0 14 0 0 8 2 0 7 6 1 7 5 0 6 4 0 4 5 0 1 2 0 1 2
0 1 4 20 21 25 0 0 5 10 9 17 10 8 19 0 0 11 9 5 20 16 12 27 18 18 30
19 24 27 97 106 105 164 173 172 198 204 204 230 236 236 251 255 255
251 255 255 247 251 252 238 240 239 223 225 224 218 218 216
230 231 226 244 243 239 246 245 240 240 239 234 237 236 231
243 243 241 224 224 224 224 224 224 243 243 243 248 248 248
241 241 241 233 233 233 228 228 228 223 223 223 228 228 228
246 246 246 251 251 251 251 251 251 246 246 246 228 228 228
223 223 223 216 216 216 225 225 225 249 249 249 255 255 255
253 253 253 244 244 244 223 223 223 217 217 217 249 249 249
252 252 252 255 255 255 243 243 243 233 233 233 219 219 219
224 224 224 227 227 227 251 251 251 247 247 247 232 232 232
225 225 225 215 215 215 228 228 228 242 242 242 255 255 255
255 255 255 248 248 248 227 227 227 219 219 219 219 219 219
227 227 227 248 248 248 255 255 255 252 252 252 237 237 237
229 229 229 217 217 217 221 221 221 237 237 237 244 244 244
255 255 255 230 230 230 229 229 229 224 224 224 234 234 234
237 237 237 247 247 247 251 251 251 249 249 249 234 234 234
217 217 217 214 214 214 229 229 229 246 246 246 255 255 255
244 244 244 232 232 232 205 205 205 218 218 218 220 220 220
249 249 249 255 255 255 254 254 254 242 242 242 213 213 213
219 219 219 214 214 214 242 242 242 246 246 246 255 255 255
255 255 255 218 218 218 208 208 208 233 233 233 248 248 248
255 255 255 253 253 253 240 240 240 216 217 219 211 212 216
217 218 222 241 242 244 254 255 255 254 255 255 243 245 244
223 225 224 225 227 226 221 223 222 228 230 227 249 251 248
254 255 253 254 255 251 242 244 239 235 235 235 202 197 204
187 181 191 152 146 156 99 93 103 46 40 50 12 6 16 1 0 7 4 1 10 0 0 7
0 0 7 1 1 9 5 5 13 9 9 17 8 11 18 8 8 16 3 5 17 10 9 27 0 0 19 0 1 16
0 2 15 9 14 20 12 17 20 0 9 6 6 15 10 0 11 3 0 10 2 0 9 1 0 8 0 0 6 0
0 6 0 0 4 0 0 4 0 0 6 2 0 7 0 0 8 1 0 8 4 0 10 6 0 11 7 0 12 8
1 11 10 2 12 11 2 12 11 2 10 12 1 9 11 0 8 10 0 8 10 1 6 9 1 6 10
0 0 7 0 0 7 4 3 9 7 6 12 9 6 15 9 8 16 8 7 15 7 6 14 6 4 15 21 19 30
9 7 18 0 0 11 60 56 70 119 117 130 138 136 150 198 198 210
207 210 217 246 251 255 251 255 255 251 255 255 238 242 245
217 221 224 208 212 213 220 224 223 235 237 236 253 255 252
255 255 251 255 255 251 229 228 223 213 212 207 222 222 214
240 239 234 243 243 241 254 254 254 252 252 252 237 237 237
227 227 227 233 233 233 246 246 246 255 255 255 255 255 255
247 247 247 227 227 227 212 212 212 212 212 212 227 227 227
247 247 247 255 255 255 254 254 254 224 224 224 217 217 217
207 207 207 224 224 224 252 252 252 246 246 246 255 255 255
221 221 221 214 214 214 225 225 225 224 224 224 252 252 252
251 251 251 255 255 255 255 255 255 209 209 209 221 221 221
227 227 227 255 255 255 255 255 255 255 255 255 234 234 234
224 224 224 216 216 216 228 228 228 244 244 244 255 255 255
255 255 255 244 244 244 228 228 228 216 216 216 217 217 217
237 237 237 255 255 255 255 255 255 242 242 242 226 226 226
221 221 221 223 223 223 242 242 242 251 251 251 242 242 242
247 247 247 221 221 221 255 255 255 251 251 251 253 253 253
230 230 230 215 215 215 223 223 223 233 233 233 255 255 255
255 255 255 254 254 254 236 236 236 218 218 218 212 212 212
224 224 224 246 246 246 255 255 255 255 255 255 242 242 242
215 215 215 207 207 207 221 221 221 243 243 243 255 255 255
255 255 255 242 242 242 229 229 229 218 218 218 223 223 223
240 240 240 254 254 254 255 255 255 251 251 251 218 219 221
221 222 224 214 215 217 236 237 239 254 255 255 254 255 255
254 255 255 235 237 236 216 218 217 226 228 227 241 243 242
252 254 251 252 254 251 241 243 240 226 228 225 217 217 217
225 223 226 236 234 239 252 250 255 255 254 255 250 247 254
217 214 221 173 170 177 142 139 146 108 107 113 66 65 71 16 15 23
0 0 7 2 0 11 12 12 22 8 6 17 0 0 12 8 4 27 3 0 26 0 0 21 0 0 18
6 3 22 11 9 23 9 9 19 6 6 14 12 12 20 0 1 6 0 0 5 4 7 12 9 12 17
3 8 14 1 4 13 3 8 14 0 3 9 0 1 7 0 1 7 2 6 15 0 4 13 0 0 9 3 7 16
19 21 33 0 0 12 2 4 16 0 0 12 7 6 20 0 0 12 8 7 21 2 0 14 7 5 19
11 8 19 9 3 13 3 0 7 1 0 7 3 0 9 16 13 24 31 28 39 40 37 48
127 125 136 147 145 156 197 195 206 227 227 235 248 247 255
252 252 255 229 229 237 224 224 232 210 213 222 226 229 238
244 247 254 252 255 255 247 248 253 232 233 237 217 218 220
209 211 210 245 247 246 253 255 252 255 255 251 247 248 242
229 230 224 218 219 213 222 223 215 230 231 225 254 254 252
254 254 254 246 246 246 230 230 230 216 216 216 219 219 219
241 241 241 255 255 255 255 255 255 251 251 251 227 227 227
223 223 223 223 223 223 227 227 227 251 251 251 255 255 255
255 255 255 239 239 239 218 218 218 215 215 215 230 230 230
247 247 247 255 255 255 255 255 255 236 236 236 217 217 217
217 217 217 221 221 221 255 255 255 255 255 255 255 255 255
242 242 242 211 211 211 219 219 219 234 234 234 249 249 249
255 255 255 248 248 248 230 230 230 214 214 214 221 221 221
225 225 225 249 249 249 253 253 253 253 253 253 249 249 249
225 225 225 221 221 221 214 214 214 247 247 247 250 250 250
255 255 255 249 249 249 223 223 223 219 219 219 222 222 222
252 252 252 251 251 251 249 249 249 244 244 244 237 237 237
251 251 251 246 246 246 252 252 252 232 232 232 220 220 220
228 228 228 234 234 234 255 255 255 250 250 250 248 248 248
242 242 242 233 233 233 227 227 227 230 230 230 240 240 240
250 250 250 252 252 252 237 237 237 222 222 222 222 222 222
235 235 235 247 247 247 250 250 250 247 247 247 250 250 250
237 237 237 225 225 225 226 226 226 238 238 238 248 248 248
247 247 247 242 242 242 228 230 229 230 232 231 221 222 224
238 240 239 252 254 253 248 250 249 246 248 247 227 229 228
212 214 213 226 228 227 246 248 247 254 255 255 254 255 255
246 248 245 226 228 227 212 214 211 226 226 226 232 232 230
244 244 244 255 255 255 255 255 255 243 243 245 221 219 222
202 202 204 232 231 236 240 239 244 238 237 243 214 213 219
173 172 180 134 133 141 109 108 116 101 99 112 23 20 41 16 12 37
10 5 28 7 2 24 7 2 22 6 2 17 3 0 11 3 0 9 15 9 21 1 0 7 1 0 7 3 2 10
8 7 15 2 2 10 0 0 10 3 3 13 9 9 17 1 4 11 3 3 13 6 6 16 1 1 11 0 0 9
2 0 13 16 14 27 9 7 20 12 10 23 5 1 16 13 9 24 1 0 12 8 4 19 3 0 14
5 0 14 37 31 41 82 77 84 128 123 130 159 154 161 197 191 201
234 231 240 242 239 248 225 224 232 214 213 221 217 217 225
242 242 250 243 246 251 245 246 250 238 242 245 213 217 220
209 212 217 225 225 235 234 234 246 244 244 254 246 246 254
239 240 245 230 231 235 224 225 227 223 225 224 236 238 235
244 246 241 251 252 247 245 246 240 231 232 226 225 226 220
231 232 226 240 241 236 243 243 241 248 248 248 249 249 249
240 240 240 227 227 227 225 225 225 237 237 237 250 250 250
255 255 255 254 254 254 225 225 225 217 217 217 217 217 217
225 225 225 254 254 254 255 255 255 248 248 248 236 236 236
224 224 224 227 227 227 240 240 240 250 250 250 250 250 250
245 245 245 242 242 242 227 227 227 227 227 227 226 226 226
253 253 253 251 251 251 251 251 251 236 236 236 225 225 225
226 226 226 232 232 232 241 241 241 248 248 248 246 246 246
236 236 236 227 227 227 215 215 215 223 223 223 252 252 252
255 255 255 255 255 255 252 252 252 223 223 223 215 215 215
226 226 226 253 253 253 247 247 247 246 246 246 242 242 242
222 222 222 226 226 226 234 234 234 242 242 242 242 242 242
243 243 243 242 242 242 240 240 240 241 241 241 239 239 239
250 250 250 236 236 236 227 227 227 235 235 235 237 237 237
255 255 255 233 233 233 241 241 241 249 249 249 250 250 250
244 244 244 237 237 237 233 233 233 233 233 233 235 235 235
231 231 231 232 232 232 241 241 241 252 252 252 252 252 252
242 242 242 230 230 230 255 255 255 245 245 245 233 233 233
231 231 231 237 237 237 241 241 241 238 238 238 232 232 232
240 240 240 242 242 240 230 230 230 242 242 242 249 249 249
241 241 241 239 239 239 220 220 220 255 255 255 246 246 246
234 234 234 225 225 225 225 225 225 234 234 234 246 246 248
254 255 253 232 234 229 232 235 226 235 238 231 244 247 240
254 255 250 254 255 251 255 255 251 250 252 247 238 240 237
228 230 227 223 225 224 232 234 233 249 249 251 255 255 255
247 247 249 235 234 240 231 231 243 223 222 236 213 211 225
206 202 216 200 197 208 194 188 198 185 178 186 176 169 176
138 131 138 115 109 113 91 85 89 74 69 73 51 49 52 22 22 24 2 1 6
0 0 2 15 15 15 14 16 15 24 24 26 41 41 43 52 52 54 61 61 63 81 79 84
102 100 105 165 163 168 175 173 178 179 174 181 202 197 204
205 200 207 228 223 230 232 225 233 240 235 242 250 245 251
255 252 255 255 253 255 251 249 254 247 244 251 245 242 249
238 235 242 227 226 232 246 247 252 238 242 245 249 253 255
242 248 248 243 247 246 248 254 252 238 244 240 244 250 250
239 239 249 242 240 253 243 241 252 238 237 245 232 231 237
230 229 234 235 235 237 240 240 240 227 227 225 236 237 232
244 245 240 242 243 238 234 236 231 232 234 229 240 242 237
248 250 247 232 232 232 242 242 242 252 252 252 250 250 250
240 240 240 233 233 233 234 234 234 238 238 238 222 222 222
238 238 238 241 241 241 255 255 255 255 255 255 241 241 241
238 238 238 222 222 222 236 236 236 232 232 232 232 232 232
240 240 240 251 251 251 253 253 253 244 244 244 233 233 233
248 248 248 238 238 238 240 240 240 232 232 232 247 247 247
239 239 239 241 241 241 231 231 231 241 241 241 236 236 236
231 231 231 233 233 233 239 239 239 244 244 244 243 243 243
241 241 241 255 255 255 239 239 239 236 236 236 220 220 220
220 220 220 236 236 236 239 239 239 255 255 255 240 240 240
255 255 255 243 243 243 238 238 238 236 236 236 223 223 223
235 235 235 247 247 247 231 231 231 233 233 233 237 237 237
240 240 240 242 242 242
